vladlanda/robotic-transformer/data/env_000_episode_0288.csv
sim_time_s,robot_box_x,robot_box_y,robot_box_z,robot_box_quat_w,robot_box_quat_x,robot_box_quat_y,robot_box_quat_z,robot_box_linvel_x,robot_box_linvel_y,robot_box_linvel_z,robot_box_angvel_x,robot_box_angvel_y,robot_box_angvel_z,cube_world_x,cube_world_y,cube_world_z,cube_quat_w,cube_quat_x,cube_quat_y,cube_quat_z,cube_linvel_x,cube_linvel_y,cube_linvel_z,cube_angvel_x,cube_angvel_y,cube_angvel_z,endpoint_world_x,endpoint_world_y,endpoint_world_z,endpoint_linvel_x,endpoint_linvel_y,endpoint_linvel_z,target_cube_world_x,target_cube_world_y,target_cube_world_z,gripper_actual_pos_rad_gp_leftgearjoint,gripper_actual_vel_rad_s_gp_leftgearjoint,gripper_actual_pos_rad_gp_rotatingjoint,gripper_actual_vel_rad_s_gp_rotatingjoint,motor_angle_rad_joint1,motor_angle_rad_joint2,motor_angle_rad_joint3,motor_angle_rad_joint4,motor_speed_rad_s_joint1,motor_speed_rad_s_joint2,motor_speed_rad_s_joint3,motor_speed_rad_s_joint4
0.0,0.0,0.0,0.0,1.0,0.0,0.0,0.0,0.0,0.0,0.0,0.0,0.0,0.0,-0.3781227171421051,0.7208811640739441,0.41999998688697815,1.0,0.0,0.0,0.0,0.0,0.0,0.0,0.0,0.0,0.0,3.42540442943573e-06,-0.005000244826078415,1.313499927520752,0.0,0.0,0.0,0.3237192928791046,0.7075974941253662,0.42000001668930054,-1.5707999467849731,0.0,0.0,0.0,0.0,0.0,0.0,0.0,0.0,0.0,0.0,0.0
0.016666666666666666,0.0028785374015569687,0.0021799278911203146,0.0,0.999809741973877,0.0,0.0,0.01950516737997532,0.24089238047599792,0.18238073587417603,0.0,0.0,0.0,3.141852855682373,-0.37812283635139465,0.7208808660507202,0.41999998688697815,1.0,3.279964630564791e-06,-8.339746386809566e-07,8.465587342243452e-08,-1.9833529222523794e-05,0.00017983045836444944,-6.132945418357849e-05,0.0009432713268324733,-0.004689474124461412,-0.00031981561915017664,-0.0071104951202869415,0.003382152644917369,1.3159375190734863,-0.8142645359039307,0.9869477152824402,0.18095389008522034,0.3237192928791046,0.7075974941253662,0.42000001668930054,-1.5301095247268677,3.000001907348633,-0.04584810510277748,-3.0000011920928955,0.0008698366582393646,0.0007963957614265382,0.000711053260602057,0.0006109046516939998,0.11093360185623169,0.09757453948259354,0.08334972709417343,0.06824471056461334
0.03333333333333333,0.008961765095591545,0.00680079311132431,0.0,0.9997976422309875,0.0,0.0,0.020115181803703308,0.407028466463089,0.3152805268764496,0.0,0.0,0.0,-0.8691272139549255,-0.3781229555606842,0.7208808064460754,0.4200000464916229,1.0,3.3908179375430336e-06,-2.132458348569344e-06,-3.7097745320124886e-08,0.00026357852038927376,0.00026937833172269166,-0.00010509369894862175,-0.0017707126680761576,0.004130884539335966,-0.0001354814594378695,-0.027550749480724335,0.02624526061117649,1.3165897130966187,-1.5911283493041992,1.6164172887802124,-0.08591576665639877,0.3237192928791046,0.7075974941253662,0.42000001668930054,-1.4800902605056763,3.000002145767212,-0.0958879292011261,-3.0,0.0029905112460255623,0.002652699826285243,0.002277272054925561,0.0018607238307595253,0.16419291496276855,0.13975116610527039,0.11381001025438309,0.08629211038351059
0.05,0.018471011891961098,0.01390014123171568,0.0,0.9999775886535645,0.0,0.0,-0.006693476345390081,0.636264979839325,0.47227704524993896,0.0,0.0,0.0,-4.074241638183594,-0.3781229853630066,0.7208808660507202,0.4200000464916229,1.0,3.7651902857760433e-06,-2.2119197637948673e-06,5.609367637049445e-09,0.00026530938339419663,0.00026691678795032203,-0.00010440615005791187,-0.0017243892652913928,0.004177466034889221,-0.00012949809024576098,-0.05711345747113228,0.05747136101126671,1.3119144439697266,-1.9440767765045166,2.0586745738983154,-0.4572448134422302,0.3237192928791046,0.7075974941253662,0.42000001668930054,-1.4300719499588013,3.0,-0.14592662453651428,-3.0000016689300537,0.006001788191497326,0.005158929619938135,0.004243800882250071,0.003252004273235798,0.20593704283237457,0.1652962863445282,0.12272747606039047,0.07816117256879807
0.06666666666666667,0.030777573585510254,0.023386413231492043,0.0,0.9998853206634521,0.0,0.0,-0.015145760960876942,0.7724454402923584,0.6160469055175781,0.0,0.0,0.0,-0.03960210829973221,-0.3781229853630066,0.7208808064460754,0.4200000464916229,0.9999999403953552,3.406832092878176e-06,-2.28558906201215e-06,4.300801492718165e-07,0.0002670248504728079,0.0002679176686797291,-0.0001043803058564663,-0.00174071139190346,0.00421183044090867,-0.00012850876373704523,-0.09258833527565002,0.09081194549798965,1.3018131256103516,-2.1776137351989746,2.111060857772827,-0.7444758415222168,0.3237192928791046,0.7075974941253662,0.42000001668930054,-1.3800435066223145,2.9999990463256836,-0.136246457695961,3.000000476837158,0.008501582778990269,0.006871314253658056,0.005128262564539909,0.003266909858211875,0.12580423057079315,0.06799238920211792,0.008001817390322685,-0.05420546978712082
0.08333333333333333,0.036808982491493225,0.03675420209765434,0.0,0.9992378950119019,0.0,0.0,-0.039033640176057816,0.22678452730178833,0.8754137754440308,0.0,0.0,0.0,-3.8107995986938477,-0.3781229853630066,0.7208808064460754,0.4200000464916229,0.9999999403953552,3.626166289905086e-06,-2.3353043161478126e-06,3.032100153177453e-07,0.00026614085072651505,0.0002668516826815903,-0.00010405341163277626,-0.001728349830955267,0.004196455702185631,-0.0001279077841900289,-0.1232403963804245,0.1300298571586609,1.2878600358963013,-1.5359797477722168,2.600846767425537,-0.8595209121704102,0.3237192928791046,0.7075974941253662,0.42000001668930054,-1.3300402164459229,3.0000009536743164,-0.16813373565673828,-3.0,0.004257130902260542,0.001790156471543014,-0.0008442827966064215,-0.0036550667136907578,-0.38502973318099976,-0.44955378770828247,-0.5168740749359131,-0.5872032046318054
0.1,0.04667118564248085,0.05170276761054993,0.0,0.9959027767181396,0.0,0.0,-0.09043021500110626,0.7373806834220886,0.903874397277832,0.0,0.0,0.0,-6.968676567077637,-0.3781229853630066,0.7208808064460754,0.4200000464916229,1.0,3.4222334761579987e-06,-2.3086047349352157e-06,1.796183539681806e-07,0.0002668157103471458,0.00026800340856425464,-0.00010440708138048649,-0.0017429988365620375,0.004207124002277851,-0.00012891183723695576,-0.1508619487285614,0.17554229497909546,1.2730473279953003,-1.7674630880355835,2.884589672088623,-0.9729288816452026,0.3237192928791046,0.7075974941253662,0.42000001668930054,-1.280024766921997,3.000002145767212,-0.16786517202854156,2.554994583129883,0.002306465758010745,-0.0017497679218649864,-0.005977681837975979,-0.010385987348854542,-0.026143357157707214,-0.12814892828464508,-0.22917309403419495,-0.3291384279727936
0.11666666666666667,0.055191054940223694,0.06375627219676971,0.0,0.9925054907798767,0.0,0.0,-0.12219998985528946,0.5388736128807068,0.6853970885276794,0.0,0.0,0.0,-2.5806896686553955,-0.3781229853630066,0.7208808660507202,0.4200000464916229,1.0,3.711570343511994e-06,-2.332746134925401e-06,2.5742929210537113e-07,0.0002648576919455081,0.0002663539198692888,-0.00010423408821225166,-0.0017182708252221346,0.004170178435742855,-0.0001291575754294172,-0.1838754117488861,0.2208099663257599,1.2551476955413818,-1.9386191368103027,2.9213433265686035,-1.0867326259613037,0.3237192928791046,0.7075974941253662,0.42000001668930054,-1.2300347089767456,2.999999523162842,-0.20211763679981232,-3.0,-0.00033217674354091287,-0.005998216103762388,-0.011810438707470894,-0.017777107656002045,-0.07207238674163818,-0.18765246868133545,-0.29994997382164,-0.4087846577167511
0.13333333333333333,0.06153110787272453,0.07312285900115967,0.0,0.9865172505378723,0.0,0.0,-0.1636572778224945,0.32852327823638916,0.48027846217155457,0.0,0.0,0.0,-5.802188873291016,-0.3781229853630066,0.7208808064460754,0.4200000464916229,1.0,3.335774863444385e-06,-2.2319691197481006e-06,3.1131583000387764e-07,0.0002666965883690864,0.0002675943251233548,-0.00010428344830870628,-0.0017370636342093349,0.004205815959721804,-0.0001284035388380289,-0.21431508660316467,0.2751733064651489,1.2332642078399658,-1.662649393081665,3.653660774230957,-1.5075141191482544,0.3237192928791046,0.7075974941253662,0.42000001668930054,-1.1800191402435303,2.999995231628418,-0.1683104932308197,3.0000007152557373,-0.0030222642235457897,-0.010506944730877876,-0.018074331805109978,-0.025730617344379425,-0.21199670433998108,-0.3140799105167389,-0.4120914340019226,-0.5059133768081665
0.15,0.06402088701725006,0.08313724398612976,0.0,0.9798054099082947,0.0,0.0,-0.19995346665382385,0.07880156487226486,0.6475120186805725,0.0,0.0,0.0,-3.8241419792175293,-0.3781229853630066,0.7208808064460754,0.4200000464916229,1.0,3.51896619577019e-06,-2.2831691239844076e-06,-3.625396516326873e-07,0.00026618328411132097,0.00026735622668638825,-0.00010425481013953686,-0.0017348447581753135,0.004195693414658308,-0.0001286104234168306,-0.24732960760593414,0.3340538740158081,1.202675461769104,-2.0229063034057617,3.633082628250122,-2.1635491847991943,0.3237192928791046,0.7075974941253662,0.42000001668930054,-1.1483412981033325,0.9539309740066528,-0.1999739408493042,-3.0000016689300537,-0.008017543703317642,-0.016901856288313866,-0.02578992024064064,-0.03468697518110275,-0.3657892644405365,-0.4287826716899872,-0.48722612857818604,-0.5411609411239624
0.16666666666666666,0.0693989172577858,0.0949900895357132,0.0,0.9677099585533142,0.0,0.0,-0.2520662844181061,0.3297673165798187,0.7895294427871704,0.0,0.0,0.0,-7.296963214874268,-0.3781229853630066,0.7208808064460754,0.4200000464916229,1.0,3.6666901905846316e-06,-2.339151933483663e-06,-3.150083500713663e-07,0.00026595874805934727,0.0002666740329004824,-0.00010403385385870934,-0.001725255511701107,0.004192718770354986,-0.0001277866685995832,-0.28083470463752747,0.3999451994895935,1.160696268081665,-1.819584846496582,4.267856597900391,-2.893949508666992,0.3237192928791046,0.7075974941253662,0.42000001668930054,-1.1045831441879272,3.000004529953003,-0.24998708069324493,-3.0,-0.014282007701694965,-0.0239870585501194,-0.03362853080034256,-0.04321417957544327,-0.5523796677589417,-0.5677781701087952,-0.5808467864990234,-0.5918854475021362
0.18333333333333332,0.07231210172176361,0.10497794300317764,0.0,0.958544909954071,0.0,0.0,-0.2849414646625519,0.13514550030231476,0.5311040282249451,0.0,0.0,0.0,-2.959195613861084,-0.3781229853630066,0.7208808064460754,0.4200000464916229,1.0,3.814420779235661e-06,-2.399499635430402e-06,-2.7027235205423494e-07,0.00026548944879323244,0.0002661115431692451,-0.00010391324758529663,-0.0017178029520437121,0.004184751771390438,-0.00012753890769090503,-0.31418347358703613,0.4671013355255127,1.1040592193603516,-1.7327862977981567,4.202637195587158,-3.8236231803894043,0.3237192928791046,0.7075974941253662,0.42000001668930054,-1.0559552907943726,2.8110361099243164,-0.3000144064426422,-3.000000238418579,-0.02540719136595726,-0.03485630080103874,-0.044218432158231735,-0.053511593490839005,-0.7088422179222107,-0.6787184476852417,-0.6476461887359619,-0.6162909269332886
0.2,0.071418896317482,0.11609406024217606,0.0,0.9448012709617615,0.0,0.0,-0.327644020318985,-0.13634714484214783,0.7069836854934692,0.0,0.0,0.0,-6.171627521514893,-0.3781229853630066,0.7208808064460754,0.4200000464916229,1.0,3.600102218115353e-06,-2.29119359573815e-06,-2.2019156631358783e-07,0.0002657294971868396,0.00026644946774467826,-0.00010398216545581818,-0.0017227602656930685,0.004188841208815575,-0.00012773591151926666,-0.34099945425987244,0.5374542474746704,1.0339341163635254,-1.2920001745224,4.278258323669434,-4.518682479858398,0.3237192928791046,0.7075974941253662,0.42000001668930054,-1.0060131549835205,3.0000016689300537,-0.35003939270973206,-3.0,-0.03978678584098816,-0.04853431507945061,-0.05717816203832626,-0.06574945896863937,-0.9097993969917297,-0.8646983504295349,-0.8185158371925354,-0.7719709873199463
0.21666666666666667,0.07436943799257278,0.12321838736534119,0.0,0.9360436201095581,0.0,0.0,-0.35188400745391846,0.19009599089622498,0.33216291666030884,0.0,0.0,0.0,-1.7894681692123413,-0.3781229853630066,0.7208808064460754,0.4200000464916229,0.9999999403953552,3.639728220150573e-06,-2.261914687551325e-06,2.2246757680477458e-07,0.0002668741799425334,0.0002675442083273083,-0.00010411837138235569,-0.0017403532983735204,0.004211121238768101,-0.00012784327554982156,-0.3642471432685852,0.6020600199699402,0.9524914026260376,-1.1037617921829224,3.693281650543213,-5.277433395385742,0.3237192928791046,0.7075974941253662,0.42000001668930054,-0.9560080170631409,2.9999985694885254,-0.4000667929649353,-3.0000009536743164,-0.05311363935470581,-0.06086999177932739,-0.0685330480337143,-0.0761481449007988,-0.9720602035522461,-0.8763660788536072,-0.7836744785308838,-0.6949746012687683
0.23333333333333334,0.07166305929422379,0.1337379366159439,0.0,0.9220643639564514,0.0,0.0,-0.3870365619659424,-0.17540016770362854,0.6242886185646057,0.0,0.0,0.0,-5.170345783233643,-0.3781229555606842,0.7208808064460754,0.4200000464916229,1.0,3.4208205761387944e-06,-2.31679678108776e-06,2.9558265168816433e-07,0.0002668011875357479,0.00026803891523741186,-0.00010442500934004784,-0.0017436320194974542,0.004206853918731213,-0.00012899722787551582,-0.37830978631973267,0.6552135944366455,0.8556987047195435,-0.5441774129867554,2.864215850830078,-6.038501739501953,0.3237192928791046,0.7075974941253662,0.42000001668930054,-0.9059975743293762,3.0000011920928955,-0.45009636878967285,-3.0,-0.06937704980373383,-0.07707466930150986,-0.08473532646894455,-0.09232230484485626,-0.7060275673866272,-0.752048909664154,-0.7967188358306885,-0.8376327753067017
0.25,0.07379790395498276,0.1387253701686859,0.0,0.9152019023895264,0.0,0.0,-0.40299567580223083,0.12840275466442108,0.23861226439476013,0.0,0.0,0.0,-0.7891982793807983,-0.3781229853630066,0.7208808064460754,0.4200000464916229,0.9999999403953552,3.3476744647487067e-06,-2.2591534616367426e-06,1.8083225938880787e-07,0.0002668770612217486,0.00026791077107191086,-0.00010439194738864899,-0.0017404238460585475,0.004208190366625786,-0.00012870175123680383,-0.3897194266319275,0.6935001611709595,0.7539816498756409,-0.463309109210968,1.7853431701660156,-6.2310638427734375,0.3237192928791046,0.7075974941253662,0.42000001668930054,-0.8559869527816772,2.9999985694885254,-0.5001270771026611,-2.999997615814209,-0.08035579323768616,-0.08827504515647888,-0.09617824852466583,-0.10400177538394928,-0.9168866872787476,-0.873698353767395,-0.8346646428108215,-0.7991210222244263
0.26666666666666666,0.07056917250156403,0.14809085428714752,0.0,0.9184172749519348,0.0,0.0,-0.39561307430267334,-0.1751812994480133,0.5112358927726746,0.0,0.0,0.0,1.6939105987548828,-0.3781229853630066,0.7208808064460754,0.4200000464916229,0.9999999403953552,3.5357529668544885e-06,-2.3003142359812045e-06,-1.2686169270637038e-07,0.00026601762510836124,0.0002671225811354816,-0.00010419590398669243,-0.0017317383317276835,0.004192912019789219,-0.0001284929021494463,-0.39777272939682007,0.7103424072265625,0.6534858345985413,-0.4268192648887634,0.4265822172164917,-5.7409467697143555,0.3237192928791046,0.7075974941253662,0.42000001668930054,-0.8059777021408081,2.999976634979248,-0.5501573085784912,-2.99999737739563,-0.09737440198659897,-0.1051592230796814,-0.11299816519021988,-0.12078297138214111,-0.682839035987854,-0.7483596801757812,-0.809856653213501,-0.8652656078338623
0.2833333333333333,0.07205374538898468,0.15157026052474976,0.0,0.915614128112793,0.0,0.0,-0.4020581543445587,0.10551470518112183,0.16646234691143036,0.0,0.0,0.0,-1.4309066534042358,-0.3781229853630066,0.7208808660507202,0.4200000464916229,1.0,3.5935311188950436e-06,-2.2625688416155754e-06,-5.654767321061627e-08,0.00026704734773375094,0.0002677497686818242,-0.00010416633449494839,-0.0017430580919608474,0.004214033950120211,-0.00012789166066795588,-0.40195056796073914,0.720268726348877,0.5576821565628052,-0.030661292374134064,0.4616321623325348,-5.581174850463867,0.3237192928791046,0.7075974941253662,0.42000001668930054,-0.7559689283370972,3.0,-0.6001867055892944,-3.000002145767212,-0.10942040383815765,-0.11805371940135956,-0.12669502198696136,-0.1352114975452423,-1.0048019886016846,-1.00361967086792,-1.002719521522522,-1.0020053386688232
0.3,0.070091113448143,0.15244917571544647,0.0,0.9195258021354675,0.0,0.0,-0.3930296003818512,-0.2007419914007187,0.022455379366874695,0.0,0.0,0.0,2.0131683349609375,-0.3781229555606842,0.7208808064460754,0.4200000464916229,0.9999999403953552,3.725058377312962e-06,-2.236010232081753e-06,3.828667161087651e-07,0.0002647990477271378,0.00026672965032048523,-0.00010453816503286362,-0.001718871295452118,0.0041667441837489605,-0.00013016721641179174,-0.39854300022125244,0.7256473898887634,0.46919918060302734,0.48615533113479614,0.16276761889457703,-5.051435470581055,0.3237192928791046,0.7075974941253662,0.42000001668930054,-0.7059610486030579,3.0000016689300537,-0.6502141356468201,-2.9999985694885254,-0.12719200551509857,-0.1355578899383545,-0.14399974048137665,-0.15236051380634308,-1.010216474533081,-1.0077412128448486,-1.0058512687683105,-1.004336953163147
0.31666666666666665,0.06396369636058807,0.15154512226581573,0.0,0.9169239401817322,0.0,0.0,-0.39906203746795654,-0.44118908047676086,-0.08583468943834305,0.0,0.0,0.0,-1.6687796115875244,-0.3781229853630066,0.7208808064460754,0.4200000464916229,0.9999999403953552,3.5577622838900425e-06,-2.278828333146521e-06,2.2834259993942396e-07,0.00026598581462167203,0.00026658587739802897,-0.00010399054735898972,-0.001724128145724535,0.004193477798253298,-0.00012769171735271811,-0.3933575749397278,0.7273343801498413,0.42679446935653687,0.06529504805803299,-0.01515255868434906,-0.21070730686187744,0.3237192928791046,0.7075974941253662,0.42000001668930054,-0.6559562087059021,3.0000009536743164,-0.7006304860115051,-2.9997057914733887,-0.14222471415996552,-0.1499727964401245,-0.1576787680387497,-0.16515105962753296,-0.7976467609405518,-0.7180673480033875,-0.6223773956298828,-0.5083937644958496
0.3333333333333333,0.05706105753779411,0.14755642414093018,0.0,0.9205049872398376,0.0,0.0,-0.3907307982444763,-0.4548599123954773,-0.2813637852668762,0.0,0.0,0.0,1.9458056688308716,-0.37728041410446167,0.7234755754470825,0.42000001668930054,0.9992216229438782,7.899654519860633e-06,4.3882894829039287e-07,-0.03944778814911842,0.07150362432003021,0.20467814803123474,-0.0001782323670340702,-0.009967577643692493,0.01206003688275814,-5.614536285400391,-0.3919437825679779,0.7316909432411194,0.4232795238494873,0.25027716159820557,0.21455958485603333,-0.24008320271968842,0.3237192928791046,0.7075974941253662,0.42000001668930054,-0.6059503555297852,3.0000009536743164,-0.7506850361824036,-2.999997854232788,-0.15366911888122559,-0.15985074639320374,-0.16565999388694763,-0.1708899587392807,-0.6961943507194519,-0.5698263645172119,-0.42382901906967163,-0.2586733102798462
0.35,0.04793749004602432,0.1412442922592163,0.0,0.91767418384552,0.0,0.0,-0.39733371138572693,-0.5905457735061646,-0.4181782603263855,0.0,0.0,0.0,-1.7909550666809082,-0.3744853436946869,0.7286161780357361,0.4200003743171692,0.9948885440826416,-1.5548475857940502e-05,1.3546047739509959e-05,-0.10097874701023102,0.23025813698768616,0.37374117970466614,0.0021889139898121357,0.09403271973133087,0.19212427735328674,-9.12275218963623,-0.38630586862564087,0.7357461452484131,0.4199967086315155,0.4446942210197449,0.4204636216163635,-0.14643064141273499,0.3237192928791046,0.7075974941253662,0.42000001668930054,-0.5559454560279846,3.000002861022949,-0.8007463216781616,-2.9713785648345947,-0.16533493995666504,-0.16930285096168518,-0.1725635528564453,-0.1749338060617447,-0.640086829662323,-0.5099613666534424,-0.36103326082229614,-0.19523930549621582
0.36666666666666664,0.036706164479255676,0.13268525898456573,0.0,0.9211321473121643,0.0,0.0,-0.3892500698566437,-0.7139006853103638,-0.5523252487182617,0.0,0.0,0.0,1.9706772565841675,-0.36882826685905457,0.7374476790428162,0.42031484842300415,0.9857007265090942,-0.00738103874027729,0.0014465729473158717,-0.16833698749542236,0.5166273713111877,0.7318218946456909,0.044412434101104736,-2.3043901920318604,0.5905827283859253,-6.05075740814209,-0.37950998544692993,0.7447147369384766,0.4216011166572571,0.5437906384468079,0.6823864579200745,-0.01667829230427742,0.3237192928791046,0.7075974941253662,0.42000001668930054,-0.5059396624565125,2.999985933303833,-0.8507703542709351,-2.9999148845672607,-0.1759135127067566,-0.17723719775676727,-0.1775209903717041,-0.1766405552625656,-0.5899179577827454,-0.4237917959690094,-0.2381633073091507,-0.03729353845119476
0.3833333333333333,0.027003413066267967,0.12168973684310913,0.0,0.9183944463729858,0.0,0.0,-0.39566612243652344,-0.4957040548324585,-0.7068940997123718,0.0,0.0,0.0,-1.7503564357757568,-0.35909512639045715,0.750620424747467,0.4200141727924347,0.9777331948280334,-0.0002318127080798149,0.0002125312021235004,-0.20985166728496552,0.5810092687606812,0.7827287316322327,-0.020371947437524796,0.9726311564445496,-0.3974575102329254,-5.239644527435303,-0.3674028813838959,0.7555681467056274,0.4205740690231323,0.8278399109840393,0.5973674654960632,0.10657109320163727,0.3237192928791046,0.7075974941253662,0.42000001668930054,-0.4558907449245453,2.9999568462371826,-0.900779128074646,-2.999976396560669,-0.18583406507968903,-0.18403764069080353,-0.18084658682346344,-0.17623309791088104,-0.524778425693512,-0.33445486426353455,-0.12132813036441803,0.10806115716695786
0.4,0.01590057648718357,0.10883739590644836,0.0,0.9031998515129089,0.0,0.0,-0.4292202591896057,-0.6899914741516113,-0.8214428424835205,0.0,0.0,0.0,-5.327157020568848,-0.34390056133270264,0.7657800316810608,0.42196160554885864,0.9692172408103943,-0.029357172548770905,0.00018853838264476508,-0.24445031583309174,1.3670589923858643,1.2680615186691284,0.2661793828010559,8.907820701599121,23.741043090820312,-17.00461196899414,-0.3487919270992279,0.7699476480484009,0.42281433939933777,1.413974642753601,1.0330696105957031,0.09991684556007385,0.3237192928791046,0.7075974941253662,0.42000001668930054,-0.40672847628593445,2.568671703338623,-0.950794517993927,-2.995558023452759,-0.1946345418691635,-0.18966500461101532,-0.18288004398345947,-0.17437361180782318,-0.39964765310287476,-0.23600925505161285,-0.046785179525613785,0.16103503108024597
0.4166666666666667,0.007593399379402399,0.09304655343294144,0.0,0.8740997910499573,0.0,0.0,-0.4857464134693146,-0.43143412470817566,-1.0007390975952148,0.0,0.0,0.0,-8.435111045837402,-0.31035250425338745,0.7877628803253174,0.4270365238189697,0.9500837922096252,-0.04274061322212219,-0.02090158686041832,-0.3083455264568329,2.961759328842163,1.3899145126342773,0.33885622024536133,14.525737762451172,-2.5158698558807373,10.273632049560547,-0.3142324686050415,0.79280686378479,0.4268626570701599,2.7771787643432617,1.7576799392700195,0.5365123748779297,0.3237192928791046,0.7075974941253662,0.42000001668930054,-0.3791263997554779,1.404927134513855,-1.0008033514022827,-3.0000030994415283,-0.20216265320777893,-0.19429002702236176,-0.18423493206501007,-0.17222300171852112,-0.4642944037914276,-0.28192317485809326,-0.08208426833152771,0.1269107460975647
0.43333333333333335,0.0022157153580337763,0.08137747645378113,0.0,0.8283162117004395,0.0,0.0,-0.5602608323097229,-0.24545690417289734,-0.6865032315254211,0.0,0.0,0.0,-11.149312019348145,-0.23900610208511353,0.8209065794944763,0.4342719614505768,0.9271693825721741,0.010106331668794155,-0.05900066718459129,-0.36982911825180054,5.69636869430542,1.9246705770492554,0.486751914024353,15.421466827392578,-13.577156066894531,19.5846004486084,-0.2425735592842102,0.8262591361999512,0.4339088201522827,5.3630170822143555,2.4380507469177246,0.5171882510185242,0.3237192928791046,0.7075974941253662,0.42000001668930054,-0.361467182636261,0.7918134331703186,-0.9633551239967346,2.9974048137664795,-0.21452340483665466,-0.2030203938484192,-0.18885809183120728,-0.172925665974617,-0.5554192066192627,-0.4252774119377136,-0.23472534120082855,-0.06043791398406029
0.45,-0.0031464779749512672,0.07385526597499847,0.0,0.7912588119506836,0.0,0.0,-0.6114813685417175,-0.26325109601020813,-0.41401809453964233,0.0,0.0,0.0,-6.319833755493164,-0.15190303325653076,0.8552202582359314,0.4452778398990631,0.8920040726661682,0.07969833165407181,-0.09346304088830948,-0.4350188970565796,5.484332084655762,1.205032229423523,0.7570362091064453,13.13795280456543,-18.231962203979492,19.943193435668945,-0.15466836094856262,0.8611869215965271,0.44504719972610474,5.351179122924805,1.794236183166504,0.7793797850608826,0.3237192928791046,0.7075974941253662,0.42000001668930054,-0.3492715358734131,0.7006652355194092,-0.9156423807144165,2.7794549465179443,-0.225702166557312,-0.2117832601070404,-0.19462232291698456,-0.17614173889160156,-0.5438598394393921,-0.4361635148525238,-0.3058493733406067,-0.20270833373069763
0.4666666666666667,-0.009177538566291332,0.062118712812662125,0.0,0.774528443813324,0.0,0.0,-0.6325390338897705,-0.3729577660560608,-0.6544380187988281,0.0,0.0,0.0,-2.142896890640259,-0.06277972459793091,0.8742185831069946,0.4591394364833832,0.835840106010437,0.0955984815955162,-0.08938408643007278,-0.5331442356109619,5.2929253578186035,-0.23288938403129578,1.0009232759475708,1.769418716430664,7.254408359527588,6.904853343963623,-0.066382996737957,0.8810844421386719,0.4578155279159546,5.38601541519165,0.47054964303970337,0.8670661449432373,0.3237192928791046,0.7075974941253662,0.42000001668930054,-0.3365629017353058,0.7513028979301453,-0.9425919651985168,-3.000000238418579,-0.23281481862068176,-0.21657754480838776,-0.19685311615467072,-0.1762419193983078,-0.6391222476959229,-0.419193297624588,-0.19624365866184235,-0.004520723130553961
0.48333333333333334,-0.013323962688446045,0.054979901760816574,0.0,0.7492392659187317,0.0,0.0,-0.6622994542121887,-0.19155222177505493,-0.41534578800201416,0.0,0.0,0.0,-5.447122097015381,0.02269492670893669,0.8715505003929138,0.46993106603622437,0.7842985987663269,0.10198444128036499,-0.06231986731290817,-0.6087619662284851,4.889950752258301,-1.3750618696212769,0.4357972741127014,-2.1412901878356934,-10.909241676330566,22.768585205078125,0.019502367824316025,0.8798463344573975,0.46855974197387695,5.117879390716553,-0.5052147507667542,0.5897119045257568,0.3237192928791046,0.7075974941253662,0.42000001668930054,-0.32369720935821533,0.6530005931854248,-0.9926159977912903,-3.000002145767212,-0.2400447577238083,-0.22435717284679413,-0.20083947479724884,-0.17687265574932098,-0.04113621637225151,-0.35796090960502625,-0.15943844616413116,0.021768229082226753
0.5,-0.013838594779372215,0.04541456326842308,0.0,0.7370185256004333,0.0,0.0,-0.6758725047111511,0.029320308938622475,-0.5857754349708557,0.0,0.0,0.0,-1.082138180732727,0.10088901966810226,0.8574065566062927,0.4754800796508789,0.7455474138259888,0.07982533425092697,-0.04587457701563835,-0.6600623726844788,4.291484832763672,-1.9592536687850952,0.04273518919944763,-8.426889419555664,-6.683300971984863,16.30354118347168,0.09915688633918762,0.8651900291442871,0.474413126707077,4.581297874450684,-1.2601476907730103,0.3103870451450348,0.3237192928791046,0.7075974941253662,0.42000001668930054,-0.31344687938690186,0.5389249920845032,-1.0426385402679443,-3.000002145767212,-0.23994940519332886,-0.2286708652973175,-0.2022680938243866,-0.1758333444595337,-0.02384675107896328,-0.22157204151153564,-0.07156003266572952,0.048252250999212265
0.5166666666666666,-0.015634961426258087,0.03979695588350296,0.0,0.7171580195426941,0.0,0.0,-0.6969106197357178,-0.15513376891613007,-0.284950315952301,0.0,0.0,0.0,-4.272772789001465,0.1693097949028015,0.8331606984138489,0.47341302037239075,0.699744462966919,0.03930412977933884,-0.04494113475084305,-0.7118940353393555,3.586214065551758,-2.043999433517456,-0.3321053981781006,-6.073720455169678,-5.57498025894165,12.298334121704102,0.16749690473079681,0.8409980535507202,0.47410500049591064,3.7862467765808105,-1.6078388690948486,-0.16105051338672638,0.3237192928791046,0.7075974941253662,0.42000001668930054,-0.30218827724456787,0.7089622020721436,-1.092660665512085,-3.0000011920928955,-0.23936381936073303,-0.23181575536727905,-0.20400194823741913,-0.17657238245010376,0.10525688529014587,-0.038576848804950714,-0.02511032298207283,-0.03090776689350605
0.5333333333333333,-0.015980657190084457,0.037979450076818466,0.0,0.7111292481422424,0.0,0.0,-0.7030612826347351,0.003935566172003746,-0.00468849204480648,0.0,0.0,0.0,-0.0013131260639056563,0.2239280343055725,0.8049497008323669,0.46579691767692566,0.6543228626251221,-0.021708069369196892,-0.04878848418593407,-0.7543274760246277,2.552388906478882,-2.242910146713257,-0.5568580031394958,-5.950144290924072,0.15471062064170837,12.704127311706543,0.22231237590312958,0.8124910593032837,0.46847862005233765,2.8962745666503906,-1.8080952167510986,-0.4155416190624237,0.3237192928791046,0.7075974941253662,0.42000001668930054,-0.2882607579231262,0.8300985097885132,-1.1426827907562256,-2.999999761581421,-0.23663942515850067,-0.23122748732566833,-0.20409713685512543,-0.17758716642856598,0.22102296352386475,0.1065485030412674,0.0179421529173851,-0.08163260668516159
0.55,-0.012492304667830467,0.03111870400607586,0.0,0.6949458718299866,0.0,0.0,-0.719062089920044,0.2671516239643097,-0.5007089376449585,0.0,0.0,0.0,-3.7041497230529785,0.2677375078201294,0.7781082391738892,0.4512932300567627,0.6136893630027771,-0.08545844256877899,-0.046423450112342834,-0.7835349440574646,2.0001323223114014,-1.999340295791626,-0.983637809753418,-5.653763771057129,3.3694007396698,17.411602020263672,0.26626014709472656,0.7856342792510986,0.4558837413787842,2.430992603302002,-1.6160959005355835,-0.9077956080436707,0.3237192928791046,0.7075974941253662,0.42000001668930054,-0.2734256982803345,0.7971922159194946,-1.1927049160003662,-2.9999678134918213,-0.2253362536430359,-0.2229221761226654,-0.1991337686777115,-0.17594055831432343,0.7284060716629028,0.5689241886138916,0.34171047806739807,0.11630862206220627
0.5666666666666667,-0.008082062005996704,0.028575681149959564,0.0,0.6913822889328003,0.0,0.0,-0.7224891185760498,0.29455530643463135,-0.05770111829042435,0.0,0.0,0.0,0.3167805075645447,0.3011278808116913,0.7525310516357422,0.4314247667789459,0.5791851878166199,-0.12216954678297043,-0.09980127215385437,-0.7997867465019226,1.7640894651412964,-1.3982009887695312,-1.2365258932113647,-5.743329048156738,-6.454106330871582,-7.184935569763184,0.29807835817337036,0.7583547830581665,0.4388102889060974,1.5552754402160645,-1.5891777276992798,-1.1081280708312988,0.3237192928791046,0.7075974941253662,0.42000001668930054,-0.25588616728782654,1.399826169013977,-1.1564677953720093,2.999999761581421,-0.2171289026737213,-0.21643616259098053,-0.19616253674030304,-0.17650307714939117,0.5088581442832947,0.40798598527908325,0.1706022024154663,-0.06538490206003189
0.5833333333333334,-0.0013759866124019027,0.023046759888529778,0.0,0.6776644587516785,0.0,0.0,-0.7353712320327759,0.49328356981277466,-0.31713947653770447,0.0,0.0,0.0,-2.9522931575775146,0.31847333908081055,0.737358033657074,0.42385944724082947,0.5862106680870056,-0.07580602914094925,-0.01921335607767105,-0.8063753247261047,0.5508673787117004,-0.7083767056465149,-0.13598968088626862,4.702812194824219,-4.2926225662231445,13.276603698730469,0.3162088990211487,0.740757167339325,0.4277244806289673,0.5439783930778503,-0.7050257921218872,0.07527121901512146,0.3237192928791046,0.7075974941253662,0.42000001668930054,-0.22921395301818848,1.5578835010528564,-1.1784205436706543,-3.000143051147461,-0.20557469129562378,-0.20710836350917816,-0.1915670931339264,-0.17645028233528137,0.5168074369430542,0.4244336187839508,0.16745130717754364,-0.07659713178873062
0.6,0.003918672911822796,0.020734794437885284,0.0,0.6774646043777466,0.0,0.0,-0.7355553507804871,0.24235092103481293,-0.10606642067432404,0.0,0.0,0.0,0.7819799184799194,0.3258269727230072,0.7251358032226562,0.42298272252082825,0.6002120971679688,-0.05576248839497566,-0.004786244127899408,-0.7978802919387817,0.36190205812454224,-0.7472729086875916,-0.014952764846384525,-0.006521107163280249,-0.5451927185058594,6.123105049133301,0.32299989461898804,0.7278512716293335,0.4268413484096527,0.27841851115226746,-0.6601510643959045,-0.0421762689948082,0.3237192928791046,0.7075974941253662,0.42000001668930054,-0.22056907415390015,0.16040483117103577,-1.1405482292175293,2.9996039867401123,-0.19823779165744781,-0.20102737843990326,-0.18961377441883087,-0.17837853729724884,0.4920639097690582,0.40828752517700195,0.14915746450424194,-0.09159494936466217
0.6166666666666667,0.005451558157801628,0.016174374148249626,0.0,0.667038083076477,0.0,0.0,-0.7450236082077026,0.0416351817548275,-0.36441856622695923,0.0,0.0,0.0,-2.4278323650360107,0.3278316557407379,0.7177361845970154,0.42297130823135376,0.6129846572875977,-0.05409550294280052,0.009480973705649376,-0.7881836891174316,-0.16815470159053802,-0.6654154062271118,0.03867692872881889,-5.894263744354248,-1.636425256729126,3.9259328842163086,0.3235998749732971,0.7199985980987549,0.4270491600036621,-0.1526280641555786,-0.34280925989151,0.0991630107164383,0.3237192928791046,0.7075974941253662,0.42000001668930054,-0.2346564382314682,-1.0617824792861938,-1.1626665592193604,-2.9960310459136963,-0.18947100639343262,-0.1935683637857437,-0.18635845184326172,-0.1789858043193817,0.43199872970581055,0.3865799307823181,0.16795742511749268,-0.03236512094736099
0.6333333333333333,0.008007383905351162,0.014361956156790257,0.0,0.6693153381347656,0.0,0.0,-0.7429784536361694,0.18526846170425415,-0.059296637773513794,0.0,0.0,0.0,1.1844298839569092,0.3251405954360962,0.7119293808937073,0.4236027002334595,0.62126225233078,-0.06651429831981659,0.007310397457331419,-0.7807403206825256,-0.11918222159147263,-0.1440747082233429,0.07888031005859375,-1.58328378200531,2.595463275909424,0.45072120428085327,0.32125142216682434,0.7157450318336487,0.42869773507118225,-0.09653955698013306,-0.11511024832725525,0.09271147847175598,0.3237192928791046,0.7075974941253662,0.42000001668930054,-0.2488611787557602,-0.6600089073181152,-1.2126295566558838,-2.9982492923736572,-0.18450228869915009,-0.1889611929655075,-0.18486449122428894,-0.18028880655765533,0.3372451663017273,0.30850863456726074,0.12439369410276413,-0.038561925292015076
0.65,0.012936968356370926,0.0091248182579875,0.0,0.6601589322090149,0.0,0.0,-0.7511259317398071,0.31979331374168396,-0.3367834985256195,0.0,0.0,0.0,-2.3679497241973877,0.3241910934448242,0.710536003112793,0.4234031140804291,0.621938169002533,-0.06216369569301605,0.011409970000386238,-0.7805115580558777,-0.10828788578510284,-0.12829037010669708,-0.04699479788541794,1.43816339969635,-1.3012174367904663,0.3213929831981659,0.3206440806388855,0.7158719897270203,0.4286612868309021,-0.11047573387622833,0.023800037801265717,-0.03937176987528801,0.3237192928791046,0.7075974941253662,0.42000001668930054,-0.28872010111808777,-2.9993603229522705,-1.1986629962921143,2.9998908042907715,-0.17608976364135742,-0.1814267784357071,-0.1805972158908844,-0.178903266787529,0.4426846206188202,0.4144771099090576,0.25031203031539917,0.10491470992565155
0.6666666666666666,0.02003294788300991,0.007382219657301903,0.0,0.6630876064300537,0.0,0.0,-0.7485417723655701,0.45872387290000916,-0.06541126221418381,0.0,0.0,0.0,1.314226746559143,0.32247239351272583,0.7086089253425598,0.42104053497314453,0.624715268611908,-0.01653357408940792,0.015756163746118546,-0.7805184721946716,-0.10256969928741455,-0.11096349358558655,-0.1731213480234146,4.696242332458496,-4.780450344085693,0.0720253735780716,0.3185364902019501,0.7169367074966431,0.43010413646698,-0.12225491553544998,0.1396675705909729,0.14306257665157318,0.3237192928791046,0.7075974941253662,0.42000001668930054,-0.33872538805007935,-2.9999520778656006,-1.2201062440872192,-2.9999356269836426,-0.17142628133296967,-0.17696499824523926,-0.17836636304855347,-0.1785902976989746,0.27913981676101685,0.2570798099040985,0.12680624425411224,0.016045432537794113
0.6833333333333333,0.025301922112703323,0.0018449305789545178,0.0,0.6822443008422852,0.0,0.0,-0.7311242818832397,0.24171707034111023,-0.3741413354873657,0.0,0.0,0.0,4.153873920440674,0.321001797914505,0.7082569599151611,0.4200000464916229,0.6239360570907593,-2.884711989281641e-07,-1.732710472879262e-07,-0.781475305557251,-0.04908913001418114,0.0051764450035989285,-1.2407137546688318e-05,0.0003634831518866122,-0.000284095061942935,-0.1502576321363449,0.31593263149261475,0.7171990871429443,0.4335710108280182,-0.23577575385570526,-0.1547202169895172,0.2658923268318176,0.3237192928791046,0.7075974941253662,0.42000001668930054,-0.3887178301811218,-2.9999539852142334,-1.2701027393341064,-2.9999539852142334,-0.16696609556674957,-0.17193089425563812,-0.17425909638404846,-0.17504824697971344,0.10769890248775482,0.2139725387096405,0.24431495368480682,0.29500892758369446
0.7,0.03126436844468117,-0.0050301882438361645,0.0,0.6887330412864685,0.0,0.0,-0.7250149846076965,0.39294129610061646,-0.4836895167827606,0.0,0.0,0.0,0.01790904998779297,0.32090461254119873,0.7082676291465759,0.419999897480011,0.623849093914032,3.2980483410938177e-06,-1.6667581803631037e-05,-0.7815448045730591,0.0008628464420326054,-0.001172259682789445,-0.0002886345610022545,0.027667054906487465,-0.0056252856738865376,-0.0028927887324243784,0.3142939805984497,0.715170681476593,0.43905961513519287,0.009648848325014114,-0.13721348345279694,0.4339402914047241,0.3237192928791046,0.7075974941253662,0.42000001668930054,-0.43873196840286255,-3.0000009536743164,-1.320121169090271,-3.000000476837158,-0.16678453981876373,-0.16967743635177612,-0.17096376419067383,-0.1703760325908661,0.011218993924558163,0.13859090209007263,0.2164956033229828,0.3140915632247925
0.7166666666666667,0.03933071717619896,-0.015174747444689274,0.0,0.6737933158874512,0.0,0.0,-0.7389198541641235,0.5233423113822937,-0.6850204467773438,0.0,0.0,0.0,-3.308912515640259,0.32090574502944946,0.7082669138908386,0.4200000464916229,0.6238481402397156,3.440497380324814e-07,-3.6454168821364874e-06,-0.7815455198287964,0.00016189808957278728,-0.00028977333568036556,-9.70219261944294e-05,0.006125540006905794,-0.0007504467503167689,-0.0005319833289831877,0.3179308772087097,0.7143350839614868,0.45363926887512207,0.4194536507129669,0.00564567930996418,1.4100083112716675,0.3237192928791046,0.7075974941253662,0.42000001668930054,-0.48874497413635254,-2.9999890327453613,-1.370139479637146,-2.999999761581421,-0.16848860681056976,-0.1691698431968689,-0.16889961063861847,-0.16647298634052277,-0.13864406943321228,-0.0070478664711117744,0.0936652347445488,0.20850634574890137
0.7333333333333333,0.05117855593562126,-0.02019498497247696,0.0,0.6367863416671753,0.0,0.0,-0.7710402607917786,0.6615168452262878,-0.3120318651199341,0.0,0.0,0.0,-6.634133815765381,0.32090574502944946,0.7082669138908386,0.4200000464916229,0.6238484382629395,5.783065830655687e-07,-3.907354766852222e-06,-0.7815452814102173,0.00017225173360202461,-0.00028199038933962584,-9.9988654255867e-05,0.005864492151886225,-0.0006087822839617729,-0.0005540771526284516,0.3350582718849182,0.7084319591522217,0.48261377215385437,1.6811749935150146,-0.4559610188007355,2.162609815597534,0.3237192928791046,0.7075974941253662,0.42000001668930054,-0.5387575626373291,-2.999997854232788,-1.420157790184021,-3.0000007152557373,-0.17826326191425323,-0.17543277144432068,-0.172114759683609,-0.16657103598117828,-0.4338674545288086,-0.2648506164550781,-0.11118985712528229,0.05007542297244072
0.75,0.059657152742147446,-0.023056453093886375,0.0,0.6148154139518738,0.0,0.0,-0.7886710166931152,0.4732401371002197,-0.18984201550483704,0.0,0.0,0.0,-2.150041341781616,0.32090574502944946,0.7082669138908386,0.4200000464916229,0.6238484382629395,5.609646791526757e-07,-3.7417446492327144e-06,-0.7815452814102173,0.00017304880020674318,-0.00028209597803652287,-0.00010014325380325317,0.005862324498593807,-0.0005988855846226215,-0.0005558615084737539,0.36259031295776367,0.7043509483337402,0.5201606154441833,1.6030001640319824,-0.05378076434135437,2.269312858581543,0.3237192928791046,0.7075974941253662,0.42000001668930054,-0.560081422328949,0.18308836221694946,-1.470176100730896,-3.0,-0.18392422795295715,-0.17919442057609558,-0.17419597506523132,-0.16693654656410217,-0.13662569224834442,-0.09938692301511765,-0.07092545181512833,-0.04178474470973015
0.7666666666666666,0.06436660140752792,-0.023873234167695045,0.0,0.6190488934516907,0.0,0.0,-0.7853524684906006,0.2175196260213852,-0.0017597191035747528,0.0,0.0,0.0,1.4640629291534424,0.32090574502944946,0.7082669734954834,0.4200000464916229,0.6238482594490051,4.591425977196195e-07,-3.3952962894545635e-06,-0.7815454006195068,0.00017110003682319075,-0.0002826425479725003,-9.964639320969582e-05,0.00588534539565444,-0.0006258342764340341,-0.0005515886005014181,0.3840405344963074,0.7035442590713501,0.5527923107147217,0.8890079259872437,-0.04074119031429291,1.6878091096878052,0.3237192928791046,0.7075974941253662,0.42000001668930054,-0.536422848701477,2.439342737197876,-1.4408327341079712,2.999999523162842,-0.1848880797624588,-0.17977304756641388,-0.1744782030582428,-0.1669679433107376,0.03375951573252678,0.041926007717847824,0.04614744335412979,0.043892305344343185
0.7833333333333333,0.06520010530948639,-0.021996358409523964,0.0,0.611911416053772,0.0,0.0,-0.7909263372421265,0.0050474125891923904,0.17385488748550415,0.0,0.0,0.0,-1.9820080995559692,0.32090574502944946,0.7082669138908386,0.4200000464916229,0.623848557472229,5.615736995423504e-07,-3.8589337236771826e-06,-0.7815451622009277,0.00017187115736305714,-0.000282237830106169,-9.984709322452545e-05,0.005872874055057764,-0.0006133394199423492,-0.0005532149807550013,0.39171576499938965,0.7034491300582886,0.5737568736076355,0.020304493606090546,-0.020074035972356796,1.0052196979522705,0.3237192928791046,0.7075974941253662,0.42000001668930054,-0.4884057641029358,2.999997615814209,-1.3907915353775024,3.000000238418579,-0.18293121457099915,-0.17816618084907532,-0.17321288585662842,-0.16615214943885803,0.16246415674686432,0.13270458579063416,0.10392247885465622,0.06545522809028625
0.8,0.06195305287837982,-0.024751173332333565,0.0,0.6171175837516785,0.0,0.0,-0.7868709564208984,-0.13197579979896545,-0.18504251539707184,0.0,0.0,0.0,1.444192886352539,0.32090574502944946,0.7082669138908386,0.4200000464916229,0.6238483786582947,6.507070793304592e-07,-3.335048859298695e-06,-0.7815452814102173,0.0001793737756088376,-0.00028143211966380477,-0.0001017481554299593,0.005813646130263805,-0.0005175223923288286,-0.0005695471190847456,0.388072669506073,0.7044371366500854,0.5878463983535767,-0.5135163068771362,-0.043012913316488266,0.6537477970123291,0.3237192928791046,0.7075974941253662,0.42000001668930054,-0.4399733543395996,2.790357828140259,-1.3407682180404663,3.0,-0.17549268901348114,-0.1716514527797699,-0.167573943734169,-0.16155607998371124,0.2730008363723755,0.26404452323913574,0.25456589460372925,0.22813014686107635
0.8166666666666667,0.05801352858543396,-0.022224929183721542,0.0,0.6089425086975098,0.0,0.0,-0.7932143807411194,-0.2626999318599701,0.18903431296348572,0.0,0.0,0.0,-2.1360909938812256,0.32090574502944946,0.7082669138908386,0.4200000464916229,0.623848557472229,4.961181048201979e-07,-3.6052101677341852e-06,-0.7815452814102173,0.0001728480274323374,-0.00028193433536216617,-0.00010017934255301952,0.0058592320419847965,-0.0006027823546901345,-0.0005554751260206103,0.37650352716445923,0.7031795978546143,0.595045804977417,-0.7447481155395508,-0.018163494765758514,0.3650902807712555,0.3237192928791046,0.7075974941253662,0.42000001668930054,-0.3995053470134735,2.095463991165161,-1.2907155752182007,3.0000007152557373,-0.1748565286397934,-0.17072182893753052,-0.16635118424892426,-0.1603529155254364,0.12347346544265747,0.11020399630069733,0.10201315581798553,0.07964006066322327
0.8333333333333334,0.056023187935352325,-0.022248070687055588,0.0,0.6136627197265625,0.0,0.0,-0.789568305015564,-0.056130070239305496,-0.04074035584926605,0.0,0.0,0.0,1.5203962326049805,0.32090574502944946,0.7082669138908386,0.4200000464916229,0.6238484978675842,5.783632559541729e-07,-3.863042820739793e-06,-0.7815452814102173,0.00017221859889104962,-0.00028190406737849116,-9.998609311878681e-05,0.005862206686288118,-0.0006092078983783722,-0.0005540049751289189,0.363836407661438,0.70448899269104,0.6006414294242859,-0.7839451432228088,0.08934705704450607,0.3337540626525879,0.3237192928791046,0.7075974941253662,0.42000001668930054,-0.3759802281856537,0.8193308115005493,-1.2406972646713257,3.0000009536743164,-0.17188800871372223,-0.16816528141498566,-0.16407416760921478,-0.1585526168346405,0.14022886753082275,0.12335570901632309,0.11363279074430466,0.09112194180488586
0.85,0.05354296788573265,-0.020745713263750076,0.0,0.607185423374176,0.0,0.0,-0.7945601940155029,-0.1979016363620758,0.15777981281280518,0.0,0.0,0.0,-1.837384819984436,0.32090574502944946,0.7082669138908386,0.4200000464916229,0.6238484978675842,6.563014949279022e-07,-3.7173242617427604e-06,-0.7815452814102173,0.00017716758884489536,-0.0002806320262607187,-0.00010131322778761387,0.005806399509310722,-0.0005430072778835893,-0.0005646547651849687,0.3563145399093628,0.7053666114807129,0.6028738021850586,-0.1704908311367035,-0.0006824946030974388,0.11697383224964142,0.3237192928791046,0.7075974941253662,0.42000001668930054,-0.39939072728157043,-2.9999942779541016,-1.1906471252441406,2.999999761581421,-0.16917236149311066,-0.1659819483757019,-0.16215276718139648,-0.15695181488990784,0.17065909504890442,0.14344289898872375,0.13615545630455017,0.12950517237186432
0.8666666666666667,0.053035590797662735,-0.021027950569987297,0.0,0.6130384206771851,0.0,0.0,-0.7900530695915222,0.025913411751389503,-0.07087858021259308,0.0,0.0,0.0,1.6900391578674316,0.32090574502944946,0.7082669138908386,0.4200000464916229,0.6238486170768738,5.706108368030982e-07,-3.810876023635501e-06,-0.7815451622009277,0.00017283856868743896,-0.00028192877653054893,-0.00010015745647251606,0.0058594197034835815,-0.0006020686123520136,-0.0005553976516239345,0.35505831241607666,0.704414963722229,0.6036453247070312,0.00888112187385559,-0.13422390818595886,0.015315733850002289,0.3237192928791046,0.7075974941253662,0.42000001668930054,-0.4318460524082184,-1.037471055984497,-1.2122515439987183,-3.000000476837158,-0.16696521639823914,-0.16370896995067596,-0.15954336524009705,-0.15405063331127167,0.10528508573770523,0.13059236109256744,0.16860035061836243,0.201240673661232
0.8833333333333333,0.05517350509762764,-0.023920241743326187,0.0,0.6069749593734741,0.0,0.0,-0.7947209477424622,0.17319518327713013,-0.23338738083839417,0.0,0.0,0.0,-1.7759592533111572,0.32090574502944946,0.7082669138908386,0.4200000464916229,0.6238484382629395,6.443299298553029e-07,-3.281495310147875e-06,-0.7815452814102173,0.00017926516011357307,-0.00028143086819909513,-0.00010172347538173199,0.005814025178551674,-0.0005190049996599555,-0.0005693156272172928,0.3604764938354492,0.6997799277305603,0.5998897552490234,0.6242374181747437,-0.39486145973205566,-0.26184287667274475,0.3237192928791046,0.7075974941253662,0.42000001668930054,-0.4720132052898407,-2.9999990463256836,-1.262262225151062,-3.000000238418579,-0.16654618084430695,-0.16249516606330872,-0.15728306770324707,-0.15078121423721313,0.0233289897441864,0.08407784253358841,0.16099509596824646,0.23785078525543213
0.9,0.06032229959964752,-0.024376025423407555,0.0,0.5804201364517212,0.0,0.0,-0.8143171668052673,0.3594728410243988,0.03287708759307861,0.0,0.0,0.0,-4.8231377601623535,0.32090574502944946,0.7082669138908386,0.4200000464916229,0.6238483190536499,4.967597533322987e-07,-3.655575937955291e-06,-0.7815454602241516,0.00017210867372341454,-0.00028203229885548353,-9.996001608669758e-05,0.005866001360118389,-0.0006110960384830832,-0.0005537951947189867,0.3733769357204437,0.6912642121315002,0.5942260026931763,0.9042023420333862,-0.5838099718093872,-0.24760256707668304,0.3237192928791046,0.7075974941253662,0.42000001668930054,-0.4980177879333496,-0.3306012749671936,-1.312282919883728,-3.0000007152557373,-0.16670706868171692,-0.1621031016111374,-0.15606899559497833,-0.1487167626619339,0.02915191277861595,0.039647992700338364,0.063807912170887,0.0892629325389862
0.9166666666666666,0.06315403431653976,-0.022464323788881302,0.0,0.5693674683570862,0.0,0.0,-0.8220831155776978,0.08636803925037384,0.14619319140911102,0.0,0.0,0.0,-0.5749660134315491,0.32090574502944946,0.7082669138908386,0.4200000464916229,0.6238484382629395,5.815900294692256e-07,-3.9383958210237324e-06,-0.7815453410148621,0.0001732555974740535,-0.0002819914370775223,-0.00010026642121374607,0.005858734715729952,-0.0005974283558316529,-0.0005563425947912037,0.3858882784843445,0.6853088736534119,0.5924451947212219,0.5623916387557983,-0.21388888359069824,-0.027048371732234955,0.3237192928791046,0.7075974941253662,0.42000001668930054,-0.4838239848613739,1.8335235118865967,-1.362301230430603,-2.9999992847442627,-0.1638605147600174,-0.1597495675086975,-0.1540432870388031,-0.14701898396015167,0.2604885697364807,0.20163662731647491,0.14792968332767487,0.09187395125627518
