vladlanda/robotic-transformer/data/env_000_episode_0186.csv
sim_time_s,robot_box_x,robot_box_y,robot_box_z,robot_box_quat_w,robot_box_quat_x,robot_box_quat_y,robot_box_quat_z,robot_box_linvel_x,robot_box_linvel_y,robot_box_linvel_z,robot_box_angvel_x,robot_box_angvel_y,robot_box_angvel_z,cube_world_x,cube_world_y,cube_world_z,cube_quat_w,cube_quat_x,cube_quat_y,cube_quat_z,cube_linvel_x,cube_linvel_y,cube_linvel_z,cube_angvel_x,cube_angvel_y,cube_angvel_z,endpoint_world_x,endpoint_world_y,endpoint_world_z,endpoint_linvel_x,endpoint_linvel_y,endpoint_linvel_z,target_cube_world_x,target_cube_world_y,target_cube_world_z,gripper_actual_pos_rad_gp_leftgearjoint,gripper_actual_vel_rad_s_gp_leftgearjoint,gripper_actual_pos_rad_gp_rotatingjoint,gripper_actual_vel_rad_s_gp_rotatingjoint,motor_angle_rad_joint1,motor_angle_rad_joint2,motor_angle_rad_joint3,motor_angle_rad_joint4,motor_speed_rad_s_joint1,motor_speed_rad_s_joint2,motor_speed_rad_s_joint3,motor_speed_rad_s_joint4
0.0,0.0,0.0,0.0,1.0,0.0,0.0,0.0,0.0,0.0,0.0,0.0,0.0,0.0,-0.3209006190299988,0.7402545213699341,0.41999998688697815,1.0,0.0,0.0,0.0,0.0,0.0,0.0,0.0,0.0,0.0,3.42540442943573e-06,-0.005000244826078415,1.313499927520752,0.0,0.0,0.0,0.4718976616859436,0.7210978865623474,0.42000001668930054,-1.5707999467849731,0.0,0.0,0.0,0.0,0.0,0.0,0.0,0.0,0.0,0.0,0.0
0.016666666666666666,0.0028622460085898638,0.002164335921406746,0.0,0.999809741973877,0.0,0.0,-0.019505487754940987,0.23884446918964386,0.18039913475513458,0.0,0.0,0.0,-3.1463279724121094,-0.32090073823928833,0.7402542233467102,0.41999998688697815,1.0,3.2799905511637917e-06,-8.339794135281409e-07,8.465515577427141e-08,-1.9833774786093272e-05,0.00017983047291636467,-6.132945418357849e-05,0.0009432245860807598,-0.004689525347203016,-0.00031981084612198174,-0.006976291537284851,0.004115866497159004,1.3159241676330566,-0.7928528785705566,1.045508861541748,0.17909660935401917,0.4718976616859436,0.7210978865623474,0.42000001668930054,-1.5301092863082886,3.00000262260437,-0.0458725169301033,-3.0000014305114746,0.0008634275873191655,0.00078997464152053,0.0007040512282401323,0.0006050239317119122,0.11022055149078369,0.09679796546697617,0.08252319693565369,0.06732232868671417
0.03333333333333333,0.009152206592261791,0.006961203180253506,0.0,0.9995366334915161,0.0,0.0,-0.03043963946402073,0.4147590696811676,0.3276894986629486,0.0,0.0,0.0,-0.5627819895744324,-0.3209008574485779,0.7402541637420654,0.4200000464916229,1.0,3.3908531804627273e-06,-2.132488134520827e-06,-3.710428941872124e-08,0.0002635785494931042,0.0002693783608265221,-0.00010509602725505829,-0.0017707846127450466,0.004130862653255463,-0.00013547409616876394,-0.023894693702459335,0.026761503890156746,1.3170905113220215,-1.2052513360977173,1.6614835262298584,-0.02603733539581299,0.4718976616859436,0.7210978865623474,0.42000001668930054,-1.4800899028778076,3.0000011920928955,-0.09591231495141983,-3.000002145767212,0.0027992974501103163,0.0023665272165089846,0.0018957623979076743,0.0013844795757904649,0.1349082589149475,0.10154471546411514,0.06669217348098755,0.03024642914533615
0.05,0.018549377098679543,0.014146912842988968,0.0,0.9984621405601501,0.0,0.0,-0.055437203496694565,0.625218391418457,0.475957453250885,0.0,0.0,0.0,-3.8260087966918945,-0.32090088725090027,0.7402542233467102,0.4200000464916229,1.0,3.7651284401363228e-06,-2.2118861124909017e-06,5.622759147172474e-09,0.00026530996547080576,0.00026691515813581645,-0.00010440382175147533,-0.00172425655182451,0.004177390597760677,-0.00012948956282343715,-0.04443369805812836,0.05958961695432663,1.3144681453704834,-1.2518949508666992,2.2499852180480957,-0.28022265434265137,0.4718976616859436,0.7210978865623474,0.42000001668930054,-1.4300715923309326,3.0000014305114746,-0.14592553675174713,-3.0000007152557373,0.00473376689478755,0.003575380425900221,0.002343987114727497,0.0010378281585872173,0.11505068093538284,0.05861199274659157,1.9190338207408786e-09,-0.06002844497561455
0.06666666666666667,0.031321801245212555,0.023818517103791237,0.0,0.9942919611930847,0.0,0.0,-0.10669329762458801,0.8222174048423767,0.6256306171417236,0.0,0.0,0.0,-7.057862281799316,-0.32090088725090027,0.7402541637420654,0.4200000464916229,0.9999999403953552,3.406779342185473e-06,-2.285526988998754e-06,4.300881926155853e-07,0.00026702668401412666,0.00026791810523718596,-0.00010437914170324802,-0.0017406379338353872,0.004211799707263708,-0.00012850595521740615,-0.06612759828567505,0.09983205795288086,1.3082294464111328,-1.3124043941497803,2.590460777282715,-0.47097665071487427,0.4718976616859436,0.7210978865623474,0.42000001668930054,-1.3800511360168457,2.9999964237213135,-0.1124195009469986,2.999999523162842,0.0060455952771008015,0.003912718966603279,0.00166343804448843,-0.0006929084775038064,0.06339315325021744,5.948822945356369e-08,-0.06622518599033356,-0.1339331567287445
0.08333333333333333,0.03819282725453377,0.03854953125119209,0.0,0.9900438785552979,0.0,0.0,-0.1407589316368103,0.2801087498664856,0.9837229251861572,0.0,0.0,0.0,-3.1087844371795654,-0.32090088725090027,0.7402541637420654,0.4200000464916229,1.0,3.6973510759708006e-06,-2.1889595700486097e-06,-2.632473012909031e-07,0.00026389595586806536,0.0002658632874954492,-0.0001043388620018959,-0.0017081330297514796,0.004150238819420338,-0.00012991279072593898,-0.09208925068378448,0.1401188224554062,1.2978360652923584,-1.559495210647583,2.5159473419189453,-0.692993700504303,0.4718976616859436,0.7210978865623474,0.42000001668930054,-1.330056071281433,3.000001907348633,-0.1444099247455597,-3.000000238418579,0.0008134680683724582,-0.0019338553538545966,-0.004861286375671625,-0.007944929413497448,-0.42015141248703003,-0.4588001072406769,-0.5005964636802673,-0.5449450016021729
0.1,0.049193885177373886,0.05399884283542633,0.0,0.982591450214386,0.0,0.0,-0.18577945232391357,0.7509817481040955,0.9443315863609314,0.0,0.0,0.0,-6.301149845123291,-0.32090088725090027,0.7402541637420654,0.4200000464916229,0.9999999403953552,3.62046125701454e-06,-2.2652770894637797e-06,1.745990232393524e-07,0.0002667673397809267,0.00026740715838968754,-0.0001040794886648655,-0.0017385382670909166,0.004209098871797323,-0.0001277524424949661,-0.11493338644504547,0.18400254845619202,1.2877368927001953,-1.142895221710205,2.905424118041992,-0.6163531541824341,0.4718976616859436,0.7210978865623474,0.42000001668930054,-1.280047059059143,3.0000009536743164,-0.1944456398487091,-2.9999990463256836,-0.0006795099470764399,-0.005030069500207901,-0.009556645527482033,-0.014223665930330753,-0.0957343578338623,-0.20202034711837769,-0.3073263466358185,-0.4111248552799225
0.11666666666666667,0.058703601360321045,0.06665867567062378,0.0,0.9773690700531006,0.0,0.0,-0.2115413099527359,0.5359335541725159,0.7220348715782166,0.0,0.0,0.0,-1.933278203010559,-0.32090088725090027,0.7402541637420654,0.4200000464916229,1.0,3.7984573282301426e-06,-2.262856924062362e-06,-1.5021495869405044e-07,0.00026374036679044366,0.000265661277808249,-0.00010429229587316513,-0.001705389702692628,0.004147546831518412,-0.000129798921989277,-0.14033183455467224,0.2327776551246643,1.273733377456665,-1.6280415058135986,3.2026212215423584,-0.9807997941970825,0.4718976616859436,0.7210978865623474,0.42000001668930054,-1.237718939781189,2.1212234497070312,-0.16064733266830444,3.0000007152557373,-0.003075316082686186,-0.009025957435369492,-0.015121148899197578,-0.021319394931197166,-0.15452371537685394,-0.2444135844707489,-0.3316681981086731,-0.4160386621952057
0.13333333333333333,0.06536484509706497,0.07608739286661148,0.0,0.9689205884933472,0.0,0.0,-0.247372105717659,0.3446522355079651,0.49088069796562195,0.0,0.0,0.0,-5.2121453285217285,-0.32090088725090027,0.7402542233467102,0.4200000464916229,0.9999999403953552,3.5505674986779923e-06,-2.2298811472865054e-06,2.928988749317796e-07,0.0002670325629878789,0.0002677947923075408,-0.00010417005978524685,-0.0017441295785829425,0.004213639069348574,-0.00012800269178114831,-0.16468489170074463,0.2905161678791046,1.2547411918640137,-1.2733783721923828,3.782121181488037,-1.2958738803863525,0.4718976616859436,0.7210978865623474,0.42000001668930054,-1.1898730993270874,3.0000009536743164,-0.19238485395908356,-2.999999523162842,-0.006322099827229977,-0.013762013986706734,-0.021291252225637436,-0.02886662259697914,-0.24669712781906128,-0.3297240138053894,-0.4092806279659271,-0.4853818118572235
0.15,0.07328057289123535,0.08604033291339874,0.0,0.958958625793457,0.0,0.0,-0.2835460305213928,0.5336878299713135,0.6401654481887817,0.0,0.0,0.0,-4.159377098083496,-0.3209008574485779,0.7402541637420654,0.4200000464916229,1.0,3.3323015031783143e-06,-2.102055532304803e-06,1.3129393039434945e-07,0.0002673060225788504,0.0002685941581148654,-0.00010459520854055882,-0.0017496503423899412,0.0042156013660132885,-0.00012928296928294003,-0.19139856100082397,0.354858934879303,1.2258912324905396,-1.6530038118362427,4.0540008544921875,-2.11076283454895,0.4718976616859436,0.7210978865623474,0.42000001668930054,-1.154966115951538,1.3067277669906616,-0.15861643850803375,3.0,-0.012377509847283363,-0.020653309300541878,-0.028975171968340874,-0.03730354830622673,-0.42612800002098083,-0.45236504077911377,-0.47655218839645386,-0.49909454584121704
0.16666666666666666,0.0790315642952919,0.09834041446447372,0.0,0.9496633410453796,0.0,0.0,-0.31327226758003235,0.26398661732673645,0.7993793487548828,0.0,0.0,0.0,-3.5880520343780518,-0.32090088725090027,0.7402541637420654,0.4200000464916229,1.0,3.7373970371845644e-06,-2.2331828404276166e-06,-1.8766169773698493e-07,0.0002643293410073966,0.0002662685001268983,-0.00010445946827530861,-0.0017119462136179209,0.004157547373324633,-0.00013001658953726292,-0.22146502137184143,0.42274028062820435,1.1866950988769531,-1.6313055753707886,4.254976749420166,-2.6278059482574463,0.4718976616859436,0.7210978865623474,0.42000001668930054,-1.1092157363891602,3.0000016689300537,-0.19034446775913239,-3.000000238418579,-0.02079419605433941,-0.02943894825875759,-0.03808002546429634,-0.04668628051877022,-0.5616775751113892,-0.5766793489456177,-0.5886008143424988,-0.5980259776115417
0.18333333333333332,0.08856674283742905,0.10696839541196823,0.0,0.9329475164413452,0.0,0.0,-0.36001235246658325,0.6153345108032227,0.44325318932533264,0.0,0.0,0.0,-6.785706996917725,-0.32090088725090027,0.7402542233467102,0.4200000464916229,0.9999999403953552,3.6603839816962136e-06,-2.3022842015052447e-06,2.5284006710535323e-07,0.00026690884260460734,0.0002676031144801527,-0.00010412419214844704,-0.0017413157038390636,0.004211471416056156,-0.00012786804290954024,-0.24657955765724182,0.4978700280189514,1.134602427482605,-1.2543432712554932,4.773036956787109,-3.6014041900634766,0.4718976616859436,0.7210978865623474,0.42000001668930054,-1.0592126846313477,3.000000238418579,-0.2403744012117386,-2.999999523162842,-0.028293194249272346,-0.03708203509449959,-0.04582313820719719,-0.05449647828936577,-0.590741753578186,-0.568030059337616,-0.5443480610847473,-0.5204584002494812
0.2,0.09276588261127472,0.11947048455476761,0.0,0.9210128784179688,0.0,0.0,-0.3895321190357208,0.24640747904777527,0.7115078568458557,0.0,0.0,0.0,-2.654517889022827,-0.32090088725090027,0.7402541637420654,0.4200000464916229,1.0,3.5909681628254475e-06,-2.300425876455847e-06,1.3870655379832897e-07,0.0002665469073690474,0.0002673210692591965,-0.00010423827916383743,-0.0017325730295851827,0.004203351214528084,-0.00012819882249459624,-0.2693004608154297,0.5699406862258911,1.062253475189209,-1.1049140691757202,4.33383846282959,-4.760708808898926,0.4718976616859436,0.7210978865623474,0.42000001668930054,-1.0092058181762695,2.9999752044677734,-0.29040268063545227,-3.000001907348633,-0.04338059574365616,-0.05174465849995613,-0.05991675332188606,-0.06798730790615082,-0.585938036441803,-0.645946204662323,-0.6992266178131104,-0.7472231984138489
0.21666666666666667,0.09911821037530899,0.1265426129102707,0.0,0.9216097593307495,0.0,0.0,-0.38811787962913513,0.4027448296546936,0.3839721977710724,0.0,0.0,0.0,1.1219102144241333,-0.32090088725090027,0.7402542233467102,0.4200000464916229,1.0,3.6070816804567585e-06,-2.261013833049219e-06,1.9594006417378296e-08,0.0002644706692080945,0.000265584938460961,-0.00010396563448011875,-0.0017088844906538725,0.004164294805377722,-0.0001283210440305993,-0.29212695360183716,0.6319085955619812,0.9772194623947144,-1.2150382995605469,3.335883140563965,-5.480205535888672,0.4718976616859436,0.7210978865623474,0.42000001668930054,-0.9591965675354004,3.0000011920928955,-0.3404298424720764,-2.999998092651367,-0.05229438096284866,-0.061152223497629166,-0.06975609064102173,-0.07821878045797348,-0.6997677087783813,-0.6841029524803162,-0.668117880821228,-0.6530733108520508
0.23333333333333334,0.10131242871284485,0.13613100349903107,0.0,0.9163159728050232,0.0,0.0,-0.4004559814929962,0.06695439666509628,0.5698911547660828,0.0,0.0,0.0,-2.4855401515960693,-0.3209008574485779,0.7402541637420654,0.4200000464916229,0.9999999403953552,3.7423803860292537e-06,-2.2275726223597303e-06,4.588900992530398e-07,0.00026475079357624054,0.0002667132648639381,-0.00010453537106513977,-0.0017188824713230133,0.004165737424045801,-0.00013019502512179315,-0.3094014525413513,0.6828214526176453,0.8789384365081787,-0.9445810317993164,2.666750192642212,-6.119760036468506,0.4718976616859436,0.7210978865623474,0.42000001668930054,-0.9091875553131104,2.999999523162842,-0.3904591500759125,-2.999998092651367,-0.06712281703948975,-0.07617340236902237,-0.08492513746023178,-0.09282608330249786,-0.8784019947052002,-0.8898596167564392,-0.8991137742996216,-0.869533896446228
0.25,0.10355295985937119,0.1415909081697464,0.0,0.9174004197120667,0.0,0.0,-0.3979654312133789,0.12365369498729706,0.2579798996448517,0.0,0.0,0.0,1.1369119882583618,-0.32090088725090027,0.7402541637420654,0.4200000464916229,1.0,3.394552777535864e-06,-2.2820759113528766e-06,1.3360092054881534e-07,0.0002667939115781337,0.00026794092264026403,-0.00010439474135637283,-0.0017418104689568281,0.004206564277410507,-0.00012883881572633982,-0.32683730125427246,0.7176601886749268,0.7752075791358948,-0.97211092710495,1.4741531610488892,-6.326150894165039,0.4718976616859436,0.7210978865623474,0.42000001668930054,-0.8591775298118591,2.999988555908203,-0.4404902458190918,-2.999999523162842,-0.08186967670917511,-0.09079976379871368,-0.09939693659543991,-0.10634659230709076,-0.9748202562332153,-0.9611968994140625,-0.9474456310272217,-0.8641030788421631
0.26666666666666666,0.1018851175904274,0.14727774262428284,0.0,0.9122657775878906,0.0,0.0,-0.40959882736206055,-0.14695826172828674,0.35339006781578064,0.0,0.0,0.0,-2.3104209899902344,-0.32090088725090027,0.7402542233467102,0.4200000464916229,1.0,3.683615432237275e-06,-2.3101263195712818e-06,2.1006846395721368e-07,0.00026479296502657235,0.0002662580809555948,-0.00010421290062367916,-0.0017168235499411821,0.004168986808508635,-0.0001290914515266195,-0.3390214443206787,0.7371341586112976,0.6660164594650269,-0.5707579851150513,0.7944250702857971,-6.528531074523926,0.4718976616859436,0.7210978865623474,0.42000001668930054,-0.8091683983802795,3.0000009536743164,-0.4905214309692383,-2.9999985694885254,-0.09831191599369049,-0.10729137063026428,-0.1159241795539856,-0.12290087342262268,-1.0027753114700317,-1.0020819902420044,-1.0015537738800049,-1.0011370182037354
0.2833333333333333,0.09950321167707443,0.14980410039424896,0.0,0.9140715599060059,0.0,0.0,-0.4055529832839966,-0.18655990064144135,0.11236254125833511,0.0,0.0,0.0,1.3559534549713135,-0.32090088725090027,0.7402541637420654,0.4200000464916229,1.0,3.3071373763959855e-06,-2.2125616396806436e-06,2.625232013997447e-07,0.00026660869480110705,0.0002674512506928295,-0.00010424340143799782,-0.0017352959839627147,0.004204402677714825,-0.00012827638420276344,-0.3476879596710205,0.7413297891616821,0.5597178936004639,-0.31881609559059143,-0.3322763741016388,-6.17916202545166,0.4718976616859436,0.7210978865623474,0.42000001668930054,-0.7591596245765686,3.0000014305114746,-0.5405513644218445,-2.9999988079071045,-0.11551031470298767,-0.12434246391057968,-0.13286730647087097,-0.1397620290517807,-1.0047811269760132,-1.0036085844039917,-1.0027118921279907,-1.0019967555999756
0.3,0.09424199163913727,0.15005475282669067,0.0,0.909519374370575,0.0,0.0,-0.415661484003067,-0.3437255024909973,-0.04777614399790764,0.0,0.0,0.0,-2.1142568588256836,-0.32090088725090027,0.7402541637420654,0.4200000464916229,1.0,3.6565779737429693e-06,-2.2969809378992068e-06,-2.45018014766174e-07,0.00026533016352914274,0.00026595202507451177,-0.00010385061614215374,-0.0017164858290925622,0.004181961994618177,-0.00012745661661028862,-0.3454010486602783,0.7367799282073975,0.4611249566078186,0.5018845796585083,-0.21771588921546936,-5.546496391296387,0.4718976616859436,0.7210978865623474,0.42000001668930054,-0.7091516256332397,3.0,-0.5905792713165283,-3.000000238418579,-0.13321498036384583,-0.1418357938528061,-0.15020427107810974,-0.15697482228279114,-1.0142884254455566,-1.010819673538208,-1.0081651210784912,-1.006034016609192
0.31666666666666665,0.08715469390153885,0.14742043614387512,0.0,0.9119592905044556,0.0,0.0,-0.410280704498291,-0.46718287467956543,-0.19909325242042542,0.0,0.0,0.0,1.5569782257080078,-0.3226620852947235,0.7357291579246521,0.42140889167785645,0.996999204158783,0.03108041360974312,-0.002788916230201721,-0.07084277272224426,0.05329696089029312,-0.016248399391770363,0.10247331857681274,3.161583662033081,-2.010195732116699,-1.595312476158142,-0.34008175134658813,0.7369377613067627,0.42697834968566895,0.11614538729190826,-0.2737373411655426,-0.19644826650619507,0.4718976616859436,0.7210978865623474,0.42000001668930054,-0.6591870784759521,2.984264373779297,-0.6410395503044128,-2.9081923961639404,-0.14114569127559662,-0.15047386288642883,-0.15936049818992615,-0.16640335321426392,-0.022366011515259743,-0.09645051509141922,-0.1518717259168625,-0.18472778797149658
0.3333333333333333,0.07785811275243759,0.14228889346122742,0.0,0.9079011678695679,0.0,0.0,-0.4191843271255493,-0.6028203368186951,-0.34971562027931213,0.0,0.0,0.0,-2.066882371902466,-0.32196342945098877,0.7354484796524048,0.42156586050987244,0.9960620403289795,0.04071463644504547,-0.0032193358056247234,-0.07869141548871994,0.030742717906832695,-0.011624728329479694,-0.006230839528143406,-0.33624333143234253,0.052244655787944794,-0.722689688205719,-0.3377283811569214,0.7389277219772339,0.42442217469215393,0.30539506673812866,0.29372671246528625,-0.17083731293678284,0.4718976616859436,0.7210978865623474,0.42000001668930054,-0.6091808080673218,2.9999852180480957,-0.6910882592201233,-2.999997615814209,-0.1431799679994583,-0.1532127410173416,-0.16250166296958923,-0.16964542865753174,-0.19775360822677612,-0.21122989058494568,-0.20932966470718384,-0.19536258280277252
0.35,0.06639580428600311,0.13478119671344757,0.0,0.910627543926239,0.0,0.0,-0.4132280945777893,-0.726923406124115,-0.49021387100219727,0.0,0.0,0.0,1.7024282217025757,-0.3198736608028412,0.7381614446640015,0.4205753207206726,0.9914363026618958,0.014064804650843143,-0.002541842870414257,-0.1298060566186905,0.297571063041687,0.4087277054786682,-0.08121837675571442,-4.290646553039551,0.703912079334259,-15.768205642700195,-0.3303004503250122,0.7464756965637207,0.4216148853302002,0.5670283436775208,0.5402875542640686,-0.14791998267173767,0.4718976616859436,0.7210978865623474,0.42000001668930054,-0.5591757893562317,2.999983072280884,-0.7411229610443115,-3.0000014305114746,-0.1487717479467392,-0.15803855657577515,-0.1663004606962204,-0.17227065563201904,-0.3853808343410492,-0.3035890758037567,-0.20621880888938904,-0.10255087912082672
0.36666666666666664,0.05836816504597664,0.12437716871500015,0.0,0.9069792032241821,0.0,0.0,-0.42117545008659363,-0.3992048501968384,-0.6728887557983398,0.0,0.0,0.0,-1.94603431224823,-0.313333123922348,0.746487557888031,0.4200006425380707,0.9794794917106628,2.555640458012931e-05,-5.176962440600619e-05,-0.20154355466365814,0.5098387598991394,0.5925613641738892,0.0019453736022114754,-0.19118930399417877,0.27665746212005615,-2.432616710662842,-0.31977933645248413,0.7533646821975708,0.42019370198249817,0.7037360668182373,0.40574347972869873,0.055930476635694504,0.4718976616859436,0.7210978865623474,0.42000001668930054,-0.509147047996521,3.000002384185791,-0.7911506295204163,-2.9999642372131348,-0.15576589107513428,-0.16314394772052765,-0.16923345625400543,-0.17293760180473328,-0.41913512349128723,-0.2849963307380676,-0.13427014648914337,0.020256085321307182
0.3833333333333333,0.048349227756261826,0.11234473437070847,0.0,0.890643298625946,0.0,0.0,-0.4547027051448822,-0.6779725551605225,-0.7468679547309875,0.0,0.0,0.0,-5.5669121742248535,-0.300526887178421,0.760165810585022,0.4204331636428833,0.9737560749053955,-0.005328860133886337,-0.004462901968508959,-0.2274877429008484,1.040670394897461,1.0662935972213745,0.051831722259521484,0.8601230382919312,-4.322422981262207,-3.70190691947937,-0.3044246435165405,0.7641312479972839,0.4214339852333069,1.160220980644226,0.9303339719772339,0.09585830569267273,0.4718976616859436,0.7210978865623474,0.42000001668930054,-0.45908868312835693,2.9999990463256836,-0.8411552906036377,-2.9999701976776123,-0.16477198898792267,-0.16940870881080627,-0.1724666804075241,-0.17308473587036133,-0.5215028524398804,-0.3535695970058441,-0.16763122379779816,0.02178260125219822
0.4,0.04105563461780548,0.09727077186107635,0.0,0.8586651682853699,0.0,0.0,-0.5125369429588318,-0.38752442598342896,-0.952003538608551,0.0,0.0,0.0,-8.705564498901367,-0.2687186598777771,0.7838824391365051,0.4226527512073517,0.9632557034492493,0.010289066471159458,-0.03773268312215805,-0.26572299003601074,2.846979856491089,1.6945562362670898,0.2031649798154831,4.12342643737793,-6.177689552307129,-4.788130283355713,-0.2718994617462158,0.7863490581512451,0.4233681857585907,2.872544050216675,1.7489440441131592,0.21801674365997314,0.4718976616859436,0.7210978865623474,0.42000001668930054,-0.4093228578567505,2.7834455966949463,-0.8911716341972351,-2.99997615814209,-0.17363086342811584,-0.17494933307170868,-0.17437759041786194,-0.17131635546684265,-0.6118310689926147,-0.36998075246810913,-0.11230537295341492,0.14428436756134033
0.4166666666666667,0.036070339381694794,0.08727169036865234,0.0,0.8084393739700317,0.0,0.0,-0.5885794758796692,-0.25068455934524536,-0.47339609265327454,0.0,0.0,0.0,-11.774431228637695,-0.19367244839668274,0.8162646293640137,0.42658862471580505,0.9397813677787781,0.05544188246130943,-0.08311158418655396,-0.32684800028800964,6.140548229217529,1.9413037300109863,0.22788986563682556,26.560169219970703,-20.11191749572754,14.84537410736084,-0.19645379483699799,0.8194793462753296,0.4272749722003937,5.810581207275391,2.3359274864196777,0.36105984449386597,0.4718976616859436,0.7210978865623474,0.42000001668930054,-0.3823382556438446,0.7856990694999695,-0.8576882481575012,2.9986886978149414,-0.1895180344581604,-0.18776974081993103,-0.18138103187084198,-0.17286710441112518,-0.8997936844825745,-0.8680665493011475,-0.5216946005821228,-0.20668283104896545
0.43333333333333335,0.03419417887926102,0.080593541264534,0.0,0.7677341103553772,0.0,0.0,-0.6407685875892639,-0.05895185470581055,-0.36622071266174316,0.0,0.0,0.0,-6.7800612449646,-0.09803459793329239,0.8513133525848389,0.43429645895957947,0.9076353311538696,0.08952257037162781,-0.11531998217105865,-0.3935544192790985,6.046580791473389,1.5915393829345703,0.5165963172912598,11.375658988952637,-12.084465026855469,-2.11944317817688,-0.09986528009176254,0.8563340902328491,0.4349578022956848,5.932089328765869,1.9281419515609741,0.5568802356719971,0.4718976616859436,0.7210978865623474,0.42000001668930054,-0.37091878056526184,0.7766927480697632,-0.8841419219970703,-3.000002145767212,-0.19979096949100494,-0.19887582957744598,-0.19034814834594727,-0.17765837907791138,-0.5481687188148499,-0.5781823992729187,-0.48146721720695496,-0.28223228454589844
0.45,0.030380330979824066,0.06950529664754868,0.0,0.7470743656158447,0.0,0.0,-0.6647404432296753,-0.1786353439092636,-0.6084679365158081,0.0,0.0,0.0,-2.509247064590454,0.0020127929747104645,0.8739386796951294,0.4443441927433014,0.8598877787590027,0.07174234092235565,-0.11996988952159882,-0.49097174406051636,6.225094795227051,0.0395018570125103,0.7123301029205322,13.950148582458496,-8.070304870605469,17.349594116210938,0.0003217989578843117,0.880354642868042,0.4440861940383911,6.211162567138672,0.7630688548088074,0.6554863452911377,0.4718976616859436,0.7210978865623474,0.42000001668930054,-0.3540714383125305,1.1379331350326538,-0.9341659545898438,-3.0000033378601074,-0.20750223100185394,-0.20587921142578125,-0.19515922665596008,-0.17904213070869446,-0.7745940089225769,-0.6062206625938416,-0.3852025866508484,-0.12092546373605728
0.4666666666666667,0.030386900529265404,0.06309846043586731,0.0,0.7187917232513428,0.0,0.0,-0.6952254176139832,0.01058641541749239,-0.38968393206596375,0.0,0.0,0.0,-5.698200702667236,0.10281473398208618,0.8730818629264832,0.4523806571960449,0.7880021333694458,0.07860542088747025,-0.1252463012933731,-0.5976513624191284,5.747797012329102,-1.230290412902832,0.6099660992622375,1.1409480571746826,5.312325954437256,10.989851951599121,0.1007537916302681,0.8819040656089783,0.452187180519104,6.000036239624023,-0.44448062777519226,0.4427403211593628,0.4718976616859436,0.7210978865623474,0.42000001668930054,-0.3353881239891052,0.9281745553016663,-0.9841899871826172,-2.999908447265625,-0.22166579961776733,-0.21668767929077148,-0.20187264680862427,-0.18123511970043182,-0.6786788702011108,-0.49908357858657837,-0.2762256860733032,-0.03773173689842224
0.48333333333333334,0.03275446593761444,0.059223685413599014,0.0,0.7052454352378845,0.0,0.0,-0.7089632153511047,0.17997519671916962,-0.17002737522125244,0.0,0.0,0.0,-1.2161426544189453,0.19560052454471588,0.8597674369812012,0.45435696840286255,0.7177378535270691,-0.016815287992358208,-0.18683277070522308,-0.6705692410469055,4.973479747772217,-1.794248342514038,0.5407905578613281,9.253167152404785,-2.883884906768799,25.200763702392578,0.19394898414611816,0.8695839643478394,0.45836877822875977,5.401243209838867,-1.1319788694381714,0.21176238358020782,0.4718976616859436,0.7210978865623474,0.42000001668930054,-0.32355615496635437,0.4693451225757599,-1.0342127084732056,-3.000002145767212,-0.23183345794677734,-0.22395707666873932,-0.2060144990682602,-0.18228872120380402,-0.5295612812042236,-0.36132708191871643,-0.20751218497753143,-0.07361801713705063
0.5,0.03324327990412712,0.05148432031273842,0.0,0.6823177933692932,0.0,0.0,-0.7310556769371033,0.05156099051237106,-0.5040572881698608,0.0,0.0,0.0,-4.627469062805176,0.2763987183570862,0.8382066488265991,0.4538799822330475,0.6648089289665222,-0.04110456630587578,-0.15899688005447388,-0.7287382483482361,4.0647292137146,-2.233010768890381,0.06616424769163132,5.815598487854004,1.6902523040771484,24.80085563659668,0.2753483057022095,0.8483237028121948,0.45829302072525024,4.596837043762207,-1.6763887405395508,-0.18221791088581085,0.4718976616859436,0.7210978865623474,0.42000001668930054,-0.3160540759563446,0.40531203150749207,-1.0842348337173462,-2.9999566078186035,-0.23489604890346527,-0.22504593431949615,-0.20565734803676605,-0.18093444406986237,-0.27049124240875244,-0.1137111559510231,-0.011919583193957806,0.04569517448544502
0.5166666666666666,0.03577757626771927,0.048101991415023804,0.0,0.6729971766471863,0.0,0.0,-0.7396450638771057,0.15327465534210205,-0.16911868751049042,0.0,0.0,0.0,-0.37898439168930054,0.34075212478637695,0.8069266080856323,0.4475773870944977,0.6041764616966248,-0.10180147737264633,-0.16139359772205353,-0.7736660838127136,3.02258563041687,-2.308438777923584,-0.49964264035224915,-9.105363845825195,7.424108028411865,10.35214900970459,0.3398514986038208,0.8176710605621338,0.4540725350379944,3.432891368865967,-1.9343633651733398,-0.3704907298088074,0.4718976616859436,0.7210978865623474,0.42000001668930054,-0.30699700117111206,0.5996150970458984,-1.1342569589614868,-2.9995338916778564,-0.2399580031633377,-0.22857977449893951,-0.20753729343414307,-0.18208461999893188,-0.011097116395831108,-0.10246001183986664,-0.06163466349244118,-0.07608228921890259
0.5333333333333333,0.040253374725580215,0.0479801781475544,0.0,0.6564591526985168,0.0,0.0,-0.7543615698814392,0.3204580247402191,0.06472739577293396,0.0,0.0,0.0,-3.5290937423706055,0.3903929591178894,0.7784034013748169,0.43477708101272583,0.5859389901161194,-0.11178793758153915,-0.12649963796138763,-0.792576014995575,2.3468384742736816,-2.0196497440338135,-0.9316698312759399,-3.090933084487915,8.812314987182617,11.062968254089355,0.39056214690208435,0.7880263924598694,0.44083327054977417,2.764288902282715,-1.7596718072891235,-0.9806323647499084,0.4718976616859436,0.7210978865623474,0.42000001668930054,-0.29328855872154236,0.8729856014251709,-1.1842790842056274,-2.9990475177764893,-0.2377290278673172,-0.22853852808475494,-0.20807747542858124,-0.1840132772922516,0.223727285861969,0.0838819220662117,0.003925663884729147,-0.1233161985874176
0.55,0.04763901233673096,0.043489690870046616,0.0,0.652555525302887,0.0,0.0,-0.7577409148216248,0.4256956875324249,-0.25013476610183716,0.0,0.0,0.0,0.3161991238594055,0.4277203679084778,0.7557205557823181,0.4224865734577179,0.5998006463050842,-0.021626213565468788,-0.018789902329444885,-0.7996363639831543,1.272818922996521,-1.3726963996887207,-0.35604554414749146,27.833526611328125,-9.99383544921875,36.600013732910156,0.42871737480163574,0.7609435319900513,0.42350223660469055,1.8898032903671265,-1.5527231693267822,-0.9627372026443481,0.4718976616859436,0.7210978865623474,0.42000001668930054,-0.2779639959335327,0.8746222853660583,-1.2343007326126099,-2.984527111053467,-0.22907491028308868,-0.22275544703006744,-0.20471960306167603,-0.18381594121456146,0.4443075358867645,0.3047736883163452,0.1589391529560089,-0.03459452837705612
0.5666666666666667,0.05662209168076515,0.04351798817515373,0.0,0.6383678317070007,0.0,0.0,-0.7697314620018005,0.5939958095550537,0.000683547870721668,0.0,0.0,0.0,-3.0478973388671875,0.44742271304130554,0.7457216382026672,0.4232366979122162,0.5808327794075012,-0.06727296859025955,-0.030735090374946594,-0.8106558322906494,0.5314407348632812,-0.9109646081924438,0.06643437594175339,-2.2273776531219482,1.7724347114562988,29.25978660583496,0.44674229621887207,0.7506717443466187,0.4267813563346863,1.0603177547454834,-0.4497431218624115,0.037225764244794846,0.4718976616859436,0.7210978865623474,0.42000001668930054,-0.26231735944747925,0.6647643446922302,-1.2693655490875244,-1.48995840549469,-0.21962054073810577,-0.21661081910133362,-0.20212551951408386,-0.18524780869483948,0.6480840444564819,0.4305935204029083,0.18008503317832947,-0.09404265135526657
0.5833333333333334,0.06313686817884445,0.039608851075172424,0.0,0.6374295949935913,0.0,0.0,-0.7705085873603821,0.30457085371017456,-0.25148558616638184,0.0,0.0,0.0,0.767577588558197,0.4601692855358124,0.7371251583099365,0.4222196936607361,0.5866442322731018,-0.0464894101023674,-0.029614001512527466,-0.8079666495323181,0.4840521216392517,-0.5828650593757629,-0.08521127700805664,1.9731895923614502,-2.6833717823028564,4.81917142868042,0.4582563638687134,0.7416857481002808,0.4257616400718689,0.45060932636260986,-0.592193603515625,-0.11680703610181808,0.4718976616859436,0.7210978865623474,0.42000001668930054,-0.26435959339141846,-0.624079167842865,-1.242753028869629,2.9991369247436523,-0.20861750841140747,-0.20847399532794952,-0.19774655997753143,-0.18505868315696716,0.4934966564178467,0.3854283392429352,0.20578771829605103,-0.003676415653899312
0.6,0.07052689790725708,0.040185119956731796,0.0,0.62564617395401,0.0,0.0,-0.7801069617271423,0.4675469696521759,0.037886280566453934,0.0,0.0,0.0,-2.638134002685547,0.4653434157371521,0.7304320931434631,0.4210333228111267,0.5748201012611389,-0.021698934957385063,-0.014980906620621681,-0.8178547620773315,0.262660950422287,-0.33819711208343506,-0.08082033693790436,4.189813137054443,-1.377616047859192,-3.0515077114105225,0.4621473550796509,0.7368891835212708,0.4264259338378906,0.22642596065998077,-0.11825137585401535,0.12718254327774048,0.4718976616859436,0.7210978865623474,0.42000001668930054,-0.28009381890296936,-1.2386834621429443,-1.2630336284637451,-2.9991486072540283,-0.20211590826511383,-0.20362691581249237,-0.19582924246788025,-0.18644939363002777,0.5349911451339722,0.40569430589675903,0.1986580491065979,-0.021541781723499298
0.6166666666666667,0.07990168035030365,0.038401294499635696,0.0,0.6272839903831482,0.0,0.0,-0.7787905931472778,0.5995174646377563,-0.07960953563451767,0.0,0.0,0.0,1.1733328104019165,0.4679688811302185,0.726671576499939,0.4200023114681244,0.5735794305801392,-8.00850466475822e-06,0.00011956392700085416,-0.819149911403656,0.041864268481731415,-0.1065383180975914,-0.005668090656399727,-0.13987550139427185,-0.2632431387901306,3.213963270187378,0.46348410844802856,0.7357008457183838,0.42891937494277954,-0.08123409003019333,-0.0725954920053482,0.16728779673576355,0.4718976616859436,0.7210978865623474,0.42000001668930054,-0.3246719539165497,-2.9999988079071045,-1.3130146265029907,-2.9994001388549805,-0.19172514975070953,-0.19526469707489014,-0.19085706770420074,-0.18503600358963013,0.46039220690727234,0.39729249477386475,0.24466045200824738,0.07771596312522888
0.6333333333333333,0.09083431959152222,0.03921830281615257,0.0,0.6496396660804749,0.0,0.0,-0.7602422833442688,0.7263413071632385,0.10769715160131454,0.0,0.0,0.0,4.444588661193848,0.46772709488868713,0.726234495639801,0.42018774151802063,0.5752978324890137,0.0027054683305323124,-0.0038003199733793736,-0.8179306983947754,-0.058709852397441864,0.017079299315810204,0.019005371257662773,-0.34986111521720886,-0.9889408349990845,-1.264722466468811,0.4623412489891052,0.7364240288734436,0.4317746162414551,-0.11369621753692627,0.1361711025238037,0.194207563996315,0.4718976616859436,0.7210978865623474,0.42000001668930054,-0.3746492564678192,-2.996398448944092,-1.362980604171753,-2.9995267391204834,-0.18407200276851654,-0.18871696293354034,-0.186820387840271,-0.18362852931022644,0.4796547591686249,0.41414982080459595,0.2665543854236603,0.11529999226331711
0.65,0.09936510026454926,0.03683847188949585,0.0,0.6587418913841248,0.0,0.0,-0.7523690462112427,0.42413821816444397,-0.1867309808731079,0.0,0.0,0.0,0.3677341043949127,0.4670094847679138,0.7264137268066406,0.42000022530555725,0.567261815071106,-1.213800805999199e-05,1.054560016200412e-05,-0.8235374093055725,-0.05599508434534073,0.011621986515820026,-0.0005172656383365393,-0.007093163672834635,-0.023749584332108498,-1.9824515581130981,0.46118974685668945,0.7384415864944458,0.43599116802215576,-0.11960804462432861,0.044130995869636536,0.2849775552749634,0.4718976616859436,0.7210978865623474,0.42000001668930054,-0.4246503710746765,-2.9996016025543213,-1.4129561185836792,-2.9999887943267822,-0.1755802035331726,-0.18075372278690338,-0.18062075972557068,-0.17915518581867218,0.4043956398963928,0.42632895708084106,0.3786320686340332,0.3344012200832367
0.6666666666666666,0.10771004855632782,0.03132428601384163,0.0,0.6452449560165405,0.0,0.0,-0.7639757394790649,0.5402607321739197,-0.3960556983947754,0.0,0.0,0.0,-3.0130670070648193,0.4668099582195282,0.7264277338981628,0.42000001668930054,0.565355658531189,2.071426024485845e-05,-1.480706032452872e-05,-0.8248471617698669,0.002044989261776209,6.627471157116815e-05,-0.0007703246083110571,-0.02447056956589222,0.010393377393484116,-0.005717460997402668,0.46270161867141724,0.740229070186615,0.4453875422477722,0.28682494163513184,0.12463025748729706,0.947399377822876,0.4718976616859436,0.7210978865623474,0.42000001668930054,-0.4746640622615814,-2.9999821186065674,-1.4629743099212646,-2.999999761581421,-0.17112404108047485,-0.17551076412200928,-0.17564338445663452,-0.17434318363666534,0.1899947077035904,0.2561184763908386,0.264495313167572,0.2803487181663513
0.6833333333333333,0.12012341618537903,0.031052902340888977,0.0,0.6088571548461914,0.0,0.0,-0.7932798862457275,0.6944639086723328,-0.013841303996741772,0.0,0.0,0.0,-6.416440010070801,0.4668125510215759,0.7264274954795837,0.4200000464916229,0.5653538107872009,2.2569687985196651e-07,-2.813487753883237e-06,-0.8248485326766968,7.264259329531342e-05,-0.0002544510061852634,-8.108816109597683e-05,0.006338200997561216,-0.0017189949285238981,-0.0006850651116110384,0.4746001958847046,0.7377017736434937,0.4677022099494934,1.278475284576416,-0.24387910962104797,1.8051741123199463,0.4718976616859436,0.7210978865623474,0.42000001668930054,-0.5246766209602356,-2.9999892711639404,-1.5129926204681396,-2.999999761581421,-0.17580950260162354,-0.1777026504278183,-0.17628654837608337,-0.17341068387031555,-0.19304978847503662,-0.07004400342702866,0.006409490015357733,0.0903325229883194
0.7,0.1333305537700653,0.03363984078168869,0.0,0.5871018171310425,0.0,0.0,-0.8095130920410156,0.8404208421707153,0.15026555955410004,0.0,0.0,0.0,-2.187436103820801,0.46681252121925354,0.7264274954795837,0.4200000464916229,0.5653538107872009,2.6700840294324735e-07,-2.9250577426864766e-06,-0.8248484134674072,7.16209106030874e-05,-0.00026092014741152525,-8.29936470836401e-05,0.006500517949461937,-0.001817253534682095,-0.0006987631204538047,0.49560070037841797,0.737511396408081,0.49882322549819946,1.2555691003799438,0.17454135417938232,1.9168851375579834,0.4718976616859436,0.7210978865623474,0.42000001668930054,-0.5465438961982727,0.12414470314979553,-1.5630109310150146,-2.999999761581421,-0.1788872480392456,-0.17940694093704224,-0.17735977470874786,-0.17377229034900665,-0.042226288467645645,-0.022676412016153336,-0.04393834248185158,-0.06023593246936798
0.7166666666666667,0.14349913597106934,0.037299636751413345,0.0,0.5915902256965637,0.0,0.0,-0.8062387704849243,0.5250939726829529,0.25705716013908386,0.0,0.0,0.0,1.5676213502883911,0.46681252121925354,0.7264274954795837,0.4200000464916229,0.5653538703918457,2.6382707574157394e-07,-3.024647412530612e-06,-0.8248483538627625,7.08813895471394e-05,-0.0002609826624393463,-8.276989683508873e-05,0.006506727542728186,-0.0018242632504552603,-0.0006970639806240797,0.5154334306716919,0.7418179512023926,0.5241954326629639,1.0096412897109985,0.30761611461639404,1.202104926109314,0.4718976616859436,0.7210978865623474,0.42000001668930054,-0.5240854024887085,2.3564538955688477,-1.5241014957427979,2.9999992847442627,-0.17750072479248047,-0.17795413732528687,-0.17643967270851135,-0.17331311106681824,0.1573307365179062,0.15589340031147003,0.12083633989095688,0.08742655813694
0.7333333333333333,0.1485094577074051,0.035774484276771545,0.0,0.584165096282959,0.0,0.0,-0.8116348385810852,0.3236193358898163,-0.11125454306602478,0.0,0.0,0.0,-1.853087067604065,0.4668125510215759,0.7264274954795837,0.4200000464916229,0.5653534531593323,2.573800088612188e-07,-3.028503897439805e-06,-0.8248487114906311,7.430262485286221e-05,-0.00025966623798012733,-8.346512913703918e-05,0.006454553920775652,-0.0017768848920240998,-0.000701892888173461,0.5255042314529419,0.7482706308364868,0.5379930734634399,0.15253846347332,0.24195243418216705,0.5759807825088501,0.4718976616859436,0.7210978865623474,0.42000001668930054,-0.5032868385314941,0.30272650718688965,-1.4740469455718994,2.9999992847442627,-0.17035135626792908,-0.1714138388633728,-0.17100843787193298,-0.1689724177122116,0.19668711721897125,0.21970497071743011,0.20983260869979858,0.1917627602815628
0.75,0.1513272076845169,0.039581555873155594,0.0,0.5905366539955139,0.0,0.0,-0.8070108294487,0.0995277464389801,0.22005191445350647,0.0,0.0,0.0,1.7184163331985474,0.4668125510215759,0.7264274954795837,0.4200000464916229,0.565353512763977,2.092499755690369e-07,-3.122799171251245e-06,-0.8248486518859863,7.77321110945195e-05,-0.00025986178661696613,-8.42781737446785e-05,0.0064392415806651115,-0.0017407506238669157,-0.0007102192030288279,0.5256408452987671,0.7513307332992554,0.5443558692932129,-0.018938511610031128,0.3054313361644745,0.19904232025146484,0.4718976616859436,0.7210978865623474,0.42000001668930054,-0.48234227299690247,2.0441670417785645,-1.4907246828079224,-3.000000238418579,-0.17197008430957794,-0.1716373860836029,-0.17043422162532806,-0.1678907722234726,0.07924767583608627,0.11592338234186172,0.12335215508937836,0.11684226244688034
0.7666666666666666,0.15084068477153778,0.0381428487598896,0.0,0.5851611495018005,0.0,0.0,-0.8109170198440552,-0.06433577835559845,-0.17076031863689423,0.0,0.0,0.0,-1.7047524452209473,0.4668125510215759,0.7264274954795837,0.4200000464916229,0.5653535723686218,1.8534025514327368e-07,-3.034569090232253e-06,-0.8248485922813416,7.820572500349954e-05,-0.0002597800630610436,-8.438946679234505e-05,0.006434554234147072,-0.0017350360285490751,-0.0007111422019079328,0.519768238067627,0.7558281421661377,0.5421450138092041,-0.684009313583374,0.24820053577423096,-0.26965245604515076,0.4718976616859436,0.7210978865623474,0.42000001668930054,-0.47799259424209595,-1.2419438362121582,-1.4520249366760254,3.000000476837158,-0.1693316102027893,-0.16865912079811096,-0.16754500567913055,-0.16532470285892487,0.1734224110841751,0.1903153955936432,0.18298804759979248,0.15988798439502716
0.7833333333333333,0.15309590101242065,0.04264887049794197,0.0,0.5927029252052307,0.0,0.0,-0.8054211735725403,0.21843814849853516,0.41530147194862366,0.0,0.0,0.0,2.0753026008605957,0.46681252121925354,0.7264274954795837,0.4200000464916229,0.5653534531593323,2.0213964546655916e-07,-3.138115062029101e-06,-0.8248486518859863,7.696004468016326e-05,-0.0002596969425212592,-8.415081538259983e-05,0.006439305376261473,-0.0017498129745945334,-0.0007080934010446072,0.5100209712982178,0.7577657699584961,0.5357481241226196,-0.442382276058197,0.1119261384010315,-0.456542432308197,0.4718976616859436,0.7210978865623474,0.42000001668930054,-0.4836076498031616,0.42906442284584045,-1.4691648483276367,-2.999999761581421,-0.17422330379486084,-0.17184394598007202,-0.1694406270980835,-0.16629761457443237,-0.3787769675254822,-0.26858794689178467,-0.17907316982746124,-0.1100834533572197
0.8,0.15216442942619324,0.043875552713871,0.0,0.5903109312057495,0.0,0.0,-0.8071759343147278,-0.05482609570026398,-0.004673416260629892,0.0,0.0,0.0,-1.1791231632232666,0.46681252121925354,0.7264274954795837,0.4200000464916229,0.5653539299964905,2.2805720334417856e-07,-2.9898083084844984e-06,-0.8248483538627625,7.412303239107132e-05,-0.0002611793461255729,-8.34872480481863e-05,0.006493070162832737,-0.0017886433051899076,-0.0007048226543702185,0.5007845163345337,0.7584901452064514,0.522767961025238,-0.6378849148750305,-0.15134455263614655,-0.9738671779632568,0.4718976616859436,0.7210978865623474,0.42000001668930054,-0.5154264569282532,-3.000000238418579,-1.4309355020523071,3.000000238418579,-0.17546001076698303,-0.17207597196102142,-0.16883300244808197,-0.16503839194774628,-0.12431374192237854,-0.04831787198781967,0.02229318954050541,0.08341076970100403
0.8166666666666667,0.15337219834327698,0.04153836891055107,0.0,0.5669195055961609,0.0,0.0,-0.823773205280304,0.12337362766265869,-0.19209405779838562,0.0,0.0,0.0,-4.383218288421631,0.4668125510215759,0.7264274954795837,0.4200000464916229,0.565353512763977,2.405830343832349e-07,-2.9967336558911484e-06,-0.8248487114906311,7.429940887959674e-05,-0.00025974324671551585,-8.347374387085438e-05,0.006456362083554268,-0.001777631463482976,-0.0007020661723800004,0.49584218859672546,0.7547416687011719,0.5098344087600708,0.06217627972364426,-0.29352009296417236,-0.4402618408203125,0.4718976616859436,0.7210978865623474,0.42000001668930054,-0.5654455423355103,-2.999955415725708,-1.4485092163085938,-2.9999985694885254,-0.17876648902893066,-0.1742250770330429,-0.16978424787521362,-0.16484646499156952,-0.22280001640319824,-0.16032595932483673,-0.0897839218378067,-0.018162477761507034
0.8333333333333334,0.15734469890594482,0.04150794818997383,0.0,0.5596323609352112,0.0,0.0,-0.8287409543991089,0.2735404074192047,0.07017049193382263,0.0,0.0,0.0,-0.0646607056260109,0.46681252121925354,0.7264274954795837,0.4200000464916229,0.5653537511825562,1.9947347595916654e-07,-3.0923956728656776e-06,-0.8248485326766968,7.706629548920318e-05,-0.00025956254103221,-8.415966294705868e-05,0.00643536914139986,-0.0017474736087024212,-0.000708335661329329,0.49852001667022705,0.7539097666740417,0.5070487856864929,0.21437451243400574,0.11402647197246552,0.08605819940567017,0.4718976616859436,0.7210978865623474,0.42000001668930054,-0.5857053399085999,0.29860129952430725,-1.4985275268554688,-2.9999992847442627,-0.18232597410678864,-0.1773993819952011,-0.17234262824058533,-0.16668502986431122,-0.17152586579322815,-0.17984233796596527,-0.17204183340072632,-0.1557057946920395
0.85,0.15833482146263123,0.03730614855885506,0.0,0.5770171284675598,0.0,0.0,-0.8167320489883423,0.016728617250919342,-0.27476805448532104,0.0,0.0,0.0,3.124112844467163,0.46681252121925354,0.7264274954795837,0.4200000464916229,0.5653536319732666,2.678110035958525e-07,-3.010669388459064e-06,-0.8248485326766968,7.677913527004421e-05,-0.0002595428959466517,-8.405488915741444e-05,0.006436862517148256,-0.0017495101783424616,-0.0007072754087857902,0.5056860446929932,0.7556047439575195,0.5070553421974182,0.5198777318000793,-0.03425366058945656,-0.055751360952854156,0.4718976616859436,0.7210978865623474,0.42000001668930054,-0.6078069806098938,-2.676692008972168,-1.462912917137146,3.0,-0.1817106455564499,-0.17709948122501373,-0.17203310132026672,-0.16617098450660706,-0.08746641129255295,-0.06467806547880173,-0.02316644787788391,0.02779099904000759
0.8666666666666667,0.16179849207401276,0.0377739779651165,0.0,0.5795593857765198,0.0,0.0,-0.8149300217628479,0.1875789910554886,0.13284334540367126,0.0,0.0,0.0,-0.511457622051239,0.46681252121925354,0.7264274954795837,0.4200000464916229,0.5653535723686218,1.7596653378859628e-07,-2.7212504392082337e-06,-0.8248486518859863,8.024824637686834e-05,-0.00025672378251329064,-8.476688526570797e-05,0.006346240174025297,-0.0016941385110840201,-0.0007098124478943646,0.5145220160484314,0.7517409324645996,0.5043010115623474,0.5948742628097534,-0.27216637134552,-0.12937112152576447,0.4718976616859436,0.7210978865623474,0.42000001668930054,-0.6570063233375549,-2.9999988079071045,-1.479842185974121,-3.0,-0.1869322955608368,-0.18130692839622498,-0.17490167915821075,-0.16754983365535736,-0.23183748126029968,-0.19045355916023254,-0.12473923712968826,-0.044836122542619705
