vladlanda/robotic-transformer/data/env_000_episode_0273.csv
sim_time_s,robot_box_x,robot_box_y,robot_box_z,robot_box_quat_w,robot_box_quat_x,robot_box_quat_y,robot_box_quat_z,robot_box_linvel_x,robot_box_linvel_y,robot_box_linvel_z,robot_box_angvel_x,robot_box_angvel_y,robot_box_angvel_z,cube_world_x,cube_world_y,cube_world_z,cube_quat_w,cube_quat_x,cube_quat_y,cube_quat_z,cube_linvel_x,cube_linvel_y,cube_linvel_z,cube_angvel_x,cube_angvel_y,cube_angvel_z,endpoint_world_x,endpoint_world_y,endpoint_world_z,endpoint_linvel_x,endpoint_linvel_y,endpoint_linvel_z,target_cube_world_x,target_cube_world_y,target_cube_world_z,gripper_actual_pos_rad_gp_leftgearjoint,gripper_actual_vel_rad_s_gp_leftgearjoint,gripper_actual_pos_rad_gp_rotatingjoint,gripper_actual_vel_rad_s_gp_rotatingjoint,motor_angle_rad_joint1,motor_angle_rad_joint2,motor_angle_rad_joint3,motor_angle_rad_joint4,motor_speed_rad_s_joint1,motor_speed_rad_s_joint2,motor_speed_rad_s_joint3,motor_speed_rad_s_joint4
0.0,0.0,0.0,0.0,1.0,0.0,0.0,0.0,0.0,0.0,0.0,0.0,0.0,0.0,-0.3313416838645935,0.7543541789054871,0.41999998688697815,1.0,0.0,0.0,0.0,0.0,0.0,0.0,0.0,0.0,0.0,3.42540442943573e-06,-0.005000244826078415,1.313499927520752,0.0,0.0,0.0,0.47890621423721313,0.7380886077880859,0.42000001668930054,-1.5707999467849731,0.0,0.0,0.0,0.0,0.0,0.0,0.0,0.0,0.0,0.0,0.0
0.016666666666666666,0.0028640050441026688,0.002162620658054948,0.0,0.9998133182525635,0.0,0.0,-0.019322628155350685,0.23891641199588776,0.18034210801124573,0.0,0.0,0.0,-3.146228551864624,-0.33134180307388306,0.7543538808822632,0.41999998688697815,1.0,3.2799905511637917e-06,-8.339794135281409e-07,8.465515577427141e-08,-1.9833774786093272e-05,0.00017983047291636467,-6.132945418357849e-05,0.0009432245860807598,-0.004689525347203016,-0.00031981084612198174,-0.0069771092385053635,0.0041128769516944885,1.315924882888794,-0.7930276989936829,1.045365810394287,0.1791238784790039,0.47890621423721313,0.7380886077880859,0.42000001668930054,-1.5301092863082886,3.0000016689300537,-0.04587206244468689,-3.0000009536743164,0.0008636125130578876,0.0007902490324340761,0.0007047685794532299,0.0006045770132914186,0.11025362461805344,0.09682665020227432,0.08253853023052216,0.06736446917057037
0.03333333333333333,0.00890039186924696,0.006835338193923235,0.0,0.9997711777687073,0.0,0.0,-0.021390723064541817,0.4017100930213928,0.317794531583786,0.0,0.0,0.0,0.9258775115013123,-0.3313419222831726,0.7543538212776184,0.4200000464916229,1.0,3.3908547720784554e-06,-2.132463123416528e-06,-3.7102044103676235e-08,0.00026357811293564737,0.0002693787682801485,-0.00010509602725505829,-0.0017707289662212133,0.004130808636546135,-0.00013548127026297152,-0.02410643734037876,0.026569847017526627,1.3169840574264526,-1.2167603969573975,1.655928611755371,-0.03221071511507034,0.47890621423721313,0.7380886077880859,0.42000001668930054,-1.480089783668518,3.000001907348633,-0.09591182321310043,-3.000000476837158,0.002691699890419841,0.0022643490228801966,0.0017992358189076185,0.0012931114761158824,0.12945015728473663,0.09618760645389557,0.06143372878432274,0.025111714377999306
0.05,0.01750851422548294,0.01369639951735735,0.0,0.9993510842323303,0.0,0.0,-0.03601893037557602,0.5786938071250916,0.45393872261047363,0.0,0.0,0.0,-2.588336706161499,-0.331341952085495,0.7543538808822632,0.4200000464916229,1.0,3.765147084777709e-06,-2.2118799734016648e-06,5.626839438832576e-09,0.0002653094124980271,0.0002669153909664601,-0.0001044049859046936,-0.001724334666505456,0.00417739013209939,-0.00012949063966516405,-0.045267004519701004,0.05930766463279724,1.3139183521270752,-1.3135063648223877,2.2300071716308594,-0.31243351101875305,0.47890621423721313,0.7380886077880859,0.42000001668930054,-1.430071473121643,3.0000009536743164,-0.14594581723213196,-3.0000009536743164,0.004341225139796734,0.003202490508556366,0.001991521567106247,0.000705476151779294,0.10056405514478683,0.044544562697410583,-0.01331637054681778,-0.07312045991420746
0.06666666666666667,0.029633458703756332,0.023030219599604607,0.0,0.9969936609268188,0.0,0.0,-0.0774833932518959,0.7873643636703491,0.6048579216003418,0.0,0.0,0.0,-5.812297821044922,-0.331341952085495,0.7543538212776184,0.4200000464916229,0.9999999403953552,3.4068118566210615e-06,-2.2855663246446056e-06,4.3008898842344934e-07,0.00026702549075707793,0.0002679186000023037,-0.0001043803058564663,-0.0017406789120286703,0.004211718682199717,-0.00012850470375269651,-0.06804325431585312,0.09965313971042633,1.306884527206421,-1.411666750907898,2.5814788341522217,-0.5338283181190491,0.47890621423721313,0.7380886077880859,0.42000001668930054,-1.380050539970398,2.9999969005584717,-0.11310942471027374,2.999999523162842,0.005529366433620453,0.0034240924287587404,0.0012101450702175498,-0.0011187735944986343,0.06100689247250557,-0.002012650016695261,-0.06707743555307388,-0.13418473303318024
0.08333333333333333,0.03592781722545624,0.03707104176282883,0.0,0.9935164451599121,0.0,0.0,-0.11368852108716965,0.35602062940597534,0.8114416599273682,0.0,0.0,0.0,-3.303713083267212,-0.331341952085495,0.7543538212776184,0.4200000464916229,0.9999999403953552,3.6261176319385413e-06,-2.3353100004896987e-06,3.0321709232339344e-07,0.0002661392791196704,0.0002668497327249497,-0.00010405527427792549,-0.0017283691558986902,0.004196422640234232,-0.00012790464097633958,-0.09338746964931488,0.1410062164068222,1.2956593036651611,-1.4918246269226074,2.5182647705078125,-0.6329714059829712,0.47890621423721313,0.7380886077880859,0.42000001668930054,-1.330055832862854,2.999270439147949,-0.14511142671108246,-3.0000007152557373,0.00036422230186872184,-0.002396083204075694,-0.0053177825175225735,-0.008410588838160038,-0.2146786004304886,-0.28320959210395813,-0.3527081608772278,-0.42328423261642456
0.1,0.04699293524026871,0.05162915214896202,0.0,0.9868420362472534,0.0,0.0,-0.16168726980686188,0.7279940247535706,0.912822425365448,0.0,0.0,0.0,-6.660101890563965,-0.331341952085495,0.7543538212776184,0.4200000464916229,1.0,3.4221559417346725e-06,-2.308603370693163e-06,1.7962076981348218e-07,0.0002668141678441316,0.0002680037869140506,-0.00010440708138048649,-0.0017430721782147884,0.004207048565149307,-0.00012890664220321923,-0.11557500064373016,0.18645912408828735,1.2850022315979004,-1.1505169868469238,3.0181612968444824,-0.6936304569244385,0.47890621423721313,0.7380886077880859,0.42000001668930054,-1.2800401449203491,2.999999523162842,-0.1645766794681549,0.38998448848724365,-0.0003357300302013755,-0.004782064352184534,-0.009375713765621185,-0.014125324785709381,-0.09693799167871475,-0.19915743172168732,-0.3003953993320465,-0.4005597233772278
0.11666666666666667,0.056153133511543274,0.06416033953428268,0.0,0.9817368984222412,0.0,0.0,-0.19024355709552765,0.5152251124382019,0.7017374634742737,0.0,0.0,0.0,-2.229558229446411,-0.331341952085495,0.7543538808822632,0.4200000464916229,1.0,3.711526687766309e-06,-2.332745225430699e-06,2.5741212539287517e-07,0.0002648577792569995,0.00026635333779267967,-0.0001042329240590334,-0.0017182669835165143,0.004170113708823919,-0.0001291548105655238,-0.1409919708967209,0.2355591356754303,1.2706918716430664,-1.6245737075805664,3.1571879386901855,-0.9644937515258789,0.47890621423721313,0.7380886077880859,0.42000001668930054,-1.2381871938705444,2.0699892044067383,-0.20858249068260193,-3.0000007152557373,-0.0029457516502588987,-0.008951724506914616,-0.01507497951388359,-0.021322771906852722,-0.165147066116333,-0.25484389066696167,-0.34203362464904785,-0.42657366394996643
0.13333333333333333,0.06169240176677704,0.07757788151502609,0.0,0.9737910628318787,0.0,0.0,-0.22744439542293549,0.2633538842201233,0.8518860340118408,0.0,0.0,0.0,-5.35382080078125,-0.331341952085495,0.7543538212776184,0.4200000464916229,0.9999999403953552,3.4247373150719795e-06,-2.302006350873853e-06,1.5598372726799425e-07,0.0002670715330168605,0.00026811304269358516,-0.0001044438686221838,-0.0017433013999834657,0.004212083760648966,-0.00012877254630438983,-0.16698309779167175,0.29361194372177124,1.2517297267913818,-1.3936505317687988,3.8626997470855713,-1.3406941890716553,0.47890621423721313,0.7380886077880859,0.42000001668930054,-1.1901228427886963,2.9999940395355225,-0.17474651336669922,3.000000476837158,-0.006597786210477352,-0.014104426838457584,-0.02166730910539627,-0.029290886595845222,-0.26955467462539673,-0.35229942202568054,-0.43109869956970215,-0.5058149695396423
0.15,0.07113267481327057,0.08857285976409912,0.0,0.958753764629364,0.0,0.0,-0.2842380702495575,0.6203992962837219,0.5471014380455017,0.0,0.0,0.0,-7.67194938659668,-0.331341952085495,0.7543538212776184,0.4200000464916229,1.0,3.7139191135793226e-06,-2.2078627353039337e-06,-1.691075368626116e-07,0.0002635339624248445,0.00026536054792813957,-0.00010422081686556339,-0.0017012425232678652,0.004144173581153154,-0.00012960669118911028,-0.19306844472885132,0.3587392270565033,1.2254061698913574,-1.5757200717926025,4.142383098602295,-1.820710301399231,0.47890621423721313,0.7380886077880859,0.42000001668930054,-1.156243085861206,1.1921838521957397,-0.206390380859375,-2.999999761581421,-0.00952607486397028,-0.01832481287419796,-0.0271135326474905,-0.03589395061135292,-0.29940909147262573,-0.34856218099594116,-0.39505085349082947,-0.4386720359325409
0.16666666666666666,0.0754193663597107,0.10165310651063919,0.0,0.9470555782318115,0.0,0.0,-0.3210696280002594,0.24885132908821106,0.7751024961471558,0.0,0.0,0.0,-3.428030252456665,-0.331341952085495,0.7543538212776184,0.4200000464916229,0.9999999403953552,3.6383898986969143e-06,-2.2788472051615827e-06,2.7004810476682906e-07,0.0002668280794750899,0.0002675002033356577,-0.00010410090908408165,-0.0017398620257154107,0.004210075829178095,-0.00012781420082319528,-0.2253439873456955,0.42650672793388367,1.1848742961883545,-1.7824726104736328,4.412646293640137,-2.8019609451293945,0.47890621423721313,0.7380886077880859,0.42000001668930054,-1.1110930442810059,2.999999761581421,-0.2564055919647217,-2.9999985694885254,-0.021138900890946388,-0.029845966026186943,-0.038399823009967804,-0.04694826528429985,-0.5938411355018616,-0.6082503795623779,-0.6029187440872192,-0.5957900881767273
0.18333333333333332,0.08420675992965698,0.11361831426620483,0.0,0.92950838804245,0.0,0.0,-0.3688010573387146,0.5214573740959167,0.7297927141189575,0.0,0.0,0.0,-7.023609638214111,-0.331341952085495,0.7543538212776184,0.4200000464916229,1.0,3.3864780561998487e-06,-2.300328787896433e-06,1.43913510441962e-07,0.0002667454828042537,0.0002678711898624897,-0.00010436912998557091,-0.0017412276938557625,0.004206032957881689,-0.0001287862833123654,-0.25288277864456177,0.5014073252677917,1.1318421363830566,-1.3561830520629883,4.660029888153076,-3.5710105895996094,0.47890621423721313,0.7380886077880859,0.42000001668930054,-1.061089277267456,3.000001907348633,-0.30643486976623535,-2.9999988079071045,-0.029425835236907005,-0.03837282210588455,-0.0468926727771759,-0.05537978187203407,-0.6548429727554321,-0.6397982835769653,-0.6129596829414368,-0.5863314867019653
0.2,0.089582659304142,0.12327967584133148,0.0,0.9173004031181335,0.0,0.0,-0.39819586277008057,0.2789723575115204,0.4997236132621765,0.0,0.0,0.0,-2.6720640659332275,-0.331341952085495,0.7543538808822632,0.4200000464916229,1.0,3.6755909604835324e-06,-2.326654566786601e-06,2.2110826591870136e-07,0.0002648435183800757,0.0002663139021024108,-0.00010421779006719589,-0.0017178147099912167,0.004169932100921869,-0.00012909830547869205,-0.2773211598396301,0.5750778317451477,1.0620349645614624,-1.15117609500885,4.455193519592285,-4.679162979125977,0.47890621423721313,0.7380886077880859,0.42000001668930054,-1.0110841989517212,3.000000476837158,-0.3564622402191162,-2.9999990463256836,-0.043910764157772064,-0.05178294703364372,-0.05911864712834358,-0.06647297739982605,-0.9062464237213135,-0.8282622694969177,-0.7464993000030518,-0.6681603193283081
0.21666666666666667,0.090992271900177,0.13414843380451202,0.0,0.9171076416969299,0.0,0.0,-0.3986396789550781,0.01321520283818245,0.6668164730072021,0.0,0.0,0.0,1.1980838775634766,-0.331341952085495,0.7543538212776184,0.4200000464916229,1.0,3.322308884889935e-06,-2.2080657799961045e-06,2.7425528514868347e-07,0.0002666280488483608,0.0002674948191270232,-0.00010426086373627186,-0.0017357529141008854,0.00420471141114831,-0.0001283345918636769,-0.30062219500541687,0.639419436454773,0.9770176410675049,-1.3343045711517334,3.472975730895996,-5.4466352462768555,0.47890621423721313,0.7380886077880859,0.42000001668930054,-0.961074709892273,3.0000014305114746,-0.40648865699768066,-3.000000238418579,-0.05967250093817711,-0.06745253503322601,-0.07377678900957108,-0.07943589240312576,-0.9404069781303406,-0.9244835376739502,-0.8651467561721802,-0.7678775787353516
0.23333333333333334,0.09560602158308029,0.1428871601819992,0.0,0.9116465449333191,0.0,0.0,-0.4109751284122467,0.2660498023033142,0.47906622290611267,0.0,0.0,0.0,-2.505422830581665,-0.331341952085495,0.7543538212776184,0.4200000464916229,1.0,3.6565263599186437e-06,-2.3735071863484336e-06,-4.0769742781776586e-07,0.00026611797511577606,0.00026726059149950743,-0.00010423432104289532,-0.0017335338052362204,0.00419467082247138,-0.00012854738452006131,-0.3199232220649719,0.694148063659668,0.8804936408996582,-1.0355130434036255,2.8383398056030273,-6.101231575012207,0.47890621423721313,0.7380886077880859,0.42000001668930054,-0.9110652804374695,3.0000014305114746,-0.4565177261829376,-2.9999992847442627,-0.07389403134584427,-0.08119361847639084,-0.08651527762413025,-0.09069883823394775,-0.9718603491783142,-0.911287248134613,-0.8306630849838257,-0.7308973073959351
0.25,0.09655459970235825,0.1538512408733368,0.0,0.912874162197113,0.0,0.0,-0.40824106335639954,0.01586700789630413,0.684417724609375,0.0,0.0,0.0,1.2685506343841553,-0.331341952085495,0.7543538808822632,0.4200000464916229,1.0,3.6305284538684646e-06,-2.242675464003696e-06,1.120271164722908e-08,0.0002667999651748687,0.0002670602116268128,-0.00010390859097242355,-0.0017341726925224066,0.004210581071674824,-0.00012702906678896397,-0.33762434124946594,0.7305928468704224,0.7755435109138489,-1.0058592557907104,1.6342599391937256,-6.396306037902832,0.47890621423721313,0.7380886077880859,0.42000001668930054,-0.8610545992851257,2.9999959468841553,-0.5065480470657349,-2.9999988079071045,-0.08839724957942963,-0.0959562212228775,-0.10153873264789581,-0.10588496923446655,-0.8631571531295776,-0.8727362155914307,-0.8843668103218079,-0.8972569108009338
0.26666666666666666,0.10026127845048904,0.15995965898036957,0.0,0.9083267450332642,0.0,0.0,-0.41826131939888,0.2738833725452423,0.27589237689971924,0.0,0.0,0.0,-2.12431263923645,-0.3313419222831726,0.7543538212776184,0.4200000464916229,0.9999999403953552,3.7401612189569278e-06,-2.236314912806847e-06,4.499514432154683e-07,0.0002647960791364312,0.00026673005777411163,-0.00010454049333930016,-0.0017189332284033298,0.004166673868894577,-0.0001301629381487146,-0.35065966844558716,0.7533578872680664,0.6636718511581421,-0.5543684959411621,0.8566776514053345,-6.823362350463867,0.47890621423721313,0.7380886077880859,0.42000001668930054,-0.811045229434967,2.999998092651367,-0.5565781593322754,-3.000000238418579,-0.10396671295166016,-0.11135741323232651,-0.11685901880264282,-0.12118100374937057,-0.9919045567512512,-0.9770182371139526,-0.9665414690971375,-0.9596084952354431
0.2833333333333333,0.10072366893291473,0.1625313013792038,0.0,0.9106639623641968,0.0,0.0,-0.41314786672592163,-0.05868932604789734,0.11783360689878464,0.0,0.0,0.0,1.5026764869689941,-0.331341952085495,0.7543538212776184,0.4200000464916229,1.0,3.391707195987692e-06,-2.291108330609859e-06,1.2457526565867738e-07,0.0002667712979018688,0.00026789322146214545,-0.0001043747179210186,-0.0017413175664842129,0.004206290002912283,-0.0001287794002564624,-0.3579173684120178,0.7591695189476013,0.5563806891441345,-0.2084542214870453,-0.19158154726028442,-5.979783058166504,0.47890621423721313,0.7380886077880859,0.42000001668930054,-0.7610364556312561,3.00000262260437,-0.6066076755523682,-2.9999992847442627,-0.12155494093894958,-0.1287178248167038,-0.13405223190784454,-0.1382465362548828,-1.0183312892913818,-1.0138241052627563,-1.0103811025619507,-1.007633924484253
0.3,0.0971505343914032,0.1629098653793335,0.0,0.9063943028450012,0.0,0.0,-0.42243269085884094,-0.2855246663093567,-0.006135034374892712,0.0,0.0,0.0,-2.1137797832489014,-0.331341952085495,0.7543538808822632,0.4200000464916229,1.0,3.680798727145884e-06,-2.3190630145109026e-06,2.010547603958912e-07,0.0002647908986546099,0.0002662571787368506,-0.00010420940816402435,-0.0017168375197798014,0.004168940242379904,-0.00012909379438497126,-0.35470837354660034,0.7550294399261475,0.462054044008255,0.5615564584732056,-0.40198761224746704,-5.2665300369262695,0.47890621423721313,0.7380886077880859,0.42000001668930054,-0.7110286355018616,3.000000476837158,-0.6566349864006042,-2.9999990463256836,-0.1394665241241455,-0.14634770154953003,-0.15146876871585846,-0.15549398958683014,-1.0165538787841797,-1.0125401020050049,-1.0094640254974365,-1.0069963932037354
0.31666666666666665,0.09058991074562073,0.16132640838623047,0.0,0.9089527130126953,0.0,0.0,-0.4168992340564728,-0.3325501084327698,-0.20052962005138397,0.0,0.0,0.0,1.5230093002319336,-0.33215394616127014,0.7518777251243591,0.4215584695339203,0.9990242719650269,0.03669212386012077,-0.0019222685368731618,-0.02450348436832428,0.01064556185156107,-0.06936122477054596,0.03724263608455658,3.658568859100342,1.716395378112793,-2.5733728408813477,-0.34880122542381287,0.7534695267677307,0.42790865898132324,0.10771502554416656,-0.11745991557836533,-0.2108931988477707,0.47890621423721313,0.7380886077880859,0.42000001668930054,-0.6610707640647888,2.997997999191284,-0.7070416212081909,-3.0022671222686768,-0.14911234378814697,-0.15651904046535492,-0.16201309859752655,-0.16619019210338593,0.01882418617606163,-0.08530183881521225,-0.17111587524414062,-0.23017525672912598
0.3333333333333333,0.0833883062005043,0.15650847554206848,0.0,0.9046751856803894,0.0,0.0,-0.4261018633842468,-0.4787396490573883,-0.32782185077667236,0.0,0.0,0.0,-2.11922287940979,-0.3319612741470337,0.7512421607971191,0.4214947521686554,0.9987782835960388,0.038884248584508896,-0.0011925186263397336,-0.0304726455360651,0.009042634628713131,-0.022057384252548218,-0.012970944866538048,-0.7090582251548767,0.04059556871652603,-0.501316249370575,-0.3463746905326843,0.7561665773391724,0.42518824338912964,0.3222246766090393,0.31827428936958313,-0.1721581071615219,0.47890621423721313,0.7380886077880859,0.42000001668930054,-0.6110645532608032,2.9999887943267822,-0.7570900321006775,-2.9999959468841553,-0.15088795125484467,-0.15934012830257416,-0.16565081477165222,-0.1702818125486374,-0.1875840127468109,-0.21780721843242645,-0.23979291319847107,-0.2457456886768341
0.35,0.07404449582099915,0.14937040209770203,0.0,0.9073043465614319,0.0,0.0,-0.4204745590686798,-0.5985884666442871,-0.46836498379707336,0.0,0.0,0.0,1.6677870750427246,-0.3275100588798523,0.7567740082740784,0.4210146367549896,0.9964486956596375,0.025826727971434593,-0.0024791620671749115,-0.08010423183441162,0.44401228427886963,0.5309955477714539,-0.04857136681675911,-2.6193718910217285,0.2268919199705124,-9.558816909790039,-0.3394041657447815,0.7634283304214478,0.4222734570503235,0.5403586030006409,0.5368932485580444,-0.15111559629440308,0.47890621423721313,0.7380886077880859,0.42000001668930054,-0.5610595345497131,2.9999828338623047,-0.8071222901344299,-3.000000476837158,-0.15595723688602448,-0.16395840048789978,-0.16970707476139069,-0.17355510592460632,-0.3488253355026245,-0.2858222424983978,-0.21741582453250885,-0.13766838610172272
0.36666666666666664,0.06251019984483719,0.14000870287418365,0.0,0.9032705426216125,0.0,0.0,-0.42907148599624634,-0.7343224287033081,-0.6003835201263428,0.0,0.0,0.0,-2.089047908782959,-0.3193948268890381,0.7662534117698669,0.4200005531311035,0.986106276512146,1.5458221241715364e-05,-4.751802407554351e-05,-0.16611513495445251,0.5696146488189697,0.6434363126754761,-0.0005823227693326771,-0.02588268555700779,0.04109939932823181,-12.619643211364746,-0.327548623085022,0.772476077079773,0.42084410786628723,0.8457916378974915,0.6192222237586975,0.03607136011123657,0.47890621423721313,0.7380886077880859,0.42000001668930054,-0.5110310316085815,2.999969005584717,-0.8571489453315735,-2.999976634979248,-0.16274604201316833,-0.16921886801719666,-0.17334018647670746,-0.175377756357193,-0.4057212173938751,-0.29834672808647156,-0.18552228808403015,-0.0627128854393959
0.3833333333333333,0.05406798794865608,0.12765511870384216,0.0,0.8863996863365173,0.0,0.0,-0.4629206955432892,-0.5311130285263062,-0.7514480352401733,0.0,0.0,0.0,-5.238483428955078,-0.3052408993244171,0.7810564637184143,0.4207100570201874,0.974051833152771,-0.017532769590616226,0.003829831490293145,-0.22561228275299072,1.091278314590454,1.0944424867630005,0.0689753070473671,-3.2057037353515625,1.425536870956421,-5.409940719604492,-0.31061211228370667,0.7855106592178345,0.42196106910705566,1.250261664390564,0.9351539611816406,0.08978348970413208,0.47890621423721313,0.7380886077880859,0.42000001668930054,-0.460980087518692,3.0000014305114746,-0.9071559309959412,-2.999971866607666,-0.1688808649778366,-0.17333343625068665,-0.1752777248620987,-0.174919992685318,-0.48041948676109314,-0.3203801214694977,-0.15077455341815948,0.030527247115969658
0.4,0.04758106544613838,0.11281109601259232,0.0,0.8554056286811829,0.0,0.0,-0.5179586410522461,-0.27370595932006836,-0.9590953588485718,0.0,0.0,0.0,-8.354658126831055,-0.273774117231369,0.8048425316810608,0.42218512296676636,0.9628188610076904,-0.01702549308538437,-0.015498999506235123,-0.26916489005088806,2.527862787246704,1.950290560722351,0.18494528532028198,12.790876388549805,-16.828027725219727,-8.275348663330078,-0.2783636450767517,0.8081743717193604,0.4235678017139435,2.7572176456451416,1.791941523551941,0.21755114197731018,0.47890621423721313,0.7380886077880859,0.42000001668930054,-0.4112181067466736,2.823166608810425,-0.9571734666824341,-3.000000238418579,-0.17772160470485687,-0.17907999455928802,-0.177775576710701,-0.17400364577770233,-0.5309898257255554,-0.32821494340896606,-0.1182592585682869,0.09849860519170761
0.4166666666666667,0.04436364024877548,0.10266757756471634,0.0,0.8063920736312866,0.0,0.0,-0.591381311416626,-0.14575394988059998,-0.4770747125148773,0.0,0.0,0.0,-11.395295143127441,-0.20155435800552368,0.8388625979423523,0.4269369840621948,0.9416050314903259,0.042993105947971344,-0.058350495994091034,-0.32882627844810486,5.923259258270264,2.380254030227661,0.3682459890842438,17.70564079284668,-16.13298797607422,7.14914608001709,-0.20563602447509766,0.842799961566925,0.4283512532711029,5.5056328773498535,2.3726634979248047,0.449402391910553,0.47890621423721313,0.7380886077880859,0.42000001668930054,-0.3831588327884674,0.9378198385238647,-0.9200742244720459,2.997936487197876,-0.1930694729089737,-0.19103819131851196,-0.18470175564289093,-0.17613771557807922,-0.892225980758667,-0.7976046800613403,-0.50079345703125,-0.2278563678264618
0.43333333333333335,0.03804120793938637,0.09805478900671005,0.0,0.7670841217041016,0.0,0.0,-0.6415464878082275,-0.33092057704925537,-0.300424188375473,0.0,0.0,0.0,-6.166440010070801,-0.10924150049686432,0.8734272718429565,0.4371066689491272,0.9071404337882996,0.08173450082540512,-0.08091738075017929,-0.4048060178756714,5.977457523345947,1.4720816612243652,0.6753101944923401,5.407325267791748,-10.52116584777832,9.392855644226074,-0.11198415607213974,0.8790804147720337,0.4382747709751129,5.803647518157959,2.0096330642700195,0.6723637580871582,0.47890621423721313,0.7380886077880859,0.42000001668930054,-0.36948278546333313,0.8635602593421936,-0.9459415078163147,-2.999999761581421,-0.2056472897529602,-0.20417512953281403,-0.19567012786865234,-0.18282794952392578,-0.5488095879554749,-0.6043920516967773,-0.5375666618347168,-0.35639631748199463
0.45,0.036905016750097275,0.08634686470031738,0.0,0.7495041489601135,0.0,0.0,-0.6619996428489685,0.020407579839229584,-0.8403750658035278,0.0,0.0,0.0,-2.2750470638275146,-0.00817086175084114,0.8971339464187622,0.44742369651794434,0.8357835412025452,0.09175510704517365,-0.08800390362739563,-0.5341368317604065,6.177072525024414,0.031793396919965744,0.5640557408332825,-4.623404502868652,-20.11509895324707,16.828231811523438,-0.01220664568245411,0.9038385152816772,0.4476199746131897,6.232759475708008,0.8993579149246216,0.6664690971374512,0.47890621423721313,0.7380886077880859,0.42000001668930054,-0.3527282178401947,0.968219518661499,-0.9959652423858643,-3.0000035762786865,-0.21104048192501068,-0.20955881476402283,-0.19950518012046814,-0.18362413346767426,-0.2973359525203705,-0.2243659496307373,-0.08629455417394638,0.11735013872385025
0.4666666666666667,0.03219757229089737,0.0781538337469101,0.0,0.722253143787384,0.0,0.0,-0.6916288137435913,-0.2717186510562897,-0.45633792877197266,0.0,0.0,0.0,-5.438112258911133,0.0910218209028244,0.9015119671821594,0.45687398314476013,0.7887703776359558,0.08553490042686462,-0.08963097631931305,-0.6020724773406982,6.109523773193359,-0.3078959286212921,0.5635190606117249,-6.882003307342529,-22.456310272216797,-1.4942400455474854,0.08915509283542633,0.9097334146499634,0.45773845911026,6.102631568908691,-0.052778780460357666,0.633344829082489,0.47890621423721313,0.7380886077880859,0.42000001668930054,-0.33762773871421814,0.8061056733131409,-1.0459874868392944,-3.000004529953003,-0.22049580514431,-0.21669380366802216,-0.20382697880268097,-0.18458350002765656,-0.4364202320575714,-0.32771891355514526,-0.20925821363925934,-0.0727919191122055
0.48333333333333334,0.030243443325161934,0.07368996739387512,0.0,0.7105880379676819,0.0,0.0,-0.7036083340644836,-0.051676977425813675,-0.18223407864570618,0.0,0.0,0.0,-0.8423923254013062,0.1860223114490509,0.8911781311035156,0.4635944962501526,0.7256289124488831,0.07052580267190933,-0.09081799536943436,-0.6784104108810425,5.206765651702881,-1.9257795810699463,0.454337477684021,9.87877082824707,-7.198949337005615,24.252147674560547,0.18562202155590057,0.9005169868469238,0.46483591198921204,5.587247848510742,-1.1059256792068481,0.3020162582397461,0.47890621423721313,0.7380886077880859,0.42000001668930054,-0.3260135352611542,0.5303064584732056,-1.096009612083435,-3.0000014305114746,-0.22889040410518646,-0.22258412837982178,-0.20740452408790588,-0.18588483333587646,-0.500517725944519,-0.3245672881603241,-0.17927128076553345,-0.05372888222336769
0.5,0.03169633075594902,0.0671321228146553,0.0,0.6913883090019226,0.0,0.0,-0.7224833965301514,0.1424509882926941,-0.4243120551109314,0.0,0.0,0.0,-4.042674541473389,0.2691526412963867,0.8676932454109192,0.4634533226490021,0.6499832272529602,0.060755111277103424,-0.08117827773094177,-0.7531537413597107,4.137093544006348,-2.3813014030456543,-0.025663893669843674,-0.23123294115066528,-7.323629379272461,26.94658660888672,0.26885050535202026,0.8782356381416321,0.4652971029281616,4.667559623718262,-1.7368128299713135,-0.14161980152130127,0.47890621423721313,0.7380886077880859,0.42000001668930054,-0.3189493715763092,0.2528032958507538,-1.1460317373275757,-3.000002861022949,-0.2351970672607422,-0.22595418989658356,-0.20855830609798431,-0.1853368580341339,-0.39305704832077026,-0.19265758991241455,-0.04896892234683037,0.05072344094514847
0.5166666666666666,0.03582889214158058,0.06434405595064163,0.0,0.6852240562438965,0.0,0.0,-0.7283322811126709,0.26933586597442627,-0.1331087201833725,0.0,0.0,0.0,-0.02914900705218315,0.335840106010437,0.8366157412528992,0.45782339572906494,0.6125688552856445,0.03739779070019722,-0.0645872950553894,-0.7868857383728027,3.2186684608459473,-2.4219813346862793,-0.4609305262565613,-0.7922732830047607,0.05194268748164177,14.850390434265137,0.33642393350601196,0.8459354639053345,0.4599078297615051,3.670410633087158,-2.073481321334839,-0.46008288860321045,0.47890621423721313,0.7380886077880859,0.42000001668930054,-0.31319284439086914,0.44489046931266785,-1.1960538625717163,-3.0000007152557373,-0.2399350255727768,-0.2300403118133545,-0.21047988533973694,-0.18600471317768097,-0.013990928418934345,-0.13359396159648895,-0.05668037384748459,-0.03679114580154419
0.5333333333333333,0.04215067997574806,0.0641772598028183,0.0,0.670617401599884,0.0,0.0,-0.7418034076690674,0.4276178777217865,0.0835219994187355,0.0,0.0,0.0,-3.2322890758514404,0.3903857469558716,0.8056890964508057,0.4437037706375122,0.5700028538703918,-0.012148784473538399,-0.0620398186147213,-0.8192070722579956,2.6097302436828613,-2.2142341136932373,-0.9426844716072083,-6.001879692077637,1.3028481006622314,16.604978561401367,0.39134877920150757,0.8150410652160645,0.44708532094955444,3.046642780303955,-1.8243741989135742,-0.9337013959884644,0.47890621423721313,0.7380886077880859,0.42000001668930054,-0.3019915819168091,0.7446303963661194,-1.246075987815857,-3.0,-0.2372710406780243,-0.22999723255634308,-0.2105596661567688,-0.1870533525943756,0.23330461978912354,0.07499639689922333,0.020188843831419945,-0.08517652004957199
0.55,0.05147876590490341,0.0597851425409317,0.0,0.6685001254081726,0.0,0.0,-0.7437120079994202,0.5327558517456055,-0.2515832483768463,0.0,0.0,0.0,0.5845338702201843,0.4337560534477234,0.7765030264854431,0.42436954379081726,0.521869957447052,-0.08357071876525879,-0.06646829098463058,-0.846315324306488,1.7278608083724976,-2.0348165035247803,-1.062341570854187,-1.4139246940612793,4.2657575607299805,16.83636474609375,0.4349483847618103,0.7858185768127441,0.4295862019062042,2.2452492713928223,-1.7557659149169922,-1.1179770231246948,0.47890621423721313,0.7380886077880859,0.42000001668930054,-0.28737351298332214,0.8572582602500916,-1.2960962057113647,-2.999851942062378,-0.22855664789676666,-0.22428306937217712,-0.20683994889259338,-0.18613886833190918,0.430288702249527,0.29575252532958984,0.17886294424533844,0.00779451709240675
0.5666666666666667,0.05906487628817558,0.059588734060525894,0.0,0.6559896469116211,0.0,0.0,-0.7547699213027954,0.4054979681968689,-0.02224726416170597,0.0,0.0,0.0,-2.7968993186950684,0.4602072238922119,0.7628535628318787,0.42185109853744507,0.5158047676086426,-0.0048548271879553795,-0.03237512335181236,-0.8560803532600403,1.1966890096664429,-0.7789186835289001,0.003702380694448948,-3.8851864337921143,8.403820991516113,0.6118039488792419,0.45905905961990356,0.7698098421096802,0.4246951639652252,1.2417505979537964,-0.6978355050086975,-0.11626915633678436,0.47890621423721313,0.7380886077880859,0.42000001668930054,-0.2705772817134857,0.9822229146957397,-1.2638646364212036,3.000227928161621,-0.2205875813961029,-0.21904931962490082,-0.20440971851348877,-0.1871999204158783,0.6152985692024231,0.42039382457733154,0.19971004128456116,-0.05359773337841034
0.5833333333333334,0.06705951690673828,0.05654832720756531,0.0,0.6565972566604614,0.0,0.0,-0.7542413473129272,0.5110337138175964,-0.21195964515209198,0.0,0.0,0.0,1.0182849168777466,0.47523602843284607,0.7539535164833069,0.4212283790111542,0.49234139919281006,-0.021113453432917595,0.00171368638984859,-0.8701443672180176,0.4289821982383728,-0.47264426946640015,0.0664338693022728,6.942982196807861,3.6569793224334717,2.3776001930236816,0.47121462225914,0.7594033479690552,0.4253503084182739,0.41272127628326416,-0.5722373723983765,0.10392256081104279,0.47890621423721313,0.7380886077880859,0.42000001668930054,-0.26129835844039917,0.27109771966934204,-1.2841016054153442,-2.9998886585235596,-0.21171873807907104,-0.2125234752893448,-0.20107154548168182,-0.1876135766506195,0.43430212140083313,0.33836671710014343,0.17082352936267853,-0.03147606551647186
0.6,0.07273712754249573,0.05613681301474571,0.0,0.6466690897941589,0.0,0.0,-0.7627706527709961,0.28840863704681396,0.02022300288081169,0.0,0.0,0.0,-2.480032444000244,0.4791724979877472,0.7475149035453796,0.42091724276542664,0.5268950462341309,-0.012380913831293583,0.01996924914419651,-0.8496054410934448,0.18849137425422668,-0.2995242774486542,-0.016750957816839218,-0.21272923052310944,-0.6398783326148987,5.8004679679870605,0.47599074244499207,0.752655565738678,0.42386594414711,0.17709064483642578,-0.273356169462204,-0.09616642445325851,0.47890621423721313,0.7380886077880859,0.42000001668930054,-0.27143269777297974,-1.3494616746902466,-1.2459388971328735,2.9991257190704346,-0.2047169953584671,-0.20713463425636292,-0.19863945245742798,-0.18858647346496582,0.4664316773414612,0.36874228715896606,0.18223151564598083,-0.02539980597794056
0.6166666666666667,0.07860292494297028,0.05877479538321495,0.0,0.6493179202079773,0.0,0.0,-0.7605170607566833,0.3863292634487152,0.21795441210269928,0.0,0.0,0.0,1.3030781745910645,0.48152294754981995,0.7432365417480469,0.42000576853752136,0.5524662137031555,-5.783592860097997e-05,-0.00012965936912223697,-0.8335351943969727,0.040699828416109085,-0.15233473479747772,-0.001513382070697844,0.15557724237442017,0.04249247536063194,0.5229067206382751,0.47664883732795715,0.7492504119873047,0.4249916672706604,-0.07534036785364151,-0.11803492158651352,0.13944275677204132,0.47890621423721313,0.7380886077880859,0.42000001668930054,-0.31241825222969055,-3.000014543533325,-1.2662791013717651,-2.9990406036376953,-0.19752702116966248,-0.20142774283885956,-0.19593006372451782,-0.18910546600818634,0.4292362928390503,0.34998294711112976,0.17581303417682648,-0.00877104140818119
0.6333333333333333,0.08626408874988556,0.0572795644402504,0.0,0.6404634714126587,0.0,0.0,-0.7679886221885681,0.4864068627357483,-0.09882067888975143,0.0,0.0,0.0,-2.2531323432922363,0.48173555731773376,0.7419332265853882,0.4199998378753662,0.5636882185935974,-1.9337816411280073e-05,-1.9790611986536533e-05,-0.8259875774383545,-0.018591051921248436,-0.033577460795640945,-0.0005886975559405982,0.0522802397608757,-0.0007778308936394751,4.155059337615967,0.47659531235694885,0.7524271607398987,0.4279528260231018,-0.07895852625370026,0.24988244473934174,0.19631904363632202,0.47890621423721313,0.7380886077880859,0.42000001668930054,-0.3624148964881897,-3.0000009536743164,-1.3162423372268677,-2.9996414184570312,-0.18511538207530975,-0.19124287366867065,-0.18948863446712494,-0.18640893697738647,0.6361369490623474,0.5391647219657898,0.3484676480293274,0.156638965010643
0.65,0.09651126712560654,0.06028744950890541,0.0,0.6442632079124451,0.0,0.0,-0.7648038864135742,0.6237999200820923,0.18129593133926392,0.0,0.0,0.0,1.4840245246887207,0.4804674983024597,0.7418832778930664,0.4200000762939453,0.578803300857544,1.287235363633954e-06,1.0412018127681222e-06,-0.815467119216919,-0.04167572408914566,0.00679077347740531,-1.138634979724884e-05,-0.00039243497303687036,-0.0003704919363372028,0.6520923972129822,0.47461947798728943,0.7547325491905212,0.4307829737663269,-0.07493609935045242,0.1887514293193817,0.18409816920757294,0.47890621423721313,0.7380886077880859,0.42000001668930054,-0.41243448853492737,-2.9998841285705566,-1.3662540912628174,-2.999940872192383,-0.17892853915691376,-0.18579979240894318,-0.18636666238307953,-0.18566802144050598,0.4204592704772949,0.36279454827308655,0.2154717594385147,0.06883174926042557
0.6666666666666666,0.10813207179307938,0.05904283747076988,0.0,0.65016770362854,0.0,0.0,-0.7597907185554504,0.7243087887763977,-0.08570969104766846,0.0,0.0,0.0,0.6290503740310669,0.4803425073623657,0.7419021725654602,0.42000001668930054,0.5793635845184326,1.9692092791956384e-06,2.9908246688137297e-06,-0.8150692582130432,0.00011007703142240644,0.00013060324999969453,-0.00010126038250746205,-0.0011384959798306227,0.0019875275902450085,0.011011534370481968,0.4748108983039856,0.7579346895217896,0.4348125457763672,-0.015130525454878807,0.07284893840551376,0.2911461889743805,0.47890621423721313,0.7380886077880859,0.42000001668930054,-0.4624478220939636,-3.0,-1.4162348508834839,-2.9999144077301025,-0.1702103465795517,-0.17774729430675507,-0.18028922379016876,-0.18143047392368317,0.3751596510410309,0.39832958579063416,0.34891605377197266,0.30804041028022766
0.6833333333333333,0.12123173475265503,0.05512179806828499,0.0,0.6373599171638489,0.0,0.0,-0.7705662250518799,0.8169156312942505,-0.29987597465515137,0.0,0.0,0.0,-2.9529454708099365,0.48034217953681946,0.7419026494026184,0.4200000464916229,0.5793657898902893,9.644844567446853e-08,-3.2383109100919683e-06,-0.8150675892829895,9.975765715353191e-05,-0.00027563166804611683,-8.8938744738698e-05,0.0066145011223852634,-0.0015625597443431616,-0.0006964643835090101,0.47865599393844604,0.7601931095123291,0.44308242201805115,0.4664028286933899,0.15498417615890503,0.8171034455299377,0.47890621423721313,0.7380886077880859,0.42000001668930054,-0.5124602317810059,-2.999983787536621,-1.4662531614303589,-3.0,-0.16608667373657227,-0.17283299565315247,-0.1756572276353836,-0.17689907550811768,0.17471130192279816,0.24039702117443085,0.24850964546203613,0.2687108516693115
0.7,0.13723333179950714,0.0554332360625267,0.0,0.6016159057617188,0.0,0.0,-0.7987855076789856,0.9772366285324097,-0.01209635753184557,0.0,0.0,0.0,-6.268887042999268,0.48034217953681946,0.7419026494026184,0.4200000464916229,0.5793662667274475,2.935414613602916e-07,-2.800186848617159e-06,-0.8150672316551208,9.616823081159964e-05,-0.000268304196652025,-8.765654638409615e-05,0.006427687127143145,-0.0015737389912828803,-0.000679432472679764,0.49331915378570557,0.7591849565505981,0.4636222720146179,1.4244084358215332,-0.17404095828533173,1.6940150260925293,0.47890621423721313,0.7380886077880859,0.42000001668930054,-0.5624727606773376,-2.999997615814209,-1.5162714719772339,-2.999995231628418,-0.16929951310157776,-0.1739189624786377,-0.17550218105316162,-0.17536239326000214,-0.1430131494998932,-0.03469812124967575,0.030689455568790436,0.10893333703279495
0.7166666666666667,0.15010589361190796,0.05664384365081787,0.0,0.5804725289344788,0.0,0.0,-0.8142798542976379,0.6905040144920349,0.11767096817493439,0.0,0.0,0.0,-2.1266236305236816,0.48034217953681946,0.7419026494026184,0.4200000464916229,0.5793662667274475,4.200691989808547e-07,-3.040364845219301e-06,-0.8150672316551208,9.964427590603009e-05,-0.000266194372670725,-8.840439841151237e-05,0.006355300545692444,-0.001522001693956554,-0.0006840519490651786,0.5175431966781616,0.760389506816864,0.4932033121585846,1.3822959661483765,0.2912135124206543,1.832500696182251,0.47890621423721313,0.7380886077880859,0.42000001668930054,-0.5829005241394043,0.2790081202983856,-1.5662897825241089,-2.999999523162842,-0.17039597034454346,-0.17389103770256042,-0.17503322660923004,-0.1743030548095703,0.003753871889784932,0.034124989062547684,0.024458741769194603,0.01957629807293415
0.7333333333333333,0.15789926052093506,0.05987650156021118,0.0,0.585174024105072,0.0,0.0,-0.8109077215194702,0.39192017912864685,0.24049551784992218,0.0,0.0,0.0,1.562240719795227,0.48034217953681946,0.7419026494026184,0.4200000464916229,0.5793663263320923,3.545031574958557e-07,-3.10016866933438e-06,-0.8150672316551208,0.00010305755131412297,-0.00026660237926989794,-8.916063234210014e-05,0.006346344482153654,-0.0014842480886727571,-0.0006923365290276706,0.5370206236839294,0.766797661781311,0.5179403424263,0.880401074886322,0.4493807554244995,1.1930570602416992,0.47890621423721313,0.7380886077880859,0.42000001668930054,-0.5569766759872437,2.606626033782959,-1.5313230752944946,3.0000009536743164,-0.1688031256198883,-0.1719283014535904,-0.1732914000749588,-0.17273572087287903,0.13795465230941772,0.1610538363456726,0.1509622484445572,0.13997486233711243
0.75,0.16186349093914032,0.058915991336107254,0.0,0.57813960313797,0.0,0.0,-0.815937876701355,0.18797257542610168,-0.1422845721244812,0.0,0.0,0.0,-1.9602305889129639,0.48034217953681946,0.7419026494026184,0.4200000464916229,0.5793662071228027,4.1721480670275923e-07,-2.9822849683114327e-06,-0.8150673508644104,9.943776240106672e-05,-0.0002662742044776678,-8.836621418595314e-05,0.0063584656454622746,-0.0015249793650582433,-0.0006837245309725404,0.5446570515632629,0.7734799385070801,0.5312227010726929,0.024863112717866898,0.3781053423881531,0.5923262238502502,0.47890621423721313,0.7380886077880859,0.42000001668930054,-0.5350635051727295,0.2106941044330597,-1.481270432472229,3.000000238418579,-0.16624027490615845,-0.16883091628551483,-0.1701839119195938,-0.1697072684764862,0.15042966604232788,0.1930716335773468,0.2046959400177002,0.2060224711894989
0.7666666666666666,0.16240756213665009,0.06249676272273064,0.0,0.5839890241622925,0.0,0.0,-0.8117615580558777,-0.014864231459796429,0.3564818799495697,0.0,0.0,0.0,1.7414054870605469,0.48034217953681946,0.7419026494026184,0.4200000464916229,0.5793663859367371,4.1066635958486586e-07,-3.045679477509111e-06,-0.8150672316551208,9.968540689442307e-05,-0.0002661944890860468,-8.842232637107372e-05,0.006355028133839369,-0.0015217113541439176,-0.0006841641152277589,0.5423848628997803,0.7788350582122803,0.5381188988685608,-0.26639842987060547,0.364642858505249,0.2652619183063507,0.47890621423721313,0.7380886077880859,0.42000001668930054,-0.5118824243545532,2.365140676498413,-1.4977998733520508,-3.000000238418579,-0.16958776116371155,-0.17027965188026428,-0.17031003534793854,-0.16885614395141602,-0.2762053310871124,-0.15423280000686646,-0.06567620486021042,2.4330802261829376e-08
0.7833333333333333,0.16304130852222443,0.06395037472248077,0.0,0.5783194899559021,0.0,0.0,-0.8158103823661804,0.06887686997652054,0.04405803605914116,0.0,0.0,0.0,-1.774308204650879,0.48034217953681946,0.7419026494026184,0.4200000464916229,0.5793662667274475,3.858934007894277e-07,-2.92456456918444e-06,-0.8150673508644104,0.00010002976341638714,-0.00026616209652274847,-8.850754238665104e-05,0.006352351978421211,-0.0015176426386460662,-0.0006848948542028666,0.5305295586585999,0.7837125062942505,0.5358387231826782,-1.1329271793365479,0.2079051434993744,-0.3456001281738281,0.47890621423721313,0.7380886077880859,0.42000001668930054,-0.5110558867454529,-1.8971667289733887,-1.459079384803772,3.000000238418579,-0.17250534892082214,-0.1714901626110077,-0.17026971280574799,-0.16790975630283356,-0.18956896662712097,-0.08344444632530212,2.130400389432907e-08,0.05949639156460762
0.8,0.1658598780632019,0.06274949014186859,0.0,0.5847013592720032,0.0,0.0,-0.8112486600875854,0.20698411762714386,-0.17082872986793518,0.0,0.0,0.0,1.7149983644485474,0.48034217953681946,0.7419026494026184,0.4200000464916229,0.5793662667274475,4.0429819136988954e-07,-2.9851171348127536e-06,-0.8150673508644104,9.934008994605392e-05,-0.00026626058388501406,-8.832407183945179e-05,0.00635874317958951,-0.0015255236066877842,-0.00068344158353284,0.5160384178161621,0.7870101928710938,0.5310598015785217,-0.640191376209259,0.23540747165679932,-0.19332902133464813,0.47890621423721313,0.7380886077880859,0.42000001668930054,-0.5351846814155579,-1.0522738695144653,-1.4760878086090088,-3.0,-0.1767430603504181,-0.17372111976146698,-0.17072559893131256,-0.1669141799211502,-0.21227912604808807,-0.10315512120723724,-7.101334631443024e-09,0.09154840558767319
0.8166666666666667,0.17081718146800995,0.05831363424658775,0.0,0.5783699750900269,0.0,0.0,-0.8157745599746704,0.33818286657333374,-0.320838063955307,0.0,0.0,0.0,-1.8291441202163696,0.48034217953681946,0.7419026494026184,0.4200000464916229,0.5793663859367371,3.9806522522667365e-07,-3.0478679491352523e-06,-0.8150671124458313,0.0001001339842332527,-0.00026612283545546234,-8.852547034621239e-05,0.006350758485496044,-0.0015162514755502343,-0.0006853087106719613,0.50847989320755,0.7879425883293152,0.5246860980987549,-0.23794707655906677,-0.0779075101017952,-0.38813284039497375,0.47890621423721313,0.7380886077880859,0.42000001668930054,-0.5782670378684998,-2.9999964237213135,-1.5261061191558838,-2.9999992847442627,-0.18120795488357544,-0.17615452408790588,-0.17109471559524536,-0.1653100699186325,-0.2474544793367386,-0.12279009819030762,0.009941495954990387,0.1422274112701416
0.8333333333333334,0.1783793717622757,0.05153338238596916,0.0,0.549986720085144,0.0,0.0,-0.8351734280586243,0.4894534647464752,-0.5077143311500549,0.0,0.0,0.0,-5.003433704376221,0.48034217953681946,0.7419026494026184,0.4200000464916229,0.5793662667274475,4.070247996423859e-07,-2.927973355326685e-06,-0.8150672316551208,0.00010004019713960588,-0.0002661612816154957,-8.850917220115662e-05,0.0063521843403577805,-0.0015175824519246817,-0.0006849290803074837,0.5084513425827026,0.781482458114624,0.522404670715332,0.3125114440917969,-0.6176559925079346,0.236333966255188,0.47890621423721313,0.7380886077880859,0.42000001668930054,-0.6282719969749451,-2.999962329864502,-1.5761244297027588,-2.9999988079071045,-0.1872805655002594,-0.17992493510246277,-0.17239204049110413,-0.16413632035255432,-0.35549262166023254,-0.22589829564094543,-0.08336862921714783,0.06082044541835785
0.85,0.18955327570438385,0.048194944858551025,0.0,0.5359647274017334,0.0,0.0,-0.8442403674125671,0.6175281405448914,-0.2303682118654251,0.0,0.0,0.0,-0.8714173436164856,0.48034217953681946,0.7419026494026184,0.4200000464916229,0.5793662667274475,4.3182032527511183e-07,-2.9892696602473734e-06,-0.8150672316551208,9.940127347363159e-05,-0.00026617792900651693,-8.833897300064564e-05,0.00635644281283021,-0.001524248975329101,-0.0006834472878836095,0.513353705406189,0.7755763530731201,0.5302139520645142,0.35427263379096985,0.011569011956453323,0.6007575988769531,0.47890621423721313,0.7380886077880859,0.42000001668930054,-0.6461887359619141,0.5570678114891052,-1.6261399984359741,-3.000000238418579,-0.19483202695846558,-0.18581637740135193,-0.1764848530292511,-0.16647757589817047,-0.10771559923887253,-0.13225935399532318,-0.14148877561092377,-0.14441928267478943
0.8666666666666667,0.19605125486850739,0.045903414487838745,0.0,0.5486345291137695,0.0,0.0,-0.8360622525215149,0.31608542799949646,-0.09555771946907043,0.0,0.0,0.0,2.640124797821045,0.48034217953681946,0.7419026494026184,0.4200000464916229,0.5793662667274475,3.7510577044486126e-07,-3.046694700969965e-06,-0.8150672316551208,0.00010274328815285116,-0.0002666244690772146,-8.908705785870552e-05,0.00634866813197732,-0.0014880041126161814,-0.0006916587590239942,0.5224825739860535,0.7782155275344849,0.5356707572937012,0.5991747379302979,0.2163192480802536,0.08486196398735046,0.47890621423721313,0.7380886077880859,0.42000001668930054,-0.6239383816719055,1.9699914455413818,-1.5870500802993774,3.000000238418579,-0.19344347715377808,-0.1855291873216629,-0.17701290547847748,-0.16767637431621552,0.168608620762825,0.09007308632135391,0.026286138221621513,-0.03069542534649372
0.8833333333333333,0.19810713827610016,0.039909232407808304,0.0,0.5474493503570557,0.0,0.0,-0.8368388414382935,0.08257169276475906,-0.4210359454154968,0.0,0.0,0.0,-1.1753088235855103,0.48034217953681946,0.7419026494026184,0.4200000464916229,0.5793663263320923,3.727852515567065e-07,-3.1076058348844526e-06,-0.8150672316551208,0.00010227736493106931,-0.0002666955115273595,-8.897855877876282e-05,0.006353020202368498,-0.0014936237130314112,-0.0006907102069817483,0.5292441248893738,0.7786610126495361,0.5334959030151367,0.217204749584198,-0.163666233420372,-0.19009600579738617,0.47890621423721313,0.7380886077880859,0.42000001668930054,-0.6322017312049866,-2.561751365661621,-1.5369936227798462,3.000000476837158,-0.18907159566879272,-0.18251895904541016,-0.17514048516750336,-0.16684353351593018,0.19777370989322662,0.1402406245470047,0.09219904243946075,0.04598129168152809
