vladlanda/robotic-transformer/data/env_000_episode_0041.csv
sim_time_s,robot_box_x,robot_box_y,robot_box_z,robot_box_quat_w,robot_box_quat_x,robot_box_quat_y,robot_box_quat_z,robot_box_linvel_x,robot_box_linvel_y,robot_box_linvel_z,robot_box_angvel_x,robot_box_angvel_y,robot_box_angvel_z,cube_world_x,cube_world_y,cube_world_z,cube_quat_w,cube_quat_x,cube_quat_y,cube_quat_z,cube_linvel_x,cube_linvel_y,cube_linvel_z,cube_angvel_x,cube_angvel_y,cube_angvel_z,endpoint_world_x,endpoint_world_y,endpoint_world_z,endpoint_linvel_x,endpoint_linvel_y,endpoint_linvel_z,target_cube_world_x,target_cube_world_y,target_cube_world_z,gripper_actual_pos_rad_gp_leftgearjoint,gripper_actual_vel_rad_s_gp_leftgearjoint,gripper_actual_pos_rad_gp_rotatingjoint,gripper_actual_vel_rad_s_gp_rotatingjoint,motor_angle_rad_joint1,motor_angle_rad_joint2,motor_angle_rad_joint3,motor_angle_rad_joint4,motor_speed_rad_s_joint1,motor_speed_rad_s_joint2,motor_speed_rad_s_joint3,motor_speed_rad_s_joint4
0.0,0.0,0.0,0.0,1.0,0.0,0.0,0.0,0.0,0.0,0.0,0.0,0.0,0.0,-0.3409975469112396,0.6364926695823669,0.41999998688697815,1.0,0.0,0.0,0.0,0.0,0.0,0.0,0.0,0.0,0.0,3.42540442943573e-06,-0.005000244826078415,1.313499927520752,0.0,0.0,0.0,0.3610462546348572,0.6826980710029602,0.42000001668930054,-1.5707999467849731,0.0,0.0,0.0,0.0,0.0,0.0,0.0,0.0,0.0,0.0,0.0
0.016666666666666666,0.0029066987335681915,0.002115915296599269,0.0,0.9998871684074402,0.0,0.0,0.015020855702459812,0.24149733781814575,0.180743008852005,0.0,0.0,0.0,3.1426448822021484,-0.3409976661205292,0.6364923715591431,0.41999998688697815,1.0,3.2799914606584935e-06,-8.339814598912199e-07,8.465387679734704e-08,-1.9833554688375443e-05,0.00017983050202019513,-6.133061833679676e-05,0.0009432226070202887,-0.004689437802881002,-0.0003198152990080416,-0.007090803235769272,0.0034961418714374304,1.3159469366073608,-0.811480700969696,0.9901258945465088,0.18088488280773163,0.3610462546348572,0.6826980710029602,0.42000001668930054,-1.5301096439361572,3.0000016689300537,-0.04585568979382515,-3.0000007152557373,0.0008791045984253287,0.0008051962940953672,0.0007196718943305314,0.0006196972099132836,0.11084235459566116,0.09748954325914383,0.08326257020235062,0.06814634799957275
0.03333333333333333,0.008992398157715797,0.006712156347930431,0.0,0.9998777508735657,0.0,0.0,0.015635546296834946,0.4071771800518036,0.3138231933116913,0.0,0.0,0.0,-0.8677668571472168,-0.3409977853298187,0.6364923119544983,0.4200000464916229,1.0,3.39090593115543e-06,-2.1324372028175276e-06,-3.7106541839193596e-08,0.0002635782293509692,0.0002693790593184531,-0.00010509486310184002,-0.0017707175575196743,0.004130743443965912,-0.00013547750131692737,-0.02734646201133728,0.02632635273039341,1.3166275024414062,-1.5781428813934326,1.6293213367462158,-0.0821085050702095,0.3610462546348572,0.6826980710029602,0.42000001668930054,-1.4800902605056763,3.000002145767212,-0.09589552879333496,-3.000000476837158,0.0029894718900322914,0.002651988761499524,0.0022770280484110117,0.0018611402483657002,0.16353391110897064,0.13913841545581818,0.11323616653680801,0.08574855327606201
0.05,0.018490677699446678,0.013792108744382858,0.0,0.9999337196350098,0.0,0.0,-0.011514541693031788,0.6350508332252502,0.47061529755592346,0.0,0.0,0.0,-4.074579238891602,-0.3409978151321411,0.6364923715591431,0.4200000464916229,1.0,3.765230758290272e-06,-2.211922264905297e-06,5.6083799826467384e-09,0.0002653090050444007,0.00026691501261666417,-0.00010440615005791187,-0.00172435212880373,0.0041774665005505085,-0.0001294955873163417,-0.05680331587791443,0.05712355300784111,1.312148094177246,-1.944021224975586,1.9982428550720215,-0.43486905097961426,0.3610462546348572,0.6826980710029602,0.42000001668930054,-1.4300713539123535,3.000002384185791,-0.14110736548900604,-2.433239221572876,0.005990499630570412,0.005153306759893894,0.004243871197104454,0.0032578203827142715,0.20561493933200836,0.16542664170265198,0.1233048215508461,0.07917779684066772
0.06666666666666667,0.030788907781243324,0.023258429020643234,0.0,0.9997979402542114,0.0,0.0,-0.02010232023894787,0.77129727602005,0.6148039102554321,0.0,0.0,0.0,-0.03549253195524216,-0.3409978151321411,0.6364923119544983,0.4200000464916229,0.9999999403953552,3.406835730856983e-06,-2.2856456780573353e-06,4.3008122929677484e-07,0.0002670265967026353,0.0002679176104720682,-0.0001043803058564663,-0.0017406701808795333,0.004211854189634323,-0.0001285061298403889,-0.09409767389297485,0.08924658596515656,1.3017706871032715,-2.380483627319336,2.02409029006958,-0.802032470703125,0.3610462546348572,0.6826980710029602,0.42000001668930054,-1.3800443410873413,2.9999988079071045,-0.11455517262220383,3.000000476837158,0.008683289401233196,0.007137168198823929,0.005478441249579191,0.0037017990835011005,0.1493428498506546,0.09936518967151642,0.04724423214793205,-0.007082079537212849
0.08333333333333333,0.045552704483270645,0.030509307980537415,0.0,0.9990854263305664,0.0,0.0,-0.04275844618678093,0.9500406980514526,0.37551528215408325,0.0,0.0,0.0,-3.533132791519165,-0.3409978151321411,0.6364923119544983,0.4200000464916229,0.9999999403953552,3.6261644709156826e-06,-2.3353672986559104e-06,3.032186555174121e-07,0.00026613904628902674,0.0002668514207471162,-0.00010405178181827068,-0.0017283462220802903,0.004196255002170801,-0.00012790478649549186,-0.12902039289474487,0.12773211300373077,1.287689447402954,-1.855751872062683,2.5586729049682617,-0.8725011348724365,0.3610462546348572,0.6826980710029602,0.42000001668930054,-1.3300366401672363,3.0000016689300537,-0.14657077193260193,-3.0000009536743164,0.009762158617377281,0.007098083384335041,0.004278440028429031,0.0012983750784769654,0.014023085124790668,-0.07050911337137222,-0.1573275625705719,-0.24635587632656097
0.1,0.05448338761925697,0.03994547203183174,0.0,0.995437741279602,0.0,0.0,-0.09541304409503937,0.3910885751247406,0.663325846195221,0.0,0.0,0.0,-7.287773609161377,-0.3409978151321411,0.6364923119544983,0.4200000464916229,1.0,3.4222073281853227e-06,-2.308677721885033e-06,1.7962315723707434e-07,0.00026681547751650214,0.0002680041070561856,-0.00010440708138048649,-0.0017430889420211315,0.004207076504826546,-0.00012890899961348623,-0.16173464059829712,0.1734347641468048,1.267533540725708,-2.0229601860046387,2.907708168029785,-1.4537761211395264,0.3610462546348572,0.6826980710029602,0.42000001668930054,-1.2800192832946777,2.9999918937683105,-0.11306189745664597,3.000002145767212,0.0035795236472040415,0.00012928117939736694,-0.0035289740189909935,-0.0074033550918102264,-0.49598726630210876,-0.5328471064567566,-0.5722813010215759,-0.6145777702331543
0.11666666666666667,0.06501216441392899,0.052149366587400436,0.0,0.9916691184043884,0.0,0.0,-0.12881112098693848,0.8430343270301819,0.6870289444923401,0.0,0.0,0.0,-2.8275232315063477,-0.3409978151321411,0.6364923715591431,0.4200000464916229,1.0,3.711526687766309e-06,-2.332793883397244e-06,2.5743705123204563e-07,0.0002648560330271721,0.0002663539198692888,-0.00010423408821225166,-0.0017182118026539683,0.004170038737356663,-0.00012915795377921313,-0.20086541771888733,0.21617820858955383,1.2407371997833252,-2.3615970611572266,2.670376777648926,-1.714916467666626,0.3610462546348572,0.6826980710029602,0.42000001668930054,-1.2300231456756592,2.999999761581421,-0.14504759013652802,-3.0,-0.0029725730419158936,-0.007346149068325758,-0.011940917000174522,-0.016767507418990135,-0.1935739666223526,-0.2783893048763275,-0.361587256193161,-0.4431394636631012
0.13333333333333333,0.07546430081129074,0.060703620314598083,0.0,0.9847818613052368,0.0,0.0,-0.17379501461982727,0.7013323903083801,0.5010461211204529,0.0,0.0,0.0,-6.027374744415283,-0.3409978151321411,0.6364923119544983,0.4200000464916229,1.0,3.335698920636787e-06,-2.231972302979557e-06,3.1132941558098537e-07,0.0002666980435606092,0.0002675938594620675,-0.00010428414680063725,-0.001737142214551568,0.004205951001495123,-0.00012840627459809184,-0.2369241565465927,0.26569050550460815,1.2091267108917236,-1.8985698223114014,3.3905997276306152,-1.9886934757232666,0.3610462546348572,0.6826980710029602,0.42000001668930054,-1.1800037622451782,3.000000238418579,-0.11153573542833328,2.999999523162842,-0.008671832270920277,-0.014432038180530071,-0.020377840846776962,-0.026520932093262672,-0.21350616216659546,-0.325320303440094,-0.43265798687934875,-0.5353890657424927
0.15,0.08492929488420486,0.06635428965091705,0.0,0.980245053768158,0.0,0.0,-0.19778695702552795,0.5065832734107971,0.2700248658657074,0.0,0.0,0.0,-1.6080727577209473,-0.3409978151321411,0.6364923119544983,0.4200000464916229,1.0,3.518880475894548e-06,-2.283154344695504e-06,-3.6252620816412673e-07,0.00026618526317179203,0.00026735776918940246,-0.00010425550863146782,-0.0017349221743643284,0.004195718094706535,-0.00012860927381552756,-0.2722209692001343,0.3192288875579834,1.1699285507202148,-2.0230274200439453,3.392934560775757,-2.7198965549468994,0.3610462546348572,0.6826980710029602,0.42000001668930054,-1.1314852237701416,2.799818277359009,-0.14352922141551971,-3.0000011920928955,-0.013062858022749424,-0.020373985171318054,-0.02778892032802105,-0.03531990945339203,-0.31814131140708923,-0.39148950576782227,-0.4601495862007141,-0.5242586135864258
0.16666666666666666,0.09060409665107727,0.06873169541358948,0.0,0.9731751084327698,0.0,0.0,-0.23006577789783478,0.2690006494522095,0.08566084504127502,0.0,0.0,0.0,-4.739055633544922,-0.3409978151321411,0.6364923119544983,0.4200000464916229,1.0,3.666600605356507e-06,-2.339188768019085e-06,-3.1499530450673774e-07,0.00026595924282446504,0.00026667435304261744,-0.00010403618216514587,-0.0017253292025998235,0.0041928282007575035,-0.00012778396194335073,-0.3044222593307495,0.3794770836830139,1.1160337924957275,-1.7413570880889893,3.790652275085449,-3.6699326038360596,0.3610462546348572,0.6826980710029602,0.42000001668930054,-1.0815860033035278,2.9999988079071045,-0.11446790397167206,3.0,-0.02082344889640808,-0.028907576575875282,-0.03702618181705475,-0.04519707337021828,-0.5614909529685974,-0.5852518677711487,-0.6055641770362854,-0.6228535771369934
0.18333333333333332,0.09230358898639679,0.07270254194736481,0.0,0.9581868648529053,0.0,0.0,-0.2861431837081909,-0.010172924026846886,0.3107389509677887,0.0,0.0,0.0,-7.695129871368408,-0.3409978151321411,0.6364923119544983,0.4200000464916229,1.0,3.814370074906037e-06,-2.399574896116974e-06,-2.702666961340583e-07,0.0002654897980391979,0.00026611099019646645,-0.00010391091927886009,-0.0017177591798827052,0.0041848174296319485,-0.00012754288036376238,-0.3297668695449829,0.4468880891799927,1.0475037097930908,-1.1369508504867554,4.208188056945801,-4.452167510986328,0.3610462546348572,0.6826980710029602,0.42000001668930054,-1.0315768718719482,3.0000014305114746,-0.14647850394248962,-2.999999523162842,-0.03291177377104759,-0.0411735400557518,-0.04940815269947052,-0.05764206871390343,-0.8249188661575317,-0.8229289650917053,-0.8175222277641296,-0.8092296123504639
0.2,0.09699203819036484,0.0790083035826683,0.0,0.9465804696083069,0.0,0.0,-0.3224676847457886,0.25695040822029114,0.46372321248054504,0.0,0.0,0.0,-3.478980302810669,-0.3409978151321411,0.6364923119544983,0.4200000464916229,1.0,3.600122226998792e-06,-2.291252030772739e-06,-2.2019608536538726e-07,0.00026572865317575634,0.0002664501662366092,-0.00010398216545581818,-0.001722778775729239,0.0041887820698320866,-0.0001277332048630342,-0.35084784030914307,0.5097870826721191,0.9674359560012817,-0.8937479853630066,3.6106507778167725,-5.198822021484375,0.3610462546348572,0.6826980710029602,0.42000001668930054,-0.9815700054168701,3.0000009536743164,-0.19650758802890778,-2.999999761581421,-0.045674774795770645,-0.05366957560181618,-0.06158699467778206,-0.0694749727845192,-0.9882816672325134,-0.9416579008102417,-0.8773317337036133,-0.8149570226669312
0.21666666666666667,0.09866785258054733,0.0831424817442894,0.0,0.9301131963729858,0.0,0.0,-0.3672730326652527,0.07986851781606674,0.22369953989982605,0.0,0.0,0.0,-6.8590826988220215,-0.3409978151321411,0.6364923119544983,0.4200000464916229,0.9999999403953552,3.6396777431946248e-06,-2.2619990431849146e-06,2.224727353450362e-07,0.0002668732777237892,0.00026754505233839154,-0.00010411837138235569,-0.001740398583933711,0.004211041145026684,-0.00012783650890924037,-0.3638342022895813,0.5660762190818787,0.8732482194900513,-0.3629451394081116,3.2515642642974854,-6.006765365600586,0.3610462546348572,0.6826980710029602,0.42000001668930054,-0.9315598011016846,2.999985456466675,-0.24653922021389008,-2.999999761581421,-0.060890376567840576,-0.06905870139598846,-0.07708217203617096,-0.08482034504413605,-0.9553844928741455,-0.955375075340271,-0.9563395977020264,-0.9567848443984985
0.23333333333333334,0.10193713009357452,0.0885089635848999,0.0,0.918667733669281,0.0,0.0,-0.3950311541557312,0.24670317769050598,0.368965744972229,0.0,0.0,0.0,-2.488349199295044,-0.3409977853298187,0.6364923119544983,0.4200000464916229,1.0,3.420725533942459e-06,-2.3168145162344445e-06,2.955925424430461e-07,0.0002668009256012738,0.0002680391480680555,-0.00010442500934004784,-0.0017438052454963326,0.004206889308989048,-0.00012899514695163816,-0.3716527223587036,0.6080611944198608,0.7708206176757812,-0.19072861969470978,2.0447115898132324,-6.291269302368164,0.3610462546348572,0.6826980710029602,0.42000001668930054,-0.8815491199493408,2.999995231628418,-0.29657185077667236,-3.0,-0.07728233933448792,-0.08543013781309128,-0.09344884008169174,-0.10119399428367615,-0.9906015992164612,-0.9924677610397339,-0.9897581934928894,-0.986336886882782
0.25,0.10320020467042923,0.09144072979688644,0.0,0.9198338389396667,0.0,0.0,-0.3923082649707794,0.016963593661785126,0.10918545722961426,0.0,0.0,0.0,1.1664766073226929,-0.3409978151321411,0.6364923119544983,0.4200000464916229,0.9999999403953552,3.347619667692925e-06,-2.2591293600271456e-06,1.8083206043684186e-07,0.00026687842910178006,0.00026791240088641644,-0.00010439497418701649,-0.0017405577236786485,0.004208357073366642,-0.00012870198406744748,-0.377961665391922,0.630509614944458,0.6673790216445923,-0.2308957874774933,0.728298544883728,-6.15413761138916,0.3610462546348572,0.6826980710029602,0.42000001668930054,-0.8315396904945374,2.999978542327881,-0.34660446643829346,-3.000000238418579,-0.09429016709327698,-0.10233034938573837,-0.11027068644762039,-0.11795718222856522,-0.9989604353904724,-0.9987836480140686,-0.9986992478370667,-0.9986703991889954
0.26666666666666666,0.10130573809146881,0.09118323028087616,0.0,0.9155437350273132,0.0,0.0,-0.40221840143203735,-0.16225045919418335,-0.05687161907553673,0.0,0.0,0.0,-2.159679651260376,-0.3409978151321411,0.6364923119544983,0.4200000464916229,0.9999999403953552,3.535691575962119e-06,-2.300224196005729e-06,-1.2685821104696515e-07,0.000266017101239413,0.0002671221154741943,-0.00010419590398669243,-0.0017316547455266118,0.004192805383354425,-0.00012849456106778234,-0.3755369782447815,0.6373367309570312,0.5638333559036255,0.47931599617004395,-0.03439903259277344,-6.077517986297607,0.3610462546348572,0.6826980710029602,0.42000001668930054,-0.7815309166908264,3.000000238418579,-0.39663568139076233,-2.999999523162842,-0.1118052676320076,-0.11962971836328506,-0.12740612030029297,-0.13496312499046326,-1.0037541389465332,-1.002832055091858,-1.0021286010742188,-1.0015673637390137
0.2833333333333333,0.09708540141582489,0.08858612179756165,0.0,0.9177771806716919,0.0,0.0,-0.39709579944610596,-0.29660019278526306,-0.19527257978916168,0.0,0.0,0.0,1.5159581899642944,-0.3409978151321411,0.6364923715591431,0.4200000464916229,1.0,3.593470182750025e-06,-2.262564521515742e-06,-5.654738899352196e-08,0.0002670473768375814,0.00026775008882395923,-0.00010416633449494839,-0.0017430743901059031,0.00421402882784605,-0.0001278889540117234,-0.3673681318759918,0.638431191444397,0.4706677198410034,0.611890435218811,0.021922331303358078,-5.104015350341797,0.3610462546348572,0.6826980710029602,0.42000001668930054,-0.7315225005149841,3.0000009536743164,-0.44666481018066406,-2.999997138977051,-0.12930449843406677,-0.13696260750293732,-0.14461608231067657,-0.15207716822624207,-1.02145254611969,-1.0162616968154907,-1.0122923851013184,-1.0091078281402588
0.3,0.09062547236680984,0.0837894082069397,0.0,0.9137524366378784,0.0,0.0,-0.4062715172767639,-0.43309780955314636,-0.3278695344924927,0.0,0.0,0.0,-2.0557849407196045,-0.3409977853298187,0.6364923119544983,0.4200000464916229,0.9999999403953552,3.725024498635321e-06,-2.2360518414643593e-06,3.828724004506512e-07,0.00026479599182493985,0.0002667297376319766,-0.00010453932918608189,-0.0017189299687743187,0.004166660830378532,-0.0001301692536799237,-0.36110740900039673,0.6401222944259644,0.4283863604068756,0.08129692077636719,-0.04371014982461929,-0.20052552223205566,0.3610462546348572,0.6826980710029602,0.42000001668930054,-0.6815186142921448,2.999999761581421,-0.497130811214447,-2.999846935272217,-0.14299839735031128,-0.15013954043388367,-0.15713025629520416,-0.16374965012073517,-0.6154221892356873,-0.5548044443130493,-0.47610050439834595,-0.37675580382347107
0.31666666666666665,0.08190985023975372,0.07673870772123337,0.0,0.9164077043533325,0.0,0.0,-0.4002460837364197,-0.5636082291603088,-0.46190980076789856,0.0,0.0,0.0,1.6996873617172241,-0.3408433496952057,0.637761652469635,0.41999998688697815,0.9997293949127197,3.5396992643654812e-06,1.2048248208884615e-05,-0.02326015941798687,0.05917815491557121,0.21632876992225647,-6.26441469648853e-05,0.0006233662134036422,-0.0016730672214180231,-6.993281841278076,-0.36112236976623535,0.6445602178573608,0.4252326190471649,0.10653985291719437,0.2978964149951935,-0.21321861445903778,0.3610462546348572,0.6826980710029602,0.42000001668930054,-0.6315125226974487,2.999957323074341,-0.5471851825714111,-3.0,-0.15422435104846954,-0.15973499417304993,-0.16479948163032532,-0.16918601095676422,-0.6715598702430725,-0.5546635389328003,-0.42106738686561584,-0.271292120218277
0.3333333333333333,0.07095687836408615,0.06742116808891296,0.0,0.9127156138420105,0.0,0.0,-0.40859538316726685,-0.6996650695800781,-0.5989205837249756,0.0,0.0,0.0,-2.032867670059204,-0.34011581540107727,0.6407251954078674,0.42000019550323486,0.9980725646018982,-1.1096777598140761e-05,1.170349059975706e-05,-0.06205751746892929,0.05075078830122948,0.18354159593582153,-0.0003658916102722287,0.024148069322109222,-0.011194726452231407,-4.643977165222168,-0.3569835424423218,0.6475181579589844,0.4220396876335144,0.21712735295295715,0.18646717071533203,0.20793673396110535,0.3610462546348572,0.6826980710029602,0.42000001668930054,-0.581507682800293,2.9990479946136475,-0.5972330570220947,-2.972352981567383,-0.16594497859477997,-0.1691463142633438,-0.17160215973854065,-0.1731143444776535,-0.6595675349235535,-0.5030720233917236,-0.3286207318305969,-0.1393638551235199
0.35,0.0578785166144371,0.05589766055345535,0.0,0.9155194163322449,0.0,0.0,-0.4022737443447113,-0.8279916048049927,-0.7304214239120483,0.0,0.0,0.0,1.7598187923431396,-0.3372851014137268,0.6469512581825256,0.4200335144996643,0.9888559579849243,0.0007625184953212738,-4.2102277802769095e-05,-0.1488734930753708,0.3388445973396301,0.5873433351516724,0.018935658037662506,1.1256208419799805,-0.29799214005470276,-5.42868185043335,-0.35123276710510254,0.6546858549118042,0.42189571261405945,0.4633033275604248,0.5838431715965271,-0.1392029970884323,0.3610462546348572,0.6826980710029602,0.42000001668930054,-0.5315025448799133,3.0000009536743164,-0.6472589373588562,-2.9999890327453613,-0.17718544602394104,-0.17747151851654053,-0.17670264840126038,-0.17475588619709015,-0.616456925868988,-0.4408911466598511,-0.24656440317630768,-0.03854715824127197
0.36666666666666664,0.04809476435184479,0.04164143651723862,0.0,0.9120399355888367,0.0,0.0,-0.4101014733314514,-0.5018323659896851,-0.9042498469352722,0.0,0.0,0.0,-1.9540077447891235,-0.33146932721138,0.656672477722168,0.42000049352645874,0.982469379901886,-8.550092388759367e-06,9.660790965426713e-06,-0.1864241063594818,0.365615576505661,0.5906646847724915,-0.0005866630235686898,0.00621954957023263,-0.019002046436071396,-4.474922180175781,-0.34044331312179565,0.6625075340270996,0.4191591143608093,0.7714677453041077,0.4175310730934143,-0.038274552673101425,0.3610462546348572,0.6826980710029602,0.42000001668930054,-0.4814983308315277,2.9999783039093018,-0.697316586971283,-2.9999966621398926,-0.18659783899784088,-0.18377487361431122,-0.17954307794570923,-0.1738848090171814,-0.47929632663726807,-0.28920823335647583,-0.07754923403263092,0.14867013692855835
0.3833333333333333,0.036283496767282486,0.025797180831432343,0.0,0.8954099416732788,0.0,0.0,-0.44524264335632324,-0.7846350073814392,-0.9764469265937805,0.0,0.0,0.0,-5.613155364990234,-0.3202440142631531,0.6710031032562256,0.42044782638549805,0.9746915102005005,0.0049319094978272915,-0.00641237385571003,-0.22340774536132812,0.9738065004348755,1.1289410591125488,0.058138057589530945,-1.8984627723693848,-2.954780101776123,-5.858575820922852,-0.32375842332839966,0.673101007938385,0.42039838433265686,1.2648882865905762,0.8972320556640625,0.15330706536769867,0.3610462546348572,0.6826980710029602,0.42000001668930054,-0.43149396777153015,2.9999771118164062,-0.7473716735839844,-2.9992516040802,-0.19509293138980865,-0.18910136818885803,-0.1813228279352188,-0.17186765372753143,-0.4248424470424652,-0.25731590390205383,-0.06730304658412933,0.13780394196510315
0.4,0.027350515127182007,0.007022115867584944,0.0,0.8636443614959717,0.0,0.0,-0.504101574420929,-0.4857289791107178,-1.173120141029358,0.0,0.0,0.0,-8.819530487060547,-0.28565919399261475,0.6916570067405701,0.4253119230270386,0.9603489637374878,0.002337229438126087,-0.04126293584704399,-0.27572041749954224,3.229213237762451,1.6594274044036865,0.1717313677072525,30.76979637145996,-19.083147048950195,8.348530769348145,-0.28881222009658813,0.6946572065353394,0.424593985080719,2.968966245651245,1.687734603881836,0.5623257756233215,0.3610462546348572,0.6826980710029602,0.42000001668930054,-0.3917742967605591,1.412653923034668,-0.7973957061767578,-3.0000014305114746,-0.2023012638092041,-0.19330500066280365,-0.18219400942325592,-0.16921672224998474,-0.47591426968574524,-0.27521297335624695,-0.05908319726586342,0.16337430477142334
0.4166666666666667,0.020915938541293144,-0.00621976749971509,0.0,0.8143616318702698,0.0,0.0,-0.5803577303886414,-0.3340747058391571,-0.6646478176116943,0.0,0.0,0.0,-11.679759979248047,-0.2087554633617401,0.7230795621871948,0.43167343735694885,0.9375095963478088,0.07111101597547531,-0.09288373589515686,-0.32770657539367676,6.143159866333008,1.738754391670227,0.6157375574111938,-3.2943010330200195,-4.3373284339904785,12.292825698852539,-0.21173793077468872,0.7265836000442505,0.43130823969841003,5.868708610534668,2.2462844848632812,0.4522556960582733,0.3610462546348572,0.6826980710029602,0.42000001668930054,-0.3732500672340393,0.8318859934806824,-0.7606083750724792,3.0000014305114746,-0.2166721373796463,-0.20358775556087494,-0.18772156536579132,-0.17027084529399872,-0.8559427261352539,-0.6734700202941895,-0.406081885099411,-0.16587628424167633
0.43333333333333335,0.017834847792983055,-0.016119398176670074,0.0,0.7748640179634094,0.0,0.0,-0.6321279406547546,-0.1255158632993698,-0.5486927628517151,0.0,0.0,0.0,-6.656412601470947,-0.11425682157278061,0.7558925747871399,0.442480206489563,0.8913856148719788,0.10112728178501129,-0.12117079645395279,-0.4248795509338379,5.8136820793151855,1.2336078882217407,0.7845229506492615,17.562694549560547,-7.032276630401611,11.466902732849121,-0.11710217595100403,0.7603830695152283,0.4415940046310425,5.713489532470703,1.6362900733947754,0.7120611667633057,0.3610462546348572,0.6826980710029602,0.42000001668930054,-0.3593321442604065,0.915621817111969,-0.7881327867507935,-3.000002861022949,-0.22722487151622772,-0.21260204911231995,-0.19356799125671387,-0.17340122163295746,-0.5286105871200562,-0.4549483358860016,-0.31004148721694946,-0.19432230293750763
0.45,0.015892572700977325,-0.02182926796376705,0.0,0.7569147944450378,0.0,0.0,-0.6535135507583618,-0.02828720025718212,-0.32371893525123596,0.0,0.0,0.0,-2.0720152854919434,-0.020694293081760406,0.7737798690795898,0.4540984332561493,0.843014657497406,0.10030176490545273,-0.12076669931411743,-0.5144716501235962,5.624729633331299,-0.06021822243928909,0.4943855404853821,-3.3685712814331055,-17.36151123046875,14.81373119354248,-0.023114582523703575,0.7795990109443665,0.4522842764854431,5.6614885330200195,0.7258720397949219,0.76332688331604,0.3610462546348572,0.6826980710029602,0.42000001668930054,-0.3423812985420227,0.9771890640258789,-0.8381575345993042,-3.0000061988830566,-0.23726584017276764,-0.2208579182624817,-0.19924145936965942,-0.17701837420463562,-0.46318742632865906,-0.3789697289466858,-0.26132911443710327,-0.17001119256019592
0.4666666666666667,0.013525063171982765,-0.024093475192785263,0.0,0.732987642288208,0.0,0.0,-0.6802419424057007,-0.19127783179283142,-0.07362107187509537,0.0,0.0,0.0,-5.179879665374756,0.06988228857517242,0.7746291756629944,0.4608066976070404,0.789749264717102,0.0829877033829689,-0.13236020505428314,-0.5932030081748962,5.076193332672119,-1.308233380317688,0.5030123591423035,7.034419536590576,-10.112397193908691,31.363767623901367,0.06736238300800323,0.781838059425354,0.4600754380226135,5.389591217041016,-0.37142419815063477,0.4043036103248596,0.3610462546348572,0.6826980710029602,0.42000001668930054,-0.3272019922733307,0.7154920101165771,-0.8881833553314209,-3.0000030994415283,-0.240038201212883,-0.22808107733726501,-0.20455001294612885,-0.18072156608104706,-0.041630350053310394,-0.39931032061576843,-0.28682681918144226,-0.18921014666557312
0.48333333333333334,0.013780860230326653,-0.0309983529150486,0.0,0.7202535271644592,0.0,0.0,-0.6937109231948853,0.10220503062009811,-0.6294366717338562,0.0,0.0,0.0,-1.2994873523712158,0.15263062715530396,0.7633756995201111,0.464028000831604,0.719599187374115,0.058432433754205704,-0.13858845829963684,-0.6779054403305054,4.385530948638916,-1.5177772045135498,0.1082177609205246,-1.072986125946045,-6.775696277618408,16.668874740600586,0.14970049262046814,0.7715250253677368,0.46386125683784485,4.7233662605285645,-0.9071334600448608,0.1393313705921173,0.3610462546348572,0.6826980710029602,0.42000001668930054,-0.3167407810688019,0.5136645436286926,-0.9382078051567078,-3.000001907348633,-0.235120952129364,-0.2287788987159729,-0.20471696555614471,-0.18056251108646393,0.4731716513633728,0.18064874410629272,0.15937022864818573,0.1256631314754486
0.5,0.016873791813850403,-0.037491701543331146,0.0,0.6986038088798523,0.0,0.0,-0.7155086994171143,0.2178124636411667,-0.29222118854522705,0.0,0.0,0.0,-4.598464488983154,0.22178982198238373,0.7465860247612,0.46060502529144287,0.6791257858276367,0.03906243294477463,-0.13034015893936157,-0.7213000059127808,3.5014004707336426,-1.5844993591308594,-0.4033028185367584,-12.46664810180664,-3.334996223449707,12.125564575195312,0.21927720308303833,0.755070686340332,0.4608776569366455,3.8613345623016357,-1.146645426750183,-0.29893773794174194,0.3610462546348572,0.6826980710029602,0.42000001668930054,-0.30729079246520996,0.5746870040893555,-0.9882318377494812,-3.000000238418579,-0.22787977755069733,-0.225752055644989,-0.20275940001010895,-0.17982281744480133,0.4175139367580414,0.21122179925441742,0.11864794045686722,0.017406553030014038
0.5166666666666666,0.021300101652741432,-0.03841782733798027,0.0,0.6902032494544983,0.0,0.0,-0.7236155271530151,0.28797969222068787,0.035533029586076736,0.0,0.0,0.0,-0.3949805200099945,0.2764412760734558,0.7268968224525452,0.4516533613204956,0.6495327949523926,0.011749905534088612,-0.11987689882516861,-0.7507320046424866,2.5391290187835693,-1.618701696395874,-0.6041689515113831,-2.6355390548706055,10.042466163635254,10.226099967956543,0.274330198764801,0.7344623804092407,0.4524492919445038,2.9660756587982178,-1.3455445766448975,-0.6054190993309021,0.3610462546348572,0.6826980710029602,0.42000001668930054,-0.2947327196598053,0.8342217206954956,-1.0382543802261353,-2.9998583793640137,-0.22244873642921448,-0.22277912497520447,-0.20146863162517548,-0.1803719401359558,0.30612194538116455,0.19991445541381836,0.08279463648796082,-0.04396239295601845
0.5333333333333333,0.028149163350462914,-0.03813894838094711,0.0,0.6725314259529114,0.0,0.0,-0.7400685548782349,0.4903508126735687,0.008985677734017372,0.0,0.0,0.0,-3.699148416519165,0.3176523745059967,0.7089034914970398,0.43591925501823425,0.6316269040107727,-0.018936563283205032,-0.09870554506778717,-0.7687300443649292,1.7879502773284912,-1.4404501914978027,-1.0890742540359497,-13.586145401000977,2.763963222503662,18.310163497924805,0.3156561553478241,0.7154463529586792,0.4372820258140564,2.205976963043213,-1.0636427402496338,-1.0339328050613403,0.3610462546348572,0.6826980710029602,0.42000001668930054,-0.27963805198669434,0.8180303573608398,-1.0882765054702759,-3.000001907348633,-0.21412402391433716,-0.21676912903785706,-0.19862279295921326,-0.18067947030067444,0.5753384828567505,0.4344779849052429,0.20688529312610626,-0.01480677630752325
0.55,0.03311640024185181,-0.03598847612738609,0.0,0.6683957576751709,0.0,0.0,-0.7438058257102966,0.22520697116851807,0.18067291378974915,0.0,0.0,0.0,0.2667788565158844,0.34397464990615845,0.694280207157135,0.4228523373603821,0.6130797863006592,-0.04730473458766937,-0.04591459408402443,-0.7872657179832458,0.75374436378479,-0.5149059891700745,0.30254584550857544,-18.10536003112793,3.138152599334717,5.589963912963867,0.3417561650276184,0.6997374296188354,0.42441028356552124,0.819500207901001,-0.5105664730072021,0.08459365367889404,0.3610462546348572,0.6826980710029602,0.42000001668930054,-0.2650010287761688,0.931955873966217,-1.1382323503494263,-3.002678155899048,-0.2051531821489334,-0.2097376435995102,-0.19545650482177734,-0.18123222887516022,0.5536825060844421,0.4444837272167206,0.20015954971313477,-0.02938024327158928
0.5666666666666667,0.03845299035310745,-0.03640470281243324,0.0,0.654838502407074,0.0,0.0,-0.7557688355445862,0.3550175428390503,-0.0060280244797468185,0.0,0.0,0.0,-2.9307477474212646,0.3547379970550537,0.6903050541877747,0.4218340516090393,0.6060428619384766,-0.029699983075261116,-0.02876865491271019,-0.7943565249443054,0.23930931091308594,-0.22461523115634918,0.06923401355743408,-8.973099708557129,4.64448356628418,2.458369493484497,0.3507368266582489,0.694338321685791,0.4230639934539795,0.26460832357406616,-0.30281567573547363,-0.10407815128564835,0.3610462546348572,0.6826980710029602,0.42000001668930054,-0.24679049849510193,1.1947619915008545,-1.1005271673202515,2.993711233139038,-0.19513240456581116,-0.20137740671634674,-0.19127461314201355,-0.1809549331665039,0.40115034580230713,0.3618766963481903,0.15505707263946533,-0.04044798016548157
0.5833333333333334,0.04136570543050766,-0.0377919040620327,0.0,0.6546630263328552,0.0,0.0,-0.7559208273887634,0.10281780362129211,-0.17898131906986237,0.0,0.0,0.0,0.7510073184967041,0.3575696647167206,0.683501124382019,0.42148834466934204,0.6277070045471191,-0.03011234849691391,-0.024456042796373367,-0.7774823904037476,0.09788954257965088,-0.4864272475242615,-0.032420672476291656,1.724569320678711,-0.4318612515926361,5.151303291320801,0.35261625051498413,0.6885322332382202,0.42385929822921753,0.012724630534648895,-0.3159273564815521,0.09714483469724655,0.3610462546348572,0.6826980710029602,0.42000001668930054,-0.2712538242340088,-2.999901294708252,-1.1234053373336792,-2.999467134475708,-0.1914011836051941,-0.1971900910139084,-0.18958860635757446,-0.18166092038154602,0.20851446688175201,0.25499287247657776,0.11993474513292313,-0.00934827420860529
0.6,0.045420389622449875,-0.035829175263643265,0.0,0.6439908146858215,0.0,0.0,-0.7650332450866699,0.27300867438316345,0.10281641781330109,0.0,0.0,0.0,-2.6252634525299072,0.35852035880088806,0.6775743961334229,0.4203783869743347,0.6384487748146057,-0.006328744813799858,0.0011156731052324176,-0.7696373462677002,0.13519930839538574,0.019677508622407913,0.11193642020225525,-2.3094775676727295,3.3224329948425293,0.7907381057739258,0.3531808853149414,0.6870548725128174,0.4255303144454956,0.14079095423221588,0.10372424125671387,0.12640170753002167,0.3610462546348572,0.6826980710029602,0.42000001668930054,-0.3029564321041107,-0.9520573019981384,-1.1733511686325073,-2.998552083969116,-0.1893661469221115,-0.19440658390522003,-0.18897029757499695,-0.18303154408931732,0.3661613464355469,0.34885069727897644,0.16871076822280884,0.008970937691628933
0.6166666666666667,0.05137801915407181,-0.038373325020074844,0.0,0.6455792784690857,0.0,0.0,-0.7636932730674744,0.3899814486503601,-0.1520337015390396,0.0,0.0,0.0,1.133860468864441,0.36006465554237366,0.6779305338859558,0.420993447303772,0.6411700248718262,-0.01682070642709732,0.0017840223154053092,-0.7672123312950134,0.019950352609157562,0.010065421462059021,0.01863911561667919,-1.1790329217910767,0.24044716358184814,0.31195974349975586,0.35340416431427,0.6882672905921936,0.42782992124557495,-0.08615321666002274,-0.023854946717619896,0.15266886353492737,0.3610462546348572,0.6826980710029602,0.42000001668930054,-0.34732136130332947,-3.000001907348633,-1.2233469486236572,-3.0000030994415283,-0.1819288730621338,-0.1871451884508133,-0.18452204763889313,-0.18110787868499756,0.28252938389778137,0.3177841305732727,0.19769202172756195,0.0879305824637413
0.6333333333333333,0.05998415872454643,-0.03749259561300278,0.0,0.6678439378738403,0.0,0.0,-0.7443013191223145,0.5541893243789673,0.07892492413520813,0.0,0.0,0.0,4.380983352661133,0.3596125543117523,0.6778920292854309,0.4200931489467621,0.6357144713401794,-0.001602248172275722,-0.0013767293421551585,-0.7719212770462036,-0.04591513052582741,-0.011871805414557457,-0.050710227340459824,2.576002597808838,-0.5307401418685913,-2.0203258991241455,0.35183900594711304,0.6878640651702881,0.4309157729148865,-0.078752301633358,0.011193081736564636,0.24358773231506348,0.3610462546348572,0.6826980710029602,0.42000001668930054,-0.3973170518875122,-2.9999945163726807,-1.273328423500061,-2.999969244003296,-0.1789613664150238,-0.18312132358551025,-0.18171757459640503,-0.17925487458705902,0.22358988225460052,0.29018712043762207,0.2375531643629074,0.20622208714485168
0.65,0.07047995924949646,-0.04015881568193436,0.0,0.6767237782478333,0.0,0.0,-0.7362370491027832,0.6544480323791504,-0.17891627550125122,0.0,0.0,0.0,0.38714078068733215,0.3591175079345703,0.6775995492935181,0.4199999272823334,0.6289016008377075,1.7383941667503677e-05,3.462236054474488e-05,-0.7774848341941833,-0.0103920204564929,-0.0035396006423979998,-0.0007830827962607145,0.011542369611561298,0.016732720658183098,-0.4134027361869812,0.35105156898498535,0.688748300075531,0.4358943700790405,-0.05563092231750488,-0.07438497990369797,0.30336108803749084,0.3610462546348572,0.6826980710029602,0.42000001668930054,-0.4473264813423157,-2.9999427795410156,-1.323332667350769,-2.9999053478240967,-0.1741485893726349,-0.17707262933254242,-0.17613555490970612,-0.1737305074930191,0.17525309324264526,0.2886562645435333,0.311683714389801,0.35696932673454285
0.6666666666666666,0.08253544569015503,-0.04562310874462128,0.0,0.663250207901001,0.0,0.0,-0.748397707939148,0.7567662000656128,-0.39945030212402344,0.0,0.0,0.0,-3.0656561851501465,0.35911691188812256,0.6776013970375061,0.4200000464916229,0.628901481628418,-4.0836133052835066e-07,-4.3172508412681054e-06,-0.7774848937988281,0.00016004419012460858,-0.00038851116551086307,-8.60861036926508e-05,0.00854412093758583,-0.0006934854318387806,-0.00047128525329753757,0.35413581132888794,0.689120888710022,0.44809776544570923,0.4202842116355896,0.09220993518829346,1.2482630014419556,0.3610462546348572,0.6826980710029602,0.42000001668930054,-0.4973393380641937,-2.99997615814209,-1.373350977897644,-2.999999761581421,-0.17301899194717407,-0.17401888966560364,-0.17246170341968536,-0.16909682750701904,0.027180463075637817,0.13906055688858032,0.18328005075454712,0.24573878943920135
0.6833333333333333,0.09758114069700241,-0.04680826887488365,0.0,0.6278175115585327,0.0,0.0,-0.7783605456352234,0.8903442621231079,-0.03940485417842865,0.0,0.0,0.0,-6.423036098480225,0.3591168522834778,0.6776012778282166,0.4200000464916229,0.6289018988609314,3.869379554544139e-07,-3.7692327623517485e-06,-0.7774845361709595,0.00018264850950799882,-0.00028448179364204407,-9.981193579733372e-05,0.005827495828270912,-0.00040424917824566364,-0.0005366832483559847,0.37097394466400146,0.6868172883987427,0.47459542751312256,1.6232082843780518,-0.21174301207065582,2.0174620151519775,0.3610462546348572,0.6826980710029602,0.42000001668930054,-0.5473518967628479,-2.999748945236206,-1.423369288444519,-2.9999635219573975,-0.17813071608543396,-0.17647062242031097,-0.17323991656303406,-0.16800157725811005,-0.25842756032943726,-0.1216760203242302,-0.03151790425181389,0.07157478481531143
0.7,0.10957200080156326,-0.046615902334451675,0.0,0.607199490070343,0.0,0.0,-0.7945494055747986,0.644435465335846,0.04346073418855667,0.0,0.0,0.0,-2.0938851833343506,0.3591168522834778,0.6776012778282166,0.4200000464916229,0.6289016604423523,6.365594913404493e-07,-3.5668206237460254e-06,-0.7774848341941833,0.00018344094860367477,-0.0002811035083141178,-0.00010201823897659779,0.0057247113436460495,-0.00043889254448004067,-0.0005420106463134289,0.3976488709449768,0.6876718997955322,0.5090798139572144,1.4557740688323975,0.24269895255565643,2.091771125793457,0.3610462546348572,0.6826980710029602,0.42000001668930054,-0.5681875348091125,0.2236318290233612,-1.473387598991394,-2.9999985694885254,-0.17973901331424713,-0.1768762618303299,-0.17309635877609253,-0.16714809834957123,0.02245643548667431,0.043571822345256805,0.030127016827464104,0.021804897114634514
0.7166666666666667,0.11677121371030807,-0.04424304515123367,0.0,0.6120221614837646,0.0,0.0,-0.7908405661582947,0.355986088514328,0.1864151656627655,0.0,0.0,0.0,1.6022155284881592,0.3591168522834778,0.6776012778282166,0.4200000464916229,0.6289018988609314,4.514558895607479e-07,-3.413054628254031e-06,-0.7774845957756042,0.0001813081034924835,-0.00028322890284471214,-0.00010119029320776463,0.005785451270639896,-0.0004705996543634683,-0.0005372872110456228,0.4179829955101013,0.6929081678390503,0.5386487245559692,0.9006965756416321,0.34012994170188904,1.4995473623275757,0.3610462546348572,0.6826980710029602,0.42000001668930054,-0.5436261296272278,2.5041158199310303,-1.4347339868545532,3.000000238418579,-0.17773713171482086,-0.174810528755188,-0.17143215239048004,-0.16585420072078705,0.18679696321487427,0.1814391314983368,0.15212257206439972,0.12018053233623505
0.7333333333333333,0.11982780694961548,-0.04592187702655792,0.0,0.6052823662757874,0.0,0.0,-0.7960107922554016,0.15055985748767853,-0.17177550494670868,0.0,0.0,0.0,-1.9290978908538818,0.3591168522834778,0.6776012778282166,0.4200000464916229,0.6289019584655762,4.454497855022055e-07,-3.429466914894874e-06,-0.7774845361709595,0.00018128249212168157,-0.0002832376048900187,-0.00010118028149008751,0.005785895511507988,-0.00047082899254746735,-0.0005372233572416008,0.4258061647415161,0.6975222826004028,0.5566128492355347,0.030283011496067047,0.16997721791267395,0.8293544054031372,0.3610462546348572,0.6826980710029602,0.42000001668930054,-0.5123355388641357,1.3265702724456787,-1.3846813440322876,2.999999523162842,-0.1730913668870926,-0.17036555707454681,-0.16753001511096954,-0.1626109778881073,0.22987112402915955,0.23550710082054138,0.22131559252738953,0.1936902552843094
0.75,0.11976905912160873,-0.042680270969867706,0.0,0.6112160682678223,0.0,0.0,-0.7914637923240662,-0.05333032086491585,0.32887211441993713,0.0,0.0,0.0,1.782057523727417,0.3591168522834778,0.6776012778282166,0.4200000464916229,0.6289018392562866,4.5618835997629503e-07,-3.6352300867292797e-06,-0.7774845957756042,0.00018026915495283902,-0.0002829075965564698,-0.00010099518112838268,0.005783185828477144,-0.00048334943130612373,-0.000535028288140893,0.42350953817367554,0.6992648839950562,0.5670925378799438,-0.28372809290885925,0.12331487238407135,0.4556550979614258,0.3610462546348572,0.6826980710029602,0.42000001668930054,-0.47490736842155457,2.9897611141204834,-1.334678292274475,3.000000476837158,-0.17450107634067535,-0.17064175009727478,-0.16705714166164398,-0.16179011762142181,-0.13390928506851196,-0.06293123960494995,-0.013338765129446983,0.008908591233193874
0.7666666666666666,0.11771875619888306,-0.0426427498459816,0.0,0.6053115129470825,0.0,0.0,-0.7959886789321899,-0.1608690470457077,-0.10126034170389175,0.0,0.0,0.0,-1.798980474472046,0.3591168522834778,0.6776012778282166,0.4200000464916229,0.6289018988609314,4.6024626954022096e-07,-3.6561818888003472e-06,-0.7774845361709595,0.00018067607015836984,-0.00028323649894446135,-0.00010100868530571461,0.005789219867438078,-0.00047770701348781586,-0.000535861065145582,0.41375643014907837,0.6992700099945068,0.5690178275108337,-0.8954440951347351,-0.11800666153430939,-0.029785748571157455,0.3610462546348572,0.6826980710029602,0.42000001668930054,-0.45784991979599,-0.6430026292800903,-1.2846332788467407,3.000000476837158,-0.17422235012054443,-0.16961552202701569,-0.16551269590854645,-0.16011719405651093,0.06770823150873184,0.10730279982089996,0.13739065825939178,0.14513608813285828
0.7833333333333333,0.11742781847715378,-0.038966286927461624,0.0,0.6107737421989441,0.0,0.0,-0.7918052077293396,0.007076526992022991,0.1982632726430893,0.0,0.0,0.0,1.338680386543274,0.3591168522834778,0.6776012778282166,0.4200000464916229,0.628902018070221,4.3902628021896817e-07,-3.6804833598580444e-06,-0.7774845957756042,0.00018080079462379217,-0.0002832351019605994,-0.00010103918612003326,0.005788460839539766,-0.0004761908494401723,-0.0005361331277526915,0.40208691358566284,0.6981772780418396,0.5668413639068604,-0.42317214608192444,0.129812553524971,-0.21737495064735413,0.3610462546348572,0.6826980710029602,0.42000001668930054,-0.4493086636066437,1.4798177480697632,-1.3047685623168945,-3.0000007152557373,-0.17669270932674408,-0.17106996476650238,-0.1660131812095642,-0.1600000113248825,0.07238459587097168,0.06589323282241821,0.06840385496616364,0.06246718019247055
0.8,0.11855991929769516,-0.04008331894874573,0.0,0.6028947830200195,0.0,0.0,-0.7978206872940063,0.14480425417423248,-0.07493732124567032,0.0,0.0,0.0,-2.0645270347595215,0.3591168522834778,0.6776012778282166,0.4200000464916229,0.6289019584655762,4.627212888408394e-07,-3.710917781063472e-06,-0.7774845957756042,0.00018104049377143383,-0.0002833145554177463,-0.0001011132262647152,0.00578896701335907,-0.00047408530372194946,-0.0005367007106542587,0.3970147669315338,0.6993269324302673,0.5613054037094116,-0.22390863299369812,-0.04821120947599411,-0.2834039032459259,0.3610462546348572,0.6826980710029602,0.42000001668930054,-0.4702489972114563,-2.999999523162842,-1.2665932178497314,3.000000238418579,-0.1729351431131363,-0.1679549217224121,-0.16326934099197388,-0.1576554775238037,0.11598236113786697,0.10033820569515228,0.10228829830884933,0.10259972512722015
0.8166666666666667,0.12282859534025192,-0.03778628632426262,0.0,0.6077631115913391,0.0,0.0,-0.794118344783783,0.2799241840839386,0.1666429191827774,0.0,0.0,0.0,1.6132012605667114,0.3591168522834778,0.6776012778282166,0.4200000464916229,0.628902018070221,4.615942827967956e-07,-3.372083710928564e-06,-0.7774844765663147,0.0001810493558878079,-0.00028323670267127454,-0.00010110577568411827,0.005787275265902281,-0.0004731256340164691,-0.0005366791156120598,0.3961242437362671,0.6986253261566162,0.5590283274650574,0.10491711646318436,-0.014866415411233902,0.013391613960266113,0.3610462546348572,0.6826980710029602,0.42000001668930054,-0.5201837420463562,-2.9767396450042725,-1.2870222330093384,-3.0000009536743164,-0.17225392162799835,-0.1673824042081833,-0.16242854297161102,-0.15650345385074615,0.10949689149856567,0.08838292211294174,0.09482521563768387,0.10903995484113693
0.8333333333333334,0.1286173164844513,-0.038922473788261414,0.0,0.6006045341491699,0.0,0.0,-0.7995462417602539,0.3834741711616516,-0.08869008719921112,0.0,0.0,0.0,-1.9913873672485352,0.3591168522834778,0.6776012778282166,0.4200000464916229,0.6289019584655762,4.4483195438260736e-07,-3.7558816075033974e-06,-0.7774845361709595,0.00017999880947172642,-0.00028286283486522734,-0.0001009269617497921,0.005783551372587681,-0.0004866149101871997,-0.0005344385863281786,0.40141844749450684,0.6963142156600952,0.554649829864502,0.4863548278808594,-0.32297489047050476,-0.3475411832332611,0.3610462546348572,0.6826980710029602,0.42000001668930054,-0.5701867341995239,-2.999997854232788,-1.3370405435562134,-2.999999761581421,-0.16907960176467896,-0.16450245678424835,-0.1593359410762787,-0.15301312506198883,0.07520142197608948,0.10032834112644196,0.15385569632053375,0.21633855998516083
0.85,0.13695481419563293,-0.03875377029180527,0.0,0.5707014203071594,0.0,0.0,-0.8211576342582703,0.5328359007835388,0.04682179540395737,0.0,0.0,0.0,-5.334803581237793,0.3591168522834778,0.6776012778282166,0.4200000464916229,0.6289017200469971,6.184370135997597e-07,-3.548672339093173e-06,-0.7774848341941833,0.00018331663159187883,-0.00028112722793594003,-0.00010197656229138374,0.0057258810847997665,-0.00044033187441527843,-0.0005417291540652514,0.41307902336120605,0.6887226700782776,0.55059415102005,0.9226498603820801,-0.47735676169395447,0.007516238838434219,0.3610462546348572,0.6826980710029602,0.42000001668930054,-0.6096968054771423,-1.8117718696594238,-1.3870588541030884,-2.9999992847442627,-0.16838057339191437,-0.16371694207191467,-0.15803080797195435,-0.15105292201042175,0.11761994659900665,0.08828570693731308,0.08365987241268158,0.08787544071674347
0.8666666666666667,0.14270752668380737,-0.035962894558906555,0.0,0.5559720993041992,0.0,0.0,-0.8312009572982788,0.2723510265350342,0.2165411114692688,0.0,0.0,0.0,-1.091275930404663,0.3591168522834778,0.6776012778282166,0.4200000464916229,0.6289017796516418,4.631735635030054e-07,-3.382714339750237e-06,-0.7774847149848938,0.00018109801749233156,-0.0002831562887877226,-0.00010112975724041462,0.005784980952739716,-0.00047251227078959346,-0.000536802806891501,0.42457959055900574,0.6849410533905029,0.5514076948165894,0.4444715082645416,-0.09907754510641098,0.03032936528325081,0.3610462546348572,0.6826980710029602,0.42000001668930054,-0.6118832230567932,1.2825567722320557,-1.4370771646499634,-3.0000011920928955,-0.16564206779003143,-0.16171114146709442,-0.1564396172761917,-0.14979389309883118,0.20421123504638672,0.14781250059604645,0.10434883832931519,0.061669278889894485
