vladlanda/robotic-transformer/data/env_000_episode_0248.csv
sim_time_s,robot_box_x,robot_box_y,robot_box_z,robot_box_quat_w,robot_box_quat_x,robot_box_quat_y,robot_box_quat_z,robot_box_linvel_x,robot_box_linvel_y,robot_box_linvel_z,robot_box_angvel_x,robot_box_angvel_y,robot_box_angvel_z,cube_world_x,cube_world_y,cube_world_z,cube_quat_w,cube_quat_x,cube_quat_y,cube_quat_z,cube_linvel_x,cube_linvel_y,cube_linvel_z,cube_angvel_x,cube_angvel_y,cube_angvel_z,endpoint_world_x,endpoint_world_y,endpoint_world_z,endpoint_linvel_x,endpoint_linvel_y,endpoint_linvel_z,target_cube_world_x,target_cube_world_y,target_cube_world_z,gripper_actual_pos_rad_gp_leftgearjoint,gripper_actual_vel_rad_s_gp_leftgearjoint,gripper_actual_pos_rad_gp_rotatingjoint,gripper_actual_vel_rad_s_gp_rotatingjoint,motor_angle_rad_joint1,motor_angle_rad_joint2,motor_angle_rad_joint3,motor_angle_rad_joint4,motor_speed_rad_s_joint1,motor_speed_rad_s_joint2,motor_speed_rad_s_joint3,motor_speed_rad_s_joint4
0.0,0.0,0.0,0.0,1.0,0.0,0.0,0.0,0.0,0.0,0.0,0.0,0.0,0.0,-0.4427168071269989,0.6884815692901611,0.41999998688697815,1.0,0.0,0.0,0.0,0.0,0.0,0.0,0.0,0.0,0.0,3.42540442943573e-06,-0.005000244826078415,1.313499927520752,0.0,0.0,0.0,0.4304099678993225,0.6596148014068604,0.42000001668930054,-1.5707999467849731,0.0,0.0,0.0,0.0,0.0,0.0,0.0,0.0,0.0,0.0,0.0
0.016666666666666666,0.0028778850100934505,0.0021806680597364902,0.0,0.9998081922531128,0.0,0.0,0.019586581736803055,0.24087215960025787,0.18240931630134583,0.0,0.0,0.0,3.1418697834014893,-0.44271692633628845,0.6884812712669373,0.41999998688697815,1.0,3.2799914606584935e-06,-8.339814598912199e-07,8.465387679734704e-08,-1.9833554688375443e-05,0.00017983050202019513,-6.133061833679676e-05,0.0009432226070202887,-0.004689437802881002,-0.0003198152990080416,-0.007110234349966049,0.003379564033821225,1.3159373998641968,-0.8143353462219238,0.9868683815002441,0.18095196783542633,0.4304099678993225,0.6596148014068604,0.42000001668930054,-1.5301095247268677,3.0000011920928955,-0.04584788903594017,-2.9999992847442627,0.0008691533003002405,0.0007963840034790337,0.0007110277656465769,0.0006108740926720202,0.11094217747449875,0.09756709635257721,0.08334315568208694,0.06823883205652237
0.03333333333333333,0.008960976265370846,0.00680191908031702,0.0,0.9997960329055786,0.0,0.0,0.020196842029690742,0.4070209562778473,0.31530889868736267,0.0,0.0,0.0,-0.8691295981407166,-0.442717045545578,0.6884812116622925,0.4200000464916229,1.0,3.390885240150965e-06,-2.1324319732229924e-06,-3.711133800265998e-08,0.00026357753085903823,0.00026937859365716577,-0.00010509602725505829,-0.0017706351354718208,0.004130707122385502,-0.00013548039714805782,-0.027549032121896744,0.02603738196194172,1.3166213035583496,-1.5915331840515137,1.6153132915496826,-0.08217630535364151,0.4304099678993225,0.6596148014068604,0.42000001668930054,-1.4800903797149658,3.0000016689300537,-0.09588771313428879,-3.0,0.002990146866068244,0.0026527727022767067,0.0022773602977395058,0.001860831049270928,0.16422192752361298,0.1397666037082672,0.11382678151130676,0.0863100215792656
0.05,0.017729543149471283,0.013768434524536133,0.0,0.9993828535079956,0.0,0.0,0.035127703100442886,0.5934267640113831,0.4649263620376587,0.0,0.0,0.0,2.6512451171875,-0.4427170753479004,0.6884812712669373,0.4200000464916229,1.0,3.7651666389137972e-06,-2.2119106688478496e-06,5.6201381326559385e-09,0.00026530789909884334,0.00026691396487876773,-0.0001044049859046936,-0.0017242879839614034,0.004177392926067114,-0.00012949586380273104,-0.05966925248503685,0.053753629326820374,1.3116936683654785,-2.187309503555298,1.7436310052871704,-0.47011810541152954,0.4304099678993225,0.6596148014068604,0.42000001668930054,-1.4300720691680908,3.000002384185791,-0.1459263563156128,-3.0000014305114746,0.00570144597440958,0.004909787327051163,0.004046011716127396,0.0031051377300173044,0.19269311428070068,0.1557893306016922,0.11701168119907379,0.07628000527620316
0.06666666666666667,0.029038721695542336,0.023059619590640068,0.0,0.9994538426399231,0.0,0.0,0.03304525092244148,0.7199993133544922,0.5950791835784912,0.0,0.0,0.0,-1.208199381828308,-0.4427170753479004,0.6884812116622925,0.4200000464916229,0.9999999403953552,3.406765927138622e-06,-2.285584969285992e-06,4.3010237504859106e-07,0.0002670253161340952,0.00026791723212227225,-0.00010437797755002975,-0.0017405577236786485,0.004211726598441601,-0.0001285084872506559,-0.0979636013507843,0.08778691291809082,1.2992726564407349,-2.42696213722229,2.2246253490448,-0.9955000877380371,0.4304099678993225,0.6596148014068604,0.42000001668930054,-1.3800537586212158,3.000000476837158,-0.19595113396644592,-3.0,0.008265803568065166,0.006779514253139496,0.005182295572012663,0.003468128154054284,0.1495676040649414,0.09812670946121216,0.04465235397219658,-0.01092683058232069
0.08333333333333333,0.035032253712415695,0.035594724118709564,0.0,0.9999999403953552,0.0,0.0,0.00037794432137161493,0.18283705413341522,0.8265946507453918,0.0,0.0,0.0,-4.934663772583008,-0.4427170753479004,0.6884812116622925,0.4200000464916229,1.0,3.697324700624449e-06,-2.1889497929805657e-06,-2.6323201041122957e-07,0.00026389677077531815,0.0002658632874954492,-0.00010433816350996494,-0.001708115916699171,0.004150166176259518,-0.0001299091090913862,-0.136830136179924,0.12926876544952393,1.277930736541748,-2.273191452026367,2.623819589614868,-1.4830811023712158,0.4304099678993225,0.6596148014068604,0.42000001668930054,-1.3300243616104126,2.999997138977051,-0.16648688912391663,3.00000262260437,0.005549256224185228,0.003465537214651704,0.0012212063884362578,-0.001193683478049934,-0.28735196590423584,-0.3260788023471832,-0.367446631193161,-0.4117507338523865
0.1,0.0443359799683094,0.04969218745827675,0.0,0.9998996257781982,0.0,0.0,-0.01416963990777731,0.6754571795463562,0.8519452214241028,0.0,0.0,0.0,-0.6971915364265442,-0.4427170753479004,0.6884812116622925,0.4200000464916229,0.9999999403953552,3.6204476145940134e-06,-2.2652093321084976e-06,1.746138025282562e-07,0.00026676998822949827,0.0002674069837667048,-0.00010407832451164722,-0.0017385098617523909,0.0042091780342161655,-0.00012775610957760364,-0.17704448103904724,0.16821858286857605,1.2547436952590942,-2.394411087036133,2.3447489738464355,-1.3748371601104736,0.4304099678993225,0.6596148014068604,0.42000001668930054,-1.2800241708755493,2.999999761581421,-0.1981407105922699,-3.000000238418579,0.005452701821923256,0.0019287141039967537,-0.0017565037123858929,-0.005613549612462521,0.05287770926952362,-0.05102812498807907,-0.15399925410747528,-0.2559863328933716
0.11666666666666667,0.052047476172447205,0.06147808954119682,0.0,0.9991483092308044,0.0,0.0,-0.0412629134953022,0.46333423256874084,0.6583755016326904,0.0,0.0,0.0,-3.914341449737549,-0.4427170753479004,0.6884812116622925,0.4200000464916229,1.0,3.7984607388352742e-06,-2.2627837097388692e-06,-1.502189377333707e-07,0.0002637402794789523,0.000265660259174183,-0.00010428996756672859,-0.001705392962321639,0.004147498402744532,-0.0001297990238526836,-0.21302536129951477,0.2141692340373993,1.230696439743042,-1.9520983695983887,3.1256189346313477,-1.4530253410339355,0.4304099678993225,0.6596148014068604,0.42000001668930054,-1.2299987077713013,2.999993085861206,-0.16435571014881134,3.0000007152557373,0.00430741673335433,-0.0011146102333441377,-0.006669059861451387,-0.012365595437586308,-0.026524296030402184,-0.16134335100650787,-0.2930668890476227,-0.42150822281837463
0.13333333333333333,0.0569412000477314,0.07437873631715775,0.0,0.9956758618354797,0.0,0.0,-0.09289515018463135,0.22445113956928253,0.8247917890548706,0.0,0.0,0.0,-7.00865364074707,-0.4427170753479004,0.6884812712669373,0.4200000464916229,0.9999999403953552,3.5505347568687284e-06,-2.22979360842146e-06,2.929032234533224e-07,0.00026703241746872663,0.0002677922893781215,-0.00010416889563202858,-0.0017439969815313816,0.004213562235236168,-0.00012800225522369146,-0.2463488131761551,0.2675046920776367,1.205587387084961,-1.9917470216751099,3.303661584854126,-1.624650478363037,0.4304099678993225,0.6596148014068604,0.42000001668930054,-1.1886261701583862,2.0146071910858154,-0.1960771530866623,-3.0,0.002550230361521244,-0.005051085725426674,-0.012718159705400467,-0.020457087084650993,-0.1820574700832367,-0.29963162541389465,-0.41306430101394653,-0.5221787095069885
0.15,0.058536455035209656,0.08627795428037643,0.0,0.9923357367515564,0.0,0.0,-0.1235709935426712,0.049008361995220184,0.6227880716323853,0.0,0.0,0.0,-2.6307485103607178,-0.4427170753479004,0.6884812116622925,0.4200000464916229,0.9999999403953552,3.338062697366695e-06,-2.242876007585437e-06,-2.8025249676488784e-08,0.00026674612308852375,0.00026758183958008885,-0.00010427669622004032,-0.0017367495456710458,0.004206867888569832,-0.0001283180754398927,-0.2856004238128662,0.3197743594646454,1.1725454330444336,-2.313568592071533,3.3584980964660645,-2.324441432952881,0.4304099678993225,0.6596148014068604,0.42000001668930054,-1.1424013376235962,3.000000476837158,-0.18870002031326294,3.0000007152557373,-0.001440951251424849,-0.010705139487981796,-0.019956303760409355,-0.029199471697211266,-0.29840752482414246,-0.3781156539916992,-0.45330333709716797,-0.5240375399589539
0.16666666666666666,0.06364041566848755,0.09839951992034912,0.0,0.9859017133712769,0.0,0.0,-0.1673254519701004,0.35689663887023926,0.7254183292388916,0.0,0.0,0.0,-6.05329704284668,-0.4427170753479004,0.6884812712669373,0.4200000464916229,0.9999999403953552,3.6477547382673947e-06,-2.3072825570125133e-06,3.52875595410751e-08,0.0002672684204299003,0.0002680135949049145,-0.00010418612509965897,-0.001747230300679803,0.0042175729759037495,-0.00012798423995263875,-0.32169240713119507,0.3796430826187134,1.1313881874084473,-1.979110598564148,3.8233299255371094,-2.636413335800171,0.4304099678993225,0.6596148014068604,0.42000001668930054,-1.0925706624984741,2.9553682804107666,-0.2202393114566803,-3.000000476837158,-0.005770375486463308,-0.016441699117422104,-0.027018416672945023,-0.03750668838620186,-0.45469963550567627,-0.5090342164039612,-0.5604045987129211,-0.6088714003562927
0.18333333333333332,0.06583034992218018,0.10821415483951569,0.0,0.9815768003463745,0.0,0.0,-0.19106799364089966,0.09849952906370163,0.5035507678985596,0.0,0.0,0.0,-1.7247830629348755,-0.4427170753479004,0.6884812116622925,0.4200000464916229,0.9999999403953552,3.2904565614444437e-06,-2.193865839217324e-06,-2.792176019283943e-07,0.00026678055291995406,0.000267760653514415,-0.00010434072464704514,-0.0017390751745551825,0.004207063466310501,-0.00012845917080994695,-0.35722440481185913,0.43917542695999146,1.0787920951843262,-1.9417142868041992,3.6936116218566895,-3.565610885620117,0.4304099678993225,0.6596148014068604,0.42000001668930054,-1.0500388145446777,2.179982900619507,-0.2702676057815552,-3.0000014305114746,-0.017238104715943336,-0.027951300144195557,-0.03854626044631004,-0.049038805067539215,-0.7349935173988342,-0.7175837159156799,-0.699066698551178,-0.6800850629806519
0.2,0.06424662470817566,0.11894067376852036,0.0,0.9741995334625244,0.0,0.0,-0.22568842768669128,-0.15321612358093262,0.663819432258606,0.0,0.0,0.0,-5.064300537109375,-0.4427170753479004,0.6884812116622925,0.4200000464916229,1.0,3.280669488958665e-06,-2.2191218249645317e-06,1.5948940301768744e-07,0.000266279123025015,0.00026740122120827436,-0.0001042510848492384,-0.0017357164761051536,0.0041977716609835625,-0.000128651867271401,-0.3885103464126587,0.501665472984314,1.012762188911438,-1.684425950050354,3.777165174484253,-4.270990371704102,0.4304099678993225,0.6596148014068604,0.42000001668930054,-1.001107096672058,2.9999988079071045,-0.32029449939727783,-3.0000011920928955,-0.0323641262948513,-0.042811937630176544,-0.05274364724755287,-0.06257198005914688,-0.94498211145401,-0.9217320680618286,-0.8761098384857178,-0.830187201499939
0.21666666666666667,0.06653586775064468,0.13114015758037567,0.0,0.9700767993927002,0.0,0.0,-0.2427983582019806,0.12300081551074982,0.7560754418373108,0.0,0.0,0.0,-1.0453596115112305,-0.4427170753479004,0.6884812712669373,0.4200000464916229,1.0,3.6130513763055205e-06,-2.2700164663547184e-06,2.2102895513853582e-07,0.00026712645194493234,0.0002678175806067884,-0.0001041400246322155,-0.0017445534467697144,0.0042151943780481815,-0.00012786385195795447,-0.41898733377456665,0.5572488307952881,0.9363811612129211,-1.6353468894958496,3.0990095138549805,-4.92643928527832,0.4304099678993225,0.6596148014068604,0.42000001668930054,-0.9511020183563232,3.0000014305114746,-0.3703235983848572,-3.00000262260437,-0.04662839323282242,-0.05657278746366501,-0.06553144752979279,-0.07440052926540375,-0.985023021697998,-0.9645663499832153,-0.8704493641853333,-0.7799138426780701
0.23333333333333334,0.06545218825340271,0.14060616493225098,0.0,0.9621250629425049,0.0,0.0,-0.2726084291934967,-0.0982281044125557,0.5126674175262451,0.0,0.0,0.0,-4.474839210510254,-0.4427170753479004,0.6884812116622925,0.4200000464916229,1.0,3.3817634630395332e-06,-2.2908675418875646e-06,2.728248773564701e-07,0.0002669122186489403,0.0002677985467016697,-0.00010433210991322994,-0.001739602186717093,0.004209672566503286,-0.00012843367585446686,-0.4433792233467102,0.606715977191925,0.8478946685791016,-1.1673994064331055,2.825352191925049,-5.541964530944824,0.4304099678993225,0.6596148014068604,0.42000001668930054,-0.9010913372039795,3.0000007152557373,-0.4203539490699768,-3.000000238418579,-0.06287170946598053,-0.07278131693601608,-0.0816907286643982,-0.0904814675450325,-0.9887604713439941,-0.9909933805465698,-0.9889163970947266,-0.9801909327507019
0.25,0.06168440356850624,0.14642870426177979,0.0,0.959073007106781,0.0,0.0,-0.28315895795822144,-0.2691853642463684,0.2612166106700897,0.0,0.0,0.0,-0.3172925114631653,-0.442717045545578,0.6884812116622925,0.4200000464916229,0.9999999403953552,3.706490815602592e-06,-2.2229455680644605e-06,-2.2549096456714324e-07,0.00026424654060974717,0.0002665668725967407,-0.00010457867756485939,-0.001717000617645681,0.0041555617935955524,-0.00013063187361694872,-0.4626704454421997,0.643195629119873,0.7527037858963013,-0.918594241142273,1.7464015483856201,-5.871363639831543,0.4304099678993225,0.6596148014068604,0.42000001668930054,-0.8510807752609253,2.999997138977051,-0.4703851044178009,-3.000002145767212,-0.07943546772003174,-0.08931337296962738,-0.0981915071606636,-0.10694444179534912,-0.9911528825759888,-0.9927610158920288,-0.9908140897750854,-0.9864492416381836
0.26666666666666666,0.06113376095890999,0.1479218304157257,0.0,0.9525447487831116,0.0,0.0,-0.30439862608909607,0.02924867905676365,0.00649783993139863,0.0,0.0,0.0,-3.312356472015381,-0.4427170753479004,0.6884812116622925,0.4200000464916229,0.9999999403953552,3.7195993627392454e-06,-2.4034497982938774e-06,-1.8306667470824323e-07,0.00026623401208780706,0.0002672910050023347,-0.00010425737127661705,-0.0017326086526736617,0.004196528345346451,-0.00012850944767706096,-0.47359004616737366,0.6681606769561768,0.6488234996795654,-0.31258976459503174,1.1207292079925537,-6.38735294342041,0.4304099678993225,0.6596148014068604,0.42000001668930054,-0.8010716438293457,2.9999985694885254,-0.520415723323822,-3.000000476837158,-0.09593234956264496,-0.10571600496768951,-0.114537313580513,-0.12325192987918854,-0.9963542222976685,-0.9964300990104675,-0.9965036511421204,-0.9965832233428955
0.2833333333333333,0.056994080543518066,0.14729924499988556,0.0,0.9518627524375916,0.0,0.0,-0.3065245747566223,-0.31856948137283325,-0.09305094182491302,0.0,0.0,0.0,0.6658299565315247,-0.4427170753479004,0.6884812712669373,0.4200000464916229,0.9999999403953552,3.58404417966085e-06,-2.315490291948663e-06,7.405241575497712e-08,0.000265220005530864,0.00026455195620656013,-0.00010317191481590271,-0.0017020846717059612,0.004185084719210863,-0.0001249985652975738,-0.4747641086578369,0.6781635284423828,0.550514817237854,0.2691837251186371,0.2926724851131439,-5.475165367126465,0.4304099678993225,0.6596148014068604,0.42000001668930054,-0.7510628700256348,2.999999761581421,-0.5704453587532043,-3.0,-0.11396504193544388,-0.12342740595340729,-0.13200803101062775,-0.14053478837013245,-1.013811469078064,-1.0103963613510132,-1.00779390335083,-1.0057246685028076
0.3,0.04926401376724243,0.14422990381717682,0.0,0.9468040466308594,0.0,0.0,-0.32181060314178467,-0.42952674627304077,-0.2503352761268616,0.0,0.0,0.0,-2.7122743129730225,-0.4427170753479004,0.6884812116622925,0.4200000464916229,1.0,3.7242157304717693e-06,-2.271948687848635e-06,9.637550846264276e-08,0.0002631245879456401,0.0002652581606525928,-0.00010437984019517899,-0.0016960380598902702,0.004134716931730509,-0.00013027644308749586,-0.4639926552772522,0.6827061176300049,0.4622730016708374,0.9734894037246704,0.34311550855636597,-5.1266279220581055,0.4304099678993225,0.6596148014068604,0.42000001668930054,-0.7010548710823059,2.999995470046997,-0.6204730868339539,-3.000001907348633,-0.13066856563091278,-0.14008381962776184,-0.14867891371250153,-0.1572405844926834,-0.8662312626838684,-0.8921105265617371,-0.9194734692573547,-0.9442933201789856
0.31666666666666665,0.040789127349853516,0.1382652074098587,0.0,0.9473440051078796,0.0,0.0,-0.32021766901016235,-0.548568844795227,-0.3920014500617981,0.0,0.0,0.0,1.1234430074691772,-0.4429091513156891,0.687306821346283,0.4207035303115845,0.9997526407241821,0.017662888392806053,4.110073859919794e-06,-0.01351452711969614,0.009403973817825317,-0.09243011474609375,0.07918846607208252,3.9345102310180664,0.020668204873800278,-2.844719648361206,-0.4555891156196594,0.6874402761459351,0.4279109835624695,0.03258994221687317,-0.08319877088069916,-0.1731141209602356,0.4304099678993225,0.6596148014068604,0.42000001668930054,-0.6511021852493286,2.9965062141418457,-0.6709092855453491,-3.0023584365844727,-0.13917317986488342,-0.14921091496944427,-0.15820986032485962,-0.1668451726436615,-0.20127850770950317,-0.24242857098579407,-0.263157457113266,-0.25640127062797546
0.3333333333333333,0.029992174357175827,0.13017025589942932,0.0,0.942929208278656,0.0,0.0,-0.3329932689666748,-0.6952289342880249,-0.5250324010848999,0.0,0.0,0.0,-2.5263876914978027,-0.4427209794521332,0.6861592531204224,0.4210446774959564,0.9993606209754944,0.026838017627596855,-0.0006307457806542516,-0.023614196106791496,0.01054494921118021,-0.057246532291173935,0.0042054313234984875,0.22212068736553192,-0.008598732762038708,-0.9197462797164917,-0.45565295219421387,0.6888114213943481,0.4254037141799927,0.16208516061306,0.10760995000600815,-0.1752791851758957,0.4304099678993225,0.6596148014068604,0.42000001668930054,-0.6010963320732117,2.9999923706054688,-0.7209617495536804,-2.9999582767486572,-0.1439449042081833,-0.1539461761713028,-0.1625802367925644,-0.17040486633777618,-0.36035916209220886,-0.316000372171402,-0.2550159692764282,-0.17053334414958954
0.35,0.01698598824441433,0.11985167115926743,0.0,0.9439486265182495,0.0,0.0,-0.3300924003124237,-0.8195860385894775,-0.658191978931427,0.0,0.0,0.0,1.3087292909622192,-0.43993276357650757,0.6890246868133545,0.4212636947631836,0.9977325201034546,0.03247169405221939,-0.0015058866702020168,-0.05893295630812645,0.3457695543766022,0.41420623660087585,0.06409388780593872,3.392793655395508,-0.21402670443058014,-8.570208549499512,-0.4508700370788574,0.6942033767700195,0.42290687561035156,0.3846898078918457,0.4853399991989136,-0.11981059610843658,0.4304099678993225,0.6596148014068604,0.42000001668930054,-0.5510913133621216,2.999983072280884,-0.770994246006012,-3.000005006790161,-0.1512344926595688,-0.15984909236431122,-0.16683384776115417,-0.1726406216621399,-0.44963738322257996,-0.34537273645401,-0.22650982439517975,-0.08680566400289536
0.36666666666666664,0.00699168024584651,0.10697019100189209,0.0,0.9400445222854614,0.0,0.0,-0.34105172753334045,-0.5215104222297668,-0.8186063170433044,0.0,0.0,0.0,-2.275916814804077,-0.43395376205444336,0.6961042881011963,0.421014666557312,0.9909428358078003,0.02571047842502594,-0.0037438117433339357,-0.13174687325954437,0.4327069818973541,0.49826425313949585,-0.03678082674741745,-1.9479918479919434,0.3678777515888214,-10.842270851135254,-0.4426403045654297,0.7011380195617676,0.42153072357177734,0.6554516553878784,0.46266040205955505,-0.07056419551372528,0.4304099678993225,0.6596148014068604,0.42000001668930054,-0.5010864734649658,2.9999840259552,-0.8210445642471313,-2.999997854232788,-0.15992537140846252,-0.16610175371170044,-0.1703842729330063,-0.17314137518405914,-0.5221980214118958,-0.351074755191803,-0.16506536304950714,0.040110763162374496
0.3833333333333333,-0.005548621527850628,0.09239853918552399,0.0,0.9251642227172852,0.0,0.0,-0.37956711649894714,-0.7544244527816772,-0.9308794736862183,0.0,0.0,0.0,-5.8387131690979,-0.4223621189594269,0.7086719274520874,0.4201706051826477,0.9774290323257446,-0.0008104831213131547,-0.004130941350013018,-0.21122190356254578,1.044460654258728,1.129655122756958,0.07668076455593109,-1.647916316986084,-3.1498358249664307,-5.448537349700928,-0.42828792333602905,0.7128488421440125,0.42223161458969116,1.059776782989502,1.0339856147766113,0.12531228363513947,0.4304099678993225,0.6596148014068604,0.42000001668930054,-0.4510533809661865,2.9999935626983643,-0.8710727095603943,-2.9999563694000244,-0.17052783071994781,-0.17341244220733643,-0.17414337396621704,-0.1730361133813858,-0.46669870615005493,-0.3012256324291229,-0.11696110665798187,0.08959024399518967
0.4,-0.014415191486477852,0.07466764003038406,0.0,0.8971646428108215,0.0,0.0,-0.44169631600379944,-0.4930194616317749,-1.1092675924301147,0.0,0.0,0.0,-8.934327125549316,-0.39150145649909973,0.734618067741394,0.4228353202342987,0.964073896408081,-0.005662196781486273,-0.030963636934757233,-0.26376238465309143,2.6850757598876953,2.0641608238220215,0.2553834319114685,23.87117576599121,-16.216129302978516,0.9196383357048035,-0.3976789712905884,0.7390120029449463,0.4247709810733795,2.6762194633483887,2.04642391204834,0.3476521372795105,0.4304099678993225,0.6596148014068604,0.42000001668930054,-0.40225133299827576,2.483266592025757,-0.9104977250099182,-1.8110740184783936,-0.17930641770362854,-0.17891453206539154,-0.1760990172624588,-0.17114636301994324,-0.6158225536346436,-0.382862389087677,-0.1383630931377411,0.11773017793893814
0.4166666666666667,-0.021244261413812637,0.06185094267129898,0.0,0.8526822924613953,0.0,0.0,-0.5224297642707825,-0.31743261218070984,-0.7836460471153259,0.0,0.0,0.0,-11.71014404296875,-0.32084551453590393,0.7745624780654907,0.42813533544540405,0.9411306977272034,0.05681269243359566,-0.07353377342224121,-0.3250199854373932,5.655556678771973,2.887181043624878,0.37852010130882263,10.139378547668457,-11.15805721282959,7.713574409484863,-0.3267868757247925,0.779438853263855,0.43010807037353516,5.291203498840332,2.890026569366455,0.39751502871513367,0.4304099678993225,0.6596148014068604,0.42000001668930054,-0.3796077072620392,0.9048159718513489,-0.8686708211898804,2.9996490478515625,-0.19501261413097382,-0.19160284101963043,-0.18323330581188202,-0.17292334139347076,-0.6030107140541077,-0.6366237998008728,-0.3664911091327667,-0.11165882647037506
0.43333333333333335,-0.02405591681599617,0.05120197311043739,0.0,0.7882868051528931,0.0,0.0,-0.6153079867362976,-0.11636906117200851,-0.5751413702964783,0.0,0.0,0.0,-14.381397247314453,-0.21242092549800873,0.8207804560661316,0.4363577365875244,0.9121036529541016,0.12571200728416443,-0.1127501130104065,-0.3735649585723877,7.878893852233887,2.185504913330078,0.6566587686538696,11.195600509643555,-17.486738204956055,17.18303108215332,-0.21759575605392456,0.8272668123245239,0.438538134098053,7.559636116027832,2.7351527214050293,0.6367176175117493,0.4304099678993225,0.6596148014068604,0.42000001668930054,-0.3655228614807129,0.9134618043899536,-0.8186641931533813,2.995014190673828,-0.20855088531970978,-0.2041073441505432,-0.19090542197227478,-0.17623907327651978,-0.8786314725875854,-0.7658026218414307,-0.4867296516895294,-0.243892639875412
0.45,-0.030446769669651985,0.04651511088013649,0.0,0.7292075157165527,0.0,0.0,-0.6842926144599915,-0.3298170268535614,-0.29137226939201355,0.0,0.0,0.0,-9.474929809570312,-0.09102950990200043,0.8465686440467834,0.4458529055118561,0.8698194026947021,0.14406482875347137,-0.13218913972377777,-0.45297396183013916,7.137691974639893,0.36213281750679016,0.8384451866149902,16.74149513244629,0.10021139681339264,23.952917098999023,-0.09621153026819229,0.8558616638183594,0.44877684116363525,7.294445991516113,1.0342283248901367,0.5330245494842529,0.4304099678993225,0.6596148014068604,0.42000001668930054,-0.34978151321411133,0.9238837957382202,-0.8454328775405884,-3.0000016689300537,-0.22404804825782776,-0.21960864961147308,-0.20398396253585815,-0.18353748321533203,-0.6495842337608337,-0.7095215916633606,-0.7296208143234253,-0.4373505413532257
0.4666666666666667,-0.03244679793715477,0.035493288189172745,0.0,0.6909346580505371,0.0,0.0,-0.7229171991348267,-0.1406223177909851,-0.6301372647285461,0.0,0.0,0.0,-5.199974536895752,0.025271568447351456,0.8535038828849792,0.4549635350704193,0.8278391361236572,0.15651296079158783,-0.09877561032772064,-0.5295558571815491,7.123063564300537,-0.490058958530426,0.48130741715431213,26.13836097717285,-17.243558883666992,1.270099401473999,0.021381916478276253,0.8642191886901855,0.4569731652736664,6.68177604675293,-0.43002113699913025,0.5225663185119629,0.4304099678993225,0.6596148014068604,0.42000001668930054,-0.333657443523407,0.8918134570121765,-0.8954588174819946,-3.0000011920928955,-0.2333858758211136,-0.22821877896785736,-0.21172910928726196,-0.18632622063159943,-0.8186013102531433,-0.6414711475372314,-0.48523786664009094,-0.14742626249790192
0.48333333333333334,-0.0369689017534256,0.029881278052926064,0.0,0.6779544949531555,0.0,0.0,-0.7351038455963135,-0.246400848031044,-0.2955251932144165,0.0,0.0,0.0,-0.9337030053138733,0.1289253681898117,0.8370201587677002,0.4591376781463623,0.7544623613357544,0.13030552864074707,-0.1293371617794037,-0.6301419734954834,4.987002372741699,-1.891573190689087,-0.03295321390032768,-27.73604393005371,11.091976165771484,17.105398178100586,0.12470436841249466,0.8499754071235657,0.4637840688228607,5.722724914550781,-1.2531641721725464,0.2672719657421112,0.4304099678993225,0.6596148014068604,0.42000001668930054,-0.32244130969047546,0.3464418351650238,-0.9454836845397949,-2.9991068840026855,-0.24002213776111603,-0.24001403152942657,-0.22293224930763245,-0.1917046457529068,-0.018420951440930367,-0.018236417323350906,-0.679273784160614,-0.3975536525249481
0.5,-0.038549575954675674,0.02213400788605213,0.0,0.6568913459777832,0.0,0.0,-0.7539852261543274,-0.0685727596282959,-0.5429689288139343,0.0,0.0,0.0,-4.241766929626465,0.21052701771259308,0.810924232006073,0.4577077031135559,0.7056509852409363,0.1092497706413269,-0.11734054982662201,-0.6901828050613403,4.0136308670043945,-3.0803403854370117,-0.30030664801597595,-16.26618766784668,-1.621357798576355,37.22074890136719,0.20786501467227936,0.8246572017669678,0.4626641273498535,4.690018653869629,-1.9073597192764282,-0.15496505796909332,0.4304099678993225,0.6596148014068604,0.42000001668930054,-0.31782013177871704,-0.008327250368893147,-0.995507538318634,-2.9994559288024902,-0.23944735527038574,-0.23864398896694183,-0.23035122454166412,-0.19568464159965515,-0.03728768229484558,0.07931093871593475,-0.3150874376296997,-0.1467142403125763
0.5166666666666666,-0.037108711898326874,0.01751069538295269,0.0,0.6500175595283508,0.0,0.0,-0.7599192261695862,0.11972586065530777,-0.19909335672855377,0.0,0.0,0.0,-0.08418157696723938,0.27905726432800293,0.7763039469718933,0.44964736700057983,0.6601200699806213,0.06663591414690018,-0.10998889803886414,-0.7400699257850647,3.2690582275390625,-2.91645884513855,-0.50117027759552,0.22531914710998535,2.0970513820648193,25.3099308013916,0.27714303135871887,0.7887338399887085,0.4551614224910736,3.8750133514404297,-2.350672960281372,-0.6317808032035828,0.4304099678993225,0.6596148014068604,0.42000001668930054,-0.31787171959877014,-0.004263751208782196,-1.045529842376709,-2.999685525894165,-0.23995354771614075,-0.23825256526470184,-0.2350182980298996,-0.19864068925380707,-0.026981720700860023,0.08407767117023468,-0.15730266273021698,-0.1278144121170044
0.5333333333333333,-0.03325223922729492,0.017039328813552856,0.0,0.6348850727081299,0.0,0.0,-0.7726065516471863,0.28333571553230286,0.039841994643211365,0.0,0.0,0.0,-3.251091241836548,0.3337322473526001,0.7387862205505371,0.4328044056892395,0.6174894571304321,0.0026348214596509933,-0.11175145208835602,-0.7785957455635071,2.5484766960144043,-2.387298345565796,-1.0979970693588257,-4.155314922332764,4.928437232971191,15.677375793457031,0.3324142396450043,0.7515383362770081,0.4397324025630951,2.9567532539367676,-2.2473487854003906,-1.129439353942871,0.4304099678993225,0.6596148014068604,0.42000001668930054,-0.3131265342235565,0.5627260804176331,-1.0955519676208496,-2.9997475147247314,-0.23844514787197113,-0.23565107583999634,-0.23613721132278442,-0.2008366733789444,0.17714238166809082,0.22312888503074646,0.03167136758565903,-0.10346101224422455
0.55,-0.02634255774319172,0.011562300845980644,0.0,0.632703423500061,0.0,0.0,-0.7743942141532898,0.46254631876945496,-0.44720935821533203,0.0,0.0,0.0,0.6016432046890259,0.373346745967865,0.7094002962112427,0.42102500796318054,0.5641099810600281,0.011001300066709518,-0.017609672620892525,-0.8254384398460388,1.7604761123657227,-1.385554313659668,-0.23499827086925507,1.0749623775482178,10.838601112365723,-10.336150169372559,0.3722197413444519,0.71854567527771,0.42396649718284607,1.6738872528076172,-1.6051416397094727,-0.2620962858200073,0.4304099678993225,0.6596148014068604,0.42000001668930054,-0.2991504967212677,1.050612449645996,-1.1456177234649658,-2.9984703063964844,-0.2300369292497635,-0.22743132710456848,-0.23120100796222687,-0.19965344667434692,0.6532947421073914,0.6142915487289429,0.4369398355484009,0.16132666170597076
0.5666666666666667,-0.019907332956790924,0.010175948962569237,0.0,0.6197333931922913,0.0,0.0,-0.7848124504089355,0.4362058639526367,-0.08717408776283264,0.0,0.0,0.0,-2.7396652698516846,0.39951860904693604,0.6895222067832947,0.42000022530555725,0.4696078300476074,1.936356738951872e-06,1.83845913852565e-05,-0.8828750252723694,1.4480048418045044,-1.066675066947937,-0.000732294050976634,-0.023939820006489754,-0.03291438892483711,-16.49285125732422,0.39419612288475037,0.699610710144043,0.4231106638908386,1.197114109992981,-0.8894550800323486,0.03480672463774681,0.4304099678993225,0.6596148014068604,0.42000001668930054,-0.2735522985458374,1.9336659908294678,-1.1187372207641602,2.992602586746216,-0.22159995138645172,-0.21957357227802277,-0.22552677989006042,-0.19880644977092743,0.6205061674118042,0.538025438785553,0.39972877502441406,0.06012272834777832
0.5833333333333334,-0.011430714279413223,0.0061750165186822414,0.0,0.620685875415802,0.0,0.0,-0.7840593457221985,0.546722948551178,-0.23958446085453033,0.0,0.0,0.0,1.0723893642425537,0.4160793721675873,0.6814655661582947,0.42010554671287537,0.5676655173301697,0.001237165299244225,0.0010566979181021452,-0.8232576251029968,0.7851859927177429,-0.9080556035041809,-0.09266530722379684,-3.0184664726257324,-1.5304173231124878,4.760344505310059,0.4113571047782898,0.6837213039398193,0.4226890504360199,0.8146363496780396,-0.955610990524292,-0.22037479281425476,0.4304099678993225,0.6596148014068604,0.42000001668930054,-0.2547627091407776,0.6829739212989807,-1.1414666175842285,-2.999999761581421,-0.21246293187141418,-0.2113209068775177,-0.21864432096481323,-0.19736994802951813,0.40031546354293823,0.38208988308906555,0.35551539063453674,0.04895681142807007
0.6,-0.005388540215790272,0.00467305164784193,0.0,0.6107234954833984,0.0,0.0,-0.7918438911437988,0.3002493977546692,-0.045661818236112595,0.0,0.0,0.0,-2.4294216632843018,0.42415356636047363,0.6721417307853699,0.4199950098991394,0.5685451030731201,2.970076457131654e-05,0.0024022702127695084,-0.8226485848426819,0.18146443367004395,-0.95986008644104,0.11892608553171158,-3.1818268299102783,-6.2022881507873535,17.714336395263672,0.4209045171737671,0.6730296015739441,0.420637845993042,0.24137985706329346,-0.33476725220680237,0.09561741352081299,0.4304099678993225,0.6596148014068604,0.42000001668930054,-0.2441103309392929,0.1788872629404068,-1.1209766864776611,2.9816174507141113,-0.20468726754188538,-0.20441113412380219,-0.21222595870494843,-0.1962410807609558,0.5149375796318054,0.4541800320148468,0.43764248490333557,0.1259424239397049
0.6166666666666667,0.0009935557609423995,0.002874754136428237,0.0,0.6135163903236389,0.0,0.0,-0.7896819710731506,0.4212625026702881,-0.15755894780158997,0.0,0.0,0.0,1.3083640336990356,0.4261327385902405,0.6649085283279419,0.4211035370826721,0.5839222073554993,-0.015804961323738098,0.02239222638309002,-0.811346709728241,-0.016787860542535782,-0.44230976700782776,0.14025884866714478,2.4927284717559814,6.6948466300964355,-0.5696141123771667,0.4220660328865051,0.6671535968780518,0.4213792681694031,-0.07892101258039474,-0.24654492735862732,0.125231072306633,0.4304099678993225,0.6596148014068604,0.42000001668930054,-0.2803615927696228,-2.9999992847442627,-1.1437947750091553,-2.999598264694214,-0.19711585342884064,-0.19758927822113037,-0.20519410073757172,-0.1939808875322342,0.40336936712265015,0.3733569383621216,0.41052964329719543,0.14883655309677124
0.6333333333333333,0.00914293248206377,0.003449962241575122,0.0,0.6064849495887756,0.0,0.0,-0.7950949668884277,0.5249764323234558,0.09819243848323822,0.0,0.0,0.0,-2.3102216720581055,0.4256516695022583,0.658223569393158,0.4222205579280853,0.5834442377090454,-0.03447190299630165,0.04784586653113365,-0.8100094199180603,-0.03553667664527893,-0.38366276025772095,0.0443989634513855,0.7791633605957031,2.3446991443634033,-0.2008679360151291,0.4220436215400696,0.667898416519165,0.4240414500236511,0.06364748626947403,0.1891022026538849,0.19312874972820282,0.4304099678993225,0.6596148014068604,0.42000001668930054,-0.330350399017334,-2.997450590133667,-1.1937518119812012,-2.9989664554595947,-0.18951736390590668,-0.19115105271339417,-0.19850996136665344,-0.19170263409614563,0.5364859700202942,0.44344305992126465,0.4431830644607544,0.17908933758735657
0.65,0.019081270322203636,0.000547410047147423,0.0,0.6101006269454956,0.0,0.0,-0.7923239469528198,0.5967910885810852,-0.21404747664928436,0.0,0.0,0.0,1.4540865421295166,0.42485910654067993,0.6525350213050842,0.421906977891922,0.5907968878746033,-0.029631953686475754,0.03979242220520973,-0.8052933812141418,-0.12069250643253326,-0.2754691541194916,-0.058972034603357315,-1.8991490602493286,-4.0461530685424805,1.3347662687301636,0.4219933748245239,0.6718342900276184,0.4269808232784271,-0.1025656908750534,0.24463048577308655,0.17752818763256073,0.4304099678993225,0.6596148014068604,0.42000001668930054,-0.3803582489490509,-2.9999895095825195,-1.2437630891799927,-2.99997878074646,-0.17911368608474731,-0.18238426744937897,-0.18983711302280426,-0.18728293478488922,0.5266544818878174,0.45637479424476624,0.4745080769062042,0.254464715719223
0.6666666666666666,0.03172113001346588,0.0009348145686089993,0.0,0.6364255547523499,0.0,0.0,-0.771338164806366,0.784748911857605,0.041580818593502045,0.0,0.0,0.0,4.829667091369629,0.4224328398704529,0.6491076946258545,0.42002108693122864,0.5917409062385559,6.542455230373889e-05,-0.0001297305425396189,-0.8061281442642212,-0.1705111563205719,-0.0946684405207634,-0.00228837039321661,0.08021032810211182,0.12132514268159866,-2.5356602668762207,0.42063742876052856,0.6741893887519836,0.43060386180877686,-0.07575900852680206,0.16477824747562408,0.2739231586456299,0.4304099678993225,0.6596148014068604,0.42000001668930054,-0.43034523725509644,-2.9999442100524902,-1.2937586307525635,-2.9999301433563232,-0.17337897419929504,-0.1770177036523819,-0.18326985836029053,-0.18304581940174103,0.39529508352279663,0.37679529190063477,0.4575660228729248,0.35413122177124023
0.6833333333333333,0.04588146507740021,-0.0015609478577971458,0.0,0.6482855677604675,0.0,0.0,-0.7613973021507263,0.8773188591003418,-0.19301368296146393,0.0,0.0,0.0,0.8027275800704956,0.42048007249832153,0.6480330228805542,0.41999995708465576,0.5750226378440857,1.0155206382478354e-06,-3.747596565517597e-06,-0.8181374669075012,-0.09885804355144501,-0.05326879397034645,-1.1843096217489801e-05,0.0014281884068623185,9.504715853836387e-05,-2.5028889179229736,0.42087286710739136,0.6775604486465454,0.43605750799179077,0.06447084248065948,0.13270451128482819,0.3608127236366272,0.4304099678993225,0.6596148014068604,0.42000001668930054,-0.4803518056869507,-3.000001907348633,-1.3437743186950684,-3.0,-0.16731193661689758,-0.1708422750234604,-0.17536093294620514,-0.17607279121875763,0.2737981975078583,0.3146560490131378,0.44803354144096375,0.4409438371658325
0.7,0.061592116951942444,-0.007036755792796612,0.0,0.636358916759491,0.0,0.0,-0.7713931202888489,0.9718860387802124,-0.39042261242866516,0.0,0.0,0.0,-2.824502468109131,0.4196180999279022,0.6476207971572876,0.4200000762939453,0.5621352791786194,-7.005896804912481e-07,1.4139037602944882e-06,-0.8270453214645386,-0.0370049886405468,-0.016985181719064713,-9.709433652460575e-05,0.0058424766175448895,0.003384938696399331,-1.4126837253570557,0.42760908603668213,0.681075930595398,0.4493370056152344,0.7104331254959106,0.23793236911296844,1.3140205144882202,0.4304099678993225,0.6596148014068604,0.42000001668930054,-0.5303643941879272,-2.999979019165039,-1.3937926292419434,-3.0,-0.16514798998832703,-0.16774314641952515,-0.1699051856994629,-0.1702682226896286,0.059576138854026794,0.12403223663568497,0.2660609483718872,0.3056589961051941
0.7166666666666667,0.08004487305879593,-0.008642296306788921,0.0,0.6026952862739563,0.0,0.0,-0.7979714274406433,1.1191844940185547,-0.1180843859910965,0.0,0.0,0.0,-6.1526689529418945,0.4195280075073242,0.6475827097892761,0.4200001060962677,0.5607251524925232,1.185899327538209e-05,-5.1664542297658045e-06,-0.8280019760131836,0.0014895673375576735,-9.662981028668582e-06,-0.0005146488547325134,-0.008557651191949844,0.012280857190489769,-0.003728299867361784,0.44867002964019775,0.6812092065811157,0.4768781065940857,1.9301292896270752,-0.17711754143238068,2.0827877521514893,0.4304099678993225,0.6596148014068604,0.42000001668930054,-0.5803762078285217,-2.9999985694885254,-1.4438109397888184,-3.0,-0.16917532682418823,-0.16989392042160034,-0.16904433071613312,-0.16784249246120453,-0.18017226457595825,-0.08500996232032776,0.07395297288894653,0.16620083153247833
0.7333333333333333,0.0952581837773323,-0.008959098719060421,0.0,0.5822051167488098,0.0,0.0,-0.8130419254302979,0.8304398059844971,0.026845742017030716,0.0,0.0,0.0,-2.040520191192627,0.41952937841415405,0.6475828289985657,0.4200000464916229,0.5607242584228516,4.311674217660766e-07,-2.764350938377902e-06,-0.8280025124549866,6.30253562121652e-05,-0.00025126521359197795,-8.061062544584274e-05,0.006334749981760979,-0.0018505656626075506,-0.0006867640768177807,0.48060107231140137,0.6826287508010864,0.5131270885467529,1.8194979429244995,0.30161169171333313,2.249986410140991,0.4304099678993225,0.6596148014068604,0.42000001668930054,-0.6001396775245667,0.35227644443511963,-1.4938292503356934,-2.999999523162842,-0.1704908013343811,-0.17040890455245972,-0.16790716350078583,-0.16596199572086334,0.016903238371014595,0.021197021007537842,0.06449544429779053,0.06369521468877792
0.75,0.1054115891456604,-0.006930358707904816,0.0,0.5875303149223328,0.0,0.0,-0.8092021346092224,0.555955708026886,0.21279163658618927,0.0,0.0,0.0,1.651538610458374,0.41952937841415405,0.6475828289985657,0.4200000464916229,0.5607240200042725,9.975656212191097e-08,-2.4674639007571386e-06,-0.8280027508735657,6.810202467022464e-05,-0.0002572365920059383,-8.22562724351883e-05,0.006463441997766495,-0.001831135363318026,-0.0007100768852978945,0.5047480463981628,0.6887273788452148,0.545899510383606,0.9981858730316162,0.38089242577552795,1.7263027429580688,0.4304099678993225,0.6596148014068604,0.42000001668930054,-0.5726245045661926,2.7205002307891846,-1.455118179321289,3.000000476837158,-0.16882076859474182,-0.16876143217086792,-0.16579298675060272,-0.16394107043743134,0.040459223091602325,0.06104768067598343,0.09900391846895218,0.10877826064825058
0.7666666666666666,0.11213722825050354,-0.008141969330608845,0.0,0.6114497780799866,0.0,0.0,-0.7912832498550415,0.3538215458393097,-0.16659602522850037,0.0,0.0,0.0,4.941620826721191,0.41952937841415405,0.6475828289985657,0.4200000464916229,0.5607240200042725,1.3708148571822676e-07,-2.574901600382873e-06,-0.8280027508735657,6.748562736902386e-05,-0.0002573637757450342,-8.209492079913616e-05,0.006470585707575083,-0.001837917254306376,-0.0007088450365699828,0.5116326212882996,0.6954624652862549,0.5697465538978577,-0.198164701461792,0.4741847813129425,1.248448133468628,0.4304099678993225,0.6596148014068604,0.42000001668930054,-0.535354733467102,1.7981094121932983,-1.4050655364990234,2.9999959468841553,-0.1667376458644867,-0.16623611748218536,-0.16270847618579865,-0.16066822409629822,0.18060791492462158,0.20828649401664734,0.23384790122509003,0.24231800436973572
0.7833333333333333,0.11555792391300201,-0.006205438636243343,0.0,0.6239143013954163,0.0,0.0,-0.7814927697181702,0.13576461374759674,0.3215303122997284,0.0,0.0,0.0,0.8577015995979309,0.41952937841415405,0.6475828289985657,0.4200000464916229,0.5607239007949829,1.2796763826372626e-07,-2.4962303086795146e-06,-0.8280028104782104,6.769347237423062e-05,-0.00025740888668224216,-8.216989226639271e-05,0.0064705475233495235,-0.0018363801063969731,-0.0007091589504852891,0.5013096332550049,0.7009950876235962,0.5852800011634827,-0.9743987321853638,0.20011618733406067,0.746630072593689,0.4304099678993225,0.6596148014068604,0.42000001668930054,-0.5458953380584717,-2.66532301902771,-1.3550128936767578,3.000000238418579,-0.16868917644023895,-0.16662412881851196,-0.16169367730617523,-0.15848231315612793,-0.23164446651935577,-0.10926990211009979,-4.656612873077393e-10,0.09809621423482895
0.8,0.12052104622125626,-0.0047833300195634365,0.0,0.6460859179496765,0.0,0.0,-0.7632646560668945,0.32215604186058044,0.042718421667814255,0.0,0.0,0.0,4.152325630187988,0.41952940821647644,0.6475828289985657,0.4200000464916229,0.5607239007949829,1.0544082584829084e-07,-2.599601202746271e-06,-0.8280028104782104,6.908246723469347e-05,-0.0002575915423221886,-8.245417848229408e-05,0.006467384286224842,-0.0018210888374596834,-0.0007127858116291463,0.4853855073451996,0.7039493322372437,0.5949070453643799,-0.9844115972518921,0.18588444590568542,0.4600505232810974,0.4304099678993225,0.6596148014068604,0.42000001668930054,-0.5622109174728394,0.44902878999710083,-1.3739314079284668,-3.000000238418579,-0.1706731617450714,-0.1666085124015808,-0.15990331768989563,-0.15495890378952026,-0.09171780943870544,0.03077036328613758,0.13907107710838318,0.2518013119697571
0.8166666666666667,0.12268348038196564,-0.007092530373483896,0.0,0.6517199277877808,0.0,0.0,-0.7584596872329712,0.06567776948213577,-0.17848719656467438,0.0,0.0,0.0,-0.14501237869262695,0.41952937841415405,0.6475828289985657,0.4200000464916229,0.5607241988182068,1.3698193868094677e-07,-2.548992142692441e-06,-0.8280025720596313,6.756810034858063e-05,-0.00025651734904386103,-8.218502625823021e-05,0.006448010914027691,-0.0018346782308071852,-0.0007076202309690416,0.4675675332546234,0.7060374617576599,0.5987893342971802,-1.1382251977920532,0.02966352552175522,0.19083058834075928,0.4304099678993225,0.6596148014068604,0.42000001668930054,-0.5860328078269958,-2.9889791011810303,-1.335564374923706,2.999999761581421,-0.17240694165229797,-0.16639168560504913,-0.15797299146652222,-0.15114544332027435,-0.06968417018651962,0.03722921758890152,0.12905770540237427,0.23515811562538147
0.8333333333333334,0.12556114792823792,-0.012280639261007309,0.0,0.6378698348999023,0.0,0.0,-0.7701441645622253,0.21853291988372803,-0.39342814683914185,0.0,0.0,0.0,-3.3095734119415283,0.41952937841415405,0.6475828289985657,0.4200000464916229,0.5607238411903381,3.6820682680627215e-07,-2.622032070576097e-06,-0.8280027508735657,6.43524035695009e-05,-0.0002569100179243833,-8.143624290823936e-05,0.006476155482232571,-0.0018722218228504062,-0.0007009494001977146,0.4537222385406494,0.7065504789352417,0.6024023294448853,-0.5354673862457275,-0.013968612998723984,0.37314826250076294,0.4304099678993225,0.6596148014068604,0.42000001668930054,-0.6052208542823792,0.40960752964019775,-1.3548502922058105,-2.9999985694885254,-0.17423908412456512,-0.16659563779830933,-0.15675656497478485,-0.1481764167547226,-0.09065001457929611,-0.0034534463193267584,0.07270430773496628,0.17264284193515778
0.85,0.13152559101581573,-0.0137395691126585,0.0,0.6347123980522156,0.0,0.0,-0.7727484703063965,0.34590286016464233,-0.10485904663801193,0.0,0.0,0.0,0.32523730397224426,0.41952940821647644,0.6475828289985657,0.4200000464916229,0.5607238411903381,9.741471274082869e-08,-2.5320532586192712e-06,-0.8280027508735657,6.86349521856755e-05,-0.00025764439487829804,-8.233240805566311e-05,0.006471419706940651,-0.0018257779302075505,-0.0007118304492905736,0.4451267719268799,0.707571268081665,0.6129987835884094,-0.35733291506767273,0.2692500054836273,0.8686783313751221,0.4304099678993225,0.6596148014068604,0.42000001668930054,-0.5765506625175476,2.801652669906616,-1.316541314125061,3.0,-0.17753349244594574,-0.168807715177536,-0.15813714265823364,-0.14837026596069336,0.05139491334557533,0.02262750081717968,-0.01595011167228222,-0.02598762884736061
0.8666666666666667,0.13444237411022186,-0.020586824044585228,0.0,0.6531715393066406,0.0,0.0,-0.7572099566459656,0.1271931231021881,-0.4285559058189392,0.0,0.0,0.0,3.5301058292388916,0.41952937841415405,0.6475828289985657,0.4200000464916229,0.5607241988182068,1.358272925244819e-07,-2.482193622199702e-06,-0.8280026316642761,6.733356713084504e-05,-0.0002566043403930962,-8.21331050246954e-05,0.006451505236327648,-0.0018378534587100148,-0.0007072672015056014,0.43708619475364685,0.7076399326324463,0.6282674670219421,-0.6715545654296875,-0.2851313650608063,0.917473554611206,0.4304099678993225,0.6596148014068604,0.42000001668930054,-0.5753993988037109,-2.228724718093872,-1.2664886713027954,2.9999990463256836,-0.17429587244987488,-0.16577540338039398,-0.1554803103208542,-0.1456356942653656,0.06023284047842026,0.09637386351823807,0.11968796700239182,0.16553954780101776
0.8833333333333333,0.13850270211696625,-0.027962081134319305,0.0,0.6564897298812866,0.0,0.0,-0.7543349266052246,0.2802979052066803,-0.5022246837615967,0.0,0.0,0.0,-0.5042017698287964,0.41952937841415405,0.6475828289985657,0.4200000464916229,0.5607237815856934,7.481329333813846e-08,-2.766030547718401e-06,-0.8280028104782104,6.713974289596081e-05,-0.00025749538326635957,-8.202134631574154e-05,0.006475917063653469,-0.0018425742164254189,-0.0007080482901073992,0.4312148094177246,0.7027518153190613,0.6354309320449829,-0.0582205206155777,-0.3187377452850342,0.1572083979845047,0.4304099678993225,0.6596148014068604,0.42000001668930054,-0.584349513053894,0.8914275765419006,-1.2164360284805298,3.000000238418579,-0.17432758212089539,-0.16495496034622192,-0.15397371351718903,-0.14305919408798218,0.0440458245575428,0.09837597608566284,0.14496420323848724,0.2147211730480194
0.9,0.14565445482730865,-0.0340103805065155,0.0,0.6397472620010376,0.0,0.0,-0.7685853242874146,0.42724114656448364,-0.43458887934684753,0.0,0.0,0.0,-3.9276459217071533,0.41952937841415405,0.6475828289985657,0.4200000464916229,0.5607241988182068,1.0081318890797775e-07,-2.677129259609501e-06,-0.8280026316642761,7.023719808785245e-05,-0.00025629845913499594,-8.26625619083643e-05,0.006428147666156292,-0.0018004040466621518,-0.0007133044418878853,0.43386536836624146,0.6957684755325317,0.6415413022041321,0.47524741291999817,-0.40321874618530273,0.7014200687408447,0.4304099678993225,0.6596148014068604,0.42000001668930054,-0.5876844525337219,-1.1127959489822388,-1.1663833856582642,3.0000011920928955,-0.17637121677398682,-0.16616104543209076,-0.15447159111499786,-0.14250412583351135,0.08736807852983475,0.07032188773155212,0.052130457013845444,0.06016511470079422
