vladlanda/robotic-transformer/data/env_000_episode_0050.csv
sim_time_s,robot_box_x,robot_box_y,robot_box_z,robot_box_quat_w,robot_box_quat_x,robot_box_quat_y,robot_box_quat_z,robot_box_linvel_x,robot_box_linvel_y,robot_box_linvel_z,robot_box_angvel_x,robot_box_angvel_y,robot_box_angvel_z,cube_world_x,cube_world_y,cube_world_z,cube_quat_w,cube_quat_x,cube_quat_y,cube_quat_z,cube_linvel_x,cube_linvel_y,cube_linvel_z,cube_angvel_x,cube_angvel_y,cube_angvel_z,endpoint_world_x,endpoint_world_y,endpoint_world_z,endpoint_linvel_x,endpoint_linvel_y,endpoint_linvel_z,target_cube_world_x,target_cube_world_y,target_cube_world_z,gripper_actual_pos_rad_gp_leftgearjoint,gripper_actual_vel_rad_s_gp_leftgearjoint,gripper_actual_pos_rad_gp_rotatingjoint,gripper_actual_vel_rad_s_gp_rotatingjoint,motor_angle_rad_joint1,motor_angle_rad_joint2,motor_angle_rad_joint3,motor_angle_rad_joint4,motor_speed_rad_s_joint1,motor_speed_rad_s_joint2,motor_speed_rad_s_joint3,motor_speed_rad_s_joint4
0.0,0.0,0.0,0.0,1.0,0.0,0.0,0.0,0.0,0.0,0.0,0.0,0.0,0.0,-0.4105391204357147,0.6535816788673401,0.41999998688697815,1.0,0.0,0.0,0.0,0.0,0.0,0.0,0.0,0.0,0.0,3.42540442943573e-06,-0.005000244826078415,1.313499927520752,0.0,0.0,0.0,0.4706740379333496,0.7178565859794617,0.42000001668930054,-1.5707999467849731,0.0,0.0,0.0,0.0,0.0,0.0,0.0,0.0,0.0,0.0,0.0
0.016666666666666666,0.0028778850100934505,0.0021806680597364902,0.0,0.9998081922531128,0.0,0.0,0.019586581736803055,0.24087215960025787,0.18240931630134583,0.0,0.0,0.0,3.1418697834014893,-0.4105392396450043,0.6535813808441162,0.41999998688697815,1.0,3.279964630564791e-06,-8.339746386809566e-07,8.465587342243452e-08,-1.9833529222523794e-05,0.00017983045836444944,-6.132945418357849e-05,0.0009432713268324733,-0.004689474124461412,-0.00031981561915017664,-0.007110234349966049,0.003379564033821225,1.3159373998641968,-0.8143353462219238,0.9868683815002441,0.18095196783542633,0.4706740379333496,0.7178565859794617,0.42000001668930054,-1.5301095247268677,3.0000011920928955,-0.04584788903594017,-2.9999992847442627,0.0008691533003002405,0.0007963840034790337,0.0007110277656465769,0.0006108740926720202,0.11094217747449875,0.09756709635257721,0.08334315568208694,0.06823883205652237
0.03333333333333333,0.008960979990661144,0.006801924202591181,0.0,0.9997960329055786,0.0,0.0,0.02019684389233589,0.40702134370803833,0.31530869007110596,0.0,0.0,0.0,-0.8691299557685852,-0.4105393588542938,0.6535813212394714,0.4200000464916229,1.0,3.3908179375430336e-06,-2.132458348569344e-06,-3.7097745320124886e-08,0.00026357852038927376,0.00026937833172269166,-0.00010509369894862175,-0.0017707126680761576,0.004130884539335966,-0.0001354814594378695,-0.027549348771572113,0.02605833113193512,1.3166179656982422,-1.591524362564087,1.6155084371566772,-0.08250445127487183,0.4706740379333496,0.7178565859794617,0.42000001668930054,-1.4800903797149658,3.0000016689300537,-0.09588772058486938,-3.000000238418579,0.00299014407210052,0.002652768511325121,0.0022773537784814835,0.0018608225509524345,0.16422145068645477,0.13976603746414185,0.11382614076137543,0.08630917221307755
0.05,0.017477883026003838,0.013713867403566837,0.0,0.9994806051254272,0.0,0.0,0.0322258435189724,0.5839561223983765,0.4618381857872009,0.0,0.0,0.0,2.7114086151123047,-0.4105393886566162,0.6535813808441162,0.4200000464916229,1.0,3.7651293496310245e-06,-2.2119379536889028e-06,5.6273887771851605e-09,0.0002653067058417946,0.00026691422681324184,-0.00010440615005791187,-0.0017243530601263046,0.00417736079543829,-0.00012949267693329602,-0.059485647827386856,0.05407156050205231,1.311592936515808,-2.184908628463745,1.7520570755004883,-0.4743236303329468,0.4706740379333496,0.7178565859794617,0.42000001668930054,-1.4300720691680908,3.0000033378601074,-0.14592638611793518,-3.0000011920928955,0.0056063467636704445,0.00481964647769928,0.0039608897641301155,0.0030255105812102556,0.18997184932231903,0.15317994356155396,0.11452693492174149,0.07391676306724548
0.06666666666666667,0.028638474643230438,0.022949911653995514,0.0,0.9995312094688416,0.0,0.0,0.030616212636232376,0.7111112475395203,0.5919310450553894,0.0,0.0,0.0,-1.1515315771102905,-0.4105393886566162,0.6535813212394714,0.4200000464916229,0.9999999403953552,3.406754103707499e-06,-2.2856077066535363e-06,4.300980265270482e-07,0.0002670255198609084,0.0002679179306142032,-0.0001043803058564663,-0.001740670995786786,0.004211848136037588,-0.00012850687198806554,-0.09774045646190643,0.08822228759527206,1.299121379852295,-2.4297304153442383,2.2203102111816406,-0.9973723888397217,0.4706740379333496,0.7178565859794617,0.42000001668930054,-1.3800537586212158,2.999999761581421,-0.19592779874801636,-3.000000238418579,0.008150170557200909,0.00667465990409255,0.005088550504297018,0.0033859850373119116,0.14977915585041046,0.09882408380508423,0.045854393392801285,-0.009214479476213455
0.08333333333333333,0.043040014803409576,0.03433618322014809,0.0,0.9999999403953552,0.0,0.0,0.00027147785294800997,0.9286694526672363,0.7247306704521179,0.0,0.0,0.0,-4.471152305603027,-0.4105393886566162,0.6535813212394714,0.4200000464916229,0.9999999403953552,3.6260603337723296e-06,-2.3353738924924983e-06,3.0322857469400333e-07,0.00026613770751282573,0.00026685066404752433,-0.00010405178181827068,-0.0017283547203987837,0.004196325317025185,-0.000127911422168836,-0.13782940804958344,0.12940195202827454,1.2795634269714355,-2.4151031970977783,2.5748369693756104,-1.345278263092041,0.4706740379333496,0.7178565859794617,0.42000001668930054,-1.3300238847732544,2.9999947547912598,-0.16216214001178741,2.999999523162842,0.009986466728150845,0.007569534704089165,0.005001585464924574,0.002277442254126072,0.09151928871870041,0.027439065277576447,-0.03869858384132385,-0.10690232366323471
0.1,0.05164685100317001,0.04955755174160004,0.0,0.9999142289161682,0.0,0.0,-0.013096793554723263,0.37608298659324646,0.9960910677909851,0.0,0.0,0.0,-0.5211459398269653,-0.4105393886566162,0.6535813212394714,0.4200000464916229,1.0,3.4220743145851884e-06,-2.30867885875341e-06,1.7964234189093986e-07,0.0002668164379429072,0.0002680036413948983,-0.00010440708138048649,-0.0017430284060537815,0.004207152873277664,-0.00012891023652628064,-0.17943967878818512,0.1670278012752533,1.2559280395507812,-2.423616647720337,2.2137022018432617,-1.4247486591339111,0.4706740379333496,0.7178565859794617,0.42000001668930054,-1.280023217201233,3.0,-0.19384516775608063,-3.000000238418579,0.005084431730210781,0.0019334526732563972,-0.001419411157257855,-0.004982646554708481,-0.42005717754364014,-0.46996423602104187,-0.5224254727363586,-0.5776616334915161
0.11666666666666667,0.05578676611185074,0.061476074159145355,0.0,0.9992304444313049,0.0,0.0,-0.03922310844063759,0.38023483753204346,0.6581610441207886,0.0,0.0,0.0,-3.4367337226867676,-0.4105393886566162,0.6535813808441162,0.4200000464916229,1.0,3.7114557471795706e-06,-2.332793883397244e-06,2.5744137133187905e-07,0.0002648575755301863,0.00026635421090759337,-0.00010423525236546993,-0.001718215993605554,0.004170078784227371,-0.00012915751722175628,-0.21726447343826294,0.20838572084903717,1.231163740158081,-2.169560432434082,2.817094326019287,-1.4713001251220703,0.4706740379333496,0.7178565859794617,0.42000001668930054,-1.2300102710723877,3.0000007152557373,-0.24386310577392578,-2.9999990463256836,-0.0021142468322068453,-0.006446353159844875,-0.010990097187459469,-0.015757141634821892,-0.11371757835149765,-0.2415119856595993,-0.3657624125480652,-0.48632848262786865
0.13333333333333333,0.06013396382331848,0.07388986647129059,0.0,0.9961308836936951,0.0,0.0,-0.08788220584392548,0.15580126643180847,0.8154547214508057,0.0,0.0,0.0,-6.5958452224731445,-0.4105393886566162,0.6535813212394714,0.4200000464916229,1.0,3.335647988933488e-06,-2.2320116386254085e-06,3.113250670594425e-07,0.00026669682119973004,0.000267594848992303,-0.00010428694076836109,-0.0017371177673339844,0.004205875098705292,-0.00012840732233598828,-0.25345659255981445,0.26005828380584717,1.2033493518829346,-2.1398119926452637,3.3152899742126465,-1.8655710220336914,0.4706740379333496,0.7178565859794617,0.42000001668930054,-1.1799968481063843,2.9999935626983643,-0.2098463624715805,3.0,-0.0049763815477490425,-0.011395287699997425,-0.017949067056179047,-0.02464756742119789,-0.2474932074546814,-0.36177510023117065,-0.47112181782722473,-0.5754566192626953
0.15,0.06959957629442215,0.08325326442718506,0.0,0.9929741024971008,0.0,0.0,-0.11833180487155914,0.7033788561820984,0.463931143283844,0.0,0.0,0.0,-2.636293411254883,-0.4105393886566162,0.6535813212394714,0.4200000464916229,1.0,3.518864104989916e-06,-2.283212324982742e-06,-3.625428917075624e-07,0.00026618369156494737,0.00026735756546258926,-0.00010425550863146782,-0.0017349214758723974,0.004195664543658495,-0.00012860912829637527,-0.2922557294368744,0.3115379810333252,1.1692278385162354,-2.2062296867370605,3.2724475860595703,-2.2727506160736084,0.4706740379333496,0.7178565859794617,0.42000001668930054,-1.1340223550796509,2.5218441486358643,-0.2411971092224121,-3.000000476837158,-0.004985557869076729,-0.013558974489569664,-0.022162415087223053,-0.030803248286247253,0.007482460699975491,-0.11033087968826294,-0.2221565544605255,-0.3279581665992737
0.16666666666666666,0.07615090161561966,0.09006035327911377,0.0,0.9872390627861023,0.0,0.0,-0.15924537181854248,0.2692326605319977,0.39362215995788574,0.0,0.0,0.0,-5.730635643005371,-0.4105393886566162,0.6535813212394714,0.4200000464916229,1.0,3.666546717795427e-06,-2.3392813091049902e-06,-3.150027225728991e-07,0.0002659583115018904,0.00026667400379665196,-0.00010403734631836414,-0.001725324080325663,0.004192811902612448,-0.00012778834206983447,-0.3274558186531067,0.3708587884902954,1.1236817836761475,-1.9008671045303345,3.8196544647216797,-3.0983924865722656,0.4706740379333496,0.7178565859794617,0.42000001668930054,-1.0851414203643799,2.999995708465576,-0.20718571543693542,3.000000476837158,-0.011842317879199982,-0.021417463198304176,-0.030964244157075882,-0.04049527645111084,-0.6166619658470154,-0.6439324617385864,-0.6689600348472595,-0.6922099590301514
0.18333333333333332,0.07671482861042023,0.10066211223602295,0.0,0.9739812016487122,0.0,0.0,-0.22662882506847382,0.04063738137483597,0.570027768611908,0.0,0.0,0.0,-8.833455085754395,-0.4105393886566162,0.6535813212394714,0.4200000464916229,1.0,3.8142911762406584e-06,-2.3995992251002463e-06,-2.7027797955270216e-07,0.00026548971072770655,0.000266111281234771,-0.00010391324758529663,-0.0017178148264065385,0.004184778779745102,-0.00012754148337990046,-0.3555694818496704,0.4391363263130188,1.0628385543823242,-1.4245102405548096,4.3555755615234375,-3.940845251083374,0.4706740379333496,0.7178565859794617,0.42000001668930054,-1.035143256187439,2.9999992847442627,-0.23859329521656036,-2.9999992847442627,-0.02608521282672882,-0.03578444570302963,-0.045450981706380844,-0.05508018657565117,-0.6477803587913513,-0.6956110596656799,-0.7409465312957764,-0.7825149893760681
0.2,0.08333251625299454,0.10749020427465439,0.0,0.9616634249687195,0.0,0.0,-0.27423256635665894,0.5150880217552185,0.31712478399276733,0.0,0.0,0.0,-4.896786689758301,-0.4105393886566162,0.6535813212394714,0.4200000464916229,1.0,3.600035597628448e-06,-2.291300688739284e-06,-2.2021215784207016e-07,0.0002657291479408741,0.0002664493804331869,-0.00010397983714938164,-0.0017226916970685124,0.004188823979347944,-0.0001277380797546357,-0.38189321756362915,0.504991352558136,0.9904752969741821,-1.2290763854980469,3.993898868560791,-4.752955436706543,0.4706740379333496,0.7178565859794617,0.42000001668930054,-0.9851408004760742,3.0000011920928955,-0.28862109780311584,-2.999990701675415,-0.03498932346701622,-0.045110344886779785,-0.0551706925034523,-0.0651543065905571,-0.560408890247345,-0.558880090713501,-0.5568554997444153,-0.554042398929596
0.21666666666666667,0.08490858972072601,0.11619892716407776,0.0,0.9580622315406799,0.0,0.0,-0.2865602970123291,0.038514308631420135,0.5325229167938232,0.0,0.0,0.0,-0.4303586483001709,-0.4105393886566162,0.6535813212394714,0.4200000464916229,0.9999999403953552,3.6396181712916587e-06,-2.26203519559931e-06,2.2245043851398805e-07,0.0002668730157893151,0.00026754417922347784,-0.00010411837138235569,-0.0017403968377038836,0.004211036488413811,-0.0001278386771446094,-0.406133234500885,0.5577671527862549,0.9051650762557983,-1.27316415309906,2.8845362663269043,-5.375288009643555,0.4706740379333496,0.7178565859794617,0.42000001668930054,-0.9351305961608887,3.000000238418579,-0.3386513292789459,-2.9999990463256836,-0.05073782801628113,-0.06084981560707092,-0.07079058140516281,-0.08058448880910873,-0.9542580842971802,-0.9481943249702454,-0.9329715967178345,-0.9142995476722717
0.23333333333333334,0.08395443856716156,0.12187385559082031,0.0,0.9505211710929871,0.0,0.0,-0.310659795999527,-0.13297171890735626,0.26554200053215027,0.0,0.0,0.0,-3.8289122581481934,-0.4105393588542938,0.6535813212394714,0.4200000464916229,1.0,3.420688017286011e-06,-2.3168611278379103e-06,2.955633817691705e-07,0.00026680115843191743,0.0002680389443412423,-0.00010442431084811687,-0.0017437678761780262,0.004206937737762928,-0.00012899904686491936,-0.42471855878829956,0.6034693121910095,0.8095135688781738,-0.8280624747276306,2.429609775543213,-5.993888854980469,0.4706740379333496,0.7178565859794617,0.42000001668930054,-0.8851199150085449,2.9999966621398926,-0.3886828124523163,-3.0000011920928955,-0.06687618792057037,-0.0769847184419632,-0.08690473437309265,-0.09645316749811172,-0.985232949256897,-0.984016478061676,-0.9825753569602966,-0.9822397232055664
0.25,0.08424386382102966,0.12861774861812592,0.0,0.9483773112297058,0.0,0.0,-0.31714433431625366,0.05680295452475548,0.42124059796333313,0.0,0.0,0.0,0.17484517395496368,-0.4105393886566162,0.6535813212394714,0.4200000464916229,0.9999999403953552,3.34758647113631e-06,-2.2592187178815948e-06,1.808032976668983e-07,0.0002668766537681222,0.0002679117606021464,-0.0001043954398483038,-0.0017404952086508274,0.004208236467093229,-0.0001287035265704617,-0.4386726915836334,0.6325232982635498,0.707956075668335,-0.6463311910629272,1.1845659017562866,-6.164698600769043,0.4706740379333496,0.7178565859794617,0.42000001668930054,-0.8351097106933594,2.999998092651367,-0.43871447443962097,-2.9999959468841553,-0.08347523957490921,-0.09352970868349075,-0.10340626537799835,-0.11291830241680145,-0.9680277109146118,-0.969131350517273,-0.9676383137702942,-0.966083288192749
0.26666666666666666,0.08281997591257095,0.13274210691452026,0.0,0.9420503973960876,0.0,0.0,-0.33547139167785645,-0.1413624882698059,0.19198399782180786,0.0,0.0,0.0,-3.1657419204711914,-0.4105393886566162,0.6535813212394714,0.4200000464916229,0.9999999403953552,3.535620408001705e-06,-2.3003669866739074e-06,-1.26880223660919e-07,0.00026601649005897343,0.00026712138787843287,-0.00010419590398669243,-0.0017317088786512613,0.004192848689854145,-0.00012849301856476814,-0.44353288412094116,0.6468207240104675,0.6015825867652893,0.09669268876314163,0.4296956956386566,-6.39329719543457,0.4706740379333496,0.7178565859794617,0.42000001668930054,-0.7851008772850037,2.9999961853027344,-0.48874565958976746,-2.999999761581421,-0.10071643441915512,-0.11061199754476547,-0.12036841362714767,-0.12978635728359222,-0.9999637007713318,-0.9994222521781921,-0.9989270567893982,-0.9985551238059998
0.2833333333333333,0.07841955125331879,0.1337883174419403,0.0,0.9418948292732239,0.0,0.0,-0.3359079957008362,-0.3028912842273712,0.0234935712069273,0.0,0.0,0.0,0.8485960960388184,-0.4105393886566162,0.6535813808441162,0.4200000464916229,1.0,3.593376959543093e-06,-2.2627039015787886e-06,-5.656034929302223e-08,0.00026704600895754993,0.00026775029255077243,-0.00010416866280138493,-0.0017432521563023329,0.00421414989978075,-0.0001278899871977046,-0.4408174157142639,0.6505678296089172,0.5017858743667603,0.38276994228363037,-0.01249251514673233,-5.596896171569824,0.4706740379333496,0.7178565859794617,0.42000001668930054,-0.7350921034812927,3.0000009536743164,-0.5387750864028931,-2.999999523162842,-0.11805959045886993,-0.127804234623909,-0.13744914531707764,-0.1467808485031128,-1.0133483409881592,-1.0100853443145752,-1.0075960159301758,-1.0056071281433105
0.3,0.07162265479564667,0.1323082596063614,0.0,0.9370340704917908,0.0,0.0,-0.34923797845840454,-0.4570806324481964,-0.13526339828968048,0.0,0.0,0.0,-2.543323278427124,-0.4105393588542938,0.6535813212394714,0.4200000464916229,0.9999999403953552,3.724950602190802e-06,-2.2361709852702916e-06,3.828463093213941e-07,0.0002647978253662586,0.0002667302906047553,-0.00010453863069415092,-0.0017188735073432326,0.00416669063270092,-0.00013016900629736483,-0.4280484914779663,0.6521181464195251,0.40970736742019653,1.1616418361663818,0.11540423333644867,-5.300382614135742,0.4706740379333496,0.7178565859794617,0.42000001668930054,-0.6850850582122803,3.0000016689300537,-0.5888018608093262,-2.9999983310699463,-0.13553765416145325,-0.14509642124176025,-0.1545998603105545,-0.16381904482841492,-1.01040518283844,-1.007899522781372,-1.0059806108474731,-1.0044342279434204
0.31666666666666665,0.06266701221466064,0.12830185890197754,0.0,0.9381667971611023,0.0,0.0,-0.34618353843688965,-0.5782857537269592,-0.28093740344047546,0.0,0.0,0.0,1.2839674949645996,-0.4105393886566162,0.6535813212394714,0.4200000464916229,0.9999999403953552,3.557710215318366e-06,-2.2790559341956396e-06,2.2829661361356557e-07,0.00026598566910251975,0.00026658520800992846,-0.00010399054735898972,-0.0017241808818653226,0.004193549510091543,-0.00012769209570251405,-0.4283897876739502,0.6585736870765686,0.425566166639328,0.19637927412986755,0.603714108467102,-0.1858281046152115,0.4706740379333496,0.7178565859794617,0.42000001668930054,-0.635338306427002,2.9999868869781494,-0.6394417881965637,-2.999966621398926,-0.13955143094062805,-0.1489003300666809,-0.15777145326137543,-0.16587360203266144,-0.38495734333992004,-0.33030715584754944,-0.2585808336734772,-0.1680101603269577
0.3333333333333333,0.056593477725982666,0.12147007137537003,0.0,0.9343024492263794,0.0,0.0,-0.3564813733100891,-0.2542271614074707,-0.4661320149898529,0.0,0.0,0.0,-2.101877212524414,-0.40794575214385986,0.657718300819397,0.4200001358985901,0.9992212057113647,1.1094831506852643e-06,-4.303398782212753e-06,-0.039457015693187714,0.18753814697265625,0.2929418683052063,-8.881790563464165e-06,0.00029553999775089324,0.0001452392607461661,-5.314579963684082,-0.42333075404167175,0.6646175980567932,0.4224088788032532,0.4418174624443054,0.34109193086624146,-0.1935049444437027,0.4706740379333496,0.7178565859794617,0.42000001668930054,-0.5853331685066223,2.9999873638153076,-0.6894888281822205,-2.9999947547912598,-0.14732448756694794,-0.15511010587215424,-0.16215597093105316,-0.16817082464694977,-0.4990791380405426,-0.37810736894607544,-0.2441476285457611,-0.09846309572458267
0.35,0.04865814372897148,0.1129721850156784,0.0,0.9365727305412292,0.0,0.0,-0.3504732549190521,-0.5586841702461243,-0.5312864780426025,0.0,0.0,0.0,1.7062108516693115,-0.40202686190605164,0.666297435760498,0.42003315687179565,0.9922254085540771,0.0008071849006228149,-2.3314132704399526e-05,-0.12445086240768433,0.5610558986663818,0.775804877281189,0.019804712384939194,1.0444542169570923,-0.20163726806640625,-4.19166374206543,-0.41499459743499756,0.6740503907203674,0.41990911960601807,0.5530686974525452,0.7572456002235413,-0.09706481546163559,0.4706740379333496,0.7178565859794617,0.42000001668930054,-0.535327136516571,2.9999501705169678,-0.7395316362380981,-2.9999661445617676,-0.15886811912059784,-0.16383683681488037,-0.167904332280159,-0.17082980275154114,-0.6950663328170776,-0.5220784544944763,-0.3401695191860199,-0.1529092639684677
0.36666666666666664,0.03786797448992729,0.10251405090093613,0.0,0.9332947134971619,0.0,0.0,-0.35911139845848083,-0.6391064524650574,-0.6818379163742065,0.0,0.0,0.0,-2.051481246948242,-0.3930814862251282,0.6786526441574097,0.4199998080730438,0.9886536598205566,2.0149245756329037e-05,-8.6356758401962e-06,-0.15021243691444397,0.5489073991775513,0.7530317306518555,-0.0005181138403713703,-0.02062763273715973,0.030501658096909523,0.3934100866317749,-0.40314358472824097,0.6847115159034729,0.4204922020435333,0.878841757774353,0.6740418076515198,0.09035090357065201,0.4706740379333496,0.7178565859794617,0.42000001668930054,-0.4852662682533264,2.999811887741089,-0.789532482624054,-2.999983310699463,-0.1700284779071808,-0.1718549132347107,-0.17252802848815918,-0.17188549041748047,-0.5453681349754333,-0.3610997796058655,-0.1577453315258026,0.05953196808695793
0.3833333333333333,0.03123939223587513,0.08897405117750168,0.0,0.9191192388534546,0.0,0.0,-0.3939795196056366,-0.38539886474609375,-0.8487616181373596,0.0,0.0,0.0,-5.270937442779541,-0.37908515334129333,0.6967479586601257,0.42057985067367554,0.9820157289505005,0.007450164295732975,-0.007375632878392935,-0.18850776553153992,1.0849225521087646,1.3547134399414062,0.09627752751111984,1.4335602521896362,-3.128131866455078,-4.844532489776611,-0.3854369819164276,0.7007153034210205,0.42226672172546387,1.2808703184127808,1.2171697616577148,0.12864439189434052,0.4706740379333496,0.7178565859794617,0.42000001668930054,-0.43519774079322815,3.0,-0.8395379781723022,-2.9999747276306152,-0.17708861827850342,-0.17615574598312378,-0.1736898571252823,-0.16961754858493805,-0.40896254777908325,-0.2426648586988449,-0.05341454967856407,0.1528790146112442
0.4,0.027716273441910744,0.07260140031576157,0.0,0.8923268914222717,0.0,0.0,-0.45138972997665405,-0.13887187838554382,-1.0414421558380127,0.0,0.0,0.0,-8.417211532592773,-0.34649941325187683,0.7239014506340027,0.42403265833854675,0.970654308795929,0.008503679186105728,-0.04250115901231766,-0.23654061555862427,2.8219757080078125,1.8845716714859009,0.1082749143242836,25.867334365844727,-13.973177909851074,5.486824035644531,-0.3525344133377075,0.7290680408477783,0.42487406730651855,2.730419635772705,2.215047836303711,0.42330121994018555,0.4706740379333496,0.7178565859794617,0.42000001668930054,-0.39172276854515076,1.567047357559204,-0.8895609378814697,-3.0000007152557373,-0.1849878877401352,-0.1809469759464264,-0.17501646280288696,-0.16724102199077606,-0.49640655517578125,-0.29495278000831604,-0.07544516026973724,0.1544133722782135
0.4166666666666667,0.02621341496706009,0.060699716210365295,0.0,0.8491736650466919,0.0,0.0,-0.5281136631965637,-0.05561944842338562,-0.5902884602546692,0.0,0.0,0.0,-11.344050407409668,-0.2745417356491089,0.7663446068763733,0.4288569986820221,0.9495272040367126,0.06722596287727356,-0.09016566723585129,-0.2928291857242584,5.774479866027832,2.5483944416046143,0.3190966546535492,23.783281326293945,-18.046627044677734,17.853404998779297,-0.28049951791763306,0.7714911699295044,0.4297937750816345,5.530886650085449,3.018738269805908,0.39688682556152344,0.4706740379333496,0.7178565859794617,0.42000001668930054,-0.37932318449020386,0.4225490987300873,-0.85252445936203,2.9963135719299316,-0.1996966302394867,-0.1918061226606369,-0.18084348738193512,-0.1682462841272354,-0.8909731507301331,-0.7337021231651306,-0.4360063970088959,-0.1621042639017105
0.43333333333333335,0.02144216187298298,0.05599318444728851,0.0,0.7869754433631897,0.0,0.0,-0.6169843077659607,-0.4655010998249054,-0.28329744935035706,0.0,0.0,0.0,-13.928662300109863,-0.164633110165596,0.8085123896598816,0.4378332495689392,0.915207028388977,0.07073037326335907,-0.13473179936408997,-0.3731495440006256,7.43208122253418,2.3681368827819824,0.639919638633728,0.09777740389108658,-2.363071918487549,2.3280162811279297,-0.1704127937555313,0.8158280849456787,0.4385479688644409,7.519998550415039,2.4735894203186035,0.6648061275482178,0.4706740379333496,0.7178565859794617,0.42000001668930054,-0.36993566155433655,0.8934820890426636,-0.8789426684379578,-3.0,-0.21447640657424927,-0.206797257065773,-0.19369684159755707,-0.17592479288578033,-0.644616961479187,-0.7067357301712036,-0.7695226073265076,-0.5208954811096191
0.45,0.01910313032567501,0.05260033160448074,0.0,0.7319133877754211,0.0,0.0,-0.6813976764678955,-0.01970112882554531,-0.15981420874595642,0.0,0.0,0.0,-8.790948867797852,-0.03998452425003052,0.8356735706329346,0.44762587547302246,0.8592172265052795,0.04669180512428284,-0.155769482254982,-0.48507875204086304,7.581847667694092,0.350619912147522,0.7916846871376038,-9.10484504699707,6.644765853881836,4.797396659851074,-0.04613645374774933,0.84705650806427,0.44808512926101685,7.576169967651367,1.2884857654571533,0.5229378938674927,0.4706740379333496,0.7178565859794617,0.42000001668930054,-0.3496130704879761,1.2226325273513794,-0.9289447069168091,-2.9985506534576416,-0.22768570482730865,-0.21898257732391357,-0.2051817625761032,-0.1828695386648178,-0.7289993762969971,-0.651064932346344,-0.5996400713920593,-0.3708260655403137
0.4666666666666667,0.0159059576690197,0.043348848819732666,0.0,0.6984705924987793,0.0,0.0,-0.7156387567520142,-0.2741948664188385,-0.7127662897109985,0.0,0.0,0.0,-4.756025314331055,0.08071377873420715,0.8464265465736389,0.4568021297454834,0.7942031025886536,0.05108177289366722,-0.12359663099050522,-0.5927528738975525,6.93548583984375,-0.779895007610321,0.2650018036365509,-27.276283264160156,-0.7738151550292969,3.614760637283325,0.07552027702331543,0.859812319278717,0.45641058683395386,7.128169536590576,0.07181160151958466,0.6282951831817627,0.4706740379333496,0.7178565859794617,0.42000001668930054,-0.33215686678886414,0.7473548650741577,-0.9789687395095825,-3.0000014305114746,-0.23618456721305847,-0.22562430799007416,-0.21053312718868256,-0.18484355509281158,-0.41012537479400635,-0.26885855197906494,-0.16682779788970947,0.015504979528486729
0.48333333333333334,0.015684567391872406,0.037435825914144516,0.0,0.6877347826957703,0.0,0.0,-0.7259620428085327,0.0955805554986,-0.22878852486610413,0.0,0.0,0.0,-0.7926071882247925,0.19002139568328857,0.8336181044578552,0.4599621593952179,0.6793373227119446,0.004816836677491665,-0.16663241386413574,-0.7146406173706055,6.206834316253662,-1.9637525081634521,0.5355172157287598,-9.803321838378906,-10.022010803222656,8.707498550415039,0.18428492546081543,0.8509542942047119,0.46362417936325073,5.980525016784668,-1.1587300300598145,0.19275039434432983,0.4706740379333496,0.7178565859794617,0.42000001668930054,-0.32559823989868164,-0.02008025161921978,-1.02899169921875,-3.0000016689300537,-0.24001137912273407,-0.23549385368824005,-0.21724478900432587,-0.18794424831867218,-0.034421782940626144,-0.6121290922164917,-0.41897934675216675,-0.2334686815738678
0.5,0.017962032929062843,0.034919701516628265,0.0,0.6705290675163269,0.0,0.0,-0.7418832182884216,0.1694614440202713,-0.09323608130216599,0.0,0.0,0.0,-3.608586311340332,0.28088822960853577,0.813051700592041,0.4585879147052765,0.6081439852714539,-0.01156534906476736,-0.1553880125284195,-0.7783840298652649,4.962272644042969,-1.6125699281692505,-0.21609459817409515,-0.3505827486515045,5.615175247192383,-12.980607032775879,0.27656278014183044,0.8291907906532288,0.46234291791915894,5.092543601989746,-1.6770031452178955,-0.2945336699485779,0.4706740379333496,0.7178565859794617,0.42000001668930054,-0.3267951011657715,0.10235348343849182,-1.0790138244628906,-3.0000009536743164,-0.23799267411231995,-0.23996727168560028,-0.2221202552318573,-0.1913112998008728,0.13587531447410583,-0.0021126698702573776,-0.2011270821094513,-0.17347115278244019
0.5166666666666666,0.02238352596759796,0.03593626245856285,0.0,0.6678817868232727,0.0,0.0,-0.7442673444747925,0.2985723912715912,0.12490460276603699,0.0,0.0,0.0,0.4820747673511505,0.3552088141441345,0.7853139042854309,0.4498251676559448,0.545772135257721,-0.0369596891105175,-0.14064693450927734,-0.8252182006835938,3.8672711849212646,-1.8399837017059326,-0.656749427318573,1.0928246974945068,7.015261173248291,-9.347017288208008,0.3522418737411499,0.7992748022079468,0.45421314239501953,4.009110927581787,-1.9770209789276123,-0.6554854512214661,0.4706740379333496,0.7178565859794617,0.42000001668930054,-0.3140053153038025,1.325191617012024,-1.1290359497070312,-2.9999916553497314,-0.23642633855342865,-0.23957498371601105,-0.2247331738471985,-0.19416119158267975,0.1429857313632965,0.09429529309272766,-0.07003026455640793,-0.13757240772247314
0.5333333333333333,0.0288559440523386,0.033719487488269806,0.0,0.6547011137008667,0.0,0.0,-0.7558878660202026,0.4225558638572693,-0.1411546766757965,0.0,0.0,0.0,-2.927278518676758,0.41218239068984985,0.7554499506950378,0.4336448609828949,0.5037970542907715,-0.06487060338258743,-0.12658607959747314,-0.8520306944847107,2.813227653503418,-2.5200014114379883,-0.9654750823974609,-12.036820411682129,5.736963272094727,12.734981536865234,0.4115039110183716,0.7695286273956299,0.4384579360485077,3.0080723762512207,-1.8120789527893066,-1.1054311990737915,0.4706740379333496,0.7178565859794617,0.42000001668930054,-0.29295459389686584,0.8792023062705994,-1.1790580749511719,-3.0000014305114746,-0.23154546320438385,-0.23539426922798157,-0.22350415587425232,-0.19510383903980255,0.1719406694173813,0.18769784271717072,0.04810922592878342,-0.09459978342056274
0.55,0.03772474825382233,0.03546745330095291,0.0,0.6544161438941956,0.0,0.0,-0.756134569644928,0.5484263300895691,0.12721315026283264,0.0,0.0,0.0,0.8649767637252808,0.45070329308509827,0.7297747135162354,0.42272698879241943,0.48201143741607666,-0.06397073715925217,-0.03177599981427193,-0.8732484579086304,1.531374216079712,-1.2850884199142456,-0.11229504644870758,-1.367669939994812,-3.4169840812683105,6.1133503913879395,0.44963541626930237,0.7420345544815063,0.4264173209667206,1.566673994064331,-1.1907479763031006,-0.010191604495048523,0.4706740379333496,0.7178565859794617,0.42000001668930054,-0.2838175594806671,0.4961339831352234,-1.2290802001953125,-2.998856544494629,-0.22987939417362213,-0.23311994969844818,-0.22330065071582794,-0.19759148359298706,0.24807648360729218,0.25694432854652405,0.109011210501194,-0.09641572088003159
0.5666666666666667,0.04367672652006149,0.03281464800238609,0.0,0.643386960029602,0.0,0.0,-0.765541136264801,0.2786749005317688,-0.20376121997833252,0.0,0.0,0.0,-2.547548532485962,0.47078701853752136,0.7171423435211182,0.42226502299308777,0.4875064492225647,-0.049535948783159256,-0.029584601521492004,-0.8712108731269836,0.7315860986709595,-0.8705883026123047,0.053749214857816696,-3.283163070678711,1.3268437385559082,8.446367263793945,0.4692023992538452,0.7281453013420105,0.42638513445854187,0.7589405179023743,-0.6620463728904724,0.015055757015943527,0.4706740379333496,0.7178565859794617,0.42000001668930054,-0.2786293029785156,0.36117878556251526,-1.2082382440567017,2.997241973876953,-0.22216571867465973,-0.22564426064491272,-0.2186221331357956,-0.196989044547081,0.42048847675323486,0.4334107041358948,0.29236945509910583,0.05255556479096413
0.5833333333333334,0.050750214606523514,0.034702546894550323,0.0,0.6450318098068237,0.0,0.0,-0.7641557455062866,0.43288320302963257,0.10484053939580917,0.0,0.0,0.0,1.0706278085708618,0.477302610874176,0.707241415977478,0.42190396785736084,0.5008723139762878,-0.036180853843688965,-0.004062260501086712,-0.8647549748420715,0.16281026601791382,-0.36225372552871704,-0.04517019912600517,9.750608444213867,0.172708660364151,0.8631526231765747,0.4750652015209198,0.7172327637672424,0.42554521560668945,0.13117831945419312,-0.4904298782348633,-0.17674031853675842,0.4706740379333496,0.7178565859794617,0.42000001668930054,-0.27398911118507385,0.32087981700897217,-1.2296966314315796,-2.999572277069092,-0.2184198945760727,-0.22106462717056274,-0.2157393842935562,-0.1977529376745224,0.39427870512008667,0.39817434549331665,0.26122066378593445,0.003506407840177417
0.6,0.0593637079000473,0.03198780119419098,0.0,0.6345474123954773,0.0,0.0,-0.772883951663971,0.5278693437576294,-0.18953315913677216,0.0,0.0,0.0,-2.5995490550994873,0.4793660044670105,0.7046638131141663,0.42065078020095825,0.539065957069397,-0.008746693842113018,0.013707303442060947,-0.8421064615249634,0.03685195371508598,-0.23844757676124573,-0.007711445912718773,-0.6128549575805664,-0.0032679326832294464,3.476856231689453,0.4760328531265259,0.7148060202598572,0.42084813117980957,0.0842905268073082,-0.04301782697439194,-0.06158335506916046,0.4706740379333496,0.7178565859794617,0.42000001668930054,-0.2913322448730469,-2.0135295391082764,-1.195001244544983,3.0043327808380127,-0.2075398713350296,-0.2110321968793869,-0.20868590474128723,-0.1956760287284851,0.6616696715354919,0.6121978163719177,0.4437391757965088,0.15230782330036163
0.6166666666666667,0.07012854516506195,0.032693903893232346,0.0,0.6363791227340698,0.0,0.0,-0.7713764309883118,0.6663156747817993,0.0814407467842102,0.0,0.0,0.0,1.2024900913238525,0.4797488749027252,0.7014807462692261,0.4200013279914856,0.5564072728157043,-1.4052383448870387e-05,-1.152672393800458e-05,-0.8309096693992615,0.01914835534989834,-0.15594947338104248,-0.00015143025666475296,-0.006835628300905228,0.008435997180640697,1.927876353263855,0.47607216238975525,0.714052677154541,0.4222809672355652,-0.004825659096240997,0.045337870717048645,0.14823158085346222,0.4706740379333496,0.7178565859794617,0.42000001668930054,-0.3399038314819336,-2.999999761581421,-1.2162567377090454,-2.9999711513519287,-0.19908307492733002,-0.20322103798389435,-0.20331500470638275,-0.19478748738765717,0.5576868057250977,0.4932279586791992,0.3326910436153412,0.053765833377838135
0.6333333333333333,0.08255678415298462,0.03650076687335968,0.0,0.6600924134254456,0.0,0.0,-0.7511844038963318,0.783794105052948,0.28983795642852783,0.0,0.0,0.0,4.632144451141357,0.4798826277256012,0.6999300718307495,0.42000138759613037,0.5622404217720032,-6.404863961506635e-05,-3.93728660128545e-05,-0.8269738554954529,-0.07482140511274338,-0.001922857598401606,-0.0040404899045825005,0.19583387672901154,-0.09198252111673355,-3.3919544219970703,0.47449833154678345,0.7157849073410034,0.42503970861434937,-0.1449519544839859,0.1725645661354065,0.1951913833618164,0.4706740379333496,0.7178565859794617,0.42000001668930054,-0.38992950320243835,-3.000002145767212,-1.266221284866333,-2.9976274967193604,-0.18961051106452942,-0.19506298005580902,-0.19780874252319336,-0.19374898076057434,0.5974436402320862,0.5128607153892517,0.3589126765727997,0.10220777988433838
0.65,0.09695956856012344,0.03570650890469551,0.0,0.6709316968917847,0.0,0.0,-0.7415191531181335,0.8520306944847107,-0.07459142804145813,0.0,0.0,0.0,0.6914524435997009,0.47810930013656616,0.7008017301559448,0.42000001668930054,0.5542540550231934,-6.8916046984668355e-06,1.2476886695367284e-05,-0.8323474526405334,-0.14727731049060822,0.1007504016160965,-0.0003435947874095291,-0.005959715228527784,-0.015847574919462204,0.7606379389762878,0.47338205575942993,0.7225136756896973,0.4295109510421753,-0.0798213854432106,0.4368080496788025,0.3149512708187103,0.4706740379333496,0.7178565859794617,0.42000001668930054,-0.4399562180042267,-2.9999992847442627,-1.316184401512146,-2.9994616508483887,-0.1757165491580963,-0.18227721750736237,-0.18784014880657196,-0.18807347118854523,0.7129376530647278,0.7412455677986145,0.6211768388748169,0.4176616072654724
0.6666666666666666,0.11242077499628067,0.03221533074975014,0.0,0.6588822603225708,0.0,0.0,-0.752246081829071,0.9681593179702759,-0.2557564079761505,0.0,0.0,0.0,-2.937999725341797,0.4764951467514038,0.7019057273864746,0.4200000464916229,0.5571485757827759,2.677664667771751e-07,1.6278733028229908e-07,-0.830412745475769,-0.07993365079164505,0.0543806217610836,-3.2499665394425392e-06,-0.00015367510786745697,0.00010441171616548672,0.3118421733379364,0.4754205346107483,0.7301372289657593,0.4369213581085205,0.29076170921325684,0.42045220732688904,0.6880496144294739,0.4706740379333496,0.7178565859794617,0.42000001668930054,-0.48996949195861816,-2.999990224838257,-1.366202712059021,-3.0,-0.16740164160728455,-0.17286433279514313,-0.1792997419834137,-0.1816551834344864,0.3505884110927582,0.4446799159049988,0.4465487599372864,0.380939781665802
0.6833333333333333,0.13148890435695648,0.03399081528186798,0.0,0.623652458190918,0.0,0.0,-0.7817017436027527,1.091911792755127,0.11041329801082611,0.0,0.0,0.0,-6.428755760192871,0.4759848713874817,0.7022534012794495,0.4200000464916229,0.5577767491340637,2.2637078700427082e-07,1.3058799197551707e-07,-0.8299909234046936,-0.012440850026905537,0.008369515649974346,-5.626003257930279e-06,-0.0002701885823626071,0.00035844475496560335,0.027144325897097588,0.487567663192749,0.7317771911621094,0.4558035731315613,1.3108816146850586,-0.07270652055740356,1.6498374938964844,0.4706740379333496,0.7178565859794617,0.42000001668930054,-0.5399820804595947,-2.9999709129333496,-1.416221022605896,-2.999998092651367,-0.1700979620218277,-0.17255868017673492,-0.1772100031375885,-0.17889076471328735,-0.1516154408454895,0.013639701530337334,0.12962712347507477,0.18971851468086243
0.7,0.146450012922287,0.03724762052297592,0.0,0.6017407178878784,0.0,0.0,-0.7986915111541748,0.8264704942703247,0.18339398503303528,0.0,0.0,0.0,-2.2559521198272705,0.475984662771225,0.702253520488739,0.4200000464916229,0.5577767491340637,9.393300501869817e-07,-1.8826290215656627e-06,-0.8299909234046936,9.781346307136118e-05,-0.00017212098464369774,-7.418054156005383e-05,0.004110449925065041,-0.0007598013617098331,-0.0006048586801625788,0.5104215741157532,0.7347065210342407,0.4842837154865265,1.412413239479065,0.40914952754974365,1.764570951461792,0.4706740379333496,0.7178565859794617,0.42000001668930054,-0.5612155795097351,0.19089755415916443,-1.466239333152771,-3.0,-0.17155338823795319,-0.17224955558776855,-0.17571021616458893,-0.17705292999744415,0.04046526551246643,0.07707136124372482,0.09270992875099182,0.0631386861205101
0.7166666666666667,0.1566087156534195,0.041393645107746124,0.0,0.6056695580482483,0.0,0.0,-0.7957162857055664,0.5377485156059265,0.313040554523468,0.0,0.0,0.0,1.4808238744735718,0.4759846329689026,0.7022535800933838,0.4200000464916229,0.5577768087387085,3.5615488513940363e-07,-2.8250035484234104e-06,-0.8299908638000488,6.0135040257591754e-05,-0.0002546423056628555,-8.071237243711948e-05,0.006461153272539377,-0.0019096846226602793,-0.0007035909220576286,0.5302079916000366,0.7432495355606079,0.5077744722366333,0.9064919948577881,0.5865647196769714,1.119633674621582,0.4706740379333496,0.7178565859794617,0.42000001668930054,-0.5373503565788269,2.454975128173828,-1.4403215646743774,3.0,-0.1695261001586914,-0.1698705404996872,-0.1731136441230774,-0.17489862442016602,0.15110716223716736,0.1655227690935135,0.1811191439628601,0.16067731380462646
0.7333333333333333,0.16309821605682373,0.04194410517811775,0.0,0.6139578223228455,0.0,0.0,-0.7893388271331787,0.3314572870731354,-0.05078941211104393,0.0,0.0,0.0,1.2370235919952393,0.4759846329689026,0.7022535800933838,0.4200000464916229,0.5577767491340637,2.0583250659456098e-07,-3.0047231120988727e-06,-0.8299909830093384,5.9227135352557525e-05,-0.0002556271792855114,-8.037523366510868e-05,0.006494241766631603,-0.0019197294022887945,-0.0007031603017821908,0.5370381474494934,0.7521921396255493,0.520780086517334,-0.08986635506153107,0.5317453145980835,0.5805556178092957,0.4706740379333496,0.7178565859794617,0.42000001668930054,-0.5178256630897522,0.07611339539289474,-1.3902727365493774,3.0,-0.1670374870300293,-0.166941300034523,-0.1696247160434723,-0.1714250147342682,0.15158849954605103,0.18362736701965332,0.2271028310060501,0.2374829798936844
0.75,0.16636106371879578,0.0476241335272789,0.0,0.6392911672592163,0.0,0.0,-0.7689647674560547,0.14176693558692932,0.4854215979576111,0.0,0.0,0.0,4.797530651092529,0.475984662771225,0.7022535800933838,0.4200000464916229,0.5577768087387085,3.1567418545819237e-07,-2.9714531137869926e-06,-0.8299909830093384,6.108659727033228e-05,-0.0002556077088229358,-8.078757673501968e-05,0.0064830719493329525,-0.001898833317682147,-0.000707225117366761,0.5283361673355103,0.7599537372589111,0.5277054309844971,-0.889203667640686,0.5220745801925659,0.2859191298484802,0.4706740379333496,0.7178565859794617,0.42000001668930054,-0.5116333365440369,0.6157407760620117,-1.4085710048675537,-2.999999523162842,-0.17019127309322357,-0.1685127317905426,-0.16944169998168945,-0.17010605335235596,-0.2417318969964981,-0.14768733084201813,-0.0405292809009552,0.031916163861751556
0.7666666666666666,0.1712075173854828,0.05102558806538582,0.0,0.6505784392356873,0.0,0.0,-0.7594390511512756,0.26911017298698425,0.15453118085861206,0.0,0.0,0.0,0.5538386106491089,0.475984662771225,0.7022535800933838,0.4200000464916229,0.5577770471572876,3.0812134355073795e-07,-2.753343324002344e-06,-0.8299908638000488,6.028791904100217e-05,-0.0002557602128945291,-8.069188334047794e-05,0.0064908722415566444,-0.0019107847474515438,-0.0007060496136546135,0.5104836821556091,0.7677412033081055,0.5257614850997925,-1.2842607498168945,0.38700953125953674,-0.3496837615966797,0.4706740379333496,0.7178565859794617,0.42000001668930054,-0.5409620404243469,-2.999999523162842,-1.370102047920227,3.000000476837158,-0.17185093462467194,-0.16904206573963165,-0.16851653158664703,-0.1681428998708725,-0.13478785753250122,-0.056627996265888214,0.043737299740314484,0.12422815710306168
0.7833333333333333,0.17694725096225739,0.050488829612731934,0.0,0.6644526720046997,0.0,0.0,-0.7473303079605103,0.3868529498577118,-0.10715856403112411,0.0,0.0,0.0,3.196382522583008,0.475984662771225,0.7022535800933838,0.4200000464916229,0.5577770471572876,1.0754551738045848e-07,-2.6469770091352984e-06,-0.8299907445907593,6.304147973423824e-05,-0.00025700542028062046,-8.134497329592705e-05,0.006507569458335638,-0.0018867761828005314,-0.0007150769815780222,0.4949108958244324,0.7735120058059692,0.5214948654174805,-0.6324588060379028,0.3312562108039856,-0.08022518455982208,0.4706740379333496,0.7178565859794617,0.42000001668930054,-0.5909683108329773,-2.999999523162842,-1.3887832164764404,-3.000000238418579,-0.17486262321472168,-0.1705816090106964,-0.1680726855993271,-0.16589076817035675,-0.16150127351284027,-0.0766763910651207,0.045473843812942505,0.16551540791988373
0.8,0.18447372317314148,0.046419113874435425,0.0,0.666010320186615,0.0,0.0,-0.7459425330162048,0.4838467538356781,-0.29192426800727844,0.0,0.0,0.0,-0.7263482213020325,0.4759846329689026,0.7022535800933838,0.4200000464916229,0.557776927947998,3.6975598050048575e-07,-2.626719378895359e-06,-0.8299908638000488,5.8021567383548245e-05,-0.0002569439238868654,-8.027208968997002e-05,0.006533889565616846,-0.0019440415780991316,-0.000703485100530088,0.48911380767822266,0.7778088450431824,0.51723712682724,-0.10119336098432541,0.1419987678527832,-0.24598254263401031,0.4706740379333496,0.7178565859794617,0.42000001668930054,-0.6409772038459778,-2.9999961853027344,-1.4388015270233154,-2.9999992847442627,-0.17829541862010956,-0.17239069938659668,-0.16754531860351562,-0.162942573428154,-0.19344380497932434,-0.08848004788160324,0.06215376406908035,0.22294676303863525
0.8166666666666667,0.19393156468868256,0.038902830332517624,0.0,0.6469136476516724,0.0,0.0,-0.7625632882118225,0.6102468371391296,-0.5155776739120483,0.0,0.0,0.0,-3.904228448867798,0.4759846329689026,0.7022535800933838,0.4200000464916229,0.5577769875526428,1.9836662090710888e-07,-2.711344677663874e-06,-0.829990804195404,5.727207098971121e-05,-0.0002567172050476074,-8.005555719137192e-05,0.006532738916575909,-0.0019498469773679972,-0.0007012016722001135,0.49146002531051636,0.778333842754364,0.5186316967010498,0.3661600947380066,-0.059322282671928406,0.5454846620559692,0.4706740379333496,0.7178565859794617,0.42000001668930054,-0.6909840703010559,-2.999953269958496,-1.4888198375701904,-2.9999988079071045,-0.18305090069770813,-0.17530182003974915,-0.1678636372089386,-0.16046801209449768,-0.2980375587940216,-0.19302108883857727,-0.044559329748153687,0.11746320873498917
0.8333333333333334,0.20790588855743408,0.036880724132061005,0.0,0.6400162577629089,0.0,0.0,-0.7683613896369934,0.7486853003501892,-0.09575532376766205,0.0,0.0,0.0,-0.0017977594397962093,0.475984662771225,0.7022535800933838,0.4200000464916229,0.5577769875526428,1.02004641178155e-07,-2.484857532181195e-06,-0.829990804195404,6.231108272913843e-05,-0.00025736523093655705,-8.113961666822433e-05,0.006521145347505808,-0.0018955885898321867,-0.0007140540983527899,0.4978210926055908,0.7788395881652832,0.5328371524810791,0.46105343103408813,0.35147929191589355,1.1194837093353271,0.4706740379333496,0.7178565859794617,0.42000001668930054,-0.7064720988273621,0.8190914392471313,-1.5388381481170654,-2.9999799728393555,-0.19255667924880981,-0.18287432193756104,-0.17299525439739227,-0.1630929559469223,-0.2859714925289154,-0.27502039074897766,-0.2323816865682602,-0.1793496310710907
0.85,0.21737542748451233,0.029854796826839447,0.0,0.6566805839538574,0.0,0.0,-0.7541688084602356,0.5495232939720154,-0.45401203632354736,0.0,0.0,0.0,3.1979928016662598,0.475984662771225,0.7022535800933838,0.4200000464916229,0.5577769875526428,3.2912313940869353e-07,-2.4605765247542877e-06,-0.829990804195404,5.911384869250469e-05,-0.0002571619697846472,-8.04937444627285e-05,0.006533357780426741,-0.0019323680317029357,-0.0007065332611091435,0.5037994980812073,0.7812914848327637,0.5474275946617126,0.20010673999786377,-0.11972925066947937,0.6216588020324707,0.4706740379333496,0.7178565859794617,0.42000001668930054,-0.699744462966919,0.0495665967464447,-1.4999958276748657,2.999999761581421,-0.19375242292881012,-0.1838727742433548,-0.1733340620994568,-0.16261513531208038,-0.18483546376228333,-0.1288873702287674,-0.05146843194961548,0.030405670404434204
0.8666666666666667,0.22363287210464478,0.024520594626665115,0.0,0.6585468649864197,0.0,0.0,-0.7525396943092346,0.30820155143737793,-0.28788334131240845,0.0,0.0,0.0,-0.7531403303146362,0.4759846329689026,0.7022535800933838,0.4200000464916229,0.557776689529419,3.0257658067966986e-07,-2.8830038445448736e-06,-0.8299910426139832,6.303665577434003e-05,-0.00025567456032149494,-8.130189962685108e-05,0.006473700515925884,-0.001879145740531385,-0.0007119051297195256,0.5064049959182739,0.7781413197517395,0.5525758266448975,0.1623523235321045,-0.20300273597240448,0.15256981551647186,0.4706740379333496,0.7178565859794617,0.42000001668930054,-0.6933900713920593,0.6553258895874023,-1.4499393701553345,3.000000238418579,-0.19684945046901703,-0.1862533837556839,-0.1746627539396286,-0.16279537975788116,-0.01996295526623726,-0.01797809824347496,0.0049223517999053,0.037616074085235596
