vladlanda/robotic-transformer/data/env_000_episode_0210.csv
sim_time_s,robot_box_x,robot_box_y,robot_box_z,robot_box_quat_w,robot_box_quat_x,robot_box_quat_y,robot_box_quat_z,robot_box_linvel_x,robot_box_linvel_y,robot_box_linvel_z,robot_box_angvel_x,robot_box_angvel_y,robot_box_angvel_z,cube_world_x,cube_world_y,cube_world_z,cube_quat_w,cube_quat_x,cube_quat_y,cube_quat_z,cube_linvel_x,cube_linvel_y,cube_linvel_z,cube_angvel_x,cube_angvel_y,cube_angvel_z,endpoint_world_x,endpoint_world_y,endpoint_world_z,endpoint_linvel_x,endpoint_linvel_y,endpoint_linvel_z,target_cube_world_x,target_cube_world_y,target_cube_world_z,gripper_actual_pos_rad_gp_leftgearjoint,gripper_actual_vel_rad_s_gp_leftgearjoint,gripper_actual_pos_rad_gp_rotatingjoint,gripper_actual_vel_rad_s_gp_rotatingjoint,motor_angle_rad_joint1,motor_angle_rad_joint2,motor_angle_rad_joint3,motor_angle_rad_joint4,motor_speed_rad_s_joint1,motor_speed_rad_s_joint2,motor_speed_rad_s_joint3,motor_speed_rad_s_joint4
0.0,0.0,0.0,0.0,1.0,0.0,0.0,0.0,0.0,0.0,0.0,0.0,0.0,0.0,-0.47798869013786316,0.7438668608665466,0.41999998688697815,1.0,0.0,0.0,0.0,0.0,0.0,0.0,0.0,0.0,0.0,3.42540442943573e-06,-0.005000244826078415,1.313499927520752,0.0,0.0,0.0,0.40659409761428833,0.6638890504837036,0.42000001668930054,-1.5707999467849731,0.0,0.0,0.0,0.0,0.0,0.0,0.0,0.0,0.0,0.0,0.0
0.016666666666666666,0.0028778850100934505,0.0021806680597364902,0.0,0.9998081922531128,0.0,0.0,0.019586581736803055,0.24087215960025787,0.18240931630134583,0.0,0.0,0.0,3.1418697834014893,-0.4779888093471527,0.7438665628433228,0.41999998688697815,1.0,3.2799914606584935e-06,-8.339814598912199e-07,8.465387679734704e-08,-1.9833554688375443e-05,0.00017983050202019513,-6.133061833679676e-05,0.0009432226070202887,-0.004689437802881002,-0.0003198152990080416,-0.007110234349966049,0.003379564033821225,1.3159373998641968,-0.8143353462219238,0.9868683815002441,0.18095196783542633,0.40659409761428833,0.6638890504837036,0.42000001668930054,-1.5301095247268677,3.0000011920928955,-0.04584788903594017,-2.9999992847442627,0.0008691533003002405,0.0007963840034790337,0.0007110277656465769,0.0006108740926720202,0.11094217747449875,0.09756709635257721,0.08334315568208694,0.06823883205652237
0.03333333333333333,0.00895895715802908,0.006804208271205425,0.0,0.9997954964637756,0.0,0.0,0.02022300660610199,0.4070374071598053,0.3153170943260193,0.0,0.0,0.0,-0.8697757124900818,-0.47798892855644226,0.743866503238678,0.4200000464916229,1.0,3.390868869246333e-06,-2.1324674435163615e-06,-3.711417306817566e-08,0.00026357892784290016,0.0002693788555916399,-0.00010509602725505829,-0.001770795788615942,0.004130901303142309,-0.00013548035349231213,-0.027552230283617973,0.026094947010278702,1.3166112899780273,-1.591505765914917,1.6156177520751953,-0.0831027626991272,0.40659409761428833,0.6638890504837036,0.42000001668930054,-1.4800904989242554,3.000000238418579,-0.0958876982331276,-2.9999990463256836,0.0029892497695982456,0.0026519421953707933,0.0022765917237848043,0.0018601270858198404,0.1642397791147232,0.13978193700313568,0.11383913457393646,0.08631976693868637
0.05,0.017757734283804893,0.01377556286752224,0.0,0.9993739128112793,0.0,0.0,0.03538044914603233,0.5939816832542419,0.4651743769645691,0.0,0.0,0.0,2.6469364166259766,-0.47798895835876465,0.7438665628433228,0.4200000464916229,1.0,3.7651575439667795e-06,-2.211913852079306e-06,5.610705233749513e-09,0.0002653082774486393,0.0002669135865289718,-0.0001044049859046936,-0.0017242783214896917,0.0041773971170187,-0.00012949295341968536,-0.059689946472644806,0.05393718555569649,1.3116427659988403,-2.1877317428588867,1.759253740310669,-0.475577712059021,0.40659409761428833,0.6638890504837036,0.42000001668930054,-1.4300721883773804,3.0000009536743164,-0.1459263563156128,-3.0,0.005710973404347897,0.004918799735605717,0.004054483491927385,0.00311360158957541,0.19272121787071228,0.15582294762134552,0.11704929918050766,0.07630740106105804
0.06666666666666667,0.02907591499388218,0.023070702329277992,0.0,0.9994465708732605,0.0,0.0,0.03326423466205597,0.7205490469932556,0.595304548740387,0.0,0.0,0.0,-1.2122154235839844,-0.47798895835876465,0.743866503238678,0.4200000464916229,0.9999999403953552,3.4068068544002017e-06,-2.2855970200907905e-06,4.300798082113033e-07,0.0002670251706149429,0.0002679169410839677,-0.0001043803058564663,-0.0017405967228114605,0.004211737308651209,-0.00012850314669776708,-0.09765665978193283,0.0884442999958992,1.2991588115692139,-2.388237953186035,2.26546049118042,-0.9963161945343018,0.40659409761428833,0.6638890504837036,0.42000001668930054,-1.3800538778305054,3.000002145767212,-0.19596368074417114,-3.0000014305114746,0.00823038537055254,0.0067293886095285416,0.0051173861138522625,0.0033887317404150963,0.14414159953594208,0.09117018431425095,0.03615974262356758,-0.02096976339817047
0.08333333333333333,0.03444914519786835,0.03570505231618881,0.0,0.999995768070221,0.0,0.0,0.0029070486780256033,0.190603569149971,0.8234548568725586,0.0,0.0,0.0,-4.93976354598999,-0.47798895835876465,0.743866503238678,0.4200000464916229,0.9999999403953552,3.6261346849641996e-06,-2.33528749049583e-06,3.032092763533001e-07,0.00026613843510858715,0.00026685046032071114,-0.00010405108332633972,-0.0017283449415117502,0.004196330904960632,-0.00012790736218448728,-0.13534532487392426,0.13010157644748688,1.2781987190246582,-2.1613593101501465,2.645683765411377,-1.4191510677337646,0.40659409761428833,0.6638890504837036,0.42000001668930054,-1.3300354480743408,3.0000009536743164,-0.23244084417819977,-1.4771727323532104,0.005041760858148336,0.00293129775673151,0.0006590406992472708,-0.0017849094001576304,-0.28659072518348694,-0.3304414749145508,-0.3768490254878998,-0.4260971248149872
0.1,0.043982286006212234,0.04967750236392021,0.0,0.9999348521232605,0.0,0.0,-0.011414707638323307,0.6767346858978271,0.8508375287055969,0.0,0.0,0.0,-0.7097500562667847,-0.47798895835876465,0.743866503238678,0.4200000464916229,1.0,3.422179361223243e-06,-2.3085308384906966e-06,1.796248056962213e-07,0.00026681533199734986,0.0002680046309251338,-0.00010440708138048649,-0.0017430472653359175,0.004207065794616938,-0.00012891196820419282,-0.17407763004302979,0.17043130099773407,1.255549430847168,-2.3085830211639404,2.487637758255005,-1.3838472366333008,0.40659409761428833,0.6638890504837036,0.42000001668930054,-1.2800259590148926,3.000002384185791,-0.2814275622367859,-3.0000016689300537,0.005202414467930794,0.0015685816761106253,-0.0022241384722292423,-0.006186218932271004,0.03995775803923607,-0.06361529976129532,-0.1662987321615219,-0.26804354786872864
0.11666666666666667,0.05160403996706009,0.06573054194450378,0.0,0.9992552995681763,0.0,0.0,-0.03858518600463867,0.45929715037345886,1.0255752801895142,0.0,0.0,0.0,-3.9424805641174316,-0.47798895835876465,0.7438665628433228,0.4200000464916229,1.0,3.7115455597813707e-06,-2.332649273739662e-06,2.5742372145032277e-07,0.0002648553345352411,0.0002663533960003406,-0.00010423408821225166,-0.0017181431176140904,0.004169944208115339,-0.00012915971456095576,-0.20781978964805603,0.21788731217384338,1.2337301969528198,-1.7554713487625122,3.2087368965148926,-1.2192131280899048,0.40659409761428833,0.6638890504837036,0.42000001668930054,-1.2299998998641968,2.999990701675415,-0.2472153902053833,3.000000476837158,0.003700543660670519,-0.001900765928439796,-0.0076332674361765385,-0.013505744747817516,-0.05256471410393715,-0.195251002907753,-0.33484673500061035,-0.47108861804008484
0.13333333333333333,0.05660279467701912,0.08435972034931183,0.0,0.9959306120872498,0.0,0.0,-0.09012307971715927,0.23388268053531647,1.1788668632507324,0.0,0.0,0.0,-7.109318256378174,-0.47798895835876465,0.743866503238678,0.4200000464916229,1.0,3.335725068609463e-06,-2.2318936316878535e-06,3.1131941113926587e-07,0.0002666966465767473,0.0002675946743693203,-0.00010428694076836109,-0.0017371214926242828,0.004205851349979639,-0.00012840802082791924,-0.2374742180109024,0.2724604606628418,1.2138588428497314,-1.7596055269241333,3.386547565460205,-1.23368239402771,0.40659409761428833,0.6638890504837036,0.42000001668930054,-1.195448637008667,1.2666383981704712,-0.27835556864738464,-3.000000238418579,0.0016168344300240278,-0.006308642216026783,-0.014298449270427227,-0.022356325760483742,-0.2030644565820694,-0.3298170268535614,-0.4523964524269104,-0.5705243349075317
0.15,0.05848192423582077,0.10100080817937851,0.0,0.9924874305725098,0.0,0.0,-0.12234638631343842,0.061034753918647766,0.9233804941177368,0.0,0.0,0.0,-2.8350794315338135,-0.47798895835876465,0.743866503238678,0.4200000464916229,1.0,3.5189095797250047e-06,-2.2831156911706785e-06,-3.6253456414669927e-07,0.0002661842736415565,0.0002673580020200461,-0.00010425597429275513,-0.0017349525587633252,0.004195696674287319,-0.00012860969582106918,-0.274699866771698,0.32619571685791016,1.1877963542938232,-2.333319664001465,3.4147324562072754,-1.862330436706543,0.40659409761428833,0.6638890504837036,0.42000001668930054,-1.154380202293396,2.999993324279785,-0.24412494897842407,2.9999992847442627,-0.002435921458527446,-0.01211574673652649,-0.021779974922537804,-0.031429555267095566,-0.300632119178772,-0.3822544813156128,-0.4592766761779785,-0.5316635370254517
0.16666666666666666,0.05679735913872719,0.11805694550275803,0.0,0.9860207438468933,0.0,0.0,-0.16662250459194183,-0.16277295351028442,1.0625050067901611,0.0,0.0,0.0,-6.234991073608398,-0.47798895835876465,0.743866503238678,0.4200000464916229,1.0,3.666511929623084e-06,-2.3391485228785314e-06,-3.1497177133132936e-07,0.000265957583906129,0.00026667368365451694,-0.0001040350180119276,-0.00172534235753119,0.0041928584687411785,-0.0001277906121686101,-0.3109232187271118,0.3863861560821533,1.155482530593872,-1.9342362880706787,3.881009101867676,-2.0351977348327637,0.40659409761428833,0.6638890504837036,0.42000001668930054,-1.1101858615875244,2.3231234550476074,-0.27527564764022827,-3.0000009536743164,-0.009436814114451408,-0.020429300144314766,-0.03132261335849762,-0.042116641998291016,-0.5067229270935059,-0.5766316652297974,-0.6417734026908875,-0.7020882368087769
0.18333333333333332,0.06040579080581665,0.13192379474639893,0.0,0.9810559749603271,0.0,0.0,-0.19372457265853882,0.24812906980514526,0.7718690633773804,0.0,0.0,0.0,-2.157012939453125,-0.47798895835876465,0.743866503238678,0.4200000464916229,1.0,3.814258207057719e-06,-2.3995091851247707e-06,-2.7025083682019613e-07,0.0002654909039847553,0.0002661114267539233,-0.00010391208343207836,-0.001717755920253694,0.004184814170002937,-0.0001275418180739507,-0.34747982025146484,0.44868266582489014,1.1138231754302979,-2.064596652984619,3.96262788772583,-3.0350089073181152,0.40659409761428833,0.6638890504837036,0.42000001668930054,-1.0792112350463867,1.4454494714736938,-0.32530397176742554,-2.999906063079834,-0.01464536227285862,-0.026567332446575165,-0.03831053525209427,-0.04987840726971626,-0.5501028299331665,-0.547066867351532,-0.542161762714386,-0.5358328223228455
0.2,0.05888478830456734,0.14780427515506744,0.0,0.9723430275917053,0.0,0.0,-0.23355749249458313,-0.11427751928567886,0.9202452898025513,0.0,0.0,0.0,-5.661553382873535,-0.47798895835876465,0.743866503238678,0.4200000464916229,1.0,3.5999153169541387e-06,-2.291187911396264e-06,-2.2016379830347432e-07,0.0002657304867170751,0.00026644792524166405,-0.00010397983714938164,-0.0017226124182343483,0.004188839346170425,-0.00012773237540386617,-0.3812498450279236,0.5149655342102051,1.055633306503296,-1.9020748138427734,4.092673301696777,-3.769672155380249,0.40659409761428833,0.6638890504837036,0.42000001668930054,-1.0331746339797974,2.9999985694885254,-0.3753303587436676,-3.0,-0.028750214725732803,-0.040424760431051254,-0.05192573368549347,-0.06321042031049728,-0.69134920835495,-0.725814700126648,-0.7587378025054932,-0.7875261902809143
0.21666666666666667,0.05956617370247841,0.16019321978092194,0.0,0.9669619202613831,0.0,0.0,-0.25492092967033386,0.06291360408067703,0.6074385643005371,0.0,0.0,0.0,-1.5174643993377686,-0.47798895835876465,0.743866503238678,0.4200000464916229,0.9999999403953552,3.6394887956703315e-06,-2.261938107039896e-06,2.225111614961861e-07,0.00026687642093747854,0.0002675454888958484,-0.00010411953553557396,-0.0017403915990144014,0.004211097024381161,-0.0001278359559364617,-0.41475993394851685,0.5768842697143555,0.9850362539291382,-1.79209566116333,3.6388113498687744,-4.685359001159668,0.40659409761428833,0.6638890504837036,0.42000001668930054,-0.9854583144187927,2.7093725204467773,-0.4253566861152649,-3.0000011920928955,-0.04087217152118683,-0.05236009880900383,-0.06368112564086914,-0.07476699352264404,-0.9090732932090759,-0.8481603860855103,-0.7898678183555603,-0.7333948016166687
0.23333333333333334,0.055930741131305695,0.17315556108951569,0.0,0.9576019048690796,0.0,0.0,-0.28809478878974915,-0.26667600870132446,0.8082974553108215,0.0,0.0,0.0,-4.930181503295898,-0.47798892855644226,0.743866503238678,0.4200000464916229,1.0,3.4205220345029375e-06,-2.3167776816990227e-06,2.956315086066752e-07,0.0002668011002242565,0.0002680400793906301,-0.00010442500934004784,-0.0017437192145735025,0.00420679897069931,-0.00012899402645416558,-0.4423401951789856,0.6340500116348267,0.9014647006988525,-1.4318609237670898,3.317260265350342,-5.175510406494141,0.40659409761428833,0.6638890504837036,0.42000001668930054,-0.9355528950691223,3.0,-0.47538501024246216,-3.0000011920928955,-0.05649985745549202,-0.06816991418600082,-0.0796542763710022,-0.0908336266875267,-0.9663087725639343,-0.9730740785598755,-0.9771416187286377,-0.9787735939025879
0.25,0.05689643323421478,0.18179579079151154,0.0,0.9529241323471069,0.0,0.0,-0.30320876836776733,0.09298594295978546,0.4090646803379059,0.0,0.0,0.0,-0.7537709474563599,-0.47798895835876465,0.743866503238678,0.4200000464916229,0.9999999403953552,3.3473763778602006e-06,-2.2591107153857592e-06,1.8088424269535608e-07,0.00026687863282859325,0.00026791077107191086,-0.00010439497418701649,-0.001740471227094531,0.004208289086818695,-0.00012870471982751042,-0.4678194522857666,0.6806304454803467,0.8110085725784302,-1.2956360578536987,2.426809787750244,-5.740233421325684,0.40659409761428833,0.6638890504837036,0.42000001668930054,-0.8855448365211487,3.0000007152557373,-0.525414764881134,-3.00000262260437,-0.07129986584186554,-0.0827658474445343,-0.09393685311079025,-0.10449012368917465,-0.9895095229148865,-0.990939199924469,-0.9719623923301697,-0.8835014700889587
0.26666666666666666,0.0522117093205452,0.19357317686080933,0.0,0.9434671401977539,0.0,0.0,-0.3314661681652069,-0.3838452696800232,0.6950080394744873,0.0,0.0,0.0,-4.3936381340026855,-0.47798895835876465,0.743866503238678,0.4200000464916229,0.9999999403953552,3.707820951603935e-06,-2.3923903427203186e-06,-1.2721770303869562e-07,0.00026603747392073274,0.00026716626598499715,-0.00010421453043818474,-0.0017322177300229669,0.004193147644400597,-0.000128546089399606,-0.48301348090171814,0.7103149890899658,0.7116645574569702,-0.5812373161315918,1.2965867519378662,-5.9455389976501465,0.40659409761428833,0.6638890504837036,0.42000001668930054,-0.8355344533920288,2.9999961853027344,-0.5754445195198059,-3.000000238418579,-0.08890054374933243,-0.10008969157934189,-0.11106517165899277,-0.12147770822048187,-0.8485733866691589,-0.8785188794136047,-0.9055278301239014,-0.9291970133781433
0.2833333333333333,0.05235002562403679,0.19996242225170135,0.0,0.9397655129432678,0.0,0.0,-0.34181976318359375,0.04620792716741562,0.28014934062957764,0.0,0.0,0.0,-0.21804097294807434,-0.47798895835876465,0.7438665628433228,0.4200000464916229,0.9999999403953552,3.572407877072692e-06,-2.303904466316453e-06,1.2990359721243294e-07,0.00026521814288571477,0.0002645525673869997,-0.00010317121632397175,-0.0017021826934069395,0.004185078199952841,-0.00012500252341851592,-0.49336034059524536,0.7279186844825745,0.6151465773582458,-0.37668877840042114,0.7305710911750793,-5.726844787597656,0.40659409761428833,0.6638890504837036,0.42000001668930054,-0.7855256199836731,2.9999911785125732,-0.6254742741584778,-3.000001907348633,-0.10150440037250519,-0.11283481866121292,-0.12388873845338821,-0.13437433540821075,-0.9919170141220093,-0.957362949848175,-0.9080309271812439,-0.8628563284873962
0.3,0.04958454519510269,0.20231907069683075,0.0,0.9383915066719055,0.0,0.0,-0.34557393193244934,-0.23598800599575043,0.09286881238222122,0.0,0.0,0.0,-0.6292632222175598,-0.47798895835876465,0.743866503238678,0.4200000464916229,1.0,3.7448494367708918e-06,-2.2379372239811346e-06,-1.7673770003057143e-07,0.00026436097687110305,0.000266234390437603,-0.00010442966595292091,-0.0017119572730734944,0.004158670082688332,-0.00012990014511160553,-0.49579524993896484,0.7387455105781555,0.5221303701400757,0.17879799008369446,0.5040391087532043,-5.29018497467041,0.40659409761428833,0.6638890504837036,0.42000001668930054,-0.7355168461799622,3.000001907348633,-0.6755021810531616,-3.0000009536743164,-0.1188606470823288,-0.13002339005470276,-0.14096029102802277,-0.15135301649570465,-1.0184295177459717,-1.0139379501342773,-1.0105246305465698,-1.00779390335083
0.31666666666666665,0.04204501956701279,0.20287850499153137,0.0,0.9440699219703674,0.0,0.0,-0.32974541187286377,-0.38076522946357727,-0.07076066732406616,0.0,0.0,0.0,2.7986040115356445,-0.47798895835876465,0.7438665628433228,0.4200000464916229,0.9999999403953552,3.6678875403595157e-06,-2.3070483621268068e-06,2.637760019297275e-07,0.0002669123059604317,0.00026760553009808064,-0.00010412652045488358,-0.0017413359601050615,0.004211626946926117,-0.00012787147716153413,-0.48957014083862305,0.740084171295166,0.4372318387031555,0.5460150241851807,-0.20482614636421204,-5.048806190490723,0.40659409761428833,0.6638890504837036,0.42000001668930054,-0.6855097413063049,2.9998292922973633,-0.72552889585495,-2.999781370162964,-0.1363292783498764,-0.147269606590271,-0.15804222226142883,-0.16830381751060486,-0.7077512741088867,-0.7716540694236755,-0.8302898406982422,-0.8795661330223083
0.3333333333333333,0.034003306180238724,0.20030337572097778,0.0,0.9437083601951599,0.0,0.0,-0.33077868819236755,-0.5238983631134033,-0.19419290125370026,0.0,0.0,0.0,-1.0521525144577026,-0.47798895835876465,0.743866503238678,0.4200000464916229,1.0,3.598482635425171e-06,-2.305159114257549e-06,1.4965402783673198e-07,0.00026654524845071137,0.00026732150581665337,-0.00010423827916383743,-0.0017325517255812883,0.004203341901302338,-0.00012820668052881956,-0.4898953437805176,0.7452034950256348,0.42700010538101196,0.14001432061195374,0.47504711151123047,-0.2013275921344757,0.40659409761428833,0.6638890504837036,0.42000001668930054,-0.6355048418045044,2.999986410140991,-0.7759420871734619,-2.999863386154175,-0.1441003680229187,-0.15628615021705627,-0.16714875400066376,-0.1767405867576599,-0.3581185042858124,-0.43192341923713684,-0.43893787264823914,-0.40216436982154846
0.35,0.023728786036372185,0.19536611437797546,0.0,0.948200523853302,0.0,0.0,-0.31767237186431885,-0.6629626750946045,-0.3374844491481781,0.0,0.0,0.0,2.512006998062134,-0.47711876034736633,0.7457863092422485,0.41999995708465576,0.9995997548103333,7.747604286123533e-06,1.2734147958326503e-06,-0.02828899584710598,0.11356455832719803,0.2464538812637329,-0.00014560343697667122,-0.008465799503028393,0.00849159900099039,-7.228285312652588,-0.48506665229797363,0.7514685392379761,0.42323237657546997,0.4218865633010864,0.2794971466064453,-0.22687996923923492,0.40659409761428833,0.6638890504837036,0.42000001668930054,-0.58549964427948,2.9999802112579346,-0.8259868025779724,-2.999985933303833,-0.1525861620903015,-0.16447323560714722,-0.17405042052268982,-0.18170960247516632,-0.5660490989685059,-0.485654354095459,-0.35338225960731506,-0.18664303421974182
0.36666666666666664,0.011148249730467796,0.1881003975868225,0.0,0.9472536444664001,0.0,0.0,-0.32048484683036804,-0.7961603999137878,-0.4760625660419464,0.0,0.0,0.0,-1.3044219017028809,-0.4734423756599426,0.7522557973861694,0.4200001657009125,0.9929094314575195,-2.979194869112689e-05,2.6144800358451903e-05,-0.11887279152870178,0.24461638927459717,0.42182573676109314,-0.0007511918083764613,0.03991968184709549,-0.009269846603274345,-12.2611665725708,-0.47711193561553955,0.7576369643211365,0.4206923842430115,0.4794442057609558,0.5280133485794067,0.15622182190418243,0.40659409761428833,0.6638890504837036,0.42000001668930054,-0.5354945659637451,2.999976634979248,-0.8760230541229248,-2.999999761581421,-0.16244181990623474,-0.17252521216869354,-0.17955367267131805,-0.18415360152721405,-0.5531609058380127,-0.42513275146484375,-0.2597251534461975,-0.06790099292993546
0.3833333333333333,-0.0039194505661726,0.17853911221027374,0.0,0.9376635551452637,0.0,0.0,-0.347544401884079,-0.9572699666023254,-0.6170993447303772,0.0,0.0,0.0,-4.768013954162598,-0.46466654539108276,0.766893208026886,0.42088788747787476,0.9899615049362183,0.009094432927668095,-0.005253246985375881,-0.14094610512256622,0.7473434805870056,1.1322671175003052,0.0353088416159153,1.7470967769622803,-1.7937920093536377,-3.586703300476074,-0.4669080674648285,0.7702535390853882,0.4207153916358948,0.8011548519134521,0.9992641806602478,-0.1358146220445633,0.40659409761428833,0.6638890504837036,0.42000001668930054,-0.4854899048805237,2.9999887943267822,-0.9260458946228027,-3.000000476837158,-0.17126543819904327,-0.17899632453918457,-0.1831265687942505,-0.18442024290561676,-0.48364272713661194,-0.33342018723487854,-0.15628540515899658,0.04201227426528931
0.4,-0.017498811706900597,0.16585606336593628,0.0,0.9162240624427795,0.0,0.0,-0.4006662964820862,-0.7541934847831726,-0.8202819228172302,0.0,0.0,0.0,-7.6223225593566895,-0.448064386844635,0.7904068827629089,0.42098432779312134,0.983392059803009,-0.01105005107820034,-0.014777780510485172,-0.18055331707000732,1.3291856050491333,1.756015658378601,0.11054002493619919,-3.7963435649871826,-1.08842134475708,-6.47011137008667,-0.4504883289337158,0.7918638586997986,0.42098063230514526,1.2488093376159668,1.6605100631713867,0.12412916123867035,0.40659409761428833,0.6638890504837036,0.42000001668930054,-0.4354332685470581,2.9984426498413086,-0.9760528802871704,-3.0000035762786865,-0.1799255907535553,-0.1847875863313675,-0.18563838303089142,-0.18331588804721832,-0.4735244810581207,-0.29712599515914917,-0.09994930773973465,0.11536867171525955
0.4166666666666667,-0.02714819274842739,0.1498226821422577,0.0,0.8806897401809692,0.0,0.0,-0.4736935496330261,-0.5112923383712769,-1.016492486000061,0.0,0.0,0.0,-10.512846946716309,-0.40618833899497986,0.8274106979370117,0.42425018548965454,0.9710696935653687,0.019374031573534012,-0.04935610294342041,-0.23283503949642181,3.5392913818359375,2.556226968765259,0.07178261131048203,38.123512268066406,-15.998464584350586,5.058836936950684,-0.4087589383125305,0.8296973705291748,0.4238229990005493,3.5820388793945312,2.867314100265503,0.46738362312316895,0.40659409761428833,0.6638890504837036,0.42000001668930054,-0.3942244052886963,1.5341675281524658,-0.9389113783836365,2.9926819801330566,-0.19136756658554077,-0.19183088839054108,-0.18813787400722504,-0.18119582533836365,-0.7438864707946777,-0.44478800892829895,-0.14578785002231598,0.14907287061214447
0.43333333333333335,-0.03441418334841728,0.13881346583366394,0.0,0.8265088200569153,0.0,0.0,-0.562923789024353,-0.3885744512081146,-0.5297410488128662,0.0,0.0,0.0,-13.304478645324707,-0.32021117210388184,0.8765990138053894,0.4315336346626282,0.9479954838752747,0.08841016888618469,-0.08853140473365784,-0.29266080260276794,6.741546630859375,2.7757232189178467,0.4710776209831238,11.64238166809082,-13.39626693725586,14.486186981201172,-0.3227211534976959,0.8798195123672485,0.4312739968299866,6.442498207092285,3.289034366607666,0.6093554496765137,0.40659409761428833,0.6638890504837036,0.42000001668930054,-0.37639328837394714,0.7758407592773438,-0.888867974281311,2.9984424114227295,-0.20750686526298523,-0.20603972673416138,-0.19658099114894867,-0.18351022899150848,-0.9170663356781006,-0.906497061252594,-0.6211760640144348,-0.2693229615688324
0.45,-0.043607648462057114,0.12490469962358475,0.0,0.7769709825515747,0.0,0.0,-0.6295364499092102,-0.6353818774223328,-0.9542363286018372,0.0,0.0,0.0,-8.99213695526123,-0.21349838376045227,0.9184868931770325,0.44438010454177856,0.9102824330329895,0.11769451946020126,-0.10169688612222672,-0.3836553692817688,6.652616500854492,1.4984968900680542,0.8227023482322693,5.890556335449219,-6.899240016937256,8.69223690032959,-0.21603801846504211,0.9239065647125244,0.4438748359680176,6.557989120483398,2.020967483520508,0.9114483594894409,0.40659409761428833,0.6638890504837036,0.42000001668930054,-0.36146360635757446,1.0030992031097412,-0.9151033163070679,-3.0000030994415283,-0.22151252627372742,-0.21932567656040192,-0.20485717058181763,-0.186264768242836,-0.7829006314277649,-0.6846637725830078,-0.3999539315700531,-0.10666102916002274
0.4666666666666667,-0.05025382339954376,0.11467373371124268,0.0,0.7477239966392517,0.0,0.0,-0.664009690284729,-0.3103823661804199,-0.6031986474990845,0.0,0.0,0.0,-4.064459323883057,-0.10308776795864105,0.9354029297828674,0.45746538043022156,0.8677743077278137,0.09940384328365326,-0.09778974205255508,-0.4769945442676544,6.882978916168213,0.3233855366706848,0.641410768032074,31.777563095092773,-15.126760482788086,-1.8934160470962524,-0.1057240441441536,0.9433192610740662,0.45667046308517456,6.607186317443848,0.3782057464122772,0.7754822373390198,0.40659409761428833,0.6638890504837036,0.42000001668930054,-0.34288525581359863,1.0448352098464966,-0.9651272892951965,-3.0000030994415283,-0.237332284450531,-0.23414617776870728,-0.21494100987911224,-0.18976832926273346,-0.7969589233398438,-0.7057011127471924,-0.4459713399410248,-0.08082321286201477
0.48333333333333334,-0.057198215276002884,0.10219630599021912,0.0,0.7233048677444458,0.0,0.0,-0.6905288100242615,-0.460002601146698,-0.7995518445968628,0.0,0.0,0.0,-4.46840238571167,0.004017524421215057,0.9274370670318604,0.46723294258117676,0.8404301404953003,0.09025929868221283,-0.07769850641489029,-0.5286713242530823,6.466729164123535,-1.7193787097930908,0.2891745865345001,-19.769214630126953,-5.5650248527526855,2.3677308559417725,0.003996506333351135,0.937126100063324,0.46662306785583496,6.4469685554504395,-1.127212643623352,0.6107195615768433,0.40659409761428833,0.6638890504837036,0.42000001668930054,-0.3282893896102905,0.7123847603797913,-1.0151512622833252,-3.0000030994415283,-0.2400430142879486,-0.2400335669517517,-0.22543036937713623,-0.1934404820203781,-0.029088594019412994,-0.019992996007204056,-0.5724189281463623,-0.18290391564369202
0.5,-0.062029872089624405,0.09368278831243515,0.0,0.7153977155685425,0.0,0.0,-0.698717474937439,-0.21267178654670715,-0.4066023826599121,0.0,0.0,0.0,-0.3607834577560425,0.09944481402635574,0.9010381102561951,0.4726676344871521,0.7802315950393677,0.052433378994464874,-0.06172338128089905,-0.6202254891395569,4.913045883178711,-2.8964152336120605,0.12344370782375336,7.630864143371582,-12.865447044372559,27.81736183166504,0.10097787529230118,0.9110943078994751,0.47212672233581543,5.179657936096191,-1.875658392906189,0.1914161741733551,0.40659409761428833,0.6638890504837036,0.42000001668930054,-0.31906798481941223,0.3187599778175354,-1.0651733875274658,-3.000005006790161,-0.23987531661987305,-0.23988091945648193,-0.23475968837738037,-0.19763952493667603,0.004485753830522299,0.019886380061507225,-0.370847225189209,-0.1772790402173996
0.5166666666666666,-0.06271310150623322,0.08158203959465027,0.0,0.6979309916496277,0.0,0.0,-0.7161650061607361,-0.019675033167004585,-0.7555716037750244,0.0,0.0,0.0,-3.8062868118286133,0.17755411565303802,0.8688649535179138,0.4712825417518616,0.7380349636077881,0.02431795559823513,-0.04091786593198776,-0.6730815172195435,4.0142035484313965,-2.884359359741211,-0.11942850053310394,0.2118440866470337,8.215010643005371,11.843461036682129,0.17963442206382751,0.8774728178977966,0.470617413520813,4.310285568237305,-2.34875226020813,-0.2397991567850113,0.40659409761428833,0.6638890504837036,0.42000001668930054,-0.31371811032295227,0.3267393410205841,-1.1151955127716064,-3.0,-0.234883651137352,-0.2348272055387497,-0.2353823184967041,-0.19696734845638275,0.24610286951065063,0.30703842639923096,0.07198334485292435,0.10104472935199738
0.5333333333333333,-0.06094418093562126,0.07463269680738449,0.0,0.6931394934654236,0.0,0.0,-0.720803439617157,0.152628555893898,-0.3405178487300873,0.0,0.0,0.0,0.187665656208992,0.24214781820774078,0.8264955878257751,0.4641912877559662,0.6810828447341919,-0.025815539062023163,-0.02334437146782875,-0.7313785552978516,3.303018808364868,-3.1187310218811035,-0.5534654855728149,-5.746594429016113,9.119345664978027,4.851115703582764,0.24398273229599,0.8341255784034729,0.4640534520149231,3.5658724308013916,-2.7424206733703613,-0.5507675409317017,0.40659409761428833,0.6638890504837036,0.42000001668930054,-0.3053760528564453,0.5958414077758789,-1.165217638015747,-2.9999027252197266,-0.2338530272245407,-0.23182159662246704,-0.23457159101963043,-0.1963072121143341,0.17780104279518127,0.2702343463897705,0.16359178721904755,0.07172322273254395
0.55,-0.05615625157952309,0.06366341561079025,0.0,0.6783364415168762,0.0,0.0,-0.7347514033317566,0.29770946502685547,-0.6926206350326538,0.0,0.0,0.0,-3.2645061016082764,0.2964141368865967,0.7842226624488831,0.4481578469276428,0.6318597197532654,-0.09409282356500626,-0.01847033202648163,-0.7691285014152527,2.6343960762023926,-3.0857596397399902,-1.091792106628418,-10.132609367370605,6.542558670043945,10.732728958129883,0.2987162470817566,0.7916573882102966,0.4500255584716797,2.9313249588012695,-2.5482993125915527,-0.9998948574066162,0.40659409761428833,0.6638890504837036,0.42000001668930054,-0.29322418570518494,0.6706753373146057,-1.2152397632598877,-2.9977355003356934,-0.22539395093917847,-0.22289536893367767,-0.22766946256160736,-0.19267332553863525,0.4952082335948944,0.5317374467849731,0.4549945890903473,0.21993403136730194
0.5666666666666667,-0.04913362115621567,0.057363685220479965,0.0,0.6759814620018005,0.0,0.0,-0.7369186282157898,0.4491250514984131,-0.34226325154304504,0.0,0.0,0.0,0.5016112923622131,0.34009772539138794,0.7412849068641663,0.4283435046672821,0.5778757929801941,-0.16908670961856842,-0.017207887023687363,-0.7982312440872192,1.9452399015426636,-3.1079864501953125,-1.0429295301437378,0.8033557534217834,2.1453943252563477,19.104541778564453,0.34232431650161743,0.747856616973877,0.43199223279953003,2.461569309234619,-2.5815582275390625,-1.1684271097183228,0.40659409761428833,0.6638890504837036,0.42000001668930054,-0.280819833278656,0.6554179787635803,-1.265259861946106,-2.9999330043792725,-0.21995089948177338,-0.2166464924812317,-0.2219478040933609,-0.19125351309776306,0.410848468542099,0.4147263765335083,0.3739287257194519,0.06085680425167084
0.5833333333333334,-0.04027910903096199,0.054543569684028625,0.0,0.6640650033950806,0.0,0.0,-0.7476748824119568,0.5831343531608582,-0.10595057904720306,0.0,0.0,0.0,-2.8044540882110596,0.3698030114173889,0.713923454284668,0.42603549361228943,0.5656415820121765,-0.11788476258516312,0.007782372180372477,-0.8161446452140808,0.9606850743293762,-1.9677424430847168,-0.052528947591781616,-2.8619911670684814,-3.5589089393615723,29.37277603149414,0.37063220143318176,0.7194947600364685,0.4283057153224945,1.534186840057373,-1.4150300025939941,-0.0865158885717392,0.40659409761428833,0.6638890504837036,0.42000001668930054,-0.26614177227020264,0.6786441802978516,-1.2268978357315063,2.993807315826416,-0.21085870265960693,-0.20880453288555145,-0.21536791324615479,-0.19077210128307343,0.5714561939239502,0.47259050607681274,0.39792153239250183,0.008451402187347412
0.6,-0.034280844032764435,0.04691365733742714,0.0,0.6646090745925903,0.0,0.0,-0.7471912503242493,0.3426540195941925,-0.39004018902778625,0.0,0.0,0.0,1.0100828409194946,0.3898829221725464,0.6939214468002319,0.4265194535255432,0.545448362827301,-0.12461914867162704,0.029101574793457985,-0.8283171057701111,0.6992570161819458,-1.4271191358566284,-0.01898234710097313,-3.4982101917266846,-2.302358627319336,7.979736804962158,0.38961052894592285,0.6987671852111816,0.42939743399620056,0.8356471657752991,-1.2639057636260986,0.11019821465015411,0.40659409761428833,0.6638890504837036,0.42000001668930054,-0.2549501657485962,0.6191253662109375,-1.247754693031311,-3.0006985664367676,-0.19709905982017517,-0.1966085582971573,-0.20458993315696716,-0.18687890470027924,0.506100058555603,0.5180836319923401,0.5071186423301697,0.1508048176765442
0.6166666666666667,-0.025566060096025467,0.04488294944167137,0.0,0.6546911001205444,0.0,0.0,-0.7558965682983398,0.4975671172142029,-0.12126781791448593,0.0,0.0,0.0,-2.320533275604248,0.4027332663536072,0.6788964867591858,0.4252806007862091,0.5216460227966309,-0.09809031337499619,0.022814076393842697,-0.8471972346305847,0.6738830208778381,-0.5578745603561401,-0.06793823838233948,0.40165749192237854,-2.965581178665161,-6.153395175933838,0.40022552013397217,0.6827070713043213,0.4282262325286865,0.5349278450012207,-0.6322335004806519,-0.0840030089020729,0.40659409761428833,0.6638890504837036,0.42000001668930054,-0.24067442119121552,1.1923158168792725,-1.2096872329711914,2.9996225833892822,-0.18993470072746277,-0.18973925709724426,-0.19791249930858612,-0.1860581785440445,0.6145351529121399,0.5335347652435303,0.48626717925071716,0.11235403269529343
0.6333333333333333,-0.01571410708129406,0.03792112320661545,0.0,0.6580641865730286,0.0,0.0,-0.7529618144035339,0.5838932991027832,-0.4073013365268707,0.0,0.0,0.0,1.4220482110977173,0.4106263220310211,0.6706515550613403,0.42397767305374146,0.519494354724884,-0.07478523254394531,0.007683388888835907,-0.8511602282524109,0.259268194437027,-0.3904622495174408,-0.015227342024445534,-1.7139134407043457,-1.1354949474334717,2.0866811275482178,0.4067614674568176,0.674709677696228,0.429315447807312,0.21180832386016846,-0.34202003479003906,0.14113278687000275,0.40659409761428833,0.6638890504837036,0.42000001668930054,-0.26502346992492676,-2.999258279800415,-1.2307435274124146,-3.0000410079956055,-0.1772521436214447,-0.1788386106491089,-0.18794526159763336,-0.1822441667318344,0.6429381370544434,0.5552408695220947,0.5289366245269775,0.20006752014160156
0.65,-0.00388263794593513,0.03551347181200981,0.0,0.6505897045135498,0.0,0.0,-0.759429395198822,0.7379830479621887,-0.11450875550508499,0.0,0.0,0.0,-2.180488348007202,0.41229453682899475,0.6677127480506897,0.4230191111564636,0.5389831066131592,-0.058555297553539276,-0.006411682814359665,-0.8402543663978577,0.06595887243747711,-0.12284261733293533,-0.07965339720249176,0.765609860420227,-3.0472917556762695,2.364539623260498,0.40900662541389465,0.6740208864212036,0.4323156476020813,0.1914544701576233,0.11797551810741425,0.21176500618457794,0.40659409761428833,0.6638890504837036,0.42000001668930054,-0.3136264383792877,-2.8576581478118896,-1.2807029485702515,-2.9987919330596924,-0.16760101914405823,-0.17097210884094238,-0.1805812269449234,-0.17999345064163208,0.6783863306045532,0.5383055210113525,0.48642146587371826,0.1829909384250641
0.6666666666666666,0.009561336599290371,0.036528944969177246,0.0,0.6548684239387512,0.0,0.0,-0.7557429075241089,0.8388426303863525,0.1303829550743103,0.0,0.0,0.0,1.584287166595459,0.41290783882141113,0.6660208702087402,0.42046263813972473,0.5578058362007141,-0.00833918433636427,-0.006627256516367197,-0.8299030065536499,-0.03414539620280266,-0.06074781343340874,-0.1258114129304886,6.577641010284424,-3.5228028297424316,1.03359854221344,0.40955403447151184,0.6756048798561096,0.43581146001815796,-0.0242588073015213,0.09171536564826965,0.2274656593799591,0.40659409761428833,0.6638890504837036,0.42000001668930054,-0.3636283874511719,-2.9999959468841553,-1.330695629119873,-2.999932289123535,-0.15801066160202026,-0.16351652145385742,-0.173719123005867,-0.17752984166145325,0.5149702429771423,0.40102341771125793,0.3793604075908661,0.14944516122341156
0.6833333333333333,0.02021615579724312,0.03271220624446869,0.0,0.6809158325195312,0.0,0.0,-0.7323616743087769,0.6284081339836121,-0.2852311432361603,0.0,0.0,0.0,4.971347332000732,0.4118993580341339,0.6658651828765869,0.4202097952365875,0.5562000870704651,0.002943572821095586,-0.0043358528055250645,-0.8310317993164062,-0.13090339303016663,0.019550831988453865,0.026756834238767624,-0.5295858383178711,-1.2524584531784058,-1.1090846061706543,0.408669114112854,0.6773486137390137,0.43968141078948975,-0.1435461938381195,0.06787966191768646,0.21694998443126678,0.40659409761428833,0.6638890504837036,0.42000001668930054,-0.4136195778846741,-2.9999988079071045,-1.3806718587875366,-2.999037265777588,-0.14643096923828125,-0.1538773775100708,-0.16451658308506012,-0.17184440791606903,0.5017296671867371,0.4375583231449127,0.45785996317863464,0.31097546219825745
0.7,0.031935982406139374,0.026023905724287033,0.0,0.6918994188308716,0.0,0.0,-0.7219939231872559,0.7117239832878113,-0.43555960059165955,0.0,0.0,0.0,0.7250182628631592,0.4103849530220032,0.6660565137863159,0.4200006127357483,0.5511454939842224,-4.739156338473549e-06,2.805886197165819e-06,-0.8344090580940247,-0.06481929868459702,0.007278009317815304,-0.00016447249799966812,-0.003076083492487669,-0.007319286931306124,-0.5111691951751709,0.40838944911956787,0.6799522638320923,0.4442978501319885,-0.014634211547672749,0.168921560049057,0.31852269172668457,0.40659409761428833,0.6638890504837036,0.42000001668930054,-0.46360552310943604,-2.9984490871429443,-1.4306358098983765,-2.9999783039093018,-0.14093205332756042,-0.14836938679218292,-0.15757349133491516,-0.16579732298851013,0.2427588552236557,0.2898290455341339,0.4210206866264343,0.43610477447509766
0.7166666666666667,0.04505286365747452,0.016771478578448296,0.0,0.6802968382835388,0.0,0.0,-0.7329367399215698,0.8189377188682556,-0.6152549982070923,0.0,0.0,0.0,-2.824242115020752,0.41015881299972534,0.6660801768302917,0.4200001060962677,0.5504606366157532,1.0090699106513057e-05,-1.780344064172823e-05,-0.8348610997200012,0.0012018114794045687,-0.0008938475511968136,-0.0003026560880243778,0.007386975921690464,-0.020066283643245697,-0.005663175601512194,0.41338688135147095,0.6829264163970947,0.4539538025856018,0.5547927618026733,0.1432846486568451,0.9555001258850098,0.40659409761428833,0.6638890504837036,0.42000001668930054,-0.5136181116104126,-2.999983072280884,-1.4806541204452515,-3.0,-0.13997186720371246,-0.1460120975971222,-0.15248344838619232,-0.1595335155725479,-0.04158588871359825,0.06971369683742523,0.25605690479278564,0.3684123456478119
0.7333333333333333,0.061913371086120605,0.013303874060511589,0.0,0.6462814211845398,0.0,0.0,-0.7630991339683533,1.0879822969436646,-0.07195933163166046,0.0,0.0,0.0,-6.483438014984131,0.41016092896461487,0.6660793423652649,0.4200000464916229,0.5504587292671204,4.7396099489560584e-08,-2.5747599465830717e-06,-0.8348623514175415,4.070604336448014e-05,-0.0002601646410766989,-7.443013601005077e-05,0.006795127410441637,-0.0020715512800961733,-0.000703731260728091,0.43093347549438477,0.6799654960632324,0.476845383644104,1.6023499965667725,-0.4530330300331116,1.926192283630371,0.40659409761428833,0.6638890504837036,0.42000001668930054,-0.5636302828788757,-2.9999094009399414,-1.5306724309921265,-2.9999890327453613,-0.15013810992240906,-0.15257574617862701,-0.15438935160636902,-0.15782979130744934,-0.8157623410224915,-0.5570887327194214,-0.24332557618618011,0.02105042338371277
0.75,0.0754326581954956,0.014505278319120407,0.0,0.6248002052307129,0.0,0.0,-0.7807846665382385,0.6960356831550598,-0.12585115432739258,0.0,0.0,0.0,-1.9714595079421997,0.41016092896461487,0.6660792827606201,0.4200000464916229,0.5504587292671204,2.964768555102637e-07,-2.590090844023507e-06,-0.8348624110221863,4.973574687028304e-05,-0.00025040717446245253,-7.840595208108425e-05,0.006464892998337746,-0.001988260308280587,-0.0007093183812685311,0.4572335481643677,0.6778051853179932,0.5124384164810181,1.719778299331665,0.12462075799703598,2.275132179260254,0.40659409761428833,0.6638890504837036,0.42000001668930054,-0.5840561389923096,0.28390228748321533,-1.580688238143921,-3.000000238418579,-0.1606599986553192,-0.16014504432678223,-0.1582455337047577,-0.1585666984319687,-0.16868257522583008,-0.13412462174892426,-0.054752521216869354,0.009792503900825977
0.7666666666666666,0.08364465832710266,0.014560511335730553,0.0,0.6302539110183716,0.0,0.0,-0.7763890624046326,0.41867274045944214,0.054613757878541946,0.0,0.0,0.0,1.7050491571426392,0.41016092896461487,0.6660793423652649,0.4200000464916229,0.550458550453186,3.1711309134152543e-07,-2.8805661713704467e-06,-0.8348624110221863,5.0282207666896284e-05,-0.0002509396872483194,-7.862062193453312e-05,0.0064745270647108555,-0.0019874947611242533,-0.0007117617060430348,0.48089560866355896,0.6808329224586487,0.544529914855957,1.0935465097427368,0.2535786032676697,1.6533393859863281,0.40659409761428833,0.6638890504837036,0.42000001668930054,-0.5580058693885803,2.6168391704559326,-1.5417304039001465,2.999999761581421,-0.16204454004764557,-0.16120558977127075,-0.15836696326732635,-0.15783511102199554,0.004928249400109053,0.008545026183128357,0.04044054076075554,0.07463376224040985
0.7833333333333333,0.08748936653137207,0.010039983317255974,0.0,0.6244062185287476,0.0,0.0,-0.7810997366905212,0.22241979837417603,-0.3121160864830017,0.0,0.0,0.0,-1.6926015615463257,0.41016092896461487,0.6660792827606201,0.4200000464916229,0.550458550453186,2.9416980851237895e-07,-2.5432868824282195e-06,-0.8348624110221863,4.998768417863175e-05,-0.00025047300732694566,-7.84960575401783e-05,0.006464799400418997,-0.001986791379749775,-0.0007101350929588079,0.4923219680786133,0.6874217391014099,0.5661084055900574,0.18686924874782562,0.3620034158229828,1.0855281352996826,0.40659409761428833,0.6638890504837036,0.42000001668930054,-0.5188866257667542,2.091292381286621,-1.4916739463806152,3.0000007152557373,-0.15855984389781952,-0.15819820761680603,-0.15549063682556152,-0.15493229031562805,0.07146982103586197,0.07346617430448532,0.08537930250167847,0.10706588625907898
0.8,0.08850520104169846,0.011279811151325703,0.0,0.6313595175743103,0.0,0.0,-0.7754902839660645,0.02138020284473896,0.059423353523015976,0.0,0.0,0.0,1.8027695417404175,0.41016092896461487,0.6660793423652649,0.4200000464916229,0.5504583716392517,2.0866187355750299e-07,-2.6648399398254696e-06,-0.8348625898361206,4.886844544671476e-05,-0.00025136899785138667,-7.831444963812828e-05,0.006493341643363237,-0.0020056297071278095,-0.0007092455052770674,0.4879167377948761,0.6924247145652771,0.580620288848877,-0.502082884311676,0.38089320063591003,0.6768502593040466,0.40659409761428833,0.6638890504837036,0.42000001668930054,-0.4726574718952179,2.9999947547912598,-1.4416251182556152,3.0000009536743164,-0.16221648454666138,-0.1607857346534729,-0.1570511907339096,-0.15536358952522278,-0.03363703936338425,-0.014036416076123714,-2.2118911147117615e-09,0.030915522947907448
0.8166666666666667,0.0874139666557312,0.008591867052018642,0.0,0.6256322264671326,0.0,0.0,-0.7801181674003601,-0.09603767096996307,-0.2513394057750702,0.0,0.0,0.0,-1.799710988998413,0.4101608991622925,0.6660792827606201,0.4200000464916229,0.5504587292671204,1.4588316332719842e-07,-2.791028464343981e-06,-0.8348624110221863,4.518199784797616e-05,-0.0002534899103920907,-7.758848369121552e-05,0.006568961311131716,-0.0020589332561939955,-0.0007060407078824937,0.47356414794921875,0.6988883018493652,0.585792064666748,-1.238231897354126,0.37506812810897827,0.1289885938167572,0.40659409761428833,0.6638890504837036,0.42000001668930054,-0.44960296154022217,0.0059368503279984,-1.3915724754333496,2.999999523162842,-0.1616944819688797,-0.1600959300994873,-0.15632641315460205,-0.15426109731197357,0.06283579766750336,0.07400964945554733,0.07393909245729446,0.0956953763961792
0.8333333333333334,0.0887538343667984,0.01023181900382042,0.0,0.6317706108093262,0.0,0.0,-0.7751554250717163,-0.004864958114922047,0.11685555428266525,0.0,0.0,0.0,1.5393190383911133,0.41016092896461487,0.6660792827606201,0.4200000464916229,0.5504587888717651,3.218587494302483e-07,-2.896364321713918e-06,-0.8348623514175415,5.0389644457027316e-05,-0.0002499206457287073,-7.857987657189369e-05,0.006448034197092056,-0.00197971286252141,-0.0007099728100001812,0.4545413851737976,0.7041411995887756,0.5859928131103516,-0.9339759349822998,0.5143064260482788,-0.06418249011039734,0.40659409761428833,0.6638890504837036,0.42000001668930054,-0.43238580226898193,1.883932113647461,-1.341565728187561,3.000000238418579,-0.16433963179588318,-0.16201703250408173,-0.1577719748020172,-0.15489087998867035,0.08478741347789764,0.06244324892759323,0.031535059213638306,0.03042353317141533
0.85,0.09044887125492096,0.009035874158143997,0.0,0.6259785294532776,0.0,0.0,-0.7798402905464172,0.17195025086402893,-0.12884396314620972,0.0,0.0,0.0,-1.614648699760437,0.41016092896461487,0.6660793423652649,0.4200000464916229,0.5504584908485413,2.834088945746771e-07,-2.593964381958358e-06,-0.834862470626831,5.078650428913534e-05,-0.00025072810240089893,-7.874378934502602e-05,0.006466135382652283,-0.001981244655326009,-0.0007124728872440755,0.4402545094490051,0.710624635219574,0.5831013917922974,-0.7970247864723206,0.21753105521202087,-0.1321312040090561,0.40659409761428833,0.6638890504837036,0.42000001668930054,-0.44886812567710876,-3.000000476837158,-1.2915130853652954,2.999999761581421,-0.16375651955604553,-0.16162993013858795,-0.15769250690937042,-0.15458416938781738,-0.06391311436891556,-0.0509159117937088,-0.044633377343416214,-0.006701160687953234
0.8666666666666667,0.09487302601337433,0.005084243603050709,0.0,0.6326610445976257,0.0,0.0,-0.7744287848472595,0.3110046982765198,-0.306294322013855,0.0,0.0,0.0,1.8963197469711304,0.4101608991622925,0.6660793423652649,0.4200000464916229,0.5504584908485413,1.0238844083687582e-07,-2.699307515285909e-06,-0.8348625302314758,4.365976565168239e-05,-0.00025475030997768044,-7.730582728981972e-05,0.00660953251644969,-0.002083448925986886,-0.0007052831933833659,0.4327152371406555,0.7124646306037903,0.5806961059570312,-0.148328959941864,0.029003985226154327,-0.09953892230987549,0.40659409761428833,0.6638890504837036,0.42000001668930054,-0.4901818633079529,-2.0096592903137207,-1.3115413188934326,-3.000000476837158,-0.1659594625234604,-0.16293473541736603,-0.15816985070705414,-0.15369820594787598,-0.14144590497016907,-0.06490939855575562,0.009441637434065342,0.11631941795349121
0.8833333333333333,0.1015876829624176,-0.0016275763045996428,0.0,0.6274169087409973,0.0,0.0,-0.7786835432052612,0.4403117001056671,-0.4603436291217804,0.0,0.0,0.0,-1.7178370952606201,0.41016092896461487,0.6660792827606201,0.4200000464916229,0.5504587888717651,2.93213162194661e-07,-2.703977088458487e-06,-0.8348623514175415,5.021540346206166e-05,-0.00025038718013092875,-7.848534733057022e-05,0.006461929064244032,-0.001982005313038826,-0.0007102782838046551,0.43383532762527466,0.7095507383346558,0.5745413303375244,0.2746141850948334,-0.3679535388946533,-0.4318498373031616,0.40659409761428833,0.6638890504837036,0.42000001668930054,-0.5373360514640808,-2.9999988079071045,-1.3615520000457764,-2.999999761581421,-0.16956323385238647,-0.16480380296707153,-0.15829671919345856,-0.15154124796390533,-0.2099636048078537,-0.08762529492378235,0.03653004392981529,0.19186687469482422
0.9,0.11093779653310776,-0.0059100729413330555,0.0,0.6014410257339478,0.0,0.0,-0.7989171743392944,0.6082022190093994,-0.1957547664642334,0.0,0.0,0.0,-4.804211616516113,0.41016092896461487,0.6660792827606201,0.4200000464916229,0.5504586100578308,3.0674607387481956e-07,-2.7494297683006153e-06,-0.8348624110221863,5.121035428601317e-05,-0.00025000731693580747,-7.878360338509083e-05,0.0064452774822711945,-0.0019717079121619463,-0.0007119766669347882,0.44325873255729675,0.7020859122276306,0.5692808628082275,0.8184421062469482,-0.4896109402179718,-0.04370788484811783,0.40659409761428833,0.6638890504837036,0.42000001668930054,-0.5710041522979736,-1.1722065210342407,-1.4115703105926514,-2.999999523162842,-0.17344483733177185,-0.1673087626695633,-0.15937462449073792,-0.15068745613098145,-0.17818336188793182,-0.1314709484577179,-0.08264973759651184,-0.006085420958697796
0.9166666666666666,0.12040472030639648,-0.006786340847611427,0.0,0.5906417965888977,0.0,0.0,-0.8069338798522949,0.5452471971511841,0.009667642414569855,0.0,0.0,0.0,-0.6152141094207764,0.41016092896461487,0.6660793423652649,0.4200000464916229,0.5504583716392517,3.249838869123778e-07,-2.6402562980365474e-06,-0.8348626494407654,5.013839472667314e-05,-0.00025083505897782743,-7.860432378947735e-05,0.006472338456660509,-0.00198926473967731,-0.0007112805615179241,0.45647132396698,0.6979907155036926,0.5714985132217407,0.7401584386825562,-0.07222016900777817,0.25548577308654785,0.40659409761428833,0.6638890504837036,0.42000001668930054,-0.5656958222389221,1.5669723749160767,-1.4615813493728638,-2.9999992847442627,-0.1746433824300766,-0.16854405403137207,-0.1606508493423462,-0.15161192417144775,0.019115248695015907,-0.024125901982188225,-0.07102011144161224,-0.09924645721912384
