vladlanda/robotic-transformer/data/env_000_episode_0004.csv
sim_time_s,robot_box_x,robot_box_y,robot_box_z,robot_box_quat_w,robot_box_quat_x,robot_box_quat_y,robot_box_quat_z,robot_box_linvel_x,robot_box_linvel_y,robot_box_linvel_z,robot_box_angvel_x,robot_box_angvel_y,robot_box_angvel_z,cube_world_x,cube_world_y,cube_world_z,cube_quat_w,cube_quat_x,cube_quat_y,cube_quat_z,cube_linvel_x,cube_linvel_y,cube_linvel_z,cube_angvel_x,cube_angvel_y,cube_angvel_z,endpoint_world_x,endpoint_world_y,endpoint_world_z,endpoint_linvel_x,endpoint_linvel_y,endpoint_linvel_z,target_cube_world_x,target_cube_world_y,target_cube_world_z,gripper_actual_pos_rad_gp_leftgearjoint,gripper_actual_vel_rad_s_gp_leftgearjoint,gripper_actual_pos_rad_gp_rotatingjoint,gripper_actual_vel_rad_s_gp_rotatingjoint,motor_angle_rad_joint1,motor_angle_rad_joint2,motor_angle_rad_joint3,motor_angle_rad_joint4,motor_speed_rad_s_joint1,motor_speed_rad_s_joint2,motor_speed_rad_s_joint3,motor_speed_rad_s_joint4
0.0,0.0,0.0,0.0,1.0,0.0,0.0,0.0,0.0,0.0,0.0,0.0,0.0,0.0,-0.4237387180328369,0.6382262706756592,0.41999998688697815,1.0,0.0,0.0,0.0,0.0,0.0,0.0,0.0,0.0,0.0,3.42540442943573e-06,-0.005000244826078415,1.313499927520752,0.0,0.0,0.0,0.36898747086524963,0.735224187374115,0.42000001668930054,-1.5707999467849731,0.0,0.0,0.0,0.0,0.0,0.0,0.0,0.0,0.0,0.0,0.0
0.016666666666666666,0.0028778850100934505,0.0021806680597364902,0.0,0.9998081922531128,0.0,0.0,0.019586581736803055,0.24087215960025787,0.18240931630134583,0.0,0.0,0.0,3.1418697834014893,-0.42373883724212646,0.6382259726524353,0.41999998688697815,1.0,3.279964630564791e-06,-8.339746386809566e-07,8.465587342243452e-08,-1.9833529222523794e-05,0.00017983045836444944,-6.132945418357849e-05,0.0009432713268324733,-0.004689474124461412,-0.00031981561915017664,-0.007110234349966049,0.003379564033821225,1.3159373998641968,-0.8143353462219238,0.9868683815002441,0.18095196783542633,0.36898747086524963,0.735224187374115,0.42000001668930054,-1.5301095247268677,3.0000011920928955,-0.04584788903594017,-2.9999992847442627,0.0008691533003002405,0.0007963840034790337,0.0007110277656465769,0.0006108740926720202,0.11094217747449875,0.09756709635257721,0.08334315568208694,0.06823883205652237
0.03333333333333333,0.008960948325693607,0.006801806855946779,0.0,0.9997960329055786,0.0,0.0,0.02019682712852955,0.40701785683631897,0.3153037428855896,0.0,0.0,0.0,-0.8691298961639404,-0.423738956451416,0.6382259130477905,0.4200000464916229,1.0,3.3908354453160428e-06,-2.1324485715012997e-06,-3.710144014235084e-08,0.00026357831666246057,0.00026937946677207947,-0.00010509486310184002,-0.0017707672668620944,0.004130808170884848,-0.000135478752781637,-0.027541492134332657,0.0257759690284729,1.3166615962982178,-1.5911054611206055,1.6016204357147217,-0.07725483924150467,0.36898747086524963,0.735224187374115,0.42000001668930054,-1.4800903797149658,3.0000040531158447,-0.09588772058486938,-3.0000007152557373,0.0029902043752372265,0.0026528560556471348,0.00227746507152915,0.0018609561957418919,0.16423062980175018,0.13977766036987305,0.11383964866399765,0.08632481843233109
0.05,0.017740122973918915,0.013769764453172684,0.0,0.9993798732757568,0.0,0.0,0.03521140292286873,0.5936470627784729,0.4649936258792877,0.0,0.0,0.0,2.6497833728790283,-0.4237389862537384,0.6382259726524353,0.4200000464916229,1.0,3.765139354072744e-06,-2.2119161258160602e-06,5.630195420991413e-09,0.0002653095289133489,0.00026691411039792,-0.00010440382175147533,-0.0017242460744455457,0.004177400842308998,-0.00012949357915204018,-0.05966109409928322,0.053229156881570816,1.3118422031402588,-2.187408924102783,1.7266664505004883,-0.4618236720561981,0.36898747086524963,0.735224187374115,0.42000001668930054,-1.4300720691680908,3.000002145767212,-0.1459263563156128,-3.000000238418579,0.00570646533742547,0.004914683755487204,0.004050760995596647,0.0031102595385164022,0.19283445179462433,0.15593373775482178,0.11715783923864365,0.07641363143920898
0.06666666666666667,0.029052598401904106,0.02306184731423855,0.0,0.9994514584541321,0.0,0.0,0.0331169068813324,0.7201882600784302,0.5951203107833862,0.0,0.0,0.0,-1.20967435836792,-0.4237389862537384,0.6382259130477905,0.4200000464916229,0.9999999403953552,3.4067529668391217e-06,-2.2856381747260457e-06,4.300985096961085e-07,0.00026702662580646574,0.00026791892014443874,-0.00010437914170324802,-0.001740677747875452,0.004211848136037588,-0.0001285130565520376,-0.09850381314754486,0.086497001349926,1.2995226383209229,-2.4780163764953613,2.154313087463379,-0.9889211654663086,0.36898747086524963,0.735224187374115,0.42000001668930054,-1.3800537586212158,3.0,-0.19593536853790283,-3.0000009536743164,0.008353346958756447,0.006890142802149057,0.005316019989550114,0.0036246501840651035,0.15803416073322296,0.10854512453079224,0.05702625587582588,0.003402104601264
0.08333333333333333,0.043352894484996796,0.0344075970351696,0.0,0.9999755024909973,0.0,0.0,0.007000375539064407,0.9296493530273438,0.7211300134658813,0.0,0.0,0.0,-4.311224460601807,-0.4237389862537384,0.6382259130477905,0.4200000464916229,1.0,3.697281499626115e-06,-2.1890098196308827e-06,-2.632294240356714e-07,0.00026389621780253947,0.00026586363674141467,-0.00010433816350996494,-0.0017081034602597356,0.004150185268372297,-0.00012991165567655116,-0.1399129182100296,0.12601083517074585,1.2798328399658203,-2.4809861183166504,2.511751174926758,-1.3565391302108765,0.36898747086524963,0.735224187374115,0.42000001668930054,-1.3300238847732544,2.9999961853027344,-0.1731315553188324,3.0000007152557373,0.01022835448384285,0.007854774594306946,0.005330598913133144,0.0026477633509784937,0.0973115935921669,0.034018922597169876,-0.031355369836091995,-0.09875877946615219
0.1,0.051997486501932144,0.04939888045191765,0.0,0.9999903440475464,0.0,0.0,-0.004400582984089851,0.37625473737716675,0.9871578216552734,0.0,0.0,0.0,-0.3673709034919739,-0.4237389862537384,0.6382259130477905,0.4200000464916229,0.9999999403953552,3.6203855415806174e-06,-2.265273224111297e-06,1.7462159007664013e-07,0.0002667683002073318,0.00026740814791992307,-0.0001040794886648655,-0.0017385776154696941,0.004209164995700121,-0.00012775571667589247,-0.18299314379692078,0.1619074046611786,1.2555111646652222,-2.5242443084716797,2.1087005138397217,-1.4916454553604126,0.36898747086524963,0.735224187374115,0.42000001668930054,-1.2800214290618896,2.9999990463256836,-0.2047363817691803,-2.9999990463256836,0.005521922372281551,0.002436488401144743,-0.0008502163691446185,-0.004348678048700094,-0.4086996912956238,-0.45640429854393005,-0.5066813826560974,-0.5597063899040222
0.11666666666666667,0.05592777207493782,0.06102090701460838,0.0,0.9995672702789307,0.0,0.0,-0.029415784403681755,0.3783831298351288,0.6514743566513062,0.0,0.0,0.0,-3.285020112991333,-0.4237389862537384,0.6382259130477905,0.4200000464916229,1.0,3.7983813854225446e-06,-2.2628894384979503e-06,-1.5019897148249584e-07,0.00026373917353339493,0.00026566049200482666,-0.00010429113171994686,-0.0017053951742127538,0.004147559404373169,-0.00012979967868886888,-0.2225435972213745,0.20170772075653076,1.2291158437728882,-2.283781051635742,2.720568895339966,-1.5744476318359375,0.36898747086524963,0.735224187374115,0.42000001668930054,-1.2300069332122803,2.9999983310699463,-0.2547511160373688,-3.0000009536743164,-0.0017787400865927339,-0.005977552384138107,-0.010389522649347782,-0.015027875080704689,-0.09911558032035828,-0.22566600143909454,-0.3486691415309906,-0.4679531455039978
0.13333333333333333,0.05997158959507942,0.0716327354311943,0.0,0.9970703721046448,0.0,0.0,-0.07648924738168716,0.1663503646850586,0.6161494851112366,0.0,0.0,0.0,-6.469231605529785,-0.4237389862537384,0.6382259726524353,0.4200000464916229,0.9999999403953552,3.55046631739242e-06,-2.229890242233523e-06,2.9291771852513193e-07,0.00026703221374191344,0.00026779237668961287,-0.00010416773147881031,-0.0017439918592572212,0.0042135524563491344,-0.00012800241529475898,-0.2604748606681824,0.2520688474178314,1.198839783668518,-2.225773572921753,3.246572494506836,-2.057835340499878,0.36898747086524963,0.735224187374115,0.42000001668930054,-1.1799911260604858,2.999992609024048,-0.220675528049469,3.0000011920928955,-0.004470102023333311,-0.010726581327617168,-0.017119502648711205,-0.023660020902752876,-0.22435835003852844,-0.33735963702201843,-0.44545841217041016,-0.5485793948173523
0.15,0.06909171491861343,0.083982452750206,0.0,0.9944189786911011,0.0,0.0,-0.10550303757190704,0.6804742813110352,0.8067904710769653,0.0,0.0,0.0,-2.4584479331970215,-0.423738956451416,0.6382259130477905,0.4200000464916229,1.0,3.3322221497655846e-06,-2.1020302938268287e-06,1.3131158027590573e-07,0.0002673070412129164,0.0002685954386834055,-0.00010459451004862785,-0.0017497260123491287,0.004215645603835583,-0.00012928212527185678,-0.30029749870300293,0.30219775438308716,1.1611682176589966,-2.2734484672546387,3.171321392059326,-2.466541290283203,0.36898747086524963,0.735224187374115,0.42000001668930054,-1.1300017833709717,3.0000014305114746,-0.2519490420818329,-2.999999761581421,-0.0051216552965343,-0.013438484631478786,-0.02178989350795746,-0.030185844749212265,-0.02598189003765583,-0.14189575612545013,-0.2517821788787842,-0.3555886745452881
0.16666666666666666,0.07515794038772583,0.09347598254680634,0.0,0.9888862371444702,0.0,0.0,-0.14867424964904785,0.3798803687095642,0.5440539717674255,0.0,0.0,0.0,-5.893137454986572,-0.4237389862537384,0.6382259130477905,0.4200000464916229,1.0,3.737278348125983e-06,-2.2331944364850642e-06,-1.8764472997645498e-07,0.00026432870072312653,0.00026626777253113687,-0.00010446063242852688,-0.0017119222320616245,0.004157560411840677,-0.00013001241313759238,-0.3365742862224579,0.3588809669017792,1.113790512084961,-1.9693851470947266,3.7210636138916016,-3.0848546028137207,0.36898747086524963,0.735224187374115,0.42000001668930054,-1.079995036125183,2.9984662532806396,-0.2178899347782135,3.0,-0.011503702960908413,-0.020972102880477905,-0.030409617349505424,-0.0398319773375988,-0.3660276234149933,-0.4362381100654602,-0.501712441444397,-0.5626620650291443
0.18333333333333332,0.07899788022041321,0.09972307831048965,0.0,0.9852798581123352,0.0,0.0,-0.1709492802619934,0.09900329262018204,0.3032830059528351,0.0,0.0,0.0,-1.2607479095458984,-0.4237389862537384,0.6382259726524353,0.4200000464916229,0.9999999403953552,3.6602618820325006e-06,-2.3023178528092103e-06,2.528582569993887e-07,0.0002669094246812165,0.0002676024450920522,-0.0001041253563016653,-0.001741250162012875,0.004211540333926678,-0.0001278737763641402,-0.3708672523498535,0.41623973846435547,1.055890679359436,-1.8511857986450195,3.4925172328948975,-3.84751033782959,0.36898747086524963,0.735224187374115,0.42000001668930054,-1.0312836170196533,2.8209731578826904,-0.2491828203201294,-3.0,-0.019615426659584045,-0.029699645936489105,-0.03968606889247894,-0.049598634243011475,-0.6953513622283936,-0.6904340982437134,-0.6833902597427368,-0.6748616695404053
0.2,0.0778476819396019,0.10655224323272705,0.0,0.9796650409698486,0.0,0.0,-0.20064012706279755,-0.14130601286888123,0.45676979422569275,0.0,0.0,0.0,-4.4499921798706055,-0.4237389862537384,0.6382259130477905,0.4200000464916229,1.0,3.5908608424506383e-06,-2.300466803717427e-06,1.3872747217646975e-07,0.00026654714019969106,0.00026732240803539753,-0.00010424014180898666,-0.0017327213427051902,0.004203526768833399,-0.0001282061421079561,-0.40088796615600586,0.47463512420654297,0.9846181869506836,-1.58107328414917,3.4755184650421143,-4.621713638305664,0.36898747086524963,0.735224187374115,0.42000001668930054,-0.9813202619552612,3.000002145767212,-0.29921114444732666,-3.000000238418579,-0.03379356488585472,-0.043505486100912094,-0.05308321490883827,-0.06256290525197983,-0.9313570261001587,-0.8942272067070007,-0.8553996682167053,-0.8155964016914368
0.21666666666666667,0.0797782763838768,0.11563132703304291,0.0,0.9662100076675415,0.0,0.0,-0.2577560544013977,0.13260015845298767,0.5809850692749023,0.0,0.0,0.0,-7.878305912017822,-0.4237389862537384,0.6382259726524353,0.4200000464916229,1.0,3.6069873203814495e-06,-2.261009740323061e-06,1.9610945756198817e-08,0.00026447101845405996,0.000265582901192829,-0.00010396563448011875,-0.0017088254680857062,0.004164384678006172,-0.00012832769425585866,-0.424257755279541,0.5347640514373779,0.8988613486289978,-1.0400316715240479,3.5688858032226562,-5.502674102783203,0.36898747086524963,0.735224187374115,0.42000001668930054,-0.9313099980354309,3.0000014305114746,-0.34924137592315674,-3.000000238418579,-0.049172963947057724,-0.05857159569859505,-0.0678148865699768,-0.07664792239665985,-0.9878360629081726,-0.9898255467414856,-0.9913665652275085,-0.9537346363067627
0.23333333333333334,0.08029937744140625,0.12262279540300369,0.0,0.9552951455116272,0.0,0.0,-0.29565390944480896,-0.05237523838877678,0.38848695158958435,0.0,0.0,0.0,-3.6066579818725586,-0.423738956451416,0.6382259130477905,0.4200000464916229,0.9999999403953552,3.742314447663375e-06,-2.2275469291344052e-06,4.588965509810805e-07,0.00026475070626474917,0.00026671463274396956,-0.0001045342069119215,-0.001718964078463614,0.004165732767432928,-0.0001301961310673505,-0.44122374057769775,0.5815575122833252,0.8027401566505432,-0.574954092502594,2.4488658905029297,-6.030129909515381,0.36898747086524963,0.735224187374115,0.42000001668930054,-0.8812993168830872,2.999979257583618,-0.3992727994918823,-2.9999940395355225,-0.06587640941143036,-0.07512606680393219,-0.08426924049854279,-0.09306461364030838,-0.9781301021575928,-0.9806317090988159,-0.9832343459129333,-0.9857646226882935
0.25,0.0801868587732315,0.12589691579341888,0.0,0.9539027810096741,0.0,0.0,-0.30011576414108276,-0.024121645838022232,0.11519286036491394,0.0,0.0,0.0,0.32674211263656616,-0.4237389862537384,0.6382259130477905,0.4200000464916229,1.0,3.394471605133731e-06,-2.28208023145271e-06,1.3361282924506668e-07,0.0002667925728019327,0.00026793935103341937,-0.00010439474135637283,-0.001741714426316321,0.004206551238894463,-0.00012884216266684234,-0.4532642662525177,0.6101726293563843,0.703071117401123,-0.4856763482093811,1.176042079925537,-6.018732070922852,0.36898747086524963,0.735224187374115,0.42000001668930054,-0.8312893509864807,2.9999959468841553,-0.449304461479187,-3.0000014305114746,-0.08265034854412079,-0.09184622764587402,-0.10094448924064636,-0.10963232070207596,-0.9975816011428833,-0.9975467324256897,-0.997560977935791,-0.9976058006286621
0.26666666666666666,0.07746121287345886,0.12564025819301605,0.0,0.9485437273979187,0.0,0.0,-0.31664615869522095,-0.2138923555612564,-0.0642959475517273,0.0,0.0,0.0,-2.925945281982422,-0.4237389862537384,0.6382259726524353,0.4200000464916229,1.0,3.683473778437474e-06,-2.310144282091642e-06,2.1009151396356174e-07,0.0002647919754963368,0.00026625837199389935,-0.00010421406477689743,-0.0017168897902593017,0.004169071558862925,-0.00012909626821056008,-0.4554916024208069,0.6247186660766602,0.6007286310195923,0.24357910454273224,0.5001598596572876,-6.091616153717041,0.36898747086524963,0.735224187374115,0.42000001668930054,-0.781280517578125,3.000002384185791,-0.4993351995944977,-2.9999985694885254,-0.10012301057577133,-0.10911411792039871,-0.11805575340986252,-0.126619353890419,-1.0027226209640503,-1.0020458698272705,-1.0015308856964111,-1.0011208057403564
0.2833333333333333,0.07215448468923569,0.12303052097558975,0.0,0.9487960338592529,0.0,0.0,-0.3158893287181854,-0.35759344696998596,-0.2021288275718689,0.0,0.0,0.0,0.9720792770385742,-0.4237389862537384,0.6382259130477905,0.4200000464916229,1.0,3.306992994112079e-06,-2.2125836949271616e-06,2.6255548846165766e-07,0.0002666075888555497,0.0002674507559277117,-0.00010424456559121609,-0.0017352629220113158,0.004204458557069302,-0.0001282876473851502,-0.4510716497898102,0.6328816413879395,0.5070196986198425,0.45600032806396484,0.4261811673641205,-5.171728134155273,0.36898747086524963,0.735224187374115,0.42000001668930054,-0.7312717437744141,3.0000007152557373,-0.5493638515472412,-2.999999523162842,-0.1175173670053482,-0.12636452913284302,-0.13519984483718872,-0.1436811089515686,-1.0203707218170166,-1.0153728723526,-1.0115602016448975,-1.0085183382034302
0.3,0.06452880054712296,0.11803550273180008,0.0,0.9443461894989014,0.0,0.0,-0.3289532959461212,-0.508465051651001,-0.34241607785224915,0.0,0.0,0.0,-2.5078485012054443,-0.4237389862537384,0.6382259130477905,0.4200000464916229,1.0,3.64134757546708e-06,-2.3780066840117797e-06,-4.194093037312996e-07,0.0002661148027982563,0.0002672590489964932,-0.00010423548519611359,-0.0017336418386548758,0.004194686189293861,-0.0001285519974771887,-0.43755123019218445,0.6389747262001038,0.4203512668609619,1.1918582916259766,0.26442956924438477,-5.10304069519043,0.36898747086524963,0.735224187374115,0.42000001668930054,-0.6812648177146912,3.0000014305114746,-0.5993909239768982,-2.9999985694885254,-0.13485677540302277,-0.1435348242521286,-0.15224075317382812,-0.16061919927597046,-1.0042123794555664,-1.0031930208206177,-1.0024113655090332,-1.0017842054367065
0.31666666666666665,0.054656658321619034,0.11075638979673386,0.0,0.9454524517059326,0.0,0.0,-0.325760155916214,-0.6321225166320801,-0.4756458103656769,0.0,0.0,0.0,1.3218696117401123,-0.4237389862537384,0.6382259726524353,0.4200000464916229,1.0,3.621927362473798e-06,-2.2891222215548623e-06,1.9689053942784085e-07,0.0002673399867489934,0.00026802747743204236,-0.00010420684702694416,-0.0017466300632804632,0.004218979272991419,-0.0001279420976061374,-0.43895894289016724,0.6413130760192871,0.42522338032722473,-0.10491050779819489,0.07279635965824127,-0.1996752768754959,0.36898747086524963,0.735224187374115,0.42000001668930054,-0.6313213109970093,2.9999852180480957,-0.649863600730896,-3.0000007152557373,-0.1406424343585968,-0.14900420606136322,-0.15700863301753998,-0.16424839198589325,-0.3929361402988434,-0.35088589787483215,-0.2903059422969818,-0.20977288484573364
0.3333333333333333,0.04685288667678833,0.10096379369497299,0.0,0.9416278004646301,0.0,0.0,-0.3366558253765106,-0.3548591732978821,-0.6395105719566345,0.0,0.0,0.0,-2.228595733642578,-0.4237389862537384,0.6382259130477905,0.4200000464916229,1.0,3.4145102745242184e-06,-2.285570644744439e-06,2.5070414721994894e-07,0.00026700415764935315,0.0002679416793398559,-0.00010437308810651302,-0.0017414279282093048,0.0042112297378480434,-0.00012854914530180395,-0.4375843405723572,0.6427598595619202,0.422302782535553,0.21975791454315186,0.19629129767417908,-0.15543334186077118,0.36898747086524963,0.735224187374115,0.42000001668930054,-0.5813162326812744,2.999983787536621,-0.6999186873435974,-2.9999470710754395,-0.1483180820941925,-0.15545658767223358,-0.16193513572216034,-0.16735176742076874,-0.4760151505470276,-0.3817438781261444,-0.2709921598434448,-0.1453486680984497
0.35,0.037074606865644455,0.08956220746040344,0.0,0.9434522986412048,0.0,0.0,-0.3315082788467407,-0.6604043841362,-0.7103762030601501,0.0,0.0,0.0,1.6008328199386597,-0.42000752687454224,0.6437148451805115,0.4200765788555145,0.9987068176269531,0.0019039474427700043,-0.00016049211262725294,-0.05080372840166092,0.3318574130535126,0.5137351751327515,-0.011139479465782642,-0.5448940992355347,0.007843752391636372,-11.89285659790039,-0.4326983094215393,0.6489530801773071,0.42044705152511597,0.38581156730651855,0.6012182235717773,-0.059607867151498795,0.36898747086524963,0.735224187374115,0.42000001668930054,-0.5313112735748291,2.9999890327453613,-0.7499583959579468,-2.9998719692230225,-0.15971219539642334,-0.16435506939888,-0.1681065410375595,-0.17062540352344513,-0.6793245673179626,-0.5228899717330933,-0.35253554582595825,-0.17260582745075226
0.36666666666666664,0.031206883490085602,0.07561948895454407,0.0,0.9401905536651611,0.0,0.0,-0.34064897894859314,-0.30665579438209534,-0.8713394403457642,0.0,0.0,0.0,-2.0524380207061768,-0.4145556390285492,0.6521141529083252,0.42000001668930054,0.9893836379051208,1.0751615491244593e-06,4.106821052118903e-06,-0.14532722532749176,0.30143624544143677,0.46652552485466003,-1.5103411897143815e-05,0.00010157634824281558,0.0008173096575774252,-9.895609855651855,-0.4234333038330078,0.6571049690246582,0.42046523094177246,0.7164118885993958,0.4156961441040039,0.11282939463853836,0.36898747086524963,0.735224187374115,0.42000001668930054,-0.481281578540802,2.999828338623047,-0.7999864816665649,-2.999983072280884,-0.16923154890537262,-0.1709681898355484,-0.17148259282112122,-0.17052599787712097,-0.5812059640884399,-0.37121275067329407,-0.13936470448970795,0.10725370794534683
0.3833333333333333,0.022093091160058975,0.06036045402288437,0.0,0.9259219765663147,0.0,0.0,-0.3777148425579071,-0.5277306437492371,-0.9897921085357666,0.0,0.0,0.0,-5.661557197570801,-0.40195557475090027,0.6675471663475037,0.42100194096565247,0.9794634580612183,-0.018488693982362747,-0.004169294610619545,-0.20072855055332184,1.1969670057296753,1.3693759441375732,0.0896623358130455,-1.172721266746521,-4.973941802978516,-5.959024906158447,-0.4079330265522003,0.6705066561698914,0.42235642671585083,1.1668236255645752,1.2848479747772217,0.11956319212913513,0.36898747086524963,0.735224187374115,0.42000001668930054,-0.4312388002872467,2.9993224143981934,-0.8499971628189087,-3.000009536743164,-0.18003040552139282,-0.17835932970046997,-0.17511537671089172,-0.17017357051372528,-0.4085579216480255,-0.26810625195503235,-0.10429409146308899,0.07656315714120865
0.4,0.016876816749572754,0.04228115826845169,0.0,0.8985916376113892,0.0,0.0,-0.43878594040870667,-0.26212579011917114,-1.1549886465072632,0.0,0.0,0.0,-8.744765281677246,-0.3688281178474426,0.6956062316894531,0.42556869983673096,0.9678681492805481,0.024668745696544647,-0.04479699209332466,-0.24620284140110016,3.0763847827911377,2.243908643722534,0.38920924067497253,26.03441047668457,-14.448795318603516,7.565454006195068,-0.37444716691970825,0.6994942426681519,0.4262533187866211,2.795502185821533,2.177971839904785,0.5242534279823303,0.36898747086524963,0.735224187374115,0.42000001668930054,-0.3918699622154236,1.4490641355514526,-0.8208764791488647,2.9953691959381104,-0.1886342465877533,-0.1839769333600998,-0.1774158626794815,-0.1689584106206894,-0.597557008266449,-0.3853389024734497,-0.15708811581134796,0.07801006734371185
0.4166666666666667,0.013833285309374332,0.028531180694699287,0.0,0.8555270433425903,0.0,0.0,-0.5177581310272217,-0.0996282696723938,-0.8301377892494202,0.0,0.0,0.0,-11.439995765686035,-0.2963428497314453,0.738192081451416,0.4330486059188843,0.9456421732902527,0.09460276365280151,-0.08921565860509872,-0.29808011651039124,5.707241535186768,2.6329989433288574,0.518368661403656,10.88195514678955,-15.362422943115234,19.25436019897461,-0.3017556071281433,0.742719292640686,0.4337032437324524,5.41265869140625,3.1139349937438965,0.5316996574401855,0.36898747086524963,0.735224187374115,0.42000001668930054,-0.37408941984176636,0.8518616557121277,-0.7715068459510803,2.942241668701172,-0.20373453199863434,-0.1958673596382141,-0.18430359661579132,-0.17109031975269318,-0.6319907307624817,-0.6045446395874023,-0.3628881871700287,-0.13947628438472748
0.43333333333333335,0.014316395856440067,0.017216017469763756,0.0,0.819273829460144,0.0,0.0,-0.573402464389801,0.10569809377193451,-0.6260806918144226,0.0,0.0,0.0,-6.784445762634277,-0.2050410509109497,0.7843069434165955,0.44351592659950256,0.8985634446144104,0.13832582533359528,-0.11672034114599228,-0.3997824192047119,5.860342979431152,1.8745111227035522,0.8287001848220825,-4.082272529602051,-1.5408581495285034,1.3573740720748901,-0.2104586660861969,0.7901099324226379,0.4438462257385254,5.691036224365234,2.4785537719726562,0.6153632402420044,0.36898747086524963,0.735224187374115,0.42000001668930054,-0.35913562774658203,0.9627134203910828,-0.7990179657936096,-2.9997575283050537,-0.2147233486175537,-0.20593927800655365,-0.1907593160867691,-0.17435605823993683,-0.6135262846946716,-0.544365644454956,-0.35433217883110046,-0.1934908628463745
0.45,0.011606814339756966,0.011406970210373402,0.0,0.8020294308662415,0.0,0.0,-0.5972844958305359,-0.11935558915138245,-0.3074735999107361,0.0,0.0,0.0,-2.1090474128723145,-0.10946507751941681,0.8139558434486389,0.45458462834358215,0.835807204246521,0.15516330301761627,-0.12053966522216797,-0.512660562992096,5.9708099365234375,0.6388012766838074,0.5647531151771545,-9.032443046569824,-18.648151397705078,12.645026206970215,-0.1147809773683548,0.8212583065032959,0.4539406895637512,5.931793689727783,1.4839603900909424,0.7487162351608276,0.36898747086524963,0.735224187374115,0.42000001668930054,-0.34273698925971985,0.9058488607406616,-0.8490431308746338,-3.0000030994415283,-0.22856861352920532,-0.21752943098545074,-0.198659747838974,-0.1791606843471527,-0.6776280403137207,-0.5789958834648132,-0.4099365770816803,-0.26993176341056824
0.4666666666666667,0.01229946780949831,0.00821317546069622,0.0,0.7789183855056763,0.0,0.0,-0.6271252632141113,0.0965925082564354,-0.1264421045780182,0.0,0.0,0.0,-5.411871433258057,-0.011577092111110687,0.8262126445770264,0.461498886346817,0.7629237771034241,0.1375524252653122,-0.12807591259479523,-0.6185654401779175,5.857163429260254,-0.49128127098083496,0.19571778178215027,17.352920532226562,12.34648609161377,8.773568153381348,-0.01809057965874672,0.8363166451454163,0.4614025950431824,5.837467670440674,0.33463254570961,0.4770886301994324,0.36898747086524963,0.735224187374115,0.42000001668930054,-0.3284476101398468,0.7753329873085022,-0.8990690112113953,-2.9998116493225098,-0.23862652480602264,-0.22577442228794098,-0.20422811806201935,-0.1823616474866867,-0.5535735487937927,-0.4235021471977234,-0.26047348976135254,-0.10962773114442825
0.48333333333333334,0.01662149466574192,0.002940367441624403,0.0,0.7662354707717896,0.0,0.0,-0.6425598859786987,0.3664724826812744,-0.42638248205184937,0.0,0.0,0.0,-1.4104819297790527,0.08138793706893921,0.8251416683197021,0.46524739265441895,0.6928735971450806,0.12728697061538696,-0.12624679505825043,-0.6984167098999023,5.143639087677002,-1.084118127822876,0.03253968805074692,-15.009078025817871,-8.145895957946777,20.1820068359375,0.07661207020282745,0.8361897468566895,0.4656238853931427,5.663322448730469,-0.32727161049842834,0.2676222026348114,0.36898747086524963,0.735224187374115,0.42000001668930054,-0.32100802659988403,0.28614306449890137,-0.9490947127342224,-2.9999992847442627,-0.23929385840892792,-0.22954732179641724,-0.2062758207321167,-0.18291229009628296,0.12839385867118835,-0.064237080514431,-0.010303512215614319,0.028787437826395035
0.5,0.018980005756020546,4.374541458673775e-05,0.0,0.7454638481140137,0.0,0.0,-0.6665460467338562,0.1084660142660141,-0.11285291612148285,0.0,0.0,0.0,-4.570333957672119,0.1665360927581787,0.8141255378723145,0.46297916769981384,0.6105021834373474,0.07404675334692001,-0.16506892442703247,-0.7710748314857483,4.700662612915039,-1.2170029878616333,-0.45482271909713745,-26.259166717529297,8.75916862487793,-14.036250114440918,0.1608174741268158,0.8273184299468994,0.46623167395591736,4.728169918060303,-0.7348614931106567,0.031300660222768784,0.36898747086524963,0.735224187374115,0.42000001668930054,-0.3138777017593384,0.5664666295051575,-0.9991187453269958,-2.999572277069092,-0.238263800740242,-0.23121030628681183,-0.20770852267742157,-0.18434032797813416,0.12719285488128662,-0.024893635883927345,-0.06215715780854225,-0.10954311490058899
0.5166666666666666,0.022379331290721893,0.0006095240823924541,0.0,0.7381117343902588,0.0,0.0,-0.6746785044670105,0.23567432165145874,0.09318269044160843,0.0,0.0,0.0,-0.3219505846500397,0.23634067177772522,0.7968981266021729,0.45650625228881836,0.5664766430854797,0.05196533352136612,-0.15155711770057678,-0.8083528280258179,3.660088300704956,-1.5989984273910522,-0.42532870173454285,1.053098201751709,9.02913761138916,-0.9094929099082947,0.23236337304115295,0.8104308843612671,0.4604860246181488,3.8586106300354004,-1.2454605102539062,-0.5440008044242859,0.36898747086524963,0.735224187374115,0.42000001668930054,-0.3024008274078369,0.7856453657150269,-1.04914128780365,-2.999316930770874,-0.23625533282756805,-0.23110206425189972,-0.2085140347480774,-0.1862155944108963,0.15566430985927582,0.06765320152044296,-0.009772730991244316,-0.09585484862327576
0.5333333333333333,0.02847013995051384,-0.0024584359489381313,0.0,0.721924901008606,0.0,0.0,-0.6919714212417603,0.3968416750431061,-0.168461412191391,0.0,0.0,0.0,-3.4892256259918213,0.29361096024513245,0.7790555953979492,0.44108596444129944,0.5373283624649048,0.025149162858724594,-0.14245888590812683,-0.8308736681938171,3.035562753677368,-1.3628547191619873,-0.9878098964691162,-2.430917501449585,1.774539589881897,-1.57399320602417,0.2905060350894928,0.7920458316802979,0.445637971162796,3.058054208755493,-1.2534821033477783,-1.1250545978546143,0.36898747086524963,0.735224187374115,0.42000001668930054,-0.28793397545814514,0.8583291172981262,-1.0991634130477905,-3.0000011920928955,-0.2302456945180893,-0.22678224742412567,-0.20634609460830688,-0.18625560402870178,0.19405622780323029,0.15242788195610046,0.04435596242547035,-0.07171688228845596
0.55,0.032120637595653534,-0.000992714543826878,0.0,0.7187818288803101,0.0,0.0,-0.6952356696128845,0.16855588555335999,0.10347254574298859,0.0,0.0,0.0,0.3748970627784729,0.3342652916908264,0.7566889524459839,0.4252457618713379,0.5153220295906067,0.000641075661405921,-0.10077439993619919,-0.8510506749153137,1.6740020513534546,-1.3301916122436523,-0.30562645196914673,6.036793231964111,16.003259658813477,-0.6126385927200317,0.33202865719795227,0.7685858011245728,0.4297648072242737,1.757720947265625,-1.133493423461914,-0.1907527595758438,0.36898747086524963,0.735224187374115,0.42000001668930054,-0.27561864256858826,0.5826113820075989,-1.1492356061935425,-2.9628450870513916,-0.23000162839889526,-0.2264198511838913,-0.20744922757148743,-0.18897849321365356,0.14451593160629272,0.12574650347232819,-0.0005595572292804718,-0.1254437416791916
0.5666666666666667,0.03696325793862343,-0.00351845845580101,0.0,0.7062625885009766,0.0,0.0,-0.7079499959945679,0.3193092346191406,-0.19370819628238678,0.0,0.0,0.0,-2.9050729274749756,0.35622960329055786,0.7460963129997253,0.42271941900253296,0.5132989883422852,-0.011363687925040722,-0.04698723554611206,-0.8568471670150757,0.6851205229759216,-1.0075052976608276,0.30425551533699036,-18.09198760986328,11.92507553100586,14.569052696228027,0.354033887386322,0.7568647861480713,0.42737460136413574,0.7561427354812622,-0.4011925458908081,0.2160872220993042,0.36898747086524963,0.735224187374115,0.42000001668930054,-0.26628705859184265,0.20236676931381226,-1.1992803812026978,-3.000004768371582,-0.22371439635753632,-0.22109811007976532,-0.20503327250480652,-0.18928825855255127,0.3751383125782013,0.3297160565853119,0.15840616822242737,2.2455531507148407e-05
0.5833333333333334,0.03985599800944328,-0.0025893717538565397,0.0,0.7062416076660156,0.0,0.0,-0.707970917224884,0.11815382540225983,0.07576175034046173,0.0,0.0,0.0,0.8504840731620789,0.3671421408653259,0.735726535320282,0.42300528287887573,0.5257620215415955,-0.057870786637067795,-0.012948647141456604,-0.8485620617866516,0.5497992038726807,-0.6218060255050659,0.0580843947827816,9.999139785766602,4.390527725219727,-2.1165964603424072,0.36355161666870117,0.7450039982795715,0.4263734221458435,0.48922890424728394,-0.7953968644142151,-0.39594516158103943,0.36898747086524963,0.735224187374115,0.42000001668930054,-0.26864081621170044,-0.15542028844356537,-1.2493025064468384,-2.9999492168426514,-0.21969722211360931,-0.21725249290466309,-0.20361478626728058,-0.1901305466890335,0.3428109586238861,0.3130771219730377,0.14515981078147888,-0.010232219472527504
0.6,0.043536409735679626,-0.005271759815514088,0.0,0.6963064074516296,0.0,0.0,-0.7177446484565735,0.2592924237251282,-0.20600877702236176,0.0,0.0,0.0,-2.4447555541992188,0.37077680230140686,0.7316023111343384,0.42230576276779175,0.5359807014465332,-0.03615453839302063,0.004166672471910715,-0.843445360660553,-0.005347845610231161,0.033680640161037445,0.2967851161956787,0.45143595337867737,2.5016374588012695,3.2550783157348633,0.3675239086151123,0.7400022745132446,0.42294424772262573,-0.041267044842243195,-0.019315414130687714,0.08511471748352051,0.36898747086524963,0.735224187374115,0.42000001668930054,-0.2709234952926636,-0.16668714582920074,-1.233060359954834,2.9944519996643066,-0.21105635166168213,-0.20980142056941986,-0.19957378506660461,-0.18918269872665405,0.4886923134326935,0.4237231910228729,0.22766683995723724,0.05084923282265663
0.6166666666666667,0.04957308620214462,-0.004957561381161213,0.0,0.6985539793968201,0.0,0.0,-0.7155573964118958,0.39206576347351074,0.04412496089935303,0.0,0.0,0.0,1.2029927968978882,0.37062710523605347,0.7321432828903198,0.4251694977283478,0.5594686269760132,-0.049629103392362595,0.01687176339328289,-0.8271923065185547,-0.005432897247374058,0.03246003016829491,0.13151472806930542,0.5177642703056335,2.3509395122528076,3.3147826194763184,0.36500898003578186,0.737703800201416,0.4231741428375244,-0.16547326743602753,-0.04441051185131073,0.13035611808300018,0.36898747086524963,0.735224187374115,0.42000001668930054,-0.31064969301223755,-3.000000476837158,-1.2540650367736816,-2.999967575073242,-0.20499330759048462,-0.20460130274295807,-0.19735847413539886,-0.18966424465179443,0.4162844717502594,0.3451104462146759,0.15402205288410187,-0.017900343984365463
0.6333333333333333,0.05727618187665939,-0.0018962641479447484,0.0,0.6898483633995056,0.0,0.0,-0.7239538431167603,0.4993857443332672,0.23634588718414307,0.0,0.0,0.0,-2.403791904449463,0.3704787790775299,0.7327466011047363,0.42535242438316345,0.5807285904884338,-0.06389149278402328,0.027185769751667976,-0.8111306428909302,-0.013918659649789333,0.041218820959329605,-0.027234980836510658,-0.15814067423343658,1.8984891176223755,2.918935775756836,0.3642197251319885,0.7407070994377136,0.426082968711853,0.006122145801782608,0.2576242685317993,0.21443958580493927,0.36898747086524963,0.735224187374115,0.42000001668930054,-0.3606744408607483,-2.9999191761016846,-1.3040213584899902,-2.998971462249756,-0.1958092600107193,-0.19736048579216003,-0.19375890493392944,-0.1892176866531372,0.6160498261451721,0.49213510751724243,0.27673226594924927,0.09235984086990356
0.65,0.0674000158905983,-0.003585576079785824,0.0,0.6926106214523315,0.0,0.0,-0.7213116884231567,0.5735024809837341,-0.13960957527160645,0.0,0.0,0.0,1.3598154783248901,0.36984017491340637,0.7335091233253479,0.42340806126594543,0.5887383818626404,-0.06163490191102028,0.013195043429732323,-0.8058622479438782,-0.08967410773038864,0.05329478532075882,-0.09583599865436554,-2.2929787635803223,-5.627956390380859,-0.6776427030563354,0.3626696467399597,0.744150698184967,0.4314706325531006,-0.26328015327453613,0.16481052339076996,0.49146202206611633,0.36898747086524963,0.735224187374115,0.42000001668930054,-0.4106888175010681,-3.0,-1.3540397882461548,-3.0000016689300537,-0.18389713764190674,-0.1872539222240448,-0.18679532408714294,-0.18487367033958435,0.5727503895759583,0.5188108682632446,0.3920789062976837,0.29242223501205444
0.6666666666666666,0.07856984436511993,-0.007283420767635107,0.0,0.6845741271972656,0.0,0.0,-0.7289432883262634,0.7028555274009705,-0.2973712384700775,0.0,0.0,0.0,-2.260366201400757,0.36804792284965515,0.7340366840362549,0.4209161102771759,0.5858822464942932,-0.01839260943233967,-0.013402063399553299,-0.8100764751434326,-0.08565262705087662,-0.01210631150752306,-0.10273409634828568,5.434620380401611,-1.9759387969970703,0.09935487061738968,0.36216574907302856,0.7463400363922119,0.4381144642829895,0.19534650444984436,0.11272210627794266,0.4605345129966736,0.36898747086524963,0.735224187374115,0.42000001668930054,-0.46070238947868347,-3.000000238418579,-1.4040580987930298,-2.9999992847442627,-0.17797856032848358,-0.18132975697517395,-0.18188542127609253,-0.18054941296577454,0.30276408791542053,0.3286490738391876,0.3039461076259613,0.30443763732910156
0.6833333333333333,0.0931464433670044,-0.00659944349899888,0.0,0.6543950438499451,0.0,0.0,-0.756152868270874,0.8368244171142578,0.057528670877218246,0.0,0.0,0.0,-5.698707580566406,0.3672119677066803,0.7331820726394653,0.42000001668930054,0.5867780447006226,-2.5810516035562614e-06,-1.2535105042843497e-06,-0.8097478151321411,-0.025592580437660217,-0.05259506031870842,-0.00011505268048495054,0.004595424048602581,-0.0021529493387788534,0.06975134462118149,0.36856555938720703,0.7464091181755066,0.4538784623146057,0.7240236401557922,0.06132097914814949,1.4825944900512695,0.36898747086524963,0.735224187374115,0.42000001668930054,-0.5107153654098511,-3.0,-1.4540764093399048,-2.9999990463256836,-0.1801082342863083,-0.18181362748146057,-0.1815032958984375,-0.1790301352739334,-0.05148285627365112,0.018344378098845482,0.053379692137241364,0.10745742917060852
0.7,0.10400145500898361,-0.003534116083756089,0.0,0.637912392616272,0.0,0.0,-0.7701089382171631,0.5968374013900757,0.16524812579154968,0.0,0.0,0.0,-1.4959893226623535,0.3671390414237976,0.7330300211906433,0.4200000762939453,0.5868465304374695,1.4300831935543101e-05,1.7391737856087275e-05,-0.8096981048583984,0.00036329333670437336,0.0016996035119518638,-0.000808145385235548,-0.006244149524718523,0.005923241376876831,-0.003979643806815147,0.3816624879837036,0.7499212026596069,0.4819859266281128,0.8549857139587402,0.3868142366409302,1.8596735000610352,0.36898747086524963,0.735224187374115,0.42000001668930054,-0.5441460013389587,-1.1460002660751343,-1.5040947198867798,-2.999999761581421,-0.1809277981519699,-0.18187974393367767,-0.18132124841213226,-0.17836283147335052,0.06861461699008942,0.06531111896038055,0.03742314875125885,0.0220891535282135
0.7166666666666667,0.11066998541355133,0.0007993389735929668,0.0,0.6459869146347046,0.0,0.0,-0.7633484601974487,0.33201369643211365,0.3177751302719116,0.0,0.0,0.0,2.1118173599243164,0.36713889241218567,0.7330324649810791,0.4200000464916229,0.5868455171585083,3.6549954529618844e-07,-3.1183719784166897e-06,-0.8096989393234253,0.00012020091526210308,-0.00027354847406968474,-9.428337216377258e-05,0.006359271705150604,-0.0013487744145095348,-0.0006932529504410923,0.39597970247268677,0.7565492391586304,0.5056830644607544,0.7659156322479248,0.40488797426223755,1.0663864612579346,0.36898747086524963,0.735224187374115,0.42000001668930054,-0.539384663105011,1.4827336072921753,-1.5202765464782715,0.7461639046669006,-0.17878538370132446,-0.17983360588550568,-0.17971086502075195,-0.17705340683460236,0.16964416205883026,0.16581177711486816,0.14344438910484314,0.12356552481651306
0.7333333333333333,0.11326877772808075,0.0008471711189486086,0.0,0.6419462561607361,0.0,0.0,-0.7667496204376221,0.1363634616136551,-0.0498984269797802,0.0,0.0,0.0,-1.5889695882797241,0.36713889241218567,0.7330324649810791,0.4200000464916229,0.5868457555770874,3.8338902186296764e-07,-2.8329347969702212e-06,-0.809698760509491,0.00011170029029017314,-0.00026977440575137734,-9.056762792170048e-05,0.006305654998868704,-0.0013938810443505645,-0.0006676178891211748,0.4020475149154663,0.762977123260498,0.5178166627883911,-0.03486797213554382,0.23812270164489746,0.5384465456008911,0.36898747086524963,0.735224187374115,0.42000001668930054,-0.534910261631012,-0.7539418935775757,-1.4715381860733032,3.000000476837158,-0.1735202670097351,-0.17483271658420563,-0.17525799572467804,-0.17318834364414215,0.19433797895908356,0.21542219817638397,0.2172013223171234,0.20746876299381256
0.75,0.11286918818950653,0.0059270672500133514,0.0,0.6496552228927612,0.0,0.0,-0.7602289915084839,-0.057361114770174026,0.2893417477607727,0.0,0.0,0.0,1.9676182270050049,0.36713889241218567,0.7330324649810791,0.4200000464916229,0.5868457555770874,3.6101513956054987e-07,-2.914908918683068e-06,-0.8096986413002014,0.00011235108104301617,-0.0002699706528801471,-9.068124927580357e-05,0.006306774448603392,-0.0013866143999621272,-0.000669188448227942,0.4024353623390198,0.76494300365448,0.5246481895446777,0.17539946734905243,0.21644045412540436,0.27821770310401917,0.36898747086524963,0.735224187374115,0.42000001668930054,-0.5361348390579224,0.5004924535751343,-1.4882694482803345,-3.000000476837158,-0.17573300004005432,-0.1756296306848526,-0.1750294417142868,-0.17230768501758575,0.039489589631557465,0.07279064506292343,0.08931145071983337,0.08677884936332703
0.7666666666666666,0.11347062885761261,0.0068408106453716755,0.0,0.6450984477996826,0.0,0.0,-0.7640994787216187,0.044395752251148224,0.005067840684205294,0.0,0.0,0.0,-1.599137544631958,0.36713889241218567,0.7330324649810791,0.4200000464916229,0.5868456363677979,3.870415525852877e-07,-2.8199453936395003e-06,-0.809698760509491,0.0001111878445954062,-0.0002697099989745766,-9.045354090631008e-05,0.006306895054876804,-0.00139956537168473,-0.000666176900267601,0.4003961384296417,0.7674264907836914,0.5220247507095337,-0.3882431387901306,0.04458260536193848,-0.4001397490501404,0.36898747086524963,0.735224187374115,0.42000001668930054,-0.5506757497787476,-2.014352798461914,-1.4495750665664673,3.0,-0.17471285164356232,-0.1740664541721344,-0.1731630563735962,-0.17047929763793945,0.004357787314802408,0.05329008772969246,0.08811470866203308,0.09925514459609985
0.7833333333333333,0.11589612811803818,0.005315475165843964,0.0,0.6515262722969055,0.0,0.0,-0.7586261034011841,0.18548430502414703,-0.21245160698890686,0.0,0.0,0.0,1.7437235116958618,0.36713889241218567,0.7330324649810791,0.4200000464916229,0.5868456959724426,3.649374207270739e-07,-2.9017680844845017e-06,-0.809698760509491,0.00011234842531848699,-0.0002699684991966933,-9.067915380001068e-05,0.006306686904281378,-0.001386664342135191,-0.0006691779708489776,0.39767834544181824,0.7665824890136719,0.5171304941177368,0.041727129369974136,-0.07345735281705856,-0.15091761946678162,0.36898747086524963,0.735224187374115,0.42000001668930054,-0.5893682837486267,-2.5511677265167236,-1.4667621850967407,-2.999999761581421,-0.1764366775751114,-0.174442321062088,-0.17230063676834106,-0.16870680451393127,-0.08901862800121307,-0.005259354133158922,0.07954490929841995,0.15046289563179016
0.8,0.12058724462985992,0.00026791589334607124,0.0,0.6456947922706604,0.0,0.0,-0.7635955810546875,0.3214191794395447,-0.3749098777770996,0.0,0.0,0.0,-1.7857577800750732,0.36713889241218567,0.7330324649810791,0.4200000464916229,0.5868457555770874,4.479144877223007e-07,-3.1596434837410925e-06,-0.8096987009048462,0.00011273879499640316,-0.0002698799653444439,-9.077880531549454e-05,0.006302500609308481,-0.0013816574355587363,-0.0006699407822452486,0.40197789669036865,0.763675332069397,0.5118752121925354,0.47123926877975464,-0.26851919293403625,-0.3118344247341156,0.36898747086524963,0.735224187374115,0.42000001668930054,-0.6382671594619751,-2.9999940395355225,-1.5167804956436157,-3.000000476837158,-0.17888522148132324,-0.175251767039299,-0.17133930325508118,-0.16612236201763153,-0.13073553144931793,-0.026567935943603516,0.0906435027718544,0.2029665857553482
0.8166666666666667,0.129122793674469,2.3230766601045616e-05,0.0,0.6173825263977051,0.0,0.0,-0.7866631150245667,0.46934208273887634,-0.0005698747118003666,0.0,0.0,0.0,-5.156130790710449,0.36713889241218567,0.7330324649810791,0.4200000464916229,0.5868456363677979,4.345773163549893e-07,-3.241094191253069e-06,-0.8096987009048462,0.00011308871034998447,-0.00026987967430613935,-9.08698420971632e-05,0.0063004931434988976,-0.0013778872089460492,-0.0006707475404255092,0.41055893898010254,0.7563228607177734,0.5125539302825928,0.6569873094558716,-0.3820390999317169,0.47050291299819946,0.36898747086524963,0.735224187374115,0.42000001668930054,-0.6882712841033936,-2.9999935626983643,-1.5667988061904907,-3.000000476837158,-0.18633192777633667,-0.18035541474819183,-0.17389421164989471,-0.16624358296394348,-0.27610209584236145,-0.1931813508272171,-0.09006567299365997,0.014948626980185509
0.8333333333333334,0.13883742690086365,0.0021724989637732506,0.0,0.6048116087913513,0.0,0.0,-0.7963685989379883,0.6297445893287659,0.14600293338298798,0.0,0.0,0.0,-0.8363984823226929,0.36713889241218567,0.7330324649810791,0.4200000464916229,0.5868455767631531,4.007394807103992e-07,-2.958282266263268e-06,-0.809698760509491,0.00011179725697729737,-0.000269734620815143,-9.058276191353798e-05,0.0063042109832167625,-0.0013923170045018196,-0.0006675513577647507,0.4195386469364166,0.7551925778388977,0.5233333110809326,0.4273035526275635,0.19235646724700928,0.8034089803695679,0.36898747086524963,0.735224187374115,0.42000001668930054,-0.703985333442688,0.7980254292488098,-1.6168171167373657,-2.999999761581421,-0.189152330160141,-0.18288660049438477,-0.1758134961128235,-0.16750498116016388,-0.029117053374648094,-0.07322628796100616,-0.09992069005966187,-0.12361620366573334
0.85,0.14571897685527802,0.005541641265153885,0.0,0.6172471642494202,0.0,0.0,-0.7867692708969116,0.34417295455932617,0.2828485667705536,0.0,0.0,0.0,2.7138326168060303,0.36713889241218567,0.7330324649810791,0.4200000464916229,0.5868456363677979,4.3416341100055433e-07,-3.218086703782319e-06,-0.8096987009048462,0.00011290303518762812,-0.00026989844627678394,-9.0812798589468e-05,0.006302091293036938,-0.0013797687133774161,-0.0006703254766762257,0.42529213428497314,0.7608798146247864,0.5328661203384399,0.19401396811008453,0.42016080021858215,0.3950982689857483,0.36898747086524963,0.735224187374115,0.42000001668930054,-0.6683531403541565,2.9999806880950928,-1.5777573585510254,2.999999761581421,-0.18707427382469177,-0.1821180135011673,-0.1760733723640442,-0.1687275916337967,0.16383258998394012,0.07616403698921204,0.0018628650577738881,-0.0706884115934372
0.8666666666666667,0.1476360261440277,0.0040094428695738316,0.0,0.616983950138092,0.0,0.0,-0.7869756817817688,0.16524866223335266,-0.1013559103012085,0.0,0.0,0.0,-0.7318071722984314,0.36713889241218567,0.7330324649810791,0.4200000464916229,0.5868455767631531,3.8842529193061637e-07,-2.9331813493627124e-06,-0.8096988797187805,0.0001117376159527339,-0.00026981078553944826,-9.056832641363144e-05,0.0063063581474125385,-0.0013935207389295101,-0.0006675245822407305,0.42269039154052734,0.7685940265655518,0.5354790687561035,-0.47955965995788574,0.26161694526672363,0.032638076692819595,0.36898747086524963,0.735224187374115,0.42000001668930054,-0.6507206559181213,-0.5831343531608582,-1.5277009010314941,2.999999523162842,-0.17900791764259338,-0.17628738284111023,-0.17226751148700714,-0.16688475012779236,0.2292616367340088,0.1597461849451065,0.09422609210014343,0.023287521675229073
0.8833333333333333,0.14804191887378693,0.00743385823443532,0.0,0.629372775554657,0.0,0.0,-0.7771035432815552,-0.01883932575583458,0.2460099160671234,0.0,0.0,0.0,2.682016372680664,0.36713889241218567,0.7330324649810791,0.4200000464916229,0.5868456363677979,4.4987368141846673e-07,-3.1921522349875886e-06,-0.8096988201141357,0.00011285268556093797,-0.0002698491734918207,-9.080115705728531e-05,0.006301043089479208,-0.0013801452005282044,-0.0006701594684273005,0.4176057279109955,0.7723057270050049,0.5346324443817139,-0.1341475248336792,0.32234805822372437,-0.1166854202747345,0.36898747086524963,0.735224187374115,0.42000001668930054,-0.6392999291419983,1.741694450378418,-1.5429797172546387,-2.999999523162842,-0.17935706675052643,-0.1768999993801117,-0.1731254756450653,-0.16813057661056519,0.03680838644504547,0.008085567504167557,-0.0170943271368742,-0.046957507729530334
