vladlanda/robotic-transformer/data/env_000_episode_0187.csv
sim_time_s,robot_box_x,robot_box_y,robot_box_z,robot_box_quat_w,robot_box_quat_x,robot_box_quat_y,robot_box_quat_z,robot_box_linvel_x,robot_box_linvel_y,robot_box_linvel_z,robot_box_angvel_x,robot_box_angvel_y,robot_box_angvel_z,cube_world_x,cube_world_y,cube_world_z,cube_quat_w,cube_quat_x,cube_quat_y,cube_quat_z,cube_linvel_x,cube_linvel_y,cube_linvel_z,cube_angvel_x,cube_angvel_y,cube_angvel_z,endpoint_world_x,endpoint_world_y,endpoint_world_z,endpoint_linvel_x,endpoint_linvel_y,endpoint_linvel_z,target_cube_world_x,target_cube_world_y,target_cube_world_z,gripper_actual_pos_rad_gp_leftgearjoint,gripper_actual_vel_rad_s_gp_leftgearjoint,gripper_actual_pos_rad_gp_rotatingjoint,gripper_actual_vel_rad_s_gp_rotatingjoint,motor_angle_rad_joint1,motor_angle_rad_joint2,motor_angle_rad_joint3,motor_angle_rad_joint4,motor_speed_rad_s_joint1,motor_speed_rad_s_joint2,motor_speed_rad_s_joint3,motor_speed_rad_s_joint4
0.0,0.0,0.0,0.0,1.0,0.0,0.0,0.0,0.0,0.0,0.0,0.0,0.0,0.0,-0.44591501355171204,0.675372302532196,0.41999998688697815,1.0,0.0,0.0,0.0,0.0,0.0,0.0,0.0,0.0,0.0,3.42540442943573e-06,-0.005000244826078415,1.313499927520752,0.0,0.0,0.0,0.38567501306533813,0.760834276676178,0.42000001668930054,-1.5707999467849731,0.0,0.0,0.0,0.0,0.0,0.0,0.0,0.0,0.0,0.0,0.0
0.016666666666666666,0.0028778850100934505,0.0021806680597364902,0.0,0.9998081922531128,0.0,0.0,0.019586581736803055,0.24087215960025787,0.18240931630134583,0.0,0.0,0.0,3.1418697834014893,-0.4459151327610016,0.6753720045089722,0.41999998688697815,1.0,3.2799914606584935e-06,-8.339814598912199e-07,8.465387679734704e-08,-1.9833554688375443e-05,0.00017983050202019513,-6.133061833679676e-05,0.0009432226070202887,-0.004689437802881002,-0.0003198152990080416,-0.007110234349966049,0.003379564033821225,1.3159373998641968,-0.8143353462219238,0.9868683815002441,0.18095196783542633,0.38567501306533813,0.760834276676178,0.42000001668930054,-1.5301095247268677,3.0000011920928955,-0.04584788903594017,-2.9999992847442627,0.0008691533003002405,0.0007963840034790337,0.0007110277656465769,0.0006108740926720202,0.11094217747449875,0.09756709635257721,0.08334315568208694,0.06823883205652237
0.03333333333333333,0.008960974402725697,0.006801904644817114,0.0,0.9997960329055786,0.0,0.0,0.020196840167045593,0.4070211946964264,0.31530821323394775,0.0,0.0,0.0,-0.8691301941871643,-0.44591525197029114,0.6753719449043274,0.4200000464916229,1.0,3.390885240150965e-06,-2.1324319732229924e-06,-3.711133800265998e-08,0.00026357753085903823,0.00026937859365716577,-0.00010509602725505829,-0.0017706351354718208,0.004130707122385502,-0.00013548039714805782,-0.027548426762223244,0.026012327522039413,1.3166251182556152,-1.59149968624115,1.6140903234481812,-0.08172543346881866,0.38567501306533813,0.760834276676178,0.42000001668930054,-1.4800903797149658,3.0000014305114746,-0.09588771313428879,-3.0000009536743164,0.002990150824189186,0.0026527794543653727,0.0022773684468120337,0.001860842457972467,0.16422311961650848,0.13976795971393585,0.11382827907800674,0.0863117128610611
0.05,0.017754293978214264,0.01377214677631855,0.0,0.9993760585784912,0.0,0.0,0.03531927615404129,0.5939029455184937,0.4651229977607727,0.0,0.0,0.0,2.648071765899658,-0.4459152817726135,0.6753720045089722,0.4200000464916229,1.0,3.7651666389137972e-06,-2.2119106688478496e-06,5.6201381326559385e-09,0.00026530789909884334,0.00026691396487876773,-0.0001044049859046936,-0.0017242879839614034,0.004177392926067114,-0.00012949586380273104,-0.05968417227268219,0.053889352828264236,1.3116567134857178,-2.1876797676086426,1.7639756202697754,-0.476346880197525,0.38567501306533813,0.760834276676178,0.42000001668930054,-1.4300720691680908,2.9999985694885254,-0.145926371216774,-3.0000011920928955,0.0057100267149508,0.004917904268950224,0.004053653683513403,0.003112832782790065,0.19271433353424072,0.15581409633159637,0.11703971773386002,0.07629702240228653
0.06666666666666667,0.029071079567074776,0.02306630276143551,0.0,0.9994483590126038,0.0,0.0,0.03321148827672005,0.7204501032829285,0.5952407717704773,0.0,0.0,0.0,-1.21126389503479,-0.4459152817726135,0.6753719449043274,0.4200000464916229,0.9999999403953552,3.406765927138622e-06,-2.285584969285992e-06,4.3010237504859106e-07,0.0002670253161340952,0.00026791723212227225,-0.00010437797755002975,-0.0017405577236786485,0.004211726598441601,-0.0001285084872506559,-0.0983843207359314,0.08794914186000824,1.298975944519043,-2.4647762775421143,2.2106375694274902,-1.0174087285995483,0.38567501306533813,0.760834276676178,0.42000001668930054,-1.3800537586212158,3.000002384185791,-0.19596369564533234,-2.9999985694885254,0.00833972543478012,0.00687195872887969,0.005293307825922966,0.0035982239060103893,0.156709223985672,0.1069171279668808,0.05509646609425545,5.296897143125534e-09
0.08333333333333333,0.043293487280607224,0.03440414369106293,0.0,0.9999611377716064,0.0,0.0,0.00881616584956646,0.9237426519393921,0.7198651432991028,0.0,0.0,0.0,-3.821446180343628,-0.4459152817726135,0.6753719449043274,0.4200000464916229,0.9999999403953552,3.626100578912883e-06,-2.3352724838332506e-06,3.032271251868224e-07,0.00026613989030011,0.00026685124612413347,-0.00010405294597148895,-0.0017283570487052202,0.004196339752525091,-0.0001279040880035609,-0.1388312131166458,0.1282385289669037,1.2791639566421509,-2.390839099884033,2.563161849975586,-1.3449219465255737,0.38567501306533813,0.760834276676178,0.42000001668930054,-1.3300338983535767,3.0000014305114746,-0.2352164089679718,-1.7820491790771484,0.010110797360539436,0.007705729454755783,0.005149336531758308,0.0024213765282183886,0.0874103531241417,0.021619603037834167,-0.04624249413609505,-0.11700787395238876
0.1,0.05178512632846832,0.04953862726688385,0.0,0.9999992847442627,0.0,0.0,0.001213412033393979,0.372141033411026,0.9826077222824097,0.0,0.0,0.0,0.1059260293841362,-0.4459152817726135,0.6753719449043274,0.4200000464916229,1.0,3.4221923215227434e-06,-2.308566536157741e-06,1.7962463516596472e-07,0.00026681568124331534,0.0002680055040400475,-0.00010440591722726822,-0.0017430472653359175,0.004207062069326639,-0.0001289081701543182,-0.18081322312355042,0.16650953888893127,1.254284381866455,-2.453078269958496,2.311737537384033,-1.5575761795043945,0.38567501306533813,0.760834276676178,0.42000001668930054,-1.2800076007843018,2.999999523162842,-0.21210497617721558,2.999999761581421,0.0051648239605128765,0.002029041526839137,-0.0013090581633150578,-0.004883946850895882,-0.4172462224960327,-0.46617448329925537,-0.5176198482513428,-0.5723115801811218
0.11666666666666667,0.05554830655455589,0.06539542973041534,0.0,0.9998096823692322,0.0,0.0,-0.01950794644653797,0.24065007269382477,0.9099758863449097,0.0,0.0,0.0,-3.271846055984497,-0.4459152817726135,0.6753720045089722,0.4200000464916229,1.0,3.7115428312972654e-06,-2.3326213067775825e-06,2.5742912157511455e-07,0.0002648582449182868,0.00026635496760718524,-0.00010423525236546993,-0.0017181994626298547,0.004170082975178957,-0.00012915662955492735,-0.2186991423368454,0.20778349041938782,1.2305943965911865,-2.1372852325439453,2.64656925201416,-1.317673683166504,0.38567501306533813,0.760834276676178,0.42000001668930054,-1.2300115823745728,3.0000014305114746,-0.24348509311676025,-2.999999523162842,-0.0016031472478061914,-0.006052917800843716,-0.010710245929658413,-0.015617705881595612,-0.3203250765800476,-0.42758527398109436,-0.5331341028213501,-0.6371930837631226
0.13333333333333333,0.06590233743190765,0.08121980726718903,0.0,0.9980558753013611,0.0,0.0,-0.062325771898031235,0.8664513230323792,0.9452729821205139,0.0,0.0,0.0,-6.138077259063721,-0.4459152817726135,0.6753719449043274,0.4200000464916229,1.0,3.3357002848788397e-06,-2.231846792710712e-06,3.113198374649073e-07,0.00026669702492654324,0.00026759246247820556,-0.00010428694076836109,-0.0017370906425639987,0.004205901175737381,-0.00012840105046052486,-0.25455230474472046,0.2573186755180359,1.2051317691802979,-2.1154723167419434,3.272433042526245,-1.7291162014007568,0.38567501306533813,0.760834276676178,0.42000001668930054,-1.1799941062927246,2.999990701675415,-0.2094639539718628,3.0000009536743164,-0.002471751067787409,-0.009133175015449524,-0.015931708738207817,-0.022910060361027718,0.06509237736463547,-0.07174447178840637,-0.2033907175064087,-0.32972148060798645
0.15,0.07548346370458603,0.09445253014564514,0.0,0.9963175058364868,0.0,0.0,-0.08574063330888748,0.46166446805000305,0.6932715177536011,0.0,0.0,0.0,-1.627003788948059,-0.4459152817726135,0.6753719449043274,0.4200000464916229,1.0,3.518902531141066e-06,-2.2830295165476855e-06,-3.6254127167012484e-07,0.00026618444826453924,0.0002673573326319456,-0.00010425667278468609,-0.0017350013367831707,0.004195848014205694,-0.00012861085997428745,-0.2931816577911377,0.30671223998069763,1.1730256080627441,-2.2479538917541504,3.1426172256469727,-2.0752885341644287,0.38567501306533813,0.760834276676178,0.42000001668930054,-1.1340409517288208,2.5197675228118896,-0.24081552028656006,-3.0,-0.006179810967296362,-0.014517536386847496,-0.022924227640032768,-0.031441863626241684,-0.3425886631011963,-0.4292472302913666,-0.5119640231132507,-0.5905713438987732
0.16666666666666666,0.080309197306633,0.10755568742752075,0.0,0.9929192662239075,0.0,0.0,-0.1187908723950386,0.21843530237674713,0.8421921133995056,0.0,0.0,0.0,-4.7813825607299805,-0.4459152817726135,0.6753719449043274,0.4200000464916229,1.0,3.666584689199226e-06,-2.339098045922583e-06,-3.1500240993409534e-07,0.0002659575256984681,0.0002666731015779078,-0.0001040350180119276,-0.0017252173274755478,0.004192683845758438,-0.0001277871197089553,-0.3317469656467438,0.36229586601257324,1.1325185298919678,-2.252434730529785,3.55405855178833,-2.789872646331787,0.38567501306533813,0.760834276676178,0.42000001668930054,-1.0856367349624634,2.999997854232788,-0.2256612926721573,3.000000238418579,-0.013761628419160843,-0.023246120661497116,-0.0327250137925148,-0.04223831743001938,-0.541046679019928,-0.5882027745246887,-0.6311668753623962,-0.6698771715164185
0.18333333333333332,0.08201263844966888,0.11911725252866745,0.0,0.9840437769889832,0.0,0.0,-0.1779264509677887,0.054616041481494904,0.6306860446929932,0.0,0.0,0.0,-8.10988712310791,-0.4459152817726135,0.6753719449043274,0.4200000464916229,1.0,3.8142836729093688e-06,-2.399496452198946e-06,-2.702646497709793e-07,0.00026548950700089335,0.0002661104954313487,-0.00010391208343207836,-0.001717735081911087,0.004184732213616371,-0.00012753855844493955,-0.3664169907569885,0.42747771739959717,1.0796253681182861,-1.7853734493255615,4.2244672775268555,-3.4928998947143555,0.38567501306533813,0.760834276676178,0.42000001668930054,-1.038494348526001,2.646352767944336,-0.25693508982658386,-3.0000007152557373,-0.024581318721175194,-0.03462108597159386,-0.04458562657237053,-0.05451584979891777,-0.7290562391281128,-0.7458951473236084,-0.759181559085846,-0.769026517868042
0.2,0.0872032567858696,0.13072696328163147,0.0,0.9758062362670898,0.0,0.0,-0.21863721311092377,0.32200390100479126,0.7069831490516663,0.0,0.0,0.0,-3.8745384216308594,-0.4459152817726135,0.6753719449043274,0.4200000464916229,1.0,3.5999546525999904e-06,-2.29117563321779e-06,-2.201807944857137e-07,0.00026573013747110963,0.0002664492931216955,-0.00010398216545581818,-0.0017227286007255316,0.004188793711364269,-0.00012772979971487075,-0.39953121542930603,0.4916534125804901,1.0138370990753174,-1.7486255168914795,3.923356056213379,-4.406176567077637,0.38567501306533813,0.760834276676178,0.42000001668930054,-0.9924364686012268,2.826143503189087,-0.3069624602794647,-3.0000014305114746,-0.036798615008592606,-0.04658930003643036,-0.05626924708485603,-0.06588597595691681,-0.8804673552513123,-0.826606273651123,-0.772739589214325,-0.719439685344696
0.21666666666666667,0.08860897272825241,0.1404838263988495,0.0,0.9739592671394348,0.0,0.0,-0.22672303020954132,0.05416809022426605,0.4561448395252228,0.0,0.0,0.0,0.1726892590522766,-0.4459152817726135,0.6753719449043274,0.4200000464916229,0.9999999403953552,3.639532678789692e-06,-2.2619306037086062e-06,2.2248445930017624e-07,0.0002668747038114816,0.00026754592545330524,-0.00010411953553557396,-0.0017404153477400541,0.004211057908833027,-0.00012783646525349468,-0.43005532026290894,0.5454883575439453,0.9333446025848389,-1.6176202297210693,2.9991750717163086,-5.156870365142822,0.38567501306533813,0.760834276676178,0.42000001668930054,-0.9424523115158081,3.000000238418579,-0.35699114203453064,-2.9999988079071045,-0.052342139184474945,-0.0620221309363842,-0.07153336703777313,-0.08090012520551682,-0.9373441934585571,-0.911656379699707,-0.8865134119987488,-0.8615879416465759
0.23333333333333334,0.08613115549087524,0.15071576833724976,0.0,0.9690496325492859,0.0,0.0,-0.2468658983707428,-0.20471984148025513,0.6242220401763916,0.0,0.0,0.0,-3.336982011795044,-0.44591525197029114,0.6753719449043274,0.4200000464916229,1.0,3.420603889026097e-06,-2.316783593414584e-06,2.955996194486943e-07,0.0002668003144208342,0.00026803926448337734,-0.00010442547500133514,-0.0017437470378354192,0.004206856247037649,-0.00012899252760689706,-0.4533233642578125,0.5932413339614868,0.8408551216125488,-1.1750504970550537,2.6426730155944824,-5.770827293395996,0.38567501306533813,0.760834276676178,0.42000001668930054,-0.8924418091773987,3.000002145767212,-0.407021701335907,-3.0000007152557373,-0.06856944411993027,-0.0782991275191307,-0.08783182501792908,-0.09718494862318039,-0.989619791507721,-0.9917289614677429,-0.9906366467475891,-0.9808427691459656
0.25,0.08863912522792816,0.15661722421646118,0.0,0.9636510610580444,0.0,0.0,-0.26716405153274536,0.1400124579668045,0.2954820990562439,0.0,0.0,0.0,-1.840272068977356,-0.4459152817726135,0.6753719449043274,0.4200000464916229,0.9999999403953552,3.3474857445980888e-06,-2.259099801449338e-06,1.8085007980062073e-07,0.0002668778761290014,0.0002679106255527586,-0.00010439264588057995,-0.0017403945093974471,0.004208182916045189,-0.00012870083446614444,-0.47109606862068176,0.6320881247520447,0.7408221960067749,-0.716896653175354,1.924025535583496,-6.228318214416504,0.38567501306533813,0.760834276676178,0.42000001668930054,-0.8424314856529236,2.999999523162842,-0.45705336332321167,-2.9999988079071045,-0.08333340287208557,-0.09297773987054825,-0.10215476155281067,-0.11099867522716522,-1.0000300407409668,-1.0000094175338745,-1.0000005960464478,-0.9984460473060608
0.26666666666666666,0.08583793044090271,0.16008414328098297,0.0,0.9530631303787231,0.0,0.0,-0.3027716875076294,-0.2657894492149353,0.14535005390644073,0.0,0.0,0.0,-5.334166526794434,-0.4459152817726135,0.6753719449043274,0.4200000464916229,0.9999999403953552,3.5355067211639835e-06,-2.300224196005729e-06,-1.268352605166001e-07,0.00026601649005897343,0.00026712138787843287,-0.00010419590398669243,-0.0017317088786512613,0.004192848689854145,-0.00012849301856476814,-0.4750494360923767,0.6548327803611755,0.6341161727905273,0.2778795659542084,0.8696547746658325,-6.3407063484191895,0.38567501306533813,0.760834276676178,0.42000001668930054,-0.7924225926399231,3.0000016689300537,-0.5070846676826477,-3.0,-0.10121310502290726,-0.11053428798913956,-0.11946713179349899,-0.12811985611915588,-1.0038326978683472,-1.0028772354125977,-1.0021514892578125,-1.0015748739242554
0.2833333333333333,0.08701661229133606,0.1598539501428604,0.0,0.9478252530097961,0.0,0.0,-0.3187903165817261,0.0932835042476654,-0.07878831028938293,0.0,0.0,0.0,-0.7315378785133362,-0.4459152817726135,0.6753720045089722,0.4200000464916229,1.0,3.5932616810896434e-06,-2.262525640617241e-06,-5.6512288182375414e-08,0.0002670471731107682,0.0002677500306162983,-0.00010416633449494839,-0.0017431105952709913,0.004214080516248941,-0.00012789359607268125,-0.47071170806884766,0.6668604016304016,0.5339239239692688,0.5091146230697632,0.41964197158813477,-5.691126823425293,0.38567501306533813,0.760834276676178,0.42000001668930054,-0.7424138188362122,3.0000011920928955,-0.5571144223213196,-3.000000476837158,-0.11708147823810577,-0.1265329122543335,-0.13562726974487305,-0.14438532292842865,-1.0431830883026123,-1.0326037406921387,-1.024542212486267,-1.01810622215271
0.3,0.08387546241283417,0.1579837054014206,0.0,0.9525788426399231,0.0,0.0,-0.30429190397262573,-0.2752765715122223,-0.1595810502767563,0.0,0.0,0.0,2.750206708908081,-0.44591525197029114,0.6753719449043274,0.4200000464916229,0.9999999403953552,3.724804400917492e-06,-2.235953161289217e-06,3.8291349824248755e-07,0.0002647969813551754,0.000266731163719669,-0.00010454165749251842,-0.0017189544159919024,0.0041666291654109955,-0.0001301672455156222,-0.46089452505111694,0.6702877283096313,0.44881153106689453,0.7947655916213989,0.02450902760028839,-4.782684326171875,0.38567501306533813,0.760834276676178,0.42000001668930054,-0.6924268007278442,3.000000476837158,-0.6071418523788452,-3.000002384185791,-0.1350049376487732,-0.14416420459747314,-0.15304063260555267,-0.16162808239459991,-1.010647177696228,-1.0080734491348267,-1.0061060190200806,-1.004526138305664
0.31666666666666665,0.07923495769500732,0.15338781476020813,0.0,0.9521092772483826,0.0,0.0,-0.30575788021087646,-0.29746073484420776,-0.31840506196022034,0.0,0.0,0.0,-1.1103111505508423,-0.44605836272239685,0.6740727424621582,0.4203391373157501,0.9996137619018555,0.008475509472191334,4.428131796885282e-05,-0.02646554820239544,0.006884650327265263,0.00882526021450758,-0.030269289389252663,-1.5181459188461304,0.003865285776555538,1.740532636642456,-0.45446616411209106,0.6716610789299011,0.4208735227584839,0.39775750041007996,0.28498852252960205,-0.11189577728509903,0.38567501306533813,0.760834276676178,0.42000001668930054,-0.6425558924674988,2.9851627349853516,-0.6577332019805908,-2.7939796447753906,-0.1431812345981598,-0.15301121771335602,-0.16221846640110016,-0.17076055705547333,-0.24981039762496948,-0.2808665335178375,-0.27911102771759033,-0.24248231947422028
0.3333333333333333,0.07256244868040085,0.1465928852558136,0.0,0.9561718106269836,0.0,0.0,-0.2928062081336975,-0.4486319124698639,-0.4462682604789734,0.0,0.0,0.0,2.4925005435943604,-0.44456449151039124,0.676396369934082,0.4203862249851227,0.998928427696228,0.009615613147616386,-0.000219164154259488,-0.045270293951034546,0.2978190779685974,0.4277336895465851,0.08275261521339417,4.274270057678223,-0.27900803089141846,-8.691306114196777,-0.4505409002304077,0.679511547088623,0.4259369373321533,0.32742148637771606,0.5203147530555725,-0.14699894189834595,0.38567501306533813,0.760834276676178,0.42000001668930054,-0.5925496220588684,2.9999799728393555,-0.7077746391296387,-3.0000064373016357,-0.14780928194522858,-0.1575261801481247,-0.16610878705978394,-0.17349427938461304,-0.37162670493125916,-0.3270404040813446,-0.2582634687423706,-0.1649024337530136
0.35,0.06345617771148682,0.13753028213977814,0.0,0.9552299976348877,0.0,0.0,-0.2958642542362213,-0.5886285305023193,-0.5845236778259277,0.0,0.0,0.0,-1.3274673223495483,-0.4397938549518585,0.6832605600357056,0.42039433121681213,0.9934998750686646,0.009843312203884125,-0.0013168706791475415,-0.11339875310659409,0.28225457668304443,0.4066275954246521,-0.026830976828932762,-1.3678241968154907,0.22130732238292694,-8.02546501159668,-0.44367146492004395,0.6877425909042358,0.4237942695617676,0.5442379713058472,0.5619875192642212,-0.1262935847043991,0.38567501306533813,0.760834276676178,0.42000001668930054,-0.5425447225570679,2.999983072280884,-0.757824718952179,-2.999993324279785,-0.15477877855300903,-0.16341632604599,-0.17051808536052704,-0.17602494359016418,-0.43573012948036194,-0.35014471411705017,-0.24363423883914948,-0.11687454581260681
0.36666666666666664,0.05167045444250107,0.12617799639701843,0.0,0.9457175135612488,0.0,0.0,-0.32498985528945923,-0.7612423300743103,-0.7244192957878113,0.0,0.0,0.0,-4.720146179199219,-0.4307219386100769,0.6952452659606934,0.42002084851264954,0.9884808659553528,-0.000509378151036799,6.260105146793649e-05,-0.15134507417678833,0.731285572052002,0.946816086769104,0.012058588676154613,-0.5955320596694946,0.19762741029262543,-3.1427717208862305,-0.433542400598526,0.6988850831985474,0.42224663496017456,0.7393699288368225,0.8346374034881592,-0.055657755583524704,0.38567501306533813,0.760834276676178,0.42000001668930054,-0.49254003167152405,2.9999840259552,-0.8078726530075073,-2.999958038330078,-0.1618766188621521,-0.16891662776470184,-0.17402352392673492,-0.1771552711725235,-0.4020732641220093,-0.2921556234359741,-0.15893085300922394,-0.003722015768289566
0.3833333333333333,0.04207456856966019,0.11179488897323608,0.0,0.9252808094024658,0.0,0.0,-0.37928277254104614,-0.5042545199394226,-0.9206627607345581,0.0,0.0,0.0,-7.759359836578369,-0.4149114489555359,0.7173123359680176,0.4212329089641571,0.9839747548103333,0.013217199593782425,-0.017406238242983818,-0.176962748169899,1.2162246704101562,1.6928404569625854,0.20181527733802795,5.0817551612854,-5.490456581115723,-3.5430757999420166,-0.4178202152252197,0.7186915874481201,0.4229455888271332,1.257676601409912,1.624078392982483,0.1180577278137207,0.38567501306533813,0.760834276676178,0.42000001668930054,-0.44253629446029663,3.0000011920928955,-0.8579241037368774,-2.9997565746307373,-0.16865110397338867,-0.17359085381031036,-0.17618703842163086,-0.1764303594827652,-0.3802291452884674,-0.2441556602716446,-0.08466567099094391,0.09599953144788742
0.4,0.03531334921717644,0.09746106714010239,0.0,0.8899973630905151,0.0,0.0,-0.45596563816070557,-0.36863067746162415,-0.8131950497627258,0.0,0.0,0.0,-11.018643379211426,-0.369748592376709,0.7559146881103516,0.4252640902996063,0.9731585383415222,0.04921482503414154,-0.04923652857542038,-0.21935351192951202,4.026180267333984,3.18611741065979,0.19514156877994537,32.48157501220703,-14.804206848144531,4.709266662597656,-0.37296080589294434,0.758203387260437,0.4269031584262848,3.8259224891662598,2.9987223148345947,0.40826416015625,0.38567501306533813,0.760834276676178,0.42000001668930054,-0.39949339628219604,1.669969081878662,-0.8212062120437622,2.9945383071899414,-0.18067316710948944,-0.18141183257102966,-0.17962555587291718,-0.17540183663368225,-0.8301222324371338,-0.5365892052650452,-0.24092541635036469,0.049801986664533615
0.4166666666666667,0.030763069167733192,0.08918130397796631,0.0,0.8362313508987427,0.0,0.0,-0.5483767986297607,-0.18098270893096924,-0.5429457426071167,0.0,0.0,0.0,-13.441590309143066,-0.28041383624076843,0.810945987701416,0.4319661855697632,0.9489338397979736,0.09188271313905716,-0.07663854956626892,-0.29190513491630554,6.694518089294434,3.471820592880249,0.44013699889183044,1.2972354888916016,-6.087920188903809,2.6778464317321777,-0.283450722694397,0.8138006329536438,0.4337133765220642,6.46240234375,3.7905397415161133,0.5035953521728516,0.38567501306533813,0.760834276676178,0.42000001668930054,-0.3813024163246155,1.0208510160446167,-0.8418304920196533,-3.0000011920928955,-0.19611410796642303,-0.1958586722612381,-0.18924084305763245,-0.1791049689054489,-0.5527346730232239,-0.6332571506500244,-0.5184678435325623,-0.2379404753446579
0.43333333333333335,0.024097014218568802,0.08440164476633072,0.0,0.7886103391647339,0.0,0.0,-0.6148932576179504,-0.3814319372177124,-0.24189770221710205,0.0,0.0,0.0,-8.485814094543457,-0.17198306322097778,0.8611997961997986,0.44172000885009766,0.9024623036384583,0.15793870389461517,-0.10461579263210297,-0.38687533140182495,6.899845123291016,1.9751862287521362,0.6671850681304932,-7.983977794647217,-5.031226634979248,-3.652918815612793,-0.1757219433784485,0.8659166693687439,0.44312965869903564,6.619664192199707,2.600431442260742,0.5690326690673828,0.38567501306533813,0.760834276676178,0.42000001668930054,-0.36336588859558105,1.0762299299240112,-0.8048858046531677,3.000002861022949,-0.21028324961662292,-0.20993880927562714,-0.20095977187156677,-0.18545514345169067,-0.7032852172851562,-0.7299313545227051,-0.6680367588996887,-0.3854471445083618
0.45,0.0219412911683321,0.0741201788187027,0.0,0.7596273422241211,0.0,0.0,-0.6503585577011108,-0.15143388509750366,-0.6283634901046753,0.0,0.0,0.0,-4.215709209442139,-0.060134608298540115,0.8926214575767517,0.4517778158187866,0.8374792337417603,0.17932893335819244,-0.11466488242149353,-0.5033106207847595,6.983229637145996,0.7327916026115417,0.631476879119873,6.405689716339111,-5.883856296539307,-0.443574994802475,-0.06558689475059509,0.8989601731300354,0.45192819833755493,6.529025554656982,1.043763279914856,0.625302791595459,0.38567501306533813,0.760834276676178,0.42000001668930054,-0.3461596667766571,0.8683618307113647,-0.8313795924186707,-2.9999992847442627,-0.2199842631816864,-0.2185322642326355,-0.20751288533210754,-0.1871880441904068,-0.7941591739654541,-0.6050358414649963,-0.3896196186542511,-0.05805251747369766
0.4666666666666667,0.017223522067070007,0.07007899880409241,0.0,0.7528760433197021,0.0,0.0,-0.6581623554229736,-0.2504750192165375,-0.15247294306755066,0.0,0.0,0.0,-0.14400939643383026,0.042316459119319916,0.8974792957305908,0.46032872796058655,0.7774910926818848,0.16401146352291107,-0.1066833958029747,-0.5976842641830444,5.408451080322266,-0.8372018337249756,0.16980455815792084,-5.159569263458252,-11.059252738952637,14.177913665771484,0.03745359927415848,0.9059630632400513,0.46058714389801025,5.751045227050781,-0.06241282820701599,0.47781598567962646,0.38567501306533813,0.760834276676178,0.42000001668930054,-0.33438390493392944,0.6343017220497131,-0.8814055323600769,-3.000002145767212,-0.23483702540397644,-0.23245449364185333,-0.2171107530593872,-0.19085131585597992,-0.6391720175743103,-0.6860485076904297,-0.5003078579902649,-0.21407800912857056
0.48333333333333334,0.016182400286197662,0.062047556042671204,0.0,0.7375645041465759,0.0,0.0,-0.6752766966819763,-0.046530839055776596,-0.5314094424247742,0.0,0.0,0.0,-3.5562169551849365,0.12920427322387695,0.8878083825111389,0.46330633759498596,0.7177785634994507,0.147576704621315,-0.10579422861337662,-0.6721774339675903,4.582067966461182,-1.9981374740600586,-0.09947027266025543,-21.38480567932129,-9.325066566467285,22.91147232055664,0.1253846138715744,0.898085355758667,0.4638342261314392,5.07116174697876,-1.0217244625091553,0.19729973375797272,0.38567501306533813,0.760834276676178,0.42000001668930054,-0.32605791091918945,0.28323543071746826,-0.9314310550689697,-3.0000033378601074,-0.2400413304567337,-0.23834899067878723,-0.22034376859664917,-0.19033896923065186,-0.05730258673429489,-0.33787307143211365,-0.1414952129125595,0.08234729617834091
0.5,0.017307400703430176,0.05891171097755432,0.0,0.7340180277824402,0.0,0.0,-0.6791300177574158,0.09244987368583679,-0.1425500065088272,0.0,0.0,0.0,0.2870972156524658,0.20600345730781555,0.8624188899993896,0.4616285562515259,0.6266529560089111,0.08686869591474533,-0.13161985576152802,-0.7631749510765076,4.178449630737305,-2.0001280307769775,-0.4848361015319824,-24.885826110839844,8.661865234375,-10.5408935546875,0.2010755091905594,0.8740864992141724,0.46392822265625,4.27189302444458,-1.6482473611831665,-0.019832484424114227,0.38567501306533813,0.760834276676178,0.42000001668930054,-0.3201940953731537,0.4771934151649475,-0.9814550876617432,-2.9998719692230225,-0.2397698163986206,-0.23974493145942688,-0.2259083390235901,-0.19269655644893646,0.11636872589588165,0.11306584626436234,-0.18301892280578613,-0.09454028308391571
0.5166666666666666,0.02117721550166607,0.05239630118012428,0.0,0.7211118340492249,0.0,0.0,-0.6928187012672424,0.2814761698246002,-0.4467153251171112,0.0,0.0,0.0,-2.966770887374878,0.26904284954071045,0.835657000541687,0.4540064036846161,0.5843998193740845,0.04760809615254402,-0.11692966520786285,-0.8015844821929932,3.3149871826171875,-1.9621307849884033,-0.5094271302223206,-3.693570613861084,-3.3801376819610596,0.2772325277328491,0.26538339257240295,0.8484774231910706,0.45735257863998413,3.3921689987182617,-1.6544790267944336,-0.5616503357887268,0.38567501306533813,0.760834276676178,0.42000001668930054,-0.3075650632381439,0.9310762882232666,-1.031477928161621,-3.00000262260437,-0.23377719521522522,-0.23415996134281158,-0.22528289258480072,-0.19237910211086273,0.32206833362579346,0.3318333327770233,0.08307038247585297,0.0142847103998065
0.5333333333333333,0.02754295989871025,0.04937560483813286,0.0,0.7204983830451965,0.0,0.0,-0.6934565901756287,0.4101172387599945,-0.15573149919509888,0.0,0.0,0.0,0.7406810522079468,0.3168836534023285,0.8068721294403076,0.4423812925815582,0.545630931854248,0.015447859652340412,-0.10857223719358444,-0.8308189511299133,2.3184211254119873,-2.204939365386963,-0.6202630996704102,8.138358116149902,10.678242683410645,6.897706031799316,0.3141816258430481,0.8185975551605225,0.4461561441421509,2.517345428466797,-1.7749874591827393,-0.7993836402893066,0.38567501306533813,0.760834276676178,0.42000001668930054,-0.2937462627887726,0.6890013813972473,-1.0815000534057617,-2.999394416809082,-0.23025085031986237,-0.22996632754802704,-0.22439494729042053,-0.19326837360858917,0.3312629759311676,0.3458598852157593,0.147273451089859,-0.02765083685517311
0.55,0.03575676307082176,0.04924406856298447,0.0,0.7103309631347656,0.0,0.0,-0.7038678526878357,0.5414853096008301,0.04693188890814781,0.0,0.0,0.0,-2.6317296028137207,0.3535952866077423,0.7827613353729248,0.42417043447494507,0.5256600975990295,-0.022363100200891495,-0.09530160576105118,-0.8450436592102051,1.786718726158142,-1.659867525100708,-1.0925596952438354,-1.0692265033721924,5.756232261657715,5.029061317443848,0.3511621654033661,0.7938610315322876,0.4281683564186096,1.8958110809326172,-1.3150722980499268,-1.2252568006515503,0.38567501306533813,0.760834276676178,0.42000001668930054,-0.283276230096817,0.5949792265892029,-1.1315221786499023,-2.9999992847442627,-0.22245262563228607,-0.22294451296329498,-0.22115059196949005,-0.19425827264785767,0.5299662351608276,0.46196413040161133,0.2376718521118164,-0.06347325444221497
0.5666666666666667,0.041639771312475204,0.04486619308590889,0.0,0.7115395665168762,0.0,0.0,-0.702646017074585,0.2968043088912964,-0.25774022936820984,0.0,0.0,0.0,1.0135067701339722,0.37361347675323486,0.7699723839759827,0.4200057089328766,0.49281108379364014,-0.0003906967758666724,0.0005553383962251246,-0.8701360821723938,0.8249356746673584,-0.8122417330741882,-0.0007053242297843099,-0.012750055640935898,-0.03623121976852417,-4.100025177001953,0.3692663908004761,0.7783211469650269,0.4231777787208557,0.6322563290596008,-0.801598310470581,0.11586926877498627,0.38567501306533813,0.760834276676178,0.42000001668930054,-0.2713465690612793,1.1286252737045288,-1.181546926498413,-2.9969961643218994,-0.2103211134672165,-0.21209995448589325,-0.21381227672100067,-0.19231121242046356,0.5190895795822144,0.49850788712501526,0.35245606303215027,0.05365748703479767
0.5833333333333334,0.04910340905189514,0.04504598677158356,0.0,0.7020009756088257,0.0,0.0,-0.7121759653091431,0.45097488164901733,0.002059363527223468,0.0,0.0,0.0,-2.362541675567627,0.3813398480415344,0.763375461101532,0.4200302064418793,0.5469222068786621,-0.00041737130959518254,0.0009212016011588275,-0.8371827602386475,0.19846870005130768,-0.5718641877174377,0.0810767188668251,4.866483688354492,-6.5259881019592285,4.097675800323486,0.3772598206996918,0.7693835496902466,0.42280423641204834,0.290560245513916,-0.2140669971704483,0.03536880388855934,0.38567501306533813,0.760834276676178,0.42000001668930054,-0.2470744401216507,1.5850447416305542,-1.1457080841064453,2.995030641555786,-0.20299753546714783,-0.20529788732528687,-0.20918630063533783,-0.1927708387374878,0.5820816159248352,0.5096684098243713,0.36493998765945435,0.03433210402727127
0.6,0.05366645008325577,0.04089463874697685,0.0,0.7043978571891785,0.0,0.0,-0.7098053693771362,0.23062041401863098,-0.26842111349105835,0.0,0.0,0.0,1.2186890840530396,0.383035808801651,0.7560293078422546,0.42125198245048523,0.5641577243804932,-0.016820335760712624,0.025705650448799133,-0.8250952959060669,-0.07388854771852493,-0.6726697087287903,0.2134428322315216,4.12642765045166,9.78242301940918,-0.09400897473096848,0.3790971636772156,0.7624262571334839,0.42291486263275146,-0.0446959026157856,-0.4660322070121765,0.11519990861415863,0.38567501306533813,0.760834276676178,0.42000001668930054,-0.2782552242279053,-2.999999761581421,-1.1680816411972046,-2.99947190284729,-0.19349399209022522,-0.1964941918849945,-0.20202438533306122,-0.1906171441078186,0.39106079936027527,0.39513668417930603,0.35590454936027527,0.10226309299468994
0.6166666666666667,0.05917121097445488,0.04043729230761528,0.0,0.6962774991989136,0.0,0.0,-0.7177726626396179,0.3570789694786072,-0.009992682375013828,0.0,0.0,0.0,-2.1505095958709717,0.3828775882720947,0.7502052187919617,0.42337724566459656,0.5638355016708374,-0.0530911460518837,0.06977132707834244,-0.8212202787399292,0.11720295995473862,0.08105766773223877,0.11990176141262054,-1.2151278257369995,4.495126247406006,1.5046405792236328,0.3796546161174774,0.7609415054321289,0.4250633716583252,0.13955989480018616,0.12917989492416382,0.15664371848106384,0.38567501306533813,0.760834276676178,0.42000001668930054,-0.309733122587204,-0.9326345920562744,-1.2180250883102417,-2.998267412185669,-0.18665359914302826,-0.19016200304031372,-0.19654539227485657,-0.18943777680397034,0.5931954383850098,0.5099717378616333,0.4254798889160156,0.14430738985538483
0.6333333333333333,0.06663444638252258,0.03722374886274338,0.0,0.7001284956932068,0.0,0.0,-0.714016854763031,0.4745286703109741,-0.25293922424316406,0.0,0.0,0.0,1.490554928779602,0.3842372000217438,0.7512998580932617,0.42406460642814636,0.5643507242202759,-0.06711788475513458,0.06862195581197739,-0.8199356198310852,0.004576914012432098,0.06010262295603752,0.016818339005112648,-1.8988783359527588,-0.663201093673706,0.31689801812171936,0.37911319732666016,0.761383056640625,0.4275554418563843,-0.14828570187091827,-0.0031378697603940964,0.15569360554218292,0.38567501306533813,0.760834276676178,0.42000001668930054,-0.35397452116012573,-2.9999940395355225,-1.2680202722549438,-2.9999868869781494,-0.17786778509616852,-0.1822691112756729,-0.18944738805294037,-0.18638382852077484,0.4062134027481079,0.38563939929008484,0.37610045075416565,0.1745910793542862
0.65,0.0760129764676094,0.03682246059179306,0.0,0.6931068301200867,0.0,0.0,-0.7208348512649536,0.5936633944511414,0.012838039547204971,0.0,0.0,0.0,-2.0629444122314453,0.38400498032569885,0.752069890499115,0.4230811893939972,0.5676520466804504,-0.049918532371520996,0.04864494875073433,-0.8203127384185791,-0.019852211698889732,0.0405203253030777,-0.08319541066884995,-0.42333734035491943,-4.006330490112305,0.3567825257778168,0.37859809398651123,0.7637969851493835,0.4307222366333008,0.03397999703884125,0.21413084864616394,0.2281959354877472,0.38567501306533813,0.760834276676178,0.42000001668930054,-0.40396377444267273,-2.99929141998291,-1.3179829120635986,-2.9992635250091553,-0.17121917009353638,-0.17624413967132568,-0.1836317777633667,-0.1836700737476349,0.4813607335090637,0.42642611265182495,0.40572479367256165,0.22749073803424835
0.6666666666666666,0.08743797987699509,0.03296702355146408,0.0,0.6974997520446777,0.0,0.0,-0.7165849804878235,0.7094907760620117,-0.2503714859485626,0.0,0.0,0.0,1.6572673320770264,0.3831923007965088,0.7526441812515259,0.4207035303115845,0.572112500667572,-0.009698676876723766,0.013820162042975426,-0.8200012445449829,-0.07096894830465317,0.043270256370306015,-0.1367369294166565,-2.6448798179626465,-7.094662666320801,0.25478848814964294,0.37700900435447693,0.7663145065307617,0.43950754404067993,-0.23623672127723694,0.07612625509500504,0.8649595975875854,0.38567501306533813,0.760834276676178,0.42000001668930054,-0.45397716760635376,-3.0000007152557373,-1.3680013418197632,-2.999999761581421,-0.16430844366550446,-0.16956286132335663,-0.1764989197254181,-0.1784491389989853,0.21401800215244293,0.25644612312316895,0.3433193266391754,0.30131638050079346
0.6833333333333333,0.09906574338674545,0.032617416232824326,0.0,0.6911067962646484,0.0,0.0,-0.7227526903152466,0.6904579401016235,0.012329270131886005,0.0,0.0,0.0,-1.9827170372009277,0.38250014185905457,0.7528969049453735,0.4199998676776886,0.5723522901535034,-2.7105774279334582e-05,1.2145902701377054e-06,-0.820007860660553,-0.0020357321482151747,-0.00011641944729490206,-0.0009534713462926447,-0.010015356354415417,0.004252600017935038,0.004365263972431421,0.37930062413215637,0.7682509422302246,0.452647864818573,0.49309563636779785,0.1392788141965866,0.8516490459442139,0.38567501306533813,0.760834276676178,0.42000001668930054,-0.5039900541305542,-2.9999985694885254,-1.4180196523666382,-2.999999523162842,-0.16243711113929749,-0.16687573492527008,-0.17213572561740875,-0.1742151826620102,0.1563817411661148,0.1945679932832718,0.2900582551956177,0.29666560888290405
0.7,0.11217744648456573,0.028580954298377037,0.0,0.6641165614128113,0.0,0.0,-0.7476290464401245,0.8238887786865234,-0.2909666895866394,0.0,0.0,0.0,-5.221409320831299,0.3824969530105591,0.7528965473175049,0.41999995708465576,0.5723544955253601,-9.172713362204377e-07,-5.867323579877848e-06,-0.8200063109397888,0.00012645377137232572,-0.0003984998620580882,-7.535493932664394e-05,0.010194034315645695,-0.003119840519502759,-0.001021037925966084,0.39137351512908936,0.771653950214386,0.47359830141067505,0.9211101531982422,0.16463452577590942,1.7922663688659668,0.38567501306533813,0.760834276676178,0.42000001668930054,-0.5540026426315308,-2.999964952468872,-1.4680379629135132,-2.9999988079071045,-0.16062335669994354,-0.16419732570648193,-0.16767142713069916,-0.16923260688781738,-0.05441640689969063,0.033519111573696136,0.17228762805461884,0.24405606091022491
0.7166666666666667,0.12305653840303421,0.027731580659747124,0.0,0.6506065130233765,0.0,0.0,-0.7594150304794312,0.5689337849617004,-0.043985117226839066,0.0,0.0,0.0,-1.0952644348144531,0.38249701261520386,0.7528966069221497,0.41999995708465576,0.5723544359207153,-1.561967792440555e-06,-5.501539817487355e-06,-0.8200063109397888,9.696020424598828e-05,-0.0003935912100132555,-7.68476165831089e-05,0.009929643012583256,-0.0029454315081238747,-0.000938119541388005,0.40766650438308716,0.7771551609039307,0.5075337886810303,1.0767459869384766,0.545425295829773,2.2355093955993652,0.38567501306533813,0.760834276676178,0.42000001668930054,-0.5746863484382629,0.2517144978046417,-1.5180562734603882,-2.9999990463256836,-0.16376224160194397,-0.16597135365009308,-0.16739986836910248,-0.16794650256633759,-0.058188363909721375,-0.03423020988702774,0.02563469298183918,0.034111522138118744
0.7333333333333333,0.1294621378183365,0.029216831550002098,0.0,0.6607022881507874,0.0,0.0,-0.750648021697998,0.32104572653770447,0.1432633250951767,0.0,0.0,0.0,2.441725492477417,0.38249701261520386,0.7528966069221497,0.41999995708465576,0.5723544955253601,-1.557113364469842e-06,-5.50437380297808e-06,-0.820006251335144,9.701710951048881e-05,-0.0003939058806281537,-7.689069025218487e-05,0.009938457980751991,-0.002951744245365262,-0.0009389694896526635,0.42420342564582825,0.783655047416687,0.5381203889846802,0.850853443145752,0.2933778464794159,1.519556999206543,0.38567501306533813,0.760834276676178,0.42000001668930054,-0.5529208183288574,2.172776937484741,-1.4792722463607788,2.999999523162842,-0.1647288054227829,-0.1663333773612976,-0.16665467619895935,-0.16682258248329163,-0.030191490426659584,0.013000424951314926,0.07973448187112808,0.10873622447252274
0.75,0.13207843899726868,0.027192678302526474,0.0,0.6583753824234009,0.0,0.0,-0.752689778804779,0.11031514406204224,-0.20747308433055878,0.0,0.0,0.0,-1.2634103298187256,0.38249701261520386,0.7528966069221497,0.41999995708465576,0.5723544359207153,-1.479606680732104e-06,-5.464425157697406e-06,-0.8200063109397888,9.72270718193613e-05,-0.00039398280205205083,-7.687951438128948e-05,0.009941563941538334,-0.002951416652649641,-0.0009395217057317495,0.430989533662796,0.7875874042510986,0.556588888168335,-0.03385889530181885,0.15023934841156006,0.8720308542251587,0.38567501306533813,0.760834276676178,0.42000001668930054,-0.5323335528373718,0.43124568462371826,-1.4292157888412476,2.9999988079071045,-0.16434520483016968,-0.16517241299152374,-0.1644372045993805,-0.16408543288707733,0.029872316867113113,0.0876956656575203,0.15483470261096954,0.1932418793439865
0.7666666666666666,0.13128761947155,0.030040400102734566,0.0,0.6673550009727478,0.0,0.0,-0.7447397112846375,-0.060824740678071976,0.15962538123130798,0.0,0.0,0.0,2.1323680877685547,0.38249701261520386,0.7528966069221497,0.41999995708465576,0.5723545551300049,-1.4845360283288755e-06,-5.448006959341001e-06,-0.820006251335144,9.74139038589783e-05,-0.0003940975875593722,-7.689674384891987e-05,0.009944991208612919,-0.0029533999040722847,-0.0009402353316545486,0.4293750524520874,0.7871545553207397,0.5685560703277588,-0.026388250291347504,0.01947619952261448,0.581959068775177,0.38567501306533813,0.760834276676178,0.42000001668930054,-0.5106843709945679,2.0132014751434326,-1.4467700719833374,-2.9999992847442627,-0.1690228283405304,-0.16786524653434753,-0.16514836251735687,-0.16330337524414062,-0.10250650346279144,-0.033618103712797165,0.036561813205480576,0.0889420360326767
0.7833333333333333,0.13197407126426697,0.029425079002976418,0.0,0.6629959344863892,0.0,0.0,-0.7486229538917542,0.06835013628005981,-0.06846359372138977,0.0,0.0,0.0,-1.620991587638855,0.38249701261520386,0.7528966069221497,0.41999995708465576,0.5723544359207153,-1.5584429320369964e-06,-5.582508492807392e-06,-0.8200063109397888,9.702309034764767e-05,-0.000393913418520242,-7.687904872000217e-05,0.009939124807715416,-0.002950633643195033,-0.0009389061015099287,0.42216604948043823,0.788549542427063,0.571064829826355,-0.7986410856246948,0.051974814385175705,-0.09800638258457184,0.38567501306533813,0.760834276676178,0.42000001668930054,-0.5033304691314697,-0.8838171362876892,-1.408192753791809,3.000000238418579,-0.16942676901817322,-0.16745512187480927,-0.16394451260566711,-0.16150230169296265,-0.048765506595373154,0.004327574744820595,0.05190888047218323,0.09036298841238022
0.8,0.13470874726772308,0.03071168251335621,0.0,0.6692533493041992,0.0,0.0,-0.7430342435836792,0.20141221582889557,0.12087240070104599,0.0,0.0,0.0,1.8076094388961792,0.38249698281288147,0.7528966069221497,0.41999995708465576,0.5723544955253601,-1.537530692985456e-06,-5.588685780821834e-06,-0.8200061917304993,9.659380884841084e-05,-0.00039378766086883843,-7.688929326832294e-05,0.009934242814779282,-0.002950261579826474,-0.0009377230308018625,0.41408878564834595,0.7893025875091553,0.5694690942764282,-0.21785768866539001,0.08147013187408447,-0.03621484711766243,0.38567501306533813,0.760834276676178,0.42000001668930054,-0.5056424736976624,0.48825690150260925,-1.426156759262085,-2.999999523162842,-0.1699039787054062,-0.16733597218990326,-0.16322831809520721,-0.16014979779720306,0.027494871988892555,0.04583798348903656,0.06756842881441116,0.10015076398849487
0.8166666666666667,0.13912415504455566,0.028909392654895782,0.0,0.6639333963394165,0.0,0.0,-0.7477917075157166,0.30744582414627075,-0.16217827796936035,0.0,0.0,0.0,-1.7383393049240112,0.38249701261520386,0.7528966069221497,0.41999995708465576,0.5723546147346497,-1.547934971313225e-06,-5.467557002702961e-06,-0.8200061321258545,9.717945795273408e-05,-0.0003935382410418242,-7.68380705267191e-05,0.009928757324814796,-0.0029472254682332277,-0.000938685960136354,0.41130346059799194,0.7898063659667969,0.5651992559432983,-0.1176067665219307,-0.07465267181396484,-0.30782195925712585,0.38567501306533813,0.760834276676178,0.42000001668930054,-0.5363942980766296,-3.000000238418579,-1.3876382112503052,2.9999990463256836,-0.16861571371555328,-0.1658504158258438,-0.16147686541080475,-0.15787026286125183,0.026395710185170174,0.05498794466257095,0.08576614409685135,0.1332872211933136
0.8333333333333334,0.1462128609418869,0.030254347249865532,0.0,0.6530740261077881,0.0,0.0,-0.7572940587997437,0.4497556984424591,0.09797479212284088,0.0,0.0,0.0,-1.7266978025436401,0.38249701261520386,0.7528966069221497,0.41999995708465576,0.5723544359207153,-1.4883881931382348e-06,-5.4549609558307566e-06,-0.8200063705444336,9.743030386744067e-05,-0.0003941234026569873,-7.689837366342545e-05,0.009945722296833992,-0.0029538627713918686,-0.0009403359144926071,0.41341596841812134,0.788072943687439,0.5621399879455566,0.3938235640525818,-0.07104171067476273,0.015678413212299347,0.38567501306533813,0.760834276676178,0.42000001668930054,-0.5758917331695557,-1.8093609809875488,-1.4060121774673462,-3.000000238418579,-0.170145645737648,-0.16678637266159058,-0.16173388063907623,-0.15709049999713898,-0.004015218932181597,0.006650859955698252,0.026778027415275574,0.07505431026220322
0.85,0.15501254796981812,0.028014034032821655,0.0,0.6567733287811279,0.0,0.0,-0.7540880441665649,0.5569556355476379,-0.15795502066612244,0.0,0.0,0.0,2.021031379699707,0.38249701261520386,0.7528966069221497,0.41999995708465576,0.5723544955253601,-1.4708508615512983e-06,-5.440505447040778e-06,-0.8200061917304993,9.7201882454101e-05,-0.0003940681926906109,-7.689790800213814e-05,0.009943668730556965,-0.0029529661405831575,-0.0009396588429808617,0.42063090205192566,0.7867885828018188,0.5634244680404663,0.43718647956848145,-0.16340100765228271,0.19231826066970825,0.38567501306533813,0.760834276676178,0.42000001668930054,-0.600307047367096,-1.1569241285324097,-1.4560304880142212,-2.9999992847442627,-0.16891582310199738,-0.16534458100795746,-0.1599666178226471,-0.1545541137456894,-0.01682691089808941,0.023971742019057274,0.06697122007608414,0.13211819529533386
0.8666666666666667,0.16085955500602722,0.02311505377292633,0.0,0.6530669927597046,0.0,0.0,-0.7573001384735107,0.27468985319137573,-0.38449135422706604,0.0,0.0,0.0,-1.5566235780715942,0.38249701261520386,0.7528966069221497,0.41999995708465576,0.5723544359207153,-1.548320483379939e-06,-5.576166586251929e-06,-0.8200063705444336,9.70285473158583e-05,-0.0003939197340514511,-7.68804457038641e-05,0.009939244017004967,-0.002950770780444145,-0.0009389359038323164,0.4302268922328949,0.7821125388145447,0.5619135499000549,0.6750224232673645,-0.36769750714302063,-0.21227103471755981,0.38567501306533813,0.760834276676178,0.42000001668930054,-0.6207311749458313,-1.2687021493911743,-1.465074062347412,1.5299484729766846,-0.16998372972011566,-0.16548188030719757,-0.15916231274604797,-0.15247243642807007,-0.034920886158943176,0.02310856431722641,0.08028734475374222,0.15588268637657166
0.8833333333333333,0.168259859085083,0.022469207644462585,0.0,0.6596351265907288,0.0,0.0,-0.7515860199928284,0.4256395399570465,0.002007913077250123,0.0,0.0,0.0,1.9922212362289429,0.38249698281288147,0.7528966069221497,0.41999995708465576,0.5723544955253601,-1.5274622455763165e-06,-5.582283392868703e-06,-0.820006251335144,9.65931176324375e-05,-0.00039378562360070646,-7.688929326832294e-05,0.009934085421264172,-0.0029502715915441513,-0.0009377177339047194,0.4386318325996399,0.7758787870407104,0.5622348785400391,0.38268589973449707,-0.19660353660583496,0.24434292316436768,0.38567501306533813,0.760834276676178,0.42000001668930054,-0.6274147033691406,0.3321855366230011,-1.4957000017166138,-3.000000238418579,-0.1742139309644699,-0.16842804849147797,-0.16094046831130981,-0.1528933197259903,-0.10340490192174911,-0.08012891560792923,-0.06191050261259079,-0.030212359502911568
