vladlanda/robotic-transformer/data/env_000_episode_0257.csv
sim_time_s,robot_box_x,robot_box_y,robot_box_z,robot_box_quat_w,robot_box_quat_x,robot_box_quat_y,robot_box_quat_z,robot_box_linvel_x,robot_box_linvel_y,robot_box_linvel_z,robot_box_angvel_x,robot_box_angvel_y,robot_box_angvel_z,cube_world_x,cube_world_y,cube_world_z,cube_quat_w,cube_quat_x,cube_quat_y,cube_quat_z,cube_linvel_x,cube_linvel_y,cube_linvel_z,cube_angvel_x,cube_angvel_y,cube_angvel_z,endpoint_world_x,endpoint_world_y,endpoint_world_z,endpoint_linvel_x,endpoint_linvel_y,endpoint_linvel_z,target_cube_world_x,target_cube_world_y,target_cube_world_z,gripper_actual_pos_rad_gp_leftgearjoint,gripper_actual_vel_rad_s_gp_leftgearjoint,gripper_actual_pos_rad_gp_rotatingjoint,gripper_actual_vel_rad_s_gp_rotatingjoint,motor_angle_rad_joint1,motor_angle_rad_joint2,motor_angle_rad_joint3,motor_angle_rad_joint4,motor_speed_rad_s_joint1,motor_speed_rad_s_joint2,motor_speed_rad_s_joint3,motor_speed_rad_s_joint4
0.0,0.0,0.0,0.0,1.0,0.0,0.0,0.0,0.0,0.0,0.0,0.0,0.0,0.0,-0.3204249441623688,0.6943873167037964,0.41999998688697815,1.0,0.0,0.0,0.0,0.0,0.0,0.0,0.0,0.0,0.0,3.42540442943573e-06,-0.005000244826078415,1.313499927520752,0.0,0.0,0.0,0.3664371967315674,0.7267773151397705,0.42000001668930054,-1.5707999467849731,0.0,0.0,0.0,0.0,0.0,0.0,0.0,0.0,0.0,0.0,0.0
0.016666666666666666,0.002865871647372842,0.0021604644134640694,0.0,0.9998176693916321,0.0,0.0,-0.01909460872411728,0.23898851871490479,0.18027199804782867,0.0,0.0,0.0,-3.1461548805236816,-0.3204250633716583,0.6943870186805725,0.41999998688697815,1.0,3.2799914606584935e-06,-8.339814598912199e-07,8.465387679734704e-08,-1.9833554688375443e-05,0.00017983050202019513,-6.133061833679676e-05,0.0009432226070202887,-0.004689437802881002,-0.0003198152990080416,-0.00697874091565609,0.004108663648366928,1.3159253597259521,-0.7931966781616211,1.0452308654785156,0.17914979159832,0.3664371967315674,0.7267773151397705,0.42000001668930054,-1.5301092863082886,3.00000262260437,-0.045871611684560776,-3.000000476837158,0.0008638864965178072,0.000790530233643949,0.0007050580461509526,0.0006048692739568651,0.1102835088968277,0.09685423225164413,0.08256375044584274,0.06738702952861786
0.03333333333333333,0.008865137584507465,0.0067564621567726135,0.0,0.9998005032539368,0.0,0.0,-0.019974304363131523,0.40248796343803406,0.3143334984779358,0.0,0.0,0.0,0.8681972622871399,-0.3204251825809479,0.6943869590759277,0.4200000464916229,1.0,3.39090593115543e-06,-2.1324372028175276e-06,-3.7106541839193596e-08,0.0002635782293509692,0.0002693790593184531,-0.00010509486310184002,-0.0017707175575196743,0.004130743443965912,-0.00013547750131692737,-0.026385992765426636,0.025690142065286636,1.316793441772461,-1.4695976972579956,1.574197769165039,-0.053674645721912384,0.3664371967315674,0.7267773151397705,0.42000001668930054,-1.4800900220870972,3.000002384185791,-0.09591138362884521,-3.0000007152557373,0.0029161334969103336,0.0025733066722750664,0.0021927515044808388,0.0017710387473925948,0.15870316326618195,0.1340467482805252,0.10790461301803589,0.08018655329942703
0.05,0.01751265674829483,0.013562784530222416,0.0,0.9993869662284851,0.0,0.0,-0.03500954806804657,0.5811679363250732,0.4509524703025818,0.0,0.0,0.0,-2.6360325813293457,-0.32042521238327026,0.6943870186805725,0.4200000464916229,1.0,3.765230758290272e-06,-2.211922264905297e-06,5.6083799826467384e-09,0.0002653090050444007,0.00026691501261666417,-0.00010440615005791187,-0.00172435212880373,0.0041774665005505085,-0.0001294955873163417,-0.05144461989402771,0.05754668638110161,1.312978744506836,-1.5264501571655273,2.2018678188323975,-0.37186068296432495,0.3664371967315674,0.7267773151397705,0.42000001668930054,-1.4300717115402222,2.999997615814209,-0.1459205001592636,-3.0000007152557373,0.005107190925627947,0.00414928887039423,0.003119959030300379,0.0020132865756750107,0.13517539203166962,0.08246183395385742,0.02786872908473015,-0.028647512197494507
0.06666666666666667,0.02968009002506733,0.02284935675561428,0.0,0.9970413446426392,0.0,0.0,-0.07686717808246613,0.7898257374763489,0.6020885705947876,0.0,0.0,0.0,-5.859703063964844,-0.32042521238327026,0.6943869590759277,0.4200000464916229,0.9999999403953552,3.406835730856983e-06,-2.2856456780573353e-06,4.3008122929677484e-07,0.0002670265967026353,0.0002679176104720682,-0.0001043803058564663,-0.0017406701808795333,0.004211854189634323,-0.0001285061298403889,-0.07851790636777878,0.09766533970832825,1.3043344020843506,-1.7026019096374512,2.5744378566741943,-0.6652443408966064,0.3664371967315674,0.7267773151397705,0.42000001668930054,-1.3800488710403442,2.999995470046997,-0.11241479218006134,3.0000007152557373,0.006983693689107895,0.005120565183460712,0.0031468220986425877,0.001056601875461638,0.10887135565280914,0.04937656968832016,-0.012186852283775806,-0.07582323998212814
0.08333333333333333,0.0360475517809391,0.0367986336350441,0.0,0.9948555827140808,0.0,0.0,-0.1013035848736763,0.24660199880599976,0.932672381401062,0.0,0.0,0.0,-1.905293345451355,-0.32042521238327026,0.6943869590759277,0.4200000464916229,1.0,3.6973383430449758e-06,-2.188984808526584e-06,-2.6323331780986337e-07,0.0002638960722833872,0.0002658652374520898,-0.00010433932766318321,-0.0017081378027796745,0.00415008282288909,-0.0001299151626881212,-0.10996070504188538,0.13740912079811096,1.2903045415878296,-1.872157096862793,2.444232702255249,-0.9273659586906433,0.3664371967315674,0.7267773151397705,0.42000001668930054,-1.3300495147705078,3.0000014305114746,-0.1444033980369568,-3.0000009536743164,0.0026807324029505253,0.00020077935187146068,-0.002442091703414917,-0.005257279146462679,-0.36465221643447876,-0.405798077583313,-0.4495629668235779,-0.4962027966976166
0.1,0.04713770002126694,0.04663999378681183,0.0,0.9904628396034241,0.0,0.0,-0.13778015971183777,0.6929171681404114,0.586400032043457,0.0,0.0,0.0,-4.965898513793945,-0.32042521238327026,0.6943869590759277,0.4200000464916229,0.9999999403953552,3.6204280604579253e-06,-2.265225475639454e-06,1.7461863421885937e-07,0.00026676725246943533,0.0002674070419743657,-0.00010408065281808376,-0.0017385295359417796,0.004209065344184637,-0.00012775739014614373,-0.1376274824142456,0.18193672597408295,1.2751208543777466,-1.5042998790740967,3.0316967964172363,-0.9735106825828552,0.3664371967315674,0.7267773151397705,0.42000001668930054,-1.280038833618164,2.9999990463256836,-0.19441479444503784,-3.0000007152557373,0.002515770262107253,-0.001596301794052124,-0.005864002741873264,-0.010296315886080265,-0.16050028800964355,-0.24955718219280243,-0.3390090763568878,-0.4287480115890503
0.11666666666666667,0.0558164156973362,0.05731261149048805,0.0,0.9808052182197571,0.0,0.0,-0.19499006867408752,0.4720468819141388,0.6856039762496948,0.0,0.0,0.0,-7.972738742828369,-0.32042521238327026,0.6943869590759277,0.4200000464916229,1.0,3.7983741094649304e-06,-2.2627561975241406e-06,-1.5019411137018324e-07,0.00026374030858278275,0.00026566023007035255,-0.00010428880341351032,-0.001705368747934699,0.004147524479776621,-0.00012980001338291913,-0.16460177302360535,0.2355593740940094,1.2561557292938232,-1.6151280403137207,3.4676625728607178,-1.2795425653457642,0.3664371967315674,0.7267773151397705,0.42000001668930054,-1.230759620666504,2.8812973499298096,-0.16065390408039093,2.9999990463256836,-0.0005418768269009888,-0.006189103238284588,-0.011971854604780674,-0.01789718121290207,-0.18003326654434204,-0.2718437612056732,-0.36139899492263794,-0.448574960231781
0.13333333333333333,0.062389783561229706,0.06585554033517838,0.0,0.9724540710449219,0.0,0.0,-0.23309460282325745,0.3279498815536499,0.44940343499183655,0.0,0.0,0.0,-3.5506982803344727,-0.32042521238327026,0.6943870186805725,0.4200000464916229,0.9999999403953552,3.550490419002017e-06,-2.2297924715530826e-06,2.9292351655385573e-07,0.0002670329122338444,0.0002677924057934433,-0.00010416773147881031,-0.001743975793942809,0.004213578533381224,-0.0001280030410271138,-0.19719335436820984,0.290520042181015,1.230885624885559,-1.8884122371673584,3.5158724784851074,-1.7430171966552734,0.3664371967315674,0.7267773151397705,0.42000001668930054,-1.1811084747314453,2.999999761581421,-0.1923425942659378,-3.0000007152557373,-0.0032737378496676683,-0.010474304668605328,-0.01775282248854637,-0.02511461451649666,-0.20920032262802124,-0.29396703839302063,-0.3750731348991394,-0.452465295791626
0.15,0.07219608873128891,0.07101141661405563,0.0,0.9595438241958618,0.0,0.0,-0.2815593183040619,0.622255265712738,0.21355412900447845,0.0,0.0,0.0,-6.592733383178711,-0.32042521238327026,0.6943869590759277,0.4200000464916229,0.9999999403953552,3.3380592867615633e-06,-2.2428412194130942e-06,-2.8008338759377693e-08,0.00026674458058550954,0.00026758271269500256,-0.00010427972301840782,-0.0017367512919008732,0.004206824116408825,-0.0001283210440305993,-0.22717945277690887,0.35394415259361267,1.1954915523529053,-1.5959851741790771,4.1627888679504395,-2.453415632247925,0.3664371967315674,0.7267773151397705,0.42000001668930054,-1.131096363067627,2.9999992847442627,-0.15858784317970276,3.0,-0.00687281833961606,-0.01528828777372837,-0.02372821792960167,-0.032197386026382446,-0.364511102437973,-0.4107321798801422,-0.45501917600631714,-0.4973203241825104
0.16666666666666666,0.07660585641860962,0.07874143123626709,0.0,0.9508534669876099,0.0,0.0,-0.3096412420272827,0.26397573947906494,0.4578799307346344,0.0,0.0,0.0,-2.196155548095703,-0.32042521238327026,0.6943870186805725,0.4200000464916229,0.9999999403953552,3.647774974524509e-06,-2.3072600470186444e-06,3.529923020550996e-08,0.00026726865326054394,0.0002680135366972536,-0.00010418612509965897,-0.001747232861816883,0.0042175790295004845,-0.00012798202806152403,-0.25738197565078735,0.4184145927429199,1.1453545093536377,-1.6098129749298096,4.042415618896484,-3.3205673694610596,0.3664371967315674,0.7267773151397705,0.42000001668930054,-1.081099510192871,3.0000016689300537,-0.19029860198497772,-2.999999523162842,-0.0190876517444849,-0.02770053967833519,-0.03631896525621414,-0.044809985905885696,-0.5739949345588684,-0.6291468143463135,-0.6800456643104553,-0.7096497416496277
0.18333333333333332,0.08547072112560272,0.08589957654476166,0.0,0.9373537302017212,0.0,0.0,-0.3483790457248688,0.5372546911239624,0.4818263351917267,0.0,0.0,0.0,-5.713616371154785,-0.32042521238327026,0.6943869590759277,0.4200000464916229,0.9999999403953552,3.2904902127484092e-06,-2.1938533336651744e-06,-2.7920296474803763e-07,0.0002667788357939571,0.0002677598677109927,-0.00010434072464704514,-0.0017390816938132048,0.004206937272101641,-0.00012845655146520585,-0.2820618748664856,0.4873943030834198,1.082429051399231,-1.2300903797149658,4.190690994262695,-4.2340168952941895,0.3664371967315674,0.7267773151397705,0.42000001668930054,-1.031096339225769,2.999999761581421,-0.24032600224018097,-3.000000238418579,-0.02742333523929119,-0.03678111732006073,-0.04607770964503288,-0.054952189326286316,-0.7145829796791077,-0.713354229927063,-0.7106473445892334,-0.6958438754081726
0.2,0.0914238840341568,0.09182019531726837,0.0,0.9296684265136719,0.0,0.0,-0.36839738488197327,0.30620816349983215,0.2626075744628906,0.0,0.0,0.0,-1.3844165802001953,-0.32042521238327026,0.6943869590759277,0.4200000464916229,1.0,3.2807631669129478e-06,-2.219166617578594e-06,1.5949673581872048e-07,0.0002662794722709805,0.0002674015995580703,-0.0001042510848492384,-0.00173571624327451,0.0041978564113378525,-0.00012865439930465072,-0.3040844202041626,0.5505110025405884,1.0043041706085205,-1.0394783020019531,3.6483912467956543,-5.0659379959106445,0.3664371967315674,0.7267773151397705,0.42000001668930054,-0.9810864329338074,3.0000011920928955,-0.2903526723384857,-2.9999983310699463,-0.041811734437942505,-0.05046916753053665,-0.05907326191663742,-0.06713850796222687,-0.9347316026687622,-0.8718370795249939,-0.8103224635124207,-0.7451342940330505
0.21666666666666667,0.09336364269256592,0.09887737780809402,0.0,0.9177756309509277,0.0,0.0,-0.3970993459224701,0.04690802842378616,0.4708331227302551,0.0,0.0,0.0,-4.532291889190674,-0.32042521238327026,0.6943870186805725,0.4200000464916229,1.0,3.6130975331616355e-06,-2.2699948658555513e-06,2.2104775609932403e-07,0.00026712531689554453,0.0002678169694263488,-0.00010414118878543377,-0.0017444599652662873,0.004215109162032604,-0.0001278673007618636,-0.3194848299026489,0.6078216433525085,0.912582516670227,-0.6903856992721558,3.1702513694763184,-5.8079962730407715,0.3664371967315674,0.7267773151397705,0.42000001668930054,-0.9310773015022278,2.9999985694885254,-0.3403819799423218,-3.000001907348633,-0.05749814584851265,-0.06621699035167694,-0.07486125826835632,-0.08266640454530716,-0.986935555934906,-0.9833375215530396,-0.9741687774658203,-0.9533707499504089
0.23333333333333334,0.09781952202320099,0.10735557228326797,0.0,0.9127078652381897,0.0,0.0,-0.4086126983165741,0.3437088429927826,0.5358771085739136,0.0,0.0,0.0,-0.5310391783714294,-0.32042521238327026,0.6943869590759277,0.4200000464916229,1.0,3.3817855182860512e-06,-2.2908213850314496e-06,2.728465915424749e-07,0.0002669155946932733,0.0002678002056200057,-0.00010433141142129898,-0.0017395844915881753,0.0042098211124539375,-0.00012844095181208104,-0.3339313566684723,0.6510197520256042,0.8135656118392944,-0.7102426290512085,2.1147401332855225,-6.081496238708496,0.3664371967315674,0.7267773151397705,0.42000001668930054,-0.881066620349884,2.9999969005584717,-0.39041316509246826,-3.0000014305114746,-0.07301347702741623,-0.08178834617137909,-0.09037194401025772,-0.09760015457868576,-0.9166707992553711,-0.9134804010391235,-0.917319118976593,-0.8769863843917847
0.25,0.10024721175432205,0.11306516826152802,0.0,0.9022564888000488,0.0,0.0,-0.4311998188495636,0.07742979377508163,0.33647796511650085,0.0,0.0,0.0,-3.9131908416748047,-0.3204251825809479,0.6943869590759277,0.4200000464916229,0.9999999403953552,3.7064864955027588e-06,-2.2228989564609947e-06,-2.2546814193447062e-07,0.0002642463950905949,0.00026656698901206255,-0.00010457634925842285,-0.0017169405473396182,0.00415548961609602,-0.00013063351798336953,-0.3428136706352234,0.6806638836860657,0.7069750428199768,-0.21230177581310272,1.3183984756469727,-6.563859462738037,0.3664371967315674,0.7267773151397705,0.42000001668930054,-0.8310568928718567,2.99999737739563,-0.44044482707977295,-2.999999761581421,-0.08947620540857315,-0.09822743386030197,-0.10676011443138123,-0.11345482617616653,-0.9923868179321289,-0.9938139915466309,-0.9949012994766235,-0.9906808733940125
0.26666666666666666,0.09918557852506638,0.11584629863500595,0.0,0.899522602558136,0.0,0.0,-0.43687427043914795,-0.10323488712310791,0.09905170649290085,0.0,0.0,0.0,0.20362845063209534,-0.32042521238327026,0.6943869590759277,0.4200000464916229,0.9999999403953552,3.719608457686263e-06,-2.4033261070144363e-06,-1.8304078253095213e-07,0.00026623241137713194,0.0002672903356142342,-0.00010425737127661705,-0.001732598408125341,0.004196526482701302,-0.0001285126927541569,-0.3470568358898163,0.6918278932571411,0.6002915501594543,-0.0835237130522728,0.03419215977191925,-6.251087188720703,0.3664371967315674,0.7267773151397705,0.42000001668930054,-0.781048059463501,2.9999964237213135,-0.4904756546020508,-3.000000238418579,-0.10667099058628082,-0.11527130752801895,-0.12369249761104584,-0.13030223548412323,-1.0002704858779907,-1.0002036094665527,-1.0001521110534668,-1.0001122951507568
0.2833333333333333,0.09537719190120697,0.11552666872739792,0.0,0.8915725350379944,0.0,0.0,-0.4528779685497284,-0.2772913873195648,-0.06771274656057358,0.0,0.0,0.0,-3.088806390762329,-0.32042521238327026,0.6943870186805725,0.4200000464916229,0.9999999403953552,3.5840300824929727e-06,-2.3153043002821505e-06,7.407601998465907e-08,0.00026522009284235537,0.00026455309125594795,-0.00010317424312233925,-0.0017022202955558896,0.00418515969067812,-0.000124995582154952,-0.34327432513237,0.6912828683853149,0.5003252029418945,0.5277182459831238,-0.22486960887908936,-5.575582981109619,0.3664371967315674,0.7267773151397705,0.42000001668930054,-0.73103928565979,3.0000040531158447,-0.5405043363571167,-2.999998092651367,-0.12436218559741974,-0.1327422708272934,-0.1409970223903656,-0.14747470617294312,-1.0200011730194092,-1.0151385068893433,-1.0114206075668335,-1.0084419250488281
0.3,0.08927047997713089,0.11271309107542038,0.0,0.8915855288505554,0.0,0.0,-0.452852338552475,-0.4031650125980377,-0.21008285880088806,0.0,0.0,0.0,0.9334614276885986,-0.32042521238327026,0.6943869590759277,0.4200000464916229,1.0,3.7242095913825324e-06,-2.271762923555798e-06,9.639254727744628e-08,0.00026312656700611115,0.00026525757857598364,-0.00010438100434839725,-0.00169602339155972,0.004134845454245806,-0.00013027741806581616,-0.33528488874435425,0.6889921426773071,0.413993239402771,0.5934152007102966,-0.23007309436798096,-4.865361213684082,0.3664371967315674,0.7267773151397705,0.42000001668930054,-0.6810322999954224,3.000002145767212,-0.5905309915542603,-3.000002145767212,-0.14162394404411316,-0.1498718410730362,-0.15802977979183197,-0.1644328385591507,-1.0125325918197632,-1.0095380544662476,-1.007240653038025,-1.0053871870040894
0.31666666666666665,0.08077981323003769,0.1075252890586853,0.0,0.903363823890686,0.0,0.0,-0.4288750886917114,-0.5592289566993713,-0.3553004562854767,0.0,0.0,0.0,4.184326648712158,-0.32104530930519104,0.6918047070503235,0.42091113328933716,0.9990124106407166,0.021361656486988068,-0.0026140615809708834,-0.038870807737112045,0.020847897976636887,-0.006326492875814438,0.00886673666536808,0.7701081037521362,0.1966576874256134,0.17310108244419098,-0.3377017378807068,0.6937594413757324,0.4256596267223358,-0.33053284883499146,0.218481183052063,-0.19762645661830902,0.3664371967315674,0.7267773151397705,0.42000001668930054,-0.6310098767280579,2.999896287918091,-0.6410506963729858,-3.00002121925354,-0.14136862754821777,-0.15101243555545807,-0.16026057302951813,-0.1673988699913025,-0.09690332412719727,-0.14818808436393738,-0.18621119856834412,-0.2123578041791916
0.3333333333333333,0.06996006518602371,0.09994631260633469,0.0,0.9073879718780518,0.0,0.0,-0.4202940762042999,-0.6948894262313843,-0.4963286519050598,0.0,0.0,0.0,0.14962434768676758,-0.3208104074001312,0.6916532516479492,0.4200727939605713,0.9984353184700012,0.001564212143421173,-0.000273434940027073,-0.05589523911476135,0.013600914739072323,-0.08305895328521729,-0.0833544060587883,-4.297572612762451,0.3330203592777252,-6.9377121925354,-0.3383195400238037,0.69475919008255,0.4225991368293762,0.20046043395996094,0.008760113269090652,-0.19213518500328064,0.3664371967315674,0.7267773151397705,0.42000001668930054,-0.5810046792030334,3.0000007152557373,-0.691088080406189,-3.0000035762786865,-0.14585812389850616,-0.15515512228012085,-0.16377730667591095,-0.17011097073554993,-0.36973732709884644,-0.2940920293331146,-0.20052501559257507,-0.09864220768213272
0.35,0.062246065586805344,0.08951620012521744,0.0,0.8999322056770325,0.0,0.0,-0.436029851436615,-0.3884430229663849,-0.6757230162620544,0.0,0.0,0.0,-3.3029603958129883,-0.3200412392616272,0.6917359232902527,0.42006629705429077,0.997619092464447,0.0014972438802942634,-3.1139688871917315e-07,-0.06894796341657639,0.3102835416793823,0.2718117833137512,0.03659270331263542,2.4045498371124268,-0.6714009046554565,-5.327597618103027,-0.3318595886230469,0.6969144344329834,0.42019182443618774,0.5450693368911743,0.22168739140033722,-0.08991479873657227,0.3664371967315674,0.7267773151397705,0.42000001668930054,-0.5309992432594299,3.000000476837158,-0.7411307096481323,-2.9998598098754883,-0.1528782993555069,-0.16032102704048157,-0.1667226105928421,-0.1706743836402893,-0.4278881251811981,-0.2934395372867584,-0.13531836867332458,0.032332923263311386
0.36666666666666664,0.05280196666717529,0.07753130793571472,0.0,0.898097574710846,0.0,0.0,-0.4397962689399719,-0.6299954056739807,-0.7413930296897888,0.0,0.0,0.0,0.59394770860672,-0.31146740913391113,0.7005668878555298,0.4203099310398102,0.98066645860672,0.005875489674508572,-0.0006252476596273482,-0.19559744000434875,0.7355528473854065,0.759991466999054,0.015797903761267662,-0.6119605898857117,0.04504667967557907,-23.089229583740234,-0.32116034626960754,0.7067798376083374,0.4216800928115845,0.8281234502792358,0.964013934135437,0.10780952870845795,0.3664371967315674,0.7267773151397705,0.42000001668930054,-0.48098090291023254,2.9999911785125732,-0.7911484837532043,-3.0000007152557373,-0.1623426377773285,-0.1668565720319748,-0.16995097696781158,-0.17048683762550354,-0.553875744342804,-0.37459424138069153,-0.17272087931632996,0.03483624383807182
0.3833333333333333,0.04642384871840477,0.06288671493530273,0.0,0.8902215361595154,0.0,0.0,-0.4555279016494751,-0.32298702001571655,-0.9186342358589172,0.0,0.0,0.0,-3.0136570930480957,-0.29542115330696106,0.7164434790611267,0.42106893658638,0.9644732475280762,-0.02637084573507309,0.006795522756874561,-0.26277291774749756,1.0845685005187988,1.0507060289382935,0.028594745323061943,-1.4440070390701294,0.6765894889831543,-7.188222408294678,-0.3027522563934326,0.7212803363800049,0.42358922958374023,1.4026081562042236,0.8200536966323853,0.14281481504440308,0.3664371967315674,0.7267773151397705,0.42000001668930054,-0.43094581365585327,2.9937520027160645,-0.841162383556366,-3.0000367164611816,-0.17017877101898193,-0.17151103913784027,-0.17099955677986145,-0.16780273616313934,-0.4561181664466858,-0.2438339740037918,-0.007525697350502014,0.23412182927131653
0.4,0.0427473820745945,0.04563901945948601,0.0,0.8685076832771301,0.0,0.0,-0.4956756830215454,-0.12967857718467712,-1.0994576215744019,0.0,0.0,0.0,-6.292811870574951,-0.2661724090576172,0.732926607131958,0.4256811738014221,0.9475901126861572,-0.026242217049002647,-0.023426832631230354,-0.317546010017395,2.329080820083618,1.3759965896606445,0.4207998216152191,18.01727867126465,-11.945122718811035,8.092127799987793,-0.2728847563266754,0.7391406893730164,0.427493691444397,2.134488582611084,1.270205020904541,0.4747314751148224,0.3664371967315674,0.7267773151397705,0.42000001668930054,-0.3920057713985443,1.3184536695480347,-0.8911848664283752,-3.0,-0.1781657338142395,-0.17609283328056335,-0.17181797325611115,-0.16481253504753113,-0.4101581275463104,-0.22783078253269196,-0.02696578949689865,0.17479775846004486
0.4166666666666667,0.038744982331991196,0.03334415704011917,0.0,0.8296787738800049,0.0,0.0,-0.5582411289215088,-0.266773521900177,-0.6037572026252747,0.0,0.0,0.0,-9.725028038024902,-0.20791523158550262,0.7598711252212524,0.43315303325653076,0.9274808168411255,0.02355949394404888,-0.06309530884027481,-0.36775413155555725,4.877793788909912,1.5762337446212769,0.6210362315177917,1.7155330181121826,-7.655632019042969,12.388445854187012,-0.2139078974723816,0.7660630941390991,0.4346214830875397,4.631341934204102,2.044757127761841,0.5335625410079956,0.3664371967315674,0.7267773151397705,0.42000001668930054,-0.37438106536865234,0.970169723033905,-0.8921299576759338,2.4092748165130615,-0.19148924946784973,-0.18515294790267944,-0.1766200214624405,-0.16566993296146393,-0.8630145788192749,-0.6074376106262207,-0.3635980188846588,-0.14893779158592224
0.43333333333333335,0.03682813420891762,0.025684325024485588,0.0,0.7839441895484924,0.0,0.0,-0.620831310749054,-0.054928749799728394,-0.5286779999732971,0.0,0.0,0.0,-9.017285346984863,-0.12709003686904907,0.7917349338531494,0.44271543622016907,0.8881222605705261,0.0898723229765892,-0.09369736909866333,-0.44088849425315857,5.249013423919678,1.1807358264923096,0.49180567264556885,-2.401550769805908,2.210068941116333,6.396096706390381,-0.13296416401863098,0.798923909664154,0.44378164410591125,5.1100873947143555,1.9559595584869385,0.6709468960762024,0.3664371967315674,0.7267773151397705,0.42000001668930054,-0.3585730195045471,0.8957816362380981,-0.9225019812583923,-2.9998886585235596,-0.20208017528057098,-0.19481927156448364,-0.18319733440876007,-0.169664666056633,-0.37525326013565063,-0.37765365839004517,-0.26763755083084106,-0.1843683421611786
0.45,0.03720184043049812,0.02007264830172062,0.0,0.7537497282028198,0.0,0.0,-0.6571615934371948,0.12592115998268127,-0.2958502769470215,0.0,0.0,0.0,-4.511309623718262,-0.043203383684158325,0.815861701965332,0.4524882733821869,0.8371217846870422,0.08933188766241074,-0.11554699391126633,-0.527158260345459,5.084306240081787,0.8378680348396301,0.9316496253013611,32.65043258666992,-4.778512001037598,19.599817276000977,-0.04852907359600067,0.8251281976699829,0.4535732865333557,5.1371235847473145,1.1771609783172607,0.5561439990997314,0.3664371967315674,0.7267773151397705,0.42000001668930054,-0.343792587518692,0.850274384021759,-0.9725183248519897,-3.000002384185791,-0.2099294811487198,-0.20197565853595734,-0.18835115432739258,-0.1733648180961609,-0.41165632009506226,-0.3700536787509918,-0.2756962180137634,-0.21518558263778687
0.4666666666666667,0.037925560027360916,0.018206633627414703,0.0,0.7478885650634766,0.0,0.0,-0.6638242602348328,-0.006122869905084372,0.026951836422085762,0.0,0.0,0.0,0.05465131253004074,0.04142168536782265,0.8272847533226013,0.46016988158226013,0.7643114924430847,0.09139115363359451,-0.09964817762374878,-0.6305122375488281,4.756806373596191,-0.7463488578796387,0.3645032048225403,-10.261829376220703,-8.818328857421875,24.39386749267578,0.03639443218708038,0.8374923467636108,0.4605944752693176,5.167819976806641,0.2732345759868622,0.43611466884613037,0.3664371967315674,0.7267773151397705,0.42000001668930054,-0.3317989408969879,0.518719494342804,-1.0225415229797363,-3.000001907348633,-0.2174433022737503,-0.20841364562511444,-0.19305962324142456,-0.17678605020046234,-0.5166844129562378,-0.41792988777160645,-0.2958192527294159,-0.19749754667282104
0.48333333333333334,0.03525141626596451,0.012147156521677971,0.0,0.7330976724624634,0.0,0.0,-0.6801233291625977,-0.22214624285697937,-0.5014765858650208,0.0,0.0,0.0,-3.633540630340576,0.12281478941440582,0.8242344856262207,0.4601745903491974,0.6819900274276733,0.04340536892414093,-0.11874426156282425,-0.7203508019447327,4.625786781311035,-1.1676058769226074,-0.1010143831372261,-22.643095016479492,6.29689359664917,-4.400424003601074,0.1176205724477768,0.8361831903457642,0.46311014890670776,4.828889846801758,-0.4975762665271759,0.06762125343084335,0.3664371967315674,0.7267773151397705,0.42000001668930054,-0.3241315484046936,0.44972091913223267,-1.072563648223877,-2.9994564056396484,-0.2194957137107849,-0.20949502289295197,-0.19289560616016388,-0.17557109892368317,-0.009025821462273598,0.06223813816905022,0.13872604072093964,0.20743867754936218
0.5,0.03564177826046944,0.009586545638740063,0.0,0.7291191220283508,0.0,0.0,-0.6843867897987366,-0.014913448132574558,-0.1456851065158844,0.0,0.0,0.0,0.06431269645690918,0.19773928821086884,0.8088552951812744,0.4587477743625641,0.6102049946784973,0.02030234970152378,-0.10742531716823578,-0.7846637964248657,4.311596393585205,-1.0868929624557495,-0.1873888373374939,-2.8122501373291016,-3.007570505142212,-5.930290222167969,0.19415447115898132,0.8213459253311157,0.4623284339904785,4.3345513343811035,-1.037980079650879,-0.17077866196632385,0.3664371967315674,0.7267773151397705,0.42000001668930054,-0.31341901421546936,0.8478735089302063,-1.1225857734680176,-3.0000014305114746,-0.22363689541816711,-0.21166513860225677,-0.19342376291751862,-0.17478103935718536,-0.016595862805843353,0.030856378376483917,0.0520847886800766,0.060703132301568985
0.5166666666666666,0.037666212767362595,0.00467767845839262,0.0,0.7166529893875122,0.0,0.0,-0.697429895401001,0.17321322858333588,-0.3030582368373871,0.0,0.0,0.0,-2.8657267093658447,0.26265543699264526,0.7908065319061279,0.45125529170036316,0.5529404282569885,0.004996949806809425,-0.10631672292947769,-0.8263949155807495,3.5230164527893066,-1.3253329992294312,-0.4331637918949127,-0.8577365279197693,1.0917550325393677,-5.842161655426025,0.26019322872161865,0.8029788136482239,0.45571088790893555,3.587254047393799,-1.3029534816741943,-0.5791500210762024,0.3664371967315674,0.7267773151397705,0.42000001668930054,-0.296233206987381,1.0826396942138672,-1.1726078987121582,-3.0000016689300537,-0.22399471700191498,-0.21129189431667328,-0.19295340776443481,-0.17445963621139526,-0.06303359568119049,-0.017672806978225708,-0.021213218569755554,-0.042400624603033066
0.5333333333333333,0.04224852845072746,0.003424395341426134,0.0,0.7164949774742126,0.0,0.0,-0.6975921988487244,0.30783119797706604,-0.04647649824619293,0.0,0.0,0.0,0.7924126386642456,0.3133982717990875,0.7681496739387512,0.4391460418701172,0.5055961608886719,-0.017053114250302315,-0.09471918642520905,-0.8573854565620422,2.4773097038269043,-1.8822026252746582,-0.6019119620323181,-7.153011322021484,8.593901634216309,7.7047810554504395,0.31179097294807434,0.7793483734130859,0.44413578510284424,2.659602165222168,-1.4535272121429443,-0.8597656488418579,0.3664371967315674,0.7267773151397705,0.42000001668930054,-0.2801804840564728,0.7364299297332764,-1.2226300239562988,-3.0000011920928955,-0.2258131206035614,-0.2124515324831009,-0.1943589746952057,-0.1763986051082611,0.020106928423047066,0.01749386265873909,-0.0404169000685215,-0.11108879745006561
0.55,0.0454053170979023,0.0013558738864958286,0.0,0.7059104442596436,0.0,0.0,-0.7083011269569397,0.10277734696865082,-0.103632852435112,0.0,0.0,0.0,-2.6048150062561035,0.3518032133579254,0.7471784949302673,0.42170506715774536,0.523256242275238,-0.04214072227478027,0.004388635978102684,-0.8511214256286621,1.6730294227600098,-1.3828020095825195,-0.5411503911018372,50.86835479736328,23.074642181396484,12.292550086975098,0.35042235255241394,0.7577731609344482,0.4252881407737732,1.9287676811218262,-1.2785993814468384,-1.2914745807647705,0.3664371967315674,0.7267773151397705,0.42000001668930054,-0.26817744970321655,1.046281099319458,-1.2726504802703857,-2.9999380111694336,-0.22207985818386078,-0.20976471900939941,-0.19359546899795532,-0.17765232920646667,0.20991183817386627,0.14084376394748688,0.017112521454691887,-0.11234831809997559
0.5666666666666667,0.04865209758281708,0.0020072406623512506,0.0,0.7081394195556641,0.0,0.0,-0.7060726284980774,0.23782356083393097,0.09605091065168381,0.0,0.0,0.0,1.1743360757827759,0.3689155578613281,0.741847813129425,0.42180365324020386,0.4589700996875763,-0.02486831322312355,0.024090781807899475,-0.8877766728401184,0.5878064632415771,-0.3021007478237152,0.12536285817623138,6.685642242431641,5.34266996383667,0.5237609148025513,0.3657516837120056,0.7483856081962585,0.4254711866378784,0.5326517820358276,-0.4113368093967438,-0.006960408762097359,0.3664371967315674,0.7267773151397705,0.42000001668930054,-0.2518129348754883,1.2077763080596924,-1.2442677021026611,2.9999983310699463,-0.21557371318340302,-0.20565122365951538,-0.19253329932689667,-0.17946742475032806,0.43269506096839905,0.2662919759750366,0.06119898334145546,-0.1319679319858551
0.5833333333333334,0.053027424961328506,-0.00034814138780348003,0.0,0.6998387575149536,0.0,0.0,-0.7143008708953857,0.30189982056617737,-0.19460570812225342,0.0,0.0,0.0,-2.2286791801452637,0.373704195022583,0.7399575710296631,0.4216718077659607,0.5184445977210999,-0.007302476558834314,-0.007429439574480057,-0.8550477623939514,0.13839466869831085,-0.16265174746513367,-0.04112759977579117,-0.6509942412376404,-3.591460943222046,7.352941036224365,0.36995628476142883,0.7455555200576782,0.4254351556301117,0.032301273196935654,-0.11724935472011566,0.0068198516964912415,0.3664371967315674,0.7267773151397705,0.42000001668930054,-0.2669801712036133,-2.3511736392974854,-1.194297194480896,2.9999172687530518,-0.20708592236042023,-0.20003725588321686,-0.19037240743637085,-0.18051783740520477,0.4521317481994629,0.3016811013221741,0.11678911000490189,-0.05553026124835014
0.6,0.05699680745601654,0.0005376524641178548,0.0,0.7030842900276184,0.0,0.0,-0.711106538772583,0.17881163954734802,0.06746569275856018,0.0,0.0,0.0,1.3266313076019287,0.37402740120887756,0.7377136945724487,0.4201525151729584,0.5482068061828613,0.002651733346283436,-0.00016805081395432353,-0.836338460445404,-0.08843641728162766,-0.10454794764518738,-0.04065506532788277,1.073927879333496,1.990889549255371,2.507401943206787,0.3679555654525757,0.7412247657775879,0.4244968593120575,-0.14196018874645233,-0.14408278465270996,0.11190803349018097,0.3664371967315674,0.7267773151397705,0.42000001668930054,-0.3011546730995178,-1.7938190698623657,-1.2159194946289062,-2.999133586883545,-0.2021842896938324,-0.19710412621498108,-0.189954474568367,-0.18243789672851562,0.37219247221946716,0.23493602871894836,0.07160201668739319,-0.07670249789953232
0.6166666666666667,0.061728835105895996,-3.054128683288582e-05,0.0,0.6951459050178528,0.0,0.0,-0.7188686728477478,0.32646694779396057,-0.047615185379981995,0.0,0.0,0.0,-2.175391912460327,0.37329426407814026,0.7369102835655212,0.4200000464916229,0.556365966796875,-5.097440975987411e-07,-6.203783868841128e-07,-0.8309372663497925,-0.029501304030418396,-0.02852904237806797,-1.6601115930825472e-05,0.0015085435006767511,2.2966082724451553e-06,0.6808842420578003,0.3680684268474579,0.7425432205200195,0.4264222979545593,-0.011036092415452003,0.11192801594734192,0.13131530582904816,0.3664371967315674,0.7267773151397705,0.42000001668930054,-0.3350720703601837,-2.1831765174865723,-1.265885353088379,-2.99929141998291,-0.19314871728420258,-0.19097039103507996,-0.1870361566543579,-0.18239757418632507,0.509722113609314,0.3515224754810333,0.17568984627723694,0.017951391637325287
0.6333333333333333,0.06831774860620499,0.0017990778433158994,0.0,0.6991722583770752,0.0,0.0,-0.7149532437324524,0.4317227303981781,0.1658652424812317,0.0,0.0,0.0,1.54985511302948,0.3732532858848572,0.7368800044059753,0.42000001668930054,0.5568251609802246,2.611291165521834e-07,-4.099346824659733e-06,-0.8306296467781067,0.00013064683298580348,-0.00019855762366205454,-3.268197178840637e-05,0.003328844904899597,-0.005055223125964403,-0.0010669052135199308,0.36719489097595215,0.7425457835197449,0.42864561080932617,-0.11938515305519104,0.003181120380759239,0.16467100381851196,0.3664371967315674,0.7267773151397705,0.42000001668930054,-0.3838428556919098,-2.9999969005584717,-1.315868854522705,-2.9995408058166504,-0.18589536845684052,-0.1860663741827011,-0.1847071647644043,-0.18234534561634064,0.398773729801178,0.2765161991119385,0.14164748787879944,0.02204735390841961
0.65,0.07688291370868683,0.000352664414094761,0.0,0.6922689080238342,0.0,0.0,-0.7216396331787109,0.537716805934906,-0.13012577593326569,0.0,0.0,0.0,-2.06101393699646,0.37318456172943115,0.7369201183319092,0.42000001668930054,0.5582409501075745,3.912342435796745e-06,-2.5381421437487006e-05,-0.8296788334846497,-0.00598164601251483,0.002393988659605384,-0.0007741805166006088,0.051129791885614395,0.0250930804759264,0.2199828326702118,0.36618560552597046,0.7450372576713562,0.43204063177108765,-0.025260239839553833,0.10270132124423981,0.22225803136825562,0.3664371967315674,0.7267773151397705,0.42000001668930054,-0.43387851119041443,-2.9998159408569336,-1.3658382892608643,-2.9995317459106445,-0.17695017158985138,-0.17930153012275696,-0.18022844195365906,-0.1798437386751175,0.45949816703796387,0.36595556139945984,0.2670021653175354,0.1835649609565735
0.6666666666666666,0.08760052919387817,0.0024441147688776255,0.0,0.6968627572059631,0.0,0.0,-0.7172045111656189,0.664082407951355,0.13480114936828613,0.0,0.0,0.0,1.6574985980987549,0.3724507987499237,0.7369676232337952,0.41999998688697815,0.5687750577926636,-5.7776937865128275e-06,1.3809902156936005e-05,-0.8224930763244629,-0.07367777079343796,0.007423918694257736,-0.0004822368791792542,-0.009679367765784264,-0.022437358275055885,2.8793935775756836,0.36403512954711914,0.7452682852745056,0.4403740167617798,-0.14673012495040894,0.05967722833156586,0.7797068953514099,0.3664371967315674,0.7267773151397705,0.42000001668930054,-0.48389241099357605,-2.9999780654907227,-1.4158564805984497,-2.999999761581421,-0.17336337268352509,-0.17634634673595428,-0.17790943384170532,-0.17789451777935028,0.24581222236156464,0.2077002227306366,0.17689649760723114,0.16690166294574738
0.6833333333333333,0.09557186812162399,0.0004990393063053489,0.0,0.6905704736709595,0.0,0.0,-0.7232651114463806,0.3877980709075928,-0.1642744392156601,0.0,0.0,0.0,-1.9059441089630127,0.3719466030597687,0.7369366884231567,0.42000001668930054,0.5744316577911377,-1.3332212347449968e-06,1.8205333844889537e-06,-0.8185524344444275,-0.007313763722777367,-0.0024110509548336267,-5.147710908204317e-05,-0.001228433451615274,-0.0023642138112336397,0.23328807950019836,0.36684876680374146,0.7457225322723389,0.4512890577316284,0.38486170768737793,-0.08931833505630493,0.6867260932922363,0.3664371967315674,0.7267773151397705,0.42000001668930054,-0.533905029296875,-3.000000476837158,-1.4658747911453247,-3.0,-0.16889676451683044,-0.17210474610328674,-0.17369478940963745,-0.17333769798278809,0.14902189373970032,0.18413372337818146,0.23240962624549866,0.3005503714084625
0.7,0.10379049926996231,-0.004998608026653528,0.0,0.6652219295501709,0.0,0.0,-0.7466456890106201,0.538054883480072,-0.4074450433254242,0.0,0.0,0.0,-4.995029926300049,0.3719462454319,0.7369369268417358,0.4200000464916229,0.5744318962097168,2.5022572458510695e-07,-3.3099506708822446e-06,-0.8185523152351379,0.00012439042620826513,-0.000268685253104195,-8.96998681128025e-05,0.0063603962771594524,-0.0011203282047063112,-0.0007643521530553699,0.37589341402053833,0.7465971112251282,0.46997153759002686,0.7362509965896606,0.14701251685619354,1.6662092208862305,0.3664371967315674,0.7267773151397705,0.42000001668930054,-0.5839173197746277,-2.9999799728393555,-1.5158931016921997,-2.9999992847442627,-0.1682891845703125,-0.1706961989402771,-0.1712701916694641,-0.16961067914962769,-0.020106572657823563,0.037149250507354736,0.1062077060341835,0.18945328891277313
0.7166666666666667,0.11606056988239288,-0.005363209173083305,0.0,0.6523931622505188,0.0,0.0,-0.757880687713623,0.6733860969543457,-0.0004614832578226924,0.0,0.0,0.0,-0.9962300062179565,0.3719462752342224,0.7369369268417358,0.4200000464916229,0.5744319558143616,4.964380195815465e-07,-2.7847913770528976e-06,-0.8185523152351379,8.556612738175318e-05,-0.0002664610219653696,-8.557294495403767e-05,0.006485398858785629,-0.001687623793259263,-0.0006841634749434888,0.38784414529800415,0.7498183846473694,0.5037426948547363,0.7526934146881104,0.4555743336677551,2.316009044647217,0.3664371967315674,0.7267773151397705,0.42000001668930054,-0.610861599445343,-0.43693098425865173,-1.5659114122390747,-2.999999761581421,-0.1744992882013321,-0.17515425384044647,-0.1739148646593094,-0.17039275169372559,-0.18300212919712067,-0.14397791028022766,-0.0980343446135521,-0.04605536535382271
0.7333333333333333,0.12409945577383041,-0.0034493794664740562,0.0,0.6630795001983643,0.0,0.0,-0.7485489845275879,0.4317685663700104,0.10292158275842667,0.0,0.0,0.0,2.504077672958374,0.3719462454319,0.7369369268417358,0.4200000464916229,0.5744320154190063,1.9230188286201155e-07,-3.0340254397742683e-06,-0.8185521960258484,9.003948798635975e-05,-0.00026325415819883347,-8.658994920551777e-05,0.006379860453307629,-0.001619940623641014,-0.0006891534430906177,0.4019402265548706,0.7543758749961853,0.5351355075836182,0.9082323312759399,0.17697402834892273,1.5127763748168945,0.3664371967315674,0.7267773151397705,0.42000001668930054,-0.6000603437423706,1.5502020120620728,-1.5269927978515625,2.9999990463256836,-0.17658518254756927,-0.17651274800300598,-0.1744733303785324,-0.17012079060077667,0.006447574123740196,0.03591806814074516,0.06804494559764862,0.09956303983926773
0.75,0.12793971598148346,-0.007084691897034645,0.0,0.6617357134819031,0.0,0.0,-0.7497372031211853,0.20136898756027222,-0.2425805777311325,0.0,0.0,0.0,-1.059302568435669,0.3719462752342224,0.7369369268417358,0.4200000464916229,0.5744320154190063,5.917407293054566e-07,-2.8134920739830704e-06,-0.8185521960258484,9.442195005249232e-05,-0.0002638867008499801,-8.746562525629997e-05,0.0063719009049236774,-0.0015698301140218973,-0.0006997120217420161,0.41178709268569946,0.7573680281639099,0.5538920164108276,0.24711951613426208,-0.01575695537030697,0.8769973516464233,0.3664371967315674,0.7267773151397705,0.42000001668930054,-0.5914034247398376,-0.35137811303138733,-1.4769363403320312,2.9999992847442627,-0.17268913984298706,-0.1725422441959381,-0.17043830454349518,-0.1660844087600708,0.09417325258255005,0.1421089768409729,0.18141138553619385,0.20730473101139069
0.7666666666666666,0.12884825468063354,-0.005740533582866192,0.0,0.6715131402015686,0.0,0.0,-0.7409926652908325,0.024712970480322838,0.11564680933952332,0.0,0.0,0.0,2.323634147644043,0.3719462454319,0.7369369268417358,0.4200000464916229,0.5744321942329407,3.218109156932769e-07,-2.905772134909057e-06,-0.8185521960258484,9.095755376620218e-05,-0.00026302976766601205,-8.681393228471279e-05,0.006369068752974272,-0.0016086178366094828,-0.0006908843060955405,0.4163578450679779,0.7548643350601196,0.5655018091201782,0.36202293634414673,-0.11857806146144867,0.5466272830963135,0.3664371967315674,0.7267773151397705,0.42000001668930054,-0.5737767219543457,2.228005886077881,-1.4935457706451416,-2.999999523162842,-0.17488372325897217,-0.17323893308639526,-0.16988924145698547,-0.1646445393562317,-0.03269677236676216,0.027300912886857986,0.07259027659893036,0.09739194810390472
0.7833333333333333,0.12729452550411224,-0.007510227616876364,0.0,0.6687552332878113,0.0,0.0,-0.7434826493263245,-0.14984627068042755,-0.09982523322105408,0.0,0.0,0.0,-1.3023680448532104,0.3719462752342224,0.7369369268417358,0.4200000464916229,0.5744320154190063,4.26915391926741e-07,-2.9403474854916567e-06,-0.8185521960258484,9.428999328520149e-05,-0.0002635491837281734,-8.74851830303669e-05,0.006363876163959503,-0.001570870983414352,-0.0006990874535404146,0.41648268699645996,0.7537271976470947,0.5691653490066528,-0.35225212574005127,-0.11287052184343338,0.04025297239422798,0.3664371967315674,0.7267773151397705,0.42000001668930054,-0.5559630990028381,0.08094038814306259,-1.454837441444397,2.999999523162842,-0.17344175279140472,-0.17122019827365875,-0.16755034029483795,-0.16232812404632568,-0.0019524864619597793,0.047360025346279144,0.07790946215391159,0.08419893682003021
0.8,0.12730830907821655,-0.005869961343705654,0.0,0.6757519245147705,0.0,0.0,-0.7371290922164917,0.05311824381351471,0.13292521238327026,0.0,0.0,0.0,1.8637725114822388,0.3719462454319,0.7369369268417358,0.4200000464916229,0.5744321942329407,2.959660605483805e-07,-2.851906629075529e-06,-0.8185521960258484,9.07915600691922e-05,-0.0002630960661917925,-8.677178993821144e-05,0.006371623370796442,-0.0016107612755149603,-0.0006906083435751498,0.4137415289878845,0.7516206502914429,0.5694642066955566,0.009969234466552734,-0.09104001522064209,0.0582687072455883,0.3664371967315674,0.7267773151397705,0.42000001668930054,-0.5473063588142395,0.8810375928878784,-1.4719165563583374,-2.9999992847442627,-0.17372936010360718,-0.17092159390449524,-0.1668553650379181,-0.16152065992355347,0.05758091062307358,0.07007569819688797,0.07678370177745819,0.07258971780538559
0.8166666666666667,0.1284240037202835,-0.007665948010981083,0.0,0.6710507273674011,0.0,0.0,-0.7414114475250244,0.09278234094381332,-0.13077639043331146,0.0,0.0,0.0,-1.5592546463012695,0.3719462752342224,0.7369369268417358,0.4200000464916229,0.5744320154190063,4.4952116695640143e-07,-2.8860654310847167e-06,-0.8185521960258484,9.396634413860738e-05,-0.00026358297327533364,-8.740904740989208e-05,0.006366530433297157,-0.001574637950398028,-0.0006984081119298935,0.4147045612335205,0.7507145404815674,0.5667988061904907,0.06494593620300293,-0.14147943258285522,-0.23068606853485107,0.3664371967315674,0.7267773151397705,0.42000001668930054,-0.5605289340019226,-2.1898961067199707,-1.4332683086395264,3.000000476837158,-0.17077703773975372,-0.1681482493877411,-0.16431504487991333,-0.1593378782272339,0.08527883142232895,0.09431744366884232,0.09899061918258667,0.09494027495384216
0.8333333333333334,0.13186410069465637,-0.0064120520837605,0.0,0.6776437759399414,0.0,0.0,-0.735390305519104,0.24386730790138245,0.10170698165893555,0.0,0.0,0.0,1.8809499740600586,0.3719462752342224,0.7369369268417358,0.4200000464916229,0.5744320154190063,2.7012495706912887e-07,-2.793100975395646e-06,-0.8185523152351379,9.176335152005777e-05,-0.0002633561962284148,-8.696434088051319e-05,0.006372806150466204,-0.0016002688789740205,-0.0006930608651600778,0.4176313877105713,0.7472349405288696,0.5632466673851013,0.30026328563690186,-0.19015274941921234,-0.14904490113258362,0.3664371967315674,0.7267773151397705,0.42000001668930054,-0.5787569284439087,-0.1584489941596985,-1.4507596492767334,-2.999999761581421,-0.17062047123908997,-0.16765502095222473,-0.1635017693042755,-0.15829811990261078,0.07495159655809402,0.08107504993677139,0.0901074931025505,0.09802873432636261
0.85,0.13297700881958008,-0.00856961589306593,0.0,0.672908365726471,0.0,0.0,-0.7397258877754211,0.010357944294810295,-0.16672632098197937,0.0,0.0,0.0,-1.5877563953399658,0.3719462454319,0.7369369268417358,0.4200000464916229,0.5744321346282959,2.535975909268018e-07,-2.883735078285099e-06,-0.8185521960258484,9.392216452397406e-05,-0.00026340523618273437,-8.744141086935997e-05,0.006362028885632753,-0.0015754769556224346,-0.0006981244077906013,0.42413103580474854,0.7429260611534119,0.5577582716941833,0.4252239167690277,-0.3850504159927368,-0.3608933389186859,0.3664371967315674,0.7267773151397705,0.42000001668930054,-0.6072028875350952,-2.9868290424346924,-1.415783166885376,2.999999761581421,-0.1685931533575058,-0.16556815803050995,-0.16129280626773834,-0.15596379339694977,0.04376403987407684,0.06905339658260345,0.09631039202213287,0.12198253720998764
0.8666666666666667,0.1351204812526703,-0.0071831196546554565,0.0,0.6719526648521423,0.0,0.0,-0.7405940890312195,0.15219703316688538,0.08294099569320679,0.0,0.0,0.0,0.4811708629131317,0.3719462752342224,0.7369369268417358,0.4200000464916229,0.5744320750236511,1.652509240557265e-07,-3.0140151920932112e-06,-0.8185522556304932,9.021203004522249e-05,-0.0002637731085997075,-8.658203296363354e-05,0.006392244249582291,-0.0016192782204598188,-0.0006902655586600304,0.4316907525062561,0.7371047735214233,0.5548264384269714,0.5336380004882812,-0.22904333472251892,0.037483688443899155,0.3664371967315674,0.7267773151397705,0.42000001668930054,-0.6263505220413208,0.4113779366016388,-1.4336228370666504,-2.9999992847442627,-0.169897198677063,-0.16635552048683167,-0.1615232527256012,-0.1556539684534073,0.03798036277294159,0.033251844346523285,0.03467186912894249,0.03988927975296974
0.8833333333333333,0.13525709509849548,-0.009705825708806515,0.0,0.6875156760215759,0.0,0.0,-0.7261695265769958,-0.03854764997959137,-0.19402071833610535,0.0,0.0,0.0,3.6180756092071533,0.3719462454319,0.7369369268417358,0.4200000464916229,0.5744320154190063,1.9152494701302203e-07,-3.107934389845468e-06,-0.8185522556304932,8.95405828487128e-05,-0.0002635259588714689,-8.645444177091122e-05,0.006389713380485773,-0.0016264045843854547,-0.0006884103058837354,0.44039392471313477,0.7314843535423279,0.5558258891105652,0.4572789669036865,-0.4395930767059326,0.137047678232193,0.3664371967315674,0.7267773151397705,0.42000001668930054,-0.6314284801483154,-0.9038281440734863,-1.4836297035217285,-3.000000476837158,-0.1684422791004181,-0.16484707593917847,-0.15988729894161224,-0.15385206043720245,0.011977892369031906,0.03700592741370201,0.06357928365468979,0.08963851630687714
