vladlanda/robotic-transformer/data/env_000_episode_0113.csv
sim_time_s,robot_box_x,robot_box_y,robot_box_z,robot_box_quat_w,robot_box_quat_x,robot_box_quat_y,robot_box_quat_z,robot_box_linvel_x,robot_box_linvel_y,robot_box_linvel_z,robot_box_angvel_x,robot_box_angvel_y,robot_box_angvel_z,cube_world_x,cube_world_y,cube_world_z,cube_quat_w,cube_quat_x,cube_quat_y,cube_quat_z,cube_linvel_x,cube_linvel_y,cube_linvel_z,cube_angvel_x,cube_angvel_y,cube_angvel_z,endpoint_world_x,endpoint_world_y,endpoint_world_z,endpoint_linvel_x,endpoint_linvel_y,endpoint_linvel_z,target_cube_world_x,target_cube_world_y,target_cube_world_z,gripper_actual_pos_rad_gp_leftgearjoint,gripper_actual_vel_rad_s_gp_leftgearjoint,gripper_actual_pos_rad_gp_rotatingjoint,gripper_actual_vel_rad_s_gp_rotatingjoint,motor_angle_rad_joint1,motor_angle_rad_joint2,motor_angle_rad_joint3,motor_angle_rad_joint4,motor_speed_rad_s_joint1,motor_speed_rad_s_joint2,motor_speed_rad_s_joint3,motor_speed_rad_s_joint4
0.0,0.0,0.0,0.0,1.0,0.0,0.0,0.0,0.0,0.0,0.0,0.0,0.0,0.0,-0.3648380637168884,0.7777954339981079,0.41999998688697815,1.0,0.0,0.0,0.0,0.0,0.0,0.0,0.0,0.0,0.0,3.42540442943573e-06,-0.005000244826078415,1.313499927520752,0.0,0.0,0.0,0.4204670488834381,0.7064735889434814,0.42000001668930054,-1.5707999467849731,0.0,0.0,0.0,0.0,0.0,0.0,0.0,0.0,0.0,0.0,0.0
0.016666666666666666,0.002895617624744773,0.0021545144263654947,0.0,0.9998483061790466,0.0,0.0,0.017418185248970985,0.24127265810966492,0.1816575527191162,0.0,0.0,0.0,3.1418137550354004,-0.364838182926178,0.777795135974884,0.41999998688697815,1.0,3.279964630564791e-06,-8.339746386809566e-07,8.465587342243452e-08,-1.9833529222523794e-05,0.00017983045836444944,-6.132945418357849e-05,0.0009432713268324733,-0.004689474124461412,-0.00031981561915017664,-0.007100826129317284,0.00343356654047966,1.315942406654358,-0.812732458114624,0.9886370301246643,0.1809607297182083,0.4204670488834381,0.7064735889434814,0.42000001668930054,-1.5301096439361572,3.0000014305114746,-0.045852404087781906,-3.0,0.0008734666625969112,0.000799909292254597,0.0007142242393456399,0.0006142821512185037,0.11084124445915222,0.0974835604429245,0.08326494693756104,0.06815224885940552
0.03333333333333333,0.008981945924460888,0.006764791905879974,0.0,0.9998374581336975,0.0,0.0,0.01802993193268776,0.40726521611213684,0.3146600127220154,0.0,0.0,0.0,-0.8685322999954224,-0.36483830213546753,0.7777950763702393,0.4200000464916229,1.0,3.390805204617209e-06,-2.132404688381939e-06,-3.708747797759315e-08,0.0002635775599628687,0.0002693787682801485,-0.0001050964929163456,-0.0017706695944070816,0.004130705259740353,-0.00013547964044846594,-0.025093059986829758,0.026535045355558395,1.3169059753417969,-1.3188035488128662,1.636821985244751,-0.047281987965106964,0.4204670488834381,0.7064735889434814,0.42000001668930054,-1.4800902605056763,3.0000016689300537,-0.09589222818613052,-2.999999761581421,0.0027341183740645647,0.0023056548088788986,0.0018388464814051986,0.001332466839812696,0.13313046097755432,0.0992785170674324,0.06394241005182266,0.02700517699122429
0.05,0.01849210634827614,0.013863620348274708,0.0,0.9999580383300781,0.0,0.0,-0.009161033667623997,0.6359794735908508,0.4717807173728943,0.0,0.0,0.0,-4.072787284851074,-0.3648383319377899,0.777795135974884,0.4200000464916229,1.0,3.7651225284207612e-06,-2.211832452303497e-06,5.631207500300661e-09,0.0002653110132087022,0.000266915129031986,-0.00010440382175147533,-0.0017243130132555962,0.00417749211192131,-0.00012949398660566658,-0.04899819195270538,0.05859057232737541,1.3138048648834229,-1.5696847438812256,2.137122631072998,-0.3235151171684265,0.4204670488834381,0.7064735889434814,0.42000001668930054,-1.4300719499588013,2.9999992847442627,-0.1459309309720993,-3.0000016689300537,0.004983364138752222,0.0038831590209156275,0.0027102779131382704,0.0014622726012021303,0.1473652571439743,0.09743789583444595,0.045603588223457336,-0.008229957893490791
0.06666666666666667,0.03093440644443035,0.023356959223747253,0.0,0.9998091459274292,0.0,0.0,-0.019537415355443954,0.7761545181274414,0.6166086792945862,0.0,0.0,0.0,-0.007333690766245127,-0.3648383319377899,0.7777950763702393,0.4200000464916229,0.9999999403953552,3.4066986245306907e-06,-2.2855422230350086e-06,4.301130900330463e-07,0.0002670245012268424,0.00026791836717166007,-0.0001043803058564663,-0.0017406563274562359,0.004211660008877516,-0.00012850432540290058,-0.07871092855930328,0.09372341632843018,1.3065105676651,-1.8736158609390259,2.206942081451416,-0.5500407218933105,0.4204670488834381,0.7064735889434814,0.42000001668930054,-1.3800480365753174,3.0000014305114746,-0.12345564365386963,3.0000007152557373,0.0065291207283735275,0.004553063772618771,0.0024649002589285374,0.0002605687768664211,0.06445951759815216,0.00544438511133194,-0.05571844428777695,-0.11907298862934113
0.08333333333333333,0.03701850771903992,0.03677654266357422,0.0,0.9990677237510681,0.0,0.0,-0.04317038506269455,0.2298671305179596,0.8792240619659424,0.0,0.0,0.0,-3.7816293239593506,-0.3648383319377899,0.7777950763702393,0.4200000464916229,1.0,3.697237389133079e-06,-2.188894086430082e-06,-2.632152131809562e-07,0.000263897207332775,0.0002658645680639893,-0.00010433699935674667,-0.0017081270925700665,0.00415023323148489,-0.0001299154246225953,-0.1047663763165474,0.13434860110282898,1.295022964477539,-1.2898030281066895,2.6741743087768555,-0.7534337639808655,0.4204670488834381,0.7064735889434814,0.42000001668930054,-1.3300503492355347,2.999999761581421,-0.15542300045490265,-3.000000476837158,0.0012974148849025369,-0.0014691830147057772,-0.004402075428515673,-0.007509022485464811,-0.4430145025253296,-0.5014891624450684,-0.5627049207687378,-0.6269062161445618
0.1,0.04690086841583252,0.0517592690885067,0.0,0.9955368041992188,0.0,0.0,-0.0943739265203476,0.7387911081314087,0.9048406481742859,0.0,0.0,0.0,-6.938653945922852,-0.3648383319377899,0.7777950763702393,0.4200000464916229,0.9999999403953552,3.6202645787852816e-06,-2.2652204734185943e-06,1.7464172685777157e-07,0.00026676952256821096,0.00026740870089270175,-0.0001040799543261528,-0.0017386189429089427,0.004209231119602919,-0.0001277522387681529,-0.12724250555038452,0.1802240014076233,1.2831321954727173,-1.4132524728775024,2.8803017139434814,-0.7314943075180054,0.4204670488834381,0.7064735889434814,0.42000001668930054,-1.2800472974777222,2.9999992847442627,-0.20542919635772705,-3.0000009536743164,-0.001672562793828547,-0.005955117288976908,-0.010406235232949257,-0.015033803880214691,-0.08854015916585922,-0.18747609853744507,-0.285287082195282,-0.38190025091171265
0.11666666666666667,0.054909370839595795,0.06665053963661194,0.0,0.9920327067375183,0.0,0.0,-0.12598051130771637,0.5076702237129211,0.9064363837242126,0.0,0.0,0.0,-2.534421920776367,-0.3648383319377899,0.7777950763702393,0.4200000464916229,1.0,3.798244051722577e-06,-2.2627962152910186e-06,-1.50183694813677e-07,0.000263741152593866,0.00026566089945845306,-0.00010428996756672859,-0.0017054296331480145,0.004147564060986042,-0.00012979822349734604,-0.15613247454166412,0.22610384225845337,1.269362211227417,-1.7441402673721313,2.9581756591796875,-0.8172869682312012,0.4204670488834381,0.7064735889434814,0.42000001668930054,-1.230080246925354,2.9820756912231445,-0.17157401144504547,3.000000476837158,-0.005891577806323767,-0.011621471494436264,-0.01749453879892826,-0.02351866289973259,-0.15028147399425507,-0.2568178176879883,-0.35973498225212097,-0.45885998010635376
0.13333333333333333,0.061234474182128906,0.07923908531665802,0.0,0.9859119653701782,0.0,0.0,-0.16726499795913696,0.32888633012771606,0.6859757304191589,0.0,0.0,0.0,-5.850766658782959,-0.3648383319377899,0.777795135974884,0.4200000464916229,0.9999999403953552,3.55031761500868e-06,-2.2298022486211266e-06,2.929353684066882e-07,0.0002670320973265916,0.0002677934244275093,-0.00010417005978524685,-0.0017440698575228453,0.004213511943817139,-0.00012799800606444478,-0.18139204382896423,0.2787647843360901,1.2545782327651978,-1.2632582187652588,3.46522855758667,-0.9870373010635376,0.4204670488834381,0.7064735889434814,0.42000001668930054,-1.1848307847976685,2.4546356201171875,-0.20323508977890015,-2.999999761581421,-0.00911254808306694,-0.016727056354284286,-0.02440955489873886,-0.03216502442955971,-0.26114046573638916,-0.3695816695690155,-0.4734680652618408,-0.5726531744003296
0.15,0.06381745636463165,0.09243827313184738,0.0,0.9787051677703857,0.0,0.0,-0.2052711695432663,0.08366204798221588,0.8336324691772461,0.0,0.0,0.0,-4.0870161056518555,-0.36483830213546753,0.7777950763702393,0.4200000464916229,1.0,3.332025926283677e-06,-2.1019659470766783e-06,1.313283775061791e-07,0.00026730605168268085,0.00026859392528422177,-0.00010459637269377708,-0.0017496388172730803,0.004215574357658625,-0.00012928410433232784,-0.20960773527622223,0.33794838190078735,1.23215651512146,-1.8303372859954834,3.7973382472991943,-1.6882436275482178,0.4204670488834381,0.7064735889434814,0.42000001668930054,-1.1603024005889893,0.6279219388961792,-0.16941051185131073,2.999999523162842,-0.01467046421021223,-0.023692525923252106,-0.03269549459218979,-0.041682831943035126,-0.3875304162502289,-0.4462570548057556,-0.5000316500663757,-0.5488560199737549
0.16666666666666666,0.06996508687734604,0.10733065009117126,0.0,0.9655701518058777,0.0,0.0,-0.26014289259910583,0.35680994391441345,0.9407446980476379,0.0,0.0,0.0,-7.590961933135986,-0.3648383319377899,0.7777950763702393,0.4200000464916229,1.0,3.7371282815001905e-06,-2.233031636933447e-06,-1.8763215337003203e-07,0.000264328729826957,0.0002662690822035074,-0.00010445667430758476,-0.0017118192045018077,0.004157449118793011,-0.00013001686602365226,-0.24088254570960999,0.40480321645736694,1.201330542564392,-1.7711174488067627,4.281871795654297,-2.0837130546569824,0.4204670488834381,0.7064735889434814,0.42000001668930054,-1.118909478187561,3.000000238418579,-0.2010946273803711,-3.000000238418579,-0.01987508311867714,-0.029878981411457062,-0.03978060185909271,-0.04958358779549599,-0.5008164644241333,-0.5256571769714355,-0.5474902391433716,-0.5664485692977905
0.18333333333333332,0.07262367010116577,0.11988121271133423,0.0,0.9552604556083679,0.0,0.0,-0.2957659959793091,0.12785638868808746,0.6909471750259399,0.0,0.0,0.0,-3.292933940887451,-0.3648383319377899,0.777795135974884,0.4200000464916229,0.9999999403953552,3.6600679322873475e-06,-2.302136635989882e-06,2.528700520088023e-07,0.00026690925005823374,0.0002676027943380177,-0.0001041253563016653,-0.0017412796150892973,0.0042115445248782635,-0.00012787021114490926,-0.27557724714279175,0.47453629970550537,1.1562604904174805,-1.9006447792053223,4.494434356689453,-3.210984706878662,0.4204670488834381,0.7064735889434814,0.42000001668930054,-1.081780195236206,1.5511877536773682,-0.2511248290538788,-2.9999988079071045,-0.03091382421553135,-0.04058787599205971,-0.050138894468545914,-0.05957954749464989,-0.6933711171150208,-0.6563927531242371,-0.6185916066169739,-0.5805454254150391
0.2,0.07713408768177032,0.1335771530866623,0.0,0.9394030570983887,0.0,0.0,-0.3428146243095398,0.30610495805740356,0.8360347151756287,0.0,0.0,0.0,-6.819563865661621,-0.3648383319377899,0.7777950763702393,0.4200000464916229,1.0,3.5906386983697303e-06,-2.3002876332611777e-06,1.387365955451969e-07,0.0002665475767571479,0.0002673207491170615,-0.00010424014180898666,-0.0017325275111943483,0.004203495569527149,-0.00012820970732718706,-0.3067221939563751,0.5499559044837952,1.0947508811950684,-1.6160187721252441,4.66357946395874,-4.10523796081543,0.4204670488834381,0.7064735889434814,0.42000001668930054,-1.0351189374923706,3.00000262260437,-0.30115315318107605,-3.0000007152557373,-0.04492805898189545,-0.05345413088798523,-0.06188260391354561,-0.07024107128381729,-0.891137957572937,-0.8112756013870239,-0.7335425019264221,-0.6588171720504761
0.21666666666666667,0.07972105592489243,0.14440210163593292,0.0,0.9287540912628174,0.0,0.0,-0.37069642543792725,0.09313565492630005,0.5709123611450195,0.0,0.0,0.0,-2.5096139907836914,-0.3648383319377899,0.777795135974884,0.4200000464916229,1.0,3.6067460769118043e-06,-2.260896735606366e-06,1.9630940428783106e-08,0.0002644705818966031,0.0002655840362422168,-0.00010396447032690048,-0.0017087544547393918,0.004164231941103935,-0.00012832245556637645,-0.33413124084472656,0.6231153011322021,1.0158389806747437,-1.301527738571167,4.342761039733887,-5.255596160888672,0.4204670488834381,0.7064735889434814,0.42000001668930054,-0.9851126670837402,3.000001907348633,-0.3511795103549957,-2.999999761581421,-0.0610445998609066,-0.06880918145179749,-0.07533819228410721,-0.08186040073633194,-0.9603450894355774,-0.9481424689292908,-0.8239082098007202,-0.7027272582054138
0.23333333333333334,0.07794490456581116,0.15655747056007385,0.0,0.9128890633583069,0.0,0.0,-0.40820780396461487,-0.184273824095726,0.7844277620315552,0.0,0.0,0.0,-5.67624044418335,-0.36483830213546753,0.7777950763702393,0.4200000464916229,0.9999999403953552,3.742040007637115e-06,-2.2273377453529974e-06,4.589223294715339e-07,0.00026475079357624054,0.00026671396335586905,-0.0001045342069119215,-0.001718980842269957,0.004165731370449066,-0.00013019278412684798,-0.35414057970046997,0.6903579235076904,0.9199070334434509,-0.8968915939331055,3.7832746505737305,-6.135700225830078,0.4204670488834381,0.7064735889434814,0.42000001668930054,-0.9351038336753845,3.0,-0.4012070894241333,-3.000002384185791,-0.07678741216659546,-0.08454957604408264,-0.09102000296115875,-0.09671542048454285,-0.9808500409126282,-0.9720728397369385,-0.9560070037841797,-0.9064319729804993
0.25,0.08001517504453659,0.16391302645206451,0.0,0.9037972688674927,0.0,0.0,-0.42796093225479126,0.12779712677001953,0.3852156102657318,0.0,0.0,0.0,-1.2768235206604004,-0.3648383319377899,0.7777950763702393,0.4200000464916229,1.0,3.3941641959245317e-06,-2.2818860543338815e-06,1.336301380661098e-07,0.0002667922817636281,0.0002679384488146752,-0.00010439474135637283,-0.0017417253693565726,0.004206556361168623,-0.00012884114403277636,-0.36999213695526123,0.7437969446182251,0.8133134841918945,-0.6284520626068115,2.6973490715026855,-6.706215858459473,0.4204670488834381,0.7064735889434814,0.42000001668930054,-0.885094404220581,2.9999966621398926,-0.4512373208999634,-3.000001907348633,-0.09079332649707794,-0.0982767790555954,-0.10429065674543381,-0.10893025249242783,-0.9815049767494202,-0.9718127846717834,-0.931367814540863,-0.8273394703865051
0.26666666666666666,0.07686594128608704,0.17602622509002686,0.0,0.9090095162391663,0.0,0.0,-0.4167754352092743,-0.18374566733837128,0.6828955411911011,0.0,0.0,0.0,2.2859222888946533,-0.3648383319377899,0.777795135974884,0.4200000464916229,1.0,3.683193199321977e-06,-2.309913497811067e-06,2.101072880122956e-07,0.0002647913643158972,0.0002662580809555948,-0.00010421057231724262,-0.0017168582417070866,0.0041689565405249596,-0.00012909348879475147,-0.38226813077926636,0.7703890204429626,0.6996095180511475,-0.7382708787918091,0.8387770056724548,-6.823359966278076,0.4204670488834381,0.7064735889434814,0.42000001668930054,-0.8350844383239746,2.99990177154541,-0.5012685060501099,-2.999995231628418,-0.10736957937479019,-0.11475614458322525,-0.12072882801294327,-0.1253672093153,-0.6552183628082275,-0.7228243947029114,-0.7861242294311523,-0.8431090116500854
0.2833333333333333,0.07819433510303497,0.18184302747249603,0.0,0.9078822135925293,0.0,0.0,-0.4192253053188324,0.09494397789239883,0.28390103578567505,0.0,0.0,0.0,-0.9688806533813477,-0.3648383319377899,0.7777950763702393,0.4200000464916229,1.0,3.3066860396502307e-06,-2.2123508642835077e-06,2.6256594765072805e-07,0.00026660787989385426,0.00026745101786218584,-0.00010424572974443436,-0.0017352577997371554,0.004204442724585533,-0.00012828593025915325,-0.3907468914985657,0.7822558879852295,0.5854059457778931,-0.2381938099861145,0.29673346877098083,-6.736920356750488,0.4204670488834381,0.7064735889434814,0.42000001668930054,-0.7850756049156189,3.0000007152557373,-0.5512992143630981,-2.999997615814209,-0.11890880018472672,-0.1268852949142456,-0.133482426404953,-0.13875263929367065,-0.9567332863807678,-0.9376184940338135,-0.926367461681366,-0.9221681356430054
0.3,0.0761442482471466,0.18470588326454163,0.0,0.9133949875831604,0.0,0.0,-0.4070744812488556,-0.2041035294532776,0.13803790509700775,0.0,0.0,0.0,2.420722723007202,-0.3648383319377899,0.7777950763702393,0.4200000464916229,1.0,3.641024932221626e-06,-2.377741111558862e-06,-4.1939159700632445e-07,0.0002661148027982563,0.00026725901989266276,-0.00010423362255096436,-0.0017336049349978566,0.004194726701825857,-0.0001285561011172831,-0.38954687118530273,0.7845480442047119,0.47903114557266235,0.3951891362667084,-0.13471505045890808,-5.926292896270752,0.4204670488834381,0.7064735889434814,0.42000001668930054,-0.735066831111908,3.0000007152557373,-0.6013278961181641,-3.000000238418579,-0.13660652935504913,-0.144342839717865,-0.1507638692855835,-0.1558983325958252,-1.0181224346160889,-1.0137280225753784,-1.0103697776794434,-1.0076755285263062
0.31666666666666665,0.07027661800384521,0.1855396181344986,0.0,0.9119139313697815,0.0,0.0,-0.410381555557251,-0.42027780413627625,0.019202006980776787,0.0,0.0,0.0,-1.3432209491729736,-0.3648383319377899,0.777795135974884,0.4200000464916229,1.0,3.621596988523379e-06,-2.2888571038492955e-06,1.9691172781222122e-07,0.0002673400449566543,0.0002680283214431256,-0.00010420801118016243,-0.0017466888530179858,0.00421897554770112,-0.00012793613132089376,-0.38494524359703064,0.7851749658584595,0.4317874014377594,0.08302218466997147,-0.04406954348087311,-0.18697543442249298,0.4204670488834381,0.7064735889434814,0.42000001668930054,-0.6850617527961731,2.999999523162842,-0.6517986059188843,-3.0000290870666504,-0.1485443115234375,-0.15641847252845764,-0.1628136783838272,-0.16770385205745697,-0.41938719153404236,-0.432861328125,-0.42733511328697205,-0.39814138412475586
0.3333333333333333,0.06236425042152405,0.18368226289749146,0.0,0.9165025949478149,0.0,0.0,-0.4000287353992462,-0.4679124653339386,-0.18325203657150269,0.0,0.0,0.0,2.1699066162109375,-0.36452656984329224,0.7795733213424683,0.4199998378753662,0.9996014833450317,2.7227677492192015e-05,-1.2764394341502339e-05,-0.02822541631758213,0.010304057970643044,0.07922764122486115,-0.0004046287795063108,-0.022321606054902077,0.021068692207336426,-1.434901475906372,-0.3844113349914551,0.7875739336013794,0.42839622497558594,0.16720940172672272,0.08202975243330002,-0.2698119282722473,0.4204670488834381,0.7064735889434814,0.42000001668930054,-0.635054886341095,3.0000009536743164,-0.7018460631370544,-2.999990701675415,-0.15635307133197784,-0.1636190265417099,-0.1691613346338272,-0.1729072481393814,-0.42794662714004517,-0.3702763319015503,-0.301379531621933,-0.21947410702705383
0.35,0.053063083440065384,0.17892195284366608,0.0,0.9143185019493103,0.0,0.0,-0.4049958288669586,-0.6006860136985779,-0.32601675391197205,0.0,0.0,0.0,-1.5747060775756836,-0.3618381917476654,0.7831701636314392,0.4202139675617218,0.9983136653900146,0.005332164000719786,-0.00018685792747419327,-0.057803958654403687,0.26056158542633057,0.326252818107605,0.007030070293694735,0.4277229905128479,-0.08649621158838272,-5.277271270751953,-0.3796733617782593,0.7904796600341797,0.42466384172439575,0.418373167514801,0.31403255462646484,-0.18764977157115936,0.4204670488834381,0.7064735889434814,0.42000001668930054,-0.5850496292114258,2.9999895095825195,-0.7519035339355469,-2.9999938011169434,-0.1642046719789505,-0.17023517191410065,-0.17438435554504395,-0.17656521499156952,-0.45614591240882874,-0.3763256371021271,-0.2897323966026306,-0.19598713517189026
0.36666666666666664,0.041664596647024155,0.17180652916431427,0.0,0.9184520840644836,0.0,0.0,-0.3955322504043579,-0.7242141962051392,-0.4665372669696808,0.0,0.0,0.0,2.138848066329956,-0.3560725152492523,0.7899863123893738,0.4201015830039978,0.9928039908409119,0.0025126889813691378,-0.00027030293131247163,-0.11972330510616302,0.40075331926345825,0.46065208315849304,-0.0021211986895650625,-0.06656185537576675,-0.020903073251247406,-8.748398780822754,-0.3705700635910034,0.7970303297042847,0.42160850763320923,0.6660191416740417,0.45574188232421875,-0.1608506143093109,0.4204670488834381,0.7064735889434814,0.42000001668930054,-0.53504478931427,2.9999756813049316,-0.8019458651542664,-2.999990224838257,-0.1728828400373459,-0.17690782248973846,-0.17895686626434326,-0.17896470427513123,-0.5049753189086914,-0.36763274669647217,-0.2253468930721283,-0.0802539736032486
0.3833333333333333,0.029495712369680405,0.1624346673488617,0.0,0.9161689877510071,0.0,0.0,-0.4007921814918518,-0.7747489809989929,-0.6050512790679932,0.0,0.0,0.0,-1.551451563835144,-0.3491699695587158,0.7977965474128723,0.4200000464916229,0.9807218909263611,8.626864769212261e-07,3.350907036292483e-06,-0.1954084038734436,0.4718577563762665,0.5250217318534851,-9.993216735892929e-06,-3.6782585084438324e-05,-0.00038711243541911244,-11.73316478729248,-0.3570144474506378,0.8040418028831482,0.41971299052238464,0.9469361305236816,0.4577332139015198,-0.1039576604962349,0.4204670488834381,0.7064735889434814,0.42000001668930054,-0.48504042625427246,2.999671220779419,-0.8519943356513977,-2.9993064403533936,-0.18177998065948486,-0.18311691284179688,-0.18238520622253418,-0.1795756071805954,-0.5047207474708557,-0.34346234798431396,-0.17456738650798798,-0.002121006604284048
0.4,0.019689422100782394,0.150295689702034,0.0,0.902350127696991,0.0,0.0,-0.43100371956825256,-0.49037104845046997,-0.7845502495765686,0.0,0.0,0.0,-4.803257942199707,-0.33600902557373047,0.810750424861908,0.4202761948108673,0.9694221019744873,-0.006728379987180233,0.0015523775946348906,-0.24530170857906342,1.0301584005355835,0.9746050834655762,0.06854914873838425,-3.0789949893951416,1.5656553506851196,-5.058234691619873,-0.34051743149757385,0.8138220310211182,0.4206200838088989,1.1740074157714844,0.79317706823349,0.11599105596542358,0.4204670488834381,0.7064735889434814,0.42000001668930054,-0.43497928977012634,3.0,-0.901996374130249,-2.999974250793457,-0.18914790451526642,-0.18781378865242004,-0.18419501185417175,-0.17836599051952362,-0.34847989678382874,-0.19498702883720398,-0.026632701978087425,0.1514633595943451
0.4166666666666667,0.008248251862823963,0.13627780973911285,0.0,0.8741368651390076,0.0,0.0,-0.4856797158718109,-0.7550224661827087,-0.8678216338157654,0.0,0.0,0.0,-8.293168067932129,-0.3074333071708679,0.8300687074661255,0.4241683781147003,0.9552596807479858,-0.016992395743727684,-0.02119014412164688,-0.2945185601711273,2.51841139793396,1.3094866275787354,0.32110917568206787,15.995749473571777,-12.56455135345459,4.730827331542969,-0.3115856647491455,0.833827018737793,0.42397022247314453,2.4086341857910156,1.582292079925537,0.3945363461971283,0.4204670488834381,0.7064735889434814,0.42000001668930054,-0.39400625228881836,1.5009245872497559,-0.952011227607727,-2.999821186065674,-0.19719278812408447,-0.19286885857582092,-0.1860349178314209,-0.17687124013900757,-0.5147620439529419,-0.324599951505661,-0.12376343458890915,0.08089983463287354
0.43333333333333335,-0.00028870071400888264,0.11951370537281036,0.0,0.8292829394340515,0.0,0.0,-0.5588289499282837,-0.45083680748939514,-1.0474817752838135,0.0,0.0,0.0,-10.953145027160645,-0.24494415521621704,0.8606606721878052,0.43025073409080505,0.9346733689308167,0.02966534160077572,-0.060134727507829666,-0.34912657737731934,4.868771553039551,1.5155028104782104,1.2715126276016235,9.955511093139648,-8.423450469970703,16.4736270904541,-0.24846121668815613,0.8649114966392517,0.4300364553928375,4.523711204528809,2.017874002456665,1.0352251529693604,0.4204670488834381,0.7064735889434814,0.42000001668930054,-0.37669041752815247,0.8913452625274658,-0.923711359500885,2.996863603591919,-0.2076873928308487,-0.19933131337165833,-0.18851934373378754,-0.17557205259799957,-0.7023999691009521,-0.43134644627571106,-0.17139656841754913,0.06806700676679611
0.45,-0.0056231762282550335,0.10840266942977905,0.0,0.7687724232673645,0.0,0.0,-0.6395224332809448,-0.26675742864608765,-0.6971675753593445,0.0,0.0,0.0,-12.857786178588867,-0.1531522423028946,0.8898476958274841,0.447534441947937,0.9001806378364563,0.07210921496152878,-0.07528223842382431,-0.4228564202785492,6.630852222442627,1.3237428665161133,1.1114494800567627,9.323373794555664,-12.439096450805664,12.01894760131836,-0.15704068541526794,0.8947234153747559,0.447439581155777,6.430943489074707,1.8019132614135742,1.1169700622558594,0.4204670488834381,0.7064735889434814,0.42000001668930054,-0.3600485324859619,1.1610218286514282,-0.9499969482421875,-3.0,-0.22253507375717163,-0.21176917850971222,-0.19580446183681488,-0.1783498227596283,-0.5457851886749268,-0.6231415271759033,-0.38135862350463867,-0.17749632894992828
0.4666666666666667,-0.012996386736631393,0.10120268166065216,0.0,0.7182517051696777,0.0,0.0,-0.6957833766937256,-0.43311792612075806,-0.405513733625412,0.0,0.0,0.0,-7.767102241516113,-0.05125441029667854,0.906384289264679,0.465107262134552,0.8759111166000366,0.08943773061037064,-0.07330472767353058,-0.46840888261795044,6.311740875244141,-0.013513430953025818,0.9377807974815369,7.4773850440979,-20.9564208984375,13.95435905456543,-0.05314575880765915,0.9137823581695557,0.465036004781723,6.181790351867676,0.6034811735153198,1.0981953144073486,0.4204670488834381,0.7064735889434814,0.42000001668930054,-0.34032297134399414,1.1352980136871338,-0.9896148443222046,-1.933566689491272,-0.23627063632011414,-0.22458213567733765,-0.2036564201116562,-0.18205063045024872,-0.7206350564956665,-0.658710777759552,-0.4011843502521515,-0.18852835893630981
0.48333333333333334,-0.016831204295158386,0.08861370384693146,0.0,0.6900225877761841,0.0,0.0,-0.7237878441810608,-0.2295314222574234,-0.7348000407218933,0.0,0.0,0.0,-3.51373028755188,0.04944166913628578,0.9074549674987793,0.4805995523929596,0.8284153938293457,0.08191081136465073,-0.070637546479702,-0.5495715737342834,5.709344863891602,-1.5895380973815918,0.8586329817771912,6.266480445861816,-11.409292221069336,29.207534790039062,0.047381870448589325,0.9156039953231812,0.4809923768043518,5.879656791687012,-0.5967375040054321,1.0000066757202148,0.4204670488834381,0.7064735889434814,0.42000001668930054,-0.32364416122436523,0.6845236420631409,-1.0389260053634644,-3.000001907348633,-0.24004961550235748,-0.23278629779815674,-0.20747540891170502,-0.18217167258262634,-0.04926443472504616,-0.6311973929405212,-0.31566116213798523,-0.04312095791101456
0.5,-0.018304556608200073,0.0820002630352974,0.0,0.6865295767784119,0.0,0.0,-0.7271018624305725,0.026681602001190186,-0.29524970054626465,0.0,0.0,0.0,0.277133584022522,0.13694621622562408,0.8908398151397705,0.4924760162830353,0.7796689867973328,0.07253255695104599,-0.04736857861280441,-0.6201704144477844,4.74041748046875,-2.0589723587036133,0.487549751996994,6.494922161102295,-8.886397361755371,19.603137969970703,0.13628284633159637,0.8983200192451477,0.49315571784973145,4.938462257385254,-1.3464218378067017,0.5562248229980469,0.4204670488834381,0.7064735889434814,0.42000001668930054,-0.3140202462673187,0.4538920223712921,-1.088948130607605,-3.0000009536743164,-0.24000784754753113,-0.2400083690881729,-0.21489600837230682,-0.18528886139392853,0.011245285160839558,0.000398497300921008,-0.3627340495586395,-0.1745988130569458
0.5166666666666666,-0.016589120030403137,0.07191899418830872,0.0,0.671855628490448,0.0,0.0,-0.7406821250915527,0.14523544907569885,-0.6213662624359131,0.0,0.0,0.0,-3.220590591430664,0.21216143667697906,0.8660737872123718,0.49491673707962036,0.7097291350364685,0.037010736763477325,-0.04925183951854706,-0.7017754316329956,3.9423470497131348,-2.241565227508545,-0.051913388073444366,-12.06772232055664,5.564803123474121,1.6566928625106812,0.21053194999694824,0.8741747140884399,0.4970934987068176,4.136691093444824,-1.7594507932662964,0.053018584847450256,0.4204670488834381,0.7064735889434814,0.42000001668930054,-0.30590739846229553,0.4690680205821991,-1.138970136642456,-2.9999828338623047,-0.23473235964775085,-0.23502488434314728,-0.21590512990951538,-0.1848665028810501,0.27332013845443726,0.31171226501464844,0.009584811516106129,0.057537369430065155
0.5333333333333333,-0.012081961147487164,0.06642235070466995,0.0,0.6696630716323853,0.0,0.0,-0.7426650524139404,0.29613927006721497,-0.2818121612071991,0.0,0.0,0.0,0.5245169997215271,0.2746657133102417,0.8336964845657349,0.4888492822647095,0.6454565525054932,-0.06013782322406769,-0.08356188982725143,-0.756826639175415,3.0849764347076416,-2.3668758869171143,-0.28170230984687805,4.008470058441162,4.204453945159912,9.99603271484375,0.2728753685951233,0.8416390419006348,0.49462395906448364,3.5166406631469727,-2.07576847076416,-0.40172576904296875,0.4204670488834381,0.7064735889434814,0.42000001668930054,-0.2938138544559479,0.8967295289039612,-1.1889922618865967,-2.999741554260254,-0.23213638365268707,-0.2310395985841751,-0.21604229509830475,-0.18479911983013153,0.27052533626556396,0.3412381112575531,0.0985523909330368,0.04280359670519829
0.55,-0.005259005818516016,0.059327539056539536,0.0,0.656552255153656,0.0,0.0,-0.7542805671691895,0.4366781711578369,-0.459640771150589,0.0,0.0,0.0,-3.00034236907959,0.32455241680145264,0.8013665080070496,0.475997656583786,0.5939179062843323,-0.1307416409254074,-0.08811298757791519,-0.7889259457588196,2.344820261001587,-2.132967948913574,-0.833934485912323,-9.567865371704102,12.35352611541748,5.511778354644775,0.32346493005752563,0.809683620929718,0.48409605026245117,2.6469173431396484,-1.9421663284301758,-0.8199658393859863,0.4204670488834381,0.7064735889434814,0.42000001668930054,-0.2781122922897339,0.8044348359107971,-1.2390143871307373,-2.998171806335449,-0.22383183240890503,-0.22232785820960999,-0.2117237001657486,-0.1827995777130127,0.5019217133522034,0.5344297885894775,0.2968899607658386,0.1214461475610733
0.5666666666666667,0.0019158688373863697,0.05517793446779251,0.0,0.6562657356262207,0.0,0.0,-0.7545298337936401,0.4396553933620453,-0.1786053627729416,0.0,0.0,0.0,0.8172074556350708,0.36334750056266785,0.7710241675376892,0.460622102022171,0.5189921855926514,-0.13498345017433167,-0.04430413618683815,-0.8428900837898254,2.087224245071411,-1.730578899383545,-0.9698916077613831,6.085172176361084,-2.508131980895996,-20.343809127807617,0.3605075478553772,0.777310848236084,0.4676785171031952,1.823739767074585,-1.8717952966690063,-1.0915751457214355,0.4204670488834381,0.7064735889434814,0.42000001668930054,-0.2610009014606476,1.3780444860458374,-1.2869139909744263,-2.731313467025757,-0.2160041332244873,-0.2140776813030243,-0.20711112022399902,-0.18163606524467468,0.5246143341064453,0.5259017944335938,0.3088611364364624,0.06142719089984894
0.5833333333333334,0.010787094943225384,0.04849221557378769,0.0,0.6446373462677002,0.0,0.0,-0.7644885182380676,0.5745565295219421,-0.4256347119808197,0.0,0.0,0.0,-2.709289312362671,0.389754056930542,0.7449374794960022,0.43911606073379517,0.5236089825630188,-0.1523960381746292,-0.042660344392061234,-0.8371315598487854,1.3272383213043213,-2.3160858154296875,-1.0617867708206177,-4.4272942543029785,-5.692348480224609,14.651719093322754,0.38857030868530273,0.7504066228866577,0.4461653232574463,1.2965786457061768,-1.434722900390625,-1.398817777633667,0.4204670488834381,0.7064735889434814,0.42000001668930054,-0.2401517629623413,0.6754767894744873,-1.2477140426635742,2.9992876052856445,-0.2050391137599945,-0.2038632333278656,-0.20082011818885803,-0.18032021820545197,0.5595890283584595,0.5199074745178223,0.3110097050666809,0.006146640051156282
0.6,0.017419548705220222,0.04482034221291542,0.0,0.6456410884857178,0.0,0.0,-0.7636409997940063,0.3303607702255249,-0.17606113851070404,0.0,0.0,0.0,0.9988973736763,0.4065852463245392,0.7250825762748718,0.42601871490478516,0.5210670232772827,-0.11099082231521606,0.010427983477711678,-0.8462040424346924,0.45347926020622253,-1.0276646614074707,0.035650141537189484,-5.74451208114624,1.5541285276412964,6.77943754196167,0.40417611598968506,0.7286590933799744,0.43075084686279297,0.42511293292045593,-0.7724496722221375,0.08385882526636124,0.4204670488834381,0.7064735889434814,0.42000001668930054,-0.23693664371967316,0.23190049827098846,-1.2683377265930176,-2.9982082843780518,-0.19695253670215607,-0.19657321274280548,-0.19667424261569977,-0.18124592304229736,0.5050804018974304,0.43578532338142395,0.2548954486846924,-0.05237487703561783
0.6166666666666667,0.024476071819663048,0.04436874762177467,0.0,0.6359754800796509,0.0,0.0,-0.7717092633247375,0.45684605836868286,0.06138762831687927,0.0,0.0,0.0,-2.363219738006592,0.4108087420463562,0.7158771753311157,0.4252249598503113,0.53755784034729,-0.10409581661224365,-0.005966604687273502,-0.836755633354187,0.07129376381635666,-1.0181421041488647,0.045560527592897415,-20.189836502075195,-3.602353811264038,30.639196395874023,0.4083995223045349,0.7205437421798706,0.4296926259994507,0.00825926661491394,-0.20480965077877045,0.06948021054267883,0.4204670488834381,0.7064735889434814,0.42000001668930054,-0.22975744307041168,-0.03832218796014786,-1.2302050590515137,2.998971700668335,-0.18792766332626343,-0.18932071328163147,-0.192561075091362,-0.18244029581546783,0.5164171457290649,0.4084954857826233,0.24086451530456543,-0.0625341460108757
0.6333333333333333,0.0285703856498003,0.03985729068517685,0.0,0.6384627819061279,0.0,0.0,-0.7696526646614075,0.20820291340351105,-0.3132235109806061,0.0,0.0,0.0,1.1742175817489624,0.41113919019699097,0.7086866497993469,0.4244634509086609,0.5656694769859314,-0.09725447744131088,-0.04643924906849861,-0.8175591230392456,-0.10497036576271057,-0.5567482113838196,-0.07227358222007751,-3.891108274459839,-4.507210731506348,1.854044795036316,0.4086364507675171,0.7167811393737793,0.4306078553199768,-0.04621897637844086,-0.22390152513980865,0.129756361246109,0.4204670488834381,0.7064735889434814,0.42000001668930054,-0.26812562346458435,-2.9999947547912598,-1.2510329484939575,-2.999251365661621,-0.17693211138248444,-0.1800878793001175,-0.18580642342567444,-0.1805076152086258,0.48002922534942627,0.4244142174720764,0.33812424540519714,0.10496576875448227
0.65,0.03446178510785103,0.04040523245930672,0.0,0.629183828830719,0.0,0.0,-0.7772564888000488,0.3625551462173462,0.033104848116636276,0.0,0.0,0.0,-2.1502442359924316,0.41114747524261475,0.7064544558525085,0.42480984330177307,0.5746764540672302,-0.10763868689537048,-0.05954226106405258,-0.8090831637382507,0.11333411186933517,0.0856480523943901,0.10349355638027191,-3.993417263031006,3.580660104751587,-1.1795660257339478,0.4087435007095337,0.7165278792381287,0.43253278732299805,0.1844894289970398,0.15341618657112122,0.12073585391044617,0.4204670488834381,0.7064735889434814,0.42000001668930054,-0.30006229877471924,-0.9718575477600098,-1.3009787797927856,-2.995875120162964,-0.1720971018075943,-0.1759328544139862,-0.18257588148117065,-0.1805802434682846,0.45977580547332764,0.37051618099212646,0.2846304178237915,0.06734628230333328
0.6666666666666666,0.04179791361093521,0.036261215806007385,0.0,0.6335158944129944,0.0,0.0,-0.773729681968689,0.44026419520378113,-0.27783602476119995,0.0,0.0,0.0,1.5421013832092285,0.41257768869400024,0.7078238725662231,0.4254482090473175,0.5652072429656982,-0.12742795050144196,-0.07268774509429932,-0.8118000626564026,0.07587510347366333,0.0809207633137703,0.015581294894218445,-2.4185516834259033,-0.0005045449361205101,-1.0628225803375244,0.4095218777656555,0.7194470763206482,0.4350242614746094,-0.09871559590101242,0.18269693851470947,0.17103418707847595,0.4204670488834381,0.7064735889434814,0.42000001668930054,-0.343864768743515,-2.99998140335083,-1.3509750366210938,-2.9998910427093506,-0.16265366971492767,-0.16802796721458435,-0.1760215312242508,-0.17748649418354034,0.4688177704811096,0.4070524573326111,0.36047229170799255,0.1894277036190033
0.6833333333333333,0.051547519862651825,0.036073483526706696,0.0,0.635773777961731,0.0,0.0,-0.7718754410743713,0.5943248867988586,0.022237226366996765,0.0,0.0,0.0,-0.23103004693984985,0.4124411344528198,0.7088966369628906,0.42506590485572815,0.5705834627151489,-0.12344582378864288,-0.08731726557016373,-0.8071996569633484,-0.00033897513640113175,0.03212613984942436,0.0028177956119179726,-0.24971237778663635,0.13143514096736908,0.40824535489082336,0.4090457558631897,0.7216441035270691,0.43839409947395325,-0.009057208895683289,0.15611377358436584,0.24607929587364197,0.4204670488834381,0.7064735889434814,0.42000001668930054,-0.39382678270339966,-2.9977128505706787,-1.400948166847229,-2.9996213912963867,-0.15719816088676453,-0.16322043538093567,-0.17142100632190704,-0.17494533956050873,0.39737313985824585,0.3497227430343628,0.3383508622646332,0.2299851030111313
0.7,0.06268737465143204,0.03304349258542061,0.0,0.64910489320755,0.0,0.0,-0.7606989145278931,0.7020953297615051,-0.23301367461681366,0.0,0.0,0.0,3.3451268672943115,0.41232284903526306,0.7086320519447327,0.424824982881546,0.5719952583312988,-0.11609093844890594,-0.0822061076760292,-0.8078282475471497,-0.010922906920313835,-0.029086174443364143,-0.021513115614652634,1.532352328300476,-0.5410931706428528,0.10713876783847809,0.40852582454681396,0.7235172390937805,0.4460505247116089,-0.062405552715063095,0.05104373022913933,0.729360818862915,0.4204670488834381,0.7064735889434814,0.42000001668930054,-0.4438396096229553,-2.999999761581421,-1.4509665966033936,-2.999999523162842,-0.1522497981786728,-0.15827339887619019,-0.1657852828502655,-0.17005416750907898,0.15911900997161865,0.20687372982501984,0.29887285828590393,0.3141484260559082
0.7166666666666667,0.07554694265127182,0.0270856786519289,0.0,0.6518965363502502,0.0,0.0,-0.758307933807373,0.8063054084777832,-0.4054097831249237,0.0,0.0,0.0,-0.5650588870048523,0.4119308888912201,0.7076227068901062,0.42398908734321594,0.5753307938575745,-0.091950424015522,-0.06532152742147446,-0.8101065754890442,-0.027502210810780525,-0.07163043320178986,-0.06002983823418617,4.001041889190674,-1.402952790260315,0.18858833611011505,0.41249608993530273,0.7232030034065247,0.45617663860321045,0.4739871025085449,-0.10754487663507462,0.6552257537841797,0.4204670488834381,0.7064735889434814,0.42000001668930054,-0.49385249614715576,-2.9999992847442627,-1.5009849071502686,-3.000000238418579,-0.15134350955486298,-0.15605631470680237,-0.16146457195281982,-0.16470788419246674,0.01636020839214325,0.11559335142374039,0.2638539671897888,0.35785427689552307
0.7333333333333333,0.09023597836494446,0.018151147291064262,0.0,0.6323822736740112,0.0,0.0,-0.7746564745903015,0.9150530099868774,-0.6084462404251099,0.0,0.0,0.0,-3.951341390609741,0.41128477454185486,0.7059422135353088,0.4222829341888428,0.5791935324668884,-0.048642054200172424,-0.03468060865998268,-0.8129981756210327,-0.042654722929000854,-0.11135894805192947,-0.1158677190542221,6.782814025878906,-2.359532594680786,0.16456414759159088,0.4254344701766968,0.7219828367233276,0.47412025928497314,1.067875862121582,-0.05198868364095688,1.6092753410339355,0.4204670488834381,0.7064735889434814,0.42000001668930054,-0.5438650846481323,-2.999974489212036,-1.551003098487854,-2.999999523162842,-0.1533818542957306,-0.15619079768657684,-0.1589093953371048,-0.1602306216955185,-0.17310097813606262,-0.053978726267814636,0.10979074239730835,0.23493489623069763
0.75,0.1028938740491867,0.013729103840887547,0.0,0.625647783279419,0.0,0.0,-0.7801056504249573,0.6667946577072144,-0.2905971109867096,0.0,0.0,0.0,-0.025191213935613632,0.41053900122642517,0.7037391066551208,0.42004460096359253,0.5803229212760925,6.173310976009816e-05,0.0005695883883163333,-0.8143861889839172,-0.026366254314780235,-0.03287571296095848,-0.02226199395954609,-0.4060766398906708,-0.830364465713501,0.607197105884552,0.4439712464809418,0.723348081111908,0.5077976584434509,1.26552414894104,0.28165310621261597,2.3418283462524414,0.4204670488834381,0.7064735889434814,0.42000001668930054,-0.5848948955535889,-1.9766796827316284,-1.601017951965332,-3.000000476837158,-0.16032055020332336,-0.16087554395198822,-0.16075685620307922,-0.15987882018089294,-0.19879430532455444,-0.14302176237106323,-0.05209716409444809,0.011916076764464378
0.7666666666666666,0.11117496341466904,0.01107582077383995,0.0,0.6419627666473389,0.0,0.0,-0.7667357921600342,0.44032230973243713,-0.10432712733745575,0.0,0.0,0.0,3.339921712875366,0.41052737832069397,0.7037596106529236,0.4199998676776886,0.5803235173225403,-2.2590616026718635e-06,-8.193336725526024e-06,-0.8143860101699829,7.79646506998688e-05,-0.0005357041954994202,-8.920649997889996e-05,0.014103107154369354,-0.006273308768868446,-0.001124636153690517,0.4646037817001343,0.7251348495483398,0.5397287607192993,1.1329450607299805,0.005410756915807724,1.5981533527374268,0.4204670488834381,0.7064735889434814,0.42000001668930054,-0.5900830626487732,1.0906047821044922,-1.6044973134994507,2.1387698650360107,-0.16290120780467987,-0.16251225769519806,-0.16095687448978424,-0.15902921557426453,-0.10029324889183044,-0.04452979192137718,0.03416004031896591,0.09197009354829788
0.7833333333333333,0.1152891293168068,0.009418390691280365,0.0,0.6443561911582947,0.0,0.0,-0.7647255063056946,0.1815604865550995,-0.023723797872662544,0.0,0.0,0.0,-0.5914812088012695,0.4105274975299835,0.703759491443634,0.41999995708465576,0.5803232789039612,-1.3567521364166168e-06,-5.651148512697546e-06,-0.8143861889839172,0.00011048007581848651,-0.00039687822572886944,-7.829326204955578e-05,0.009860212914645672,-0.002780608367174864,-0.0008995641255751252,0.4766785800457001,0.7263731956481934,0.5602227449417114,0.30664438009262085,0.06252026557922363,1.0324368476867676,0.4204670488834381,0.7064735889434814,0.42000001668930054,-0.5780841708183289,0.39899519085884094,-1.5545214414596558,3.0,-0.16252364218235016,-0.16169023513793945,-0.15936851501464844,-0.15693022310733795,0.02970920316874981,0.05659869685769081,0.09651454538106918,0.12244617938995361
0.8,0.11606205254793167,0.010578052140772343,0.0,0.6565831303596497,0.0,0.0,-0.7542536854743958,0.017059922218322754,0.2016144096851349,0.0,0.0,0.0,2.6930651664733887,0.4105274975299835,0.703759491443634,0.41999995708465576,0.5803232192993164,-1.3720197102884413e-06,-5.577609954343643e-06,-0.8143861889839172,0.00011202544555999339,-0.00039801938692107797,-7.843971252441406e-05,0.009894353337585926,-0.002795956563204527,-0.0009056528215296566,0.4801877737045288,0.7261512279510498,0.5756862163543701,0.09679453819990158,-0.0664466917514801,0.8824988603591919,0.4204670488834381,0.7064735889434814,0.42000001668930054,-0.5697898268699646,0.5732542276382446,-1.5044955015182495,2.999999523162842,-0.16150690615177155,-0.1602722853422165,-0.15737952291965485,-0.15453283488750458,0.01919194683432579,0.04940807819366455,0.08585001528263092,0.11475351452827454
0.8166666666666667,0.11447164416313171,0.009487557224929333,0.0,0.6555230021476746,0.0,0.0,-0.7551751732826233,-0.12002028524875641,-0.13931488990783691,0.0,0.0,0.0,-1.103671908378601,0.4105274975299835,0.703759491443634,0.41999995708465576,0.5803231596946716,-1.3619004448628402e-06,-5.6974595281644724e-06,-0.8143861889839172,0.00011183483729837462,-0.0003979697066824883,-7.84420408308506e-05,0.00989240501075983,-0.0027956741396337748,-0.000905122491531074,0.47836846113204956,0.7264421582221985,0.5854710340499878,-0.3465249538421631,0.013808660209178925,0.4347674250602722,0.4204670488834381,0.7064735889434814,0.42000001668930054,-0.5694168210029602,-0.4408379793167114,-1.4544390439987183,2.999999523162842,-0.1590748131275177,-0.15773427486419678,-0.15469461679458618,-0.15178318321704865,0.14244668185710907,0.15172713994979858,0.1579160988330841,0.15865397453308105
0.8333333333333334,0.1146329939365387,0.013302215375006199,0.0,0.6650215983390808,0.0,0.0,-0.7468240857124329,-0.041902173310518265,0.2952197194099426,0.0,0.0,0.0,2.1199593544006348,0.4105274975299835,0.703759491443634,0.41999995708465576,0.5803232789039612,-1.377460307594447e-06,-5.65459777135402e-06,-0.8143860697746277,0.00011179137072758749,-0.0003980066685471684,-7.845088839530945e-05,0.009893184527754784,-0.0027966960333287716,-0.0009051106753759086,0.474996417760849,0.7245688438415527,0.5922186374664307,0.01663791388273239,-0.010894376784563065,0.40975937247276306,0.4204670488834381,0.7064735889434814,0.42000001668930054,-0.5538315176963806,2.078153133392334,-1.4715296030044556,-2.999999523162842,-0.16132472455501556,-0.1590755432844162,-0.15521785616874695,-0.15156853199005127,-0.03444564715027809,-0.012302694842219353,0.009153833612799644,0.034543346613645554
0.85,0.11634211987257004,0.012771496549248695,0.0,0.6617289781570435,0.0,0.0,-0.7497431039810181,0.1477375477552414,-0.04514900967478752,0.0,0.0,0.0,-1.25751531124115,0.4105274975299835,0.703759491443634,0.41999995708465576,0.5803232789039612,-1.3931961575508467e-06,-5.583192887570476e-06,-0.8143861889839172,0.00011213839752599597,-0.00039803102845326066,-7.844273932278156e-05,0.009894966147840023,-0.002796122571453452,-0.0009059656877070665,0.47486311197280884,0.7257708311080933,0.5964950323104858,-0.14585433900356293,-0.010171670466661453,0.24713332951068878,0.4204670488834381,0.7064735889434814,0.42000001668930054,-0.5619841814041138,-2.6404917240142822,-1.4328848123550415,3.0,-0.15853293240070343,-0.15665501356124878,-0.15312643349170685,-0.14962509274482727,0.04038434103131294,0.0448652058839798,0.04858263209462166,0.06169463321566582
0.8666666666666667,0.12036484479904175,0.014731700532138348,0.0,0.6701555252075195,0.0,0.0,-0.7422206997871399,0.27701419591903687,0.17503567039966583,0.0,0.0,0.0,2.1827232837677,0.4105274975299835,0.703759491443634,0.41999995708465576,0.5803232192993164,-1.3831893284077523e-06,-5.706229330826318e-06,-0.8143861889839172,0.00011194397666258737,-0.0003979743050877005,-7.84415751695633e-05,0.00989292562007904,-0.0027958424761891365,-0.000905406370293349,0.47626766562461853,0.7243468165397644,0.5989202260971069,0.2943322956562042,-0.10877212136983871,0.11852813512086868,0.4204670488834381,0.7064735889434814,0.42000001668930054,-0.5772446990013123,0.5452865958213806,-1.4503728151321411,-3.0000007152557373,-0.15789322555065155,-0.1558934897184372,-0.15220457315444946,-0.14831432700157166,0.0731256902217865,0.0793035477399826,0.0891295000910759,0.11529604345560074
0.8833333333333333,0.12192627042531967,0.013390638865530491,0.0,0.6669309139251709,0.0,0.0,-0.745119571685791,0.03739028424024582,-0.12463638931512833,0.0,0.0,0.0,-1.3311882019042969,0.4105274975299835,0.703759491443634,0.41999995708465576,0.5803231596946716,-1.3902579212299315e-06,-5.639545634039678e-06,-0.8143861889839172,0.00011160477151861414,-0.0003978511958848685,-7.843365892767906e-05,0.009888719767332077,-0.0027946780901402235,-0.0009043607278726995,0.48072415590286255,0.7230086326599121,0.5988012552261353,0.18713630735874176,-0.12143754959106445,0.005816176533699036,0.4204670488834381,0.7064735889434814,0.42000001668930054,-0.590526819229126,-1.9158046245574951,-1.4117867946624756,3.000000476837158,-0.15578347444534302,-0.15389291942119598,-0.150284543633461,-0.14621539413928986,0.053525734692811966,0.06037016585469246,0.06488751620054245,0.08133373409509659
0.9,0.12481562048196793,0.016038941219449043,0.0,0.6756210327148438,0.0,0.0,-0.7372490763664246,0.2006129026412964,0.14519092440605164,0.0,0.0,0.0,2.156360149383545,0.4105274975299835,0.703759491443634,0.41999995708465576,0.5803232789039612,-1.3632807167596184e-06,-5.604013495030813e-06,-0.8143860697746277,0.00011148735939059407,-0.00039794095209799707,-7.845181971788406e-05,0.009890681132674217,-0.0027961714658886194,-0.0009042494930326939,0.4842239022254944,0.7197192907333374,0.5997525453567505,0.3419383466243744,-0.1265260875225067,0.135714590549469,0.4204670488834381,0.7064735889434814,0.42000001668930054,-0.5947304964065552,1.1502982378005981,-1.429686427116394,-3.000000476837158,-0.15751539170742035,-0.15507519245147705,-0.15099205076694489,-0.14629758894443512,0.041141726076602936,0.03870561346411705,0.0354766808450222,0.04507225751876831
0.9166666666666666,0.12538164854049683,0.014415377750992775,0.0,0.6719036102294922,0.0,0.0,-0.7406385540962219,-0.01608848012983799,-0.11471816152334213,0.0,0.0,0.0,-1.4446349143981934,0.4105274975299835,0.703759491443634,0.41999995708465576,0.5803232789039612,-1.3899749546908424e-06,-5.535206128115533e-06,-0.8143861889839172,0.00011203871690668166,-0.0003979917091783136,-7.844064384698868e-05,0.0098935691639781,-0.0027959125582128763,-0.000905669410713017,0.4893324375152588,0.7188730239868164,0.5997295379638672,0.19682282209396362,-0.07012517005205154,-0.002059660851955414,0.4204670488834381,0.7064735889434814,0.42000001668930054,-0.5953222513198853,-1.0326354503631592,-1.3911592960357666,3.0,-0.155660480260849,-0.1535562425851822,-0.1498337984085083,-0.14529389142990112,0.008586610667407513,0.005577397532761097,-0.002158927731215954,-5.6461431086063385e-08
