vladlanda/robotic-transformer/data/env_000_episode_0109.csv
sim_time_s,robot_box_x,robot_box_y,robot_box_z,robot_box_quat_w,robot_box_quat_x,robot_box_quat_y,robot_box_quat_z,robot_box_linvel_x,robot_box_linvel_y,robot_box_linvel_z,robot_box_angvel_x,robot_box_angvel_y,robot_box_angvel_z,cube_world_x,cube_world_y,cube_world_z,cube_quat_w,cube_quat_x,cube_quat_y,cube_quat_z,cube_linvel_x,cube_linvel_y,cube_linvel_z,cube_angvel_x,cube_angvel_y,cube_angvel_z,endpoint_world_x,endpoint_world_y,endpoint_world_z,endpoint_linvel_x,endpoint_linvel_y,endpoint_linvel_z,target_cube_world_x,target_cube_world_y,target_cube_world_z,gripper_actual_pos_rad_gp_leftgearjoint,gripper_actual_vel_rad_s_gp_leftgearjoint,gripper_actual_pos_rad_gp_rotatingjoint,gripper_actual_vel_rad_s_gp_rotatingjoint,motor_angle_rad_joint1,motor_angle_rad_joint2,motor_angle_rad_joint3,motor_angle_rad_joint4,motor_speed_rad_s_joint1,motor_speed_rad_s_joint2,motor_speed_rad_s_joint3,motor_speed_rad_s_joint4
0.0,0.0,0.0,0.0,1.0,0.0,0.0,0.0,0.0,0.0,0.0,0.0,0.0,0.0,-0.4540390372276306,0.6419748663902283,0.41999998688697815,1.0,0.0,0.0,0.0,0.0,0.0,0.0,0.0,0.0,0.0,3.42540442943573e-06,-0.005000244826078415,1.313499927520752,0.0,0.0,0.0,0.3934282958507538,0.7315379977226257,0.42000001668930054,-1.5707999467849731,0.0,0.0,0.0,0.0,0.0,0.0,0.0,0.0,0.0,0.0,0.0
0.016666666666666666,0.0028778850100934505,0.0021806680597364902,0.0,0.9998081922531128,0.0,0.0,0.019586581736803055,0.24087215960025787,0.18240931630134583,0.0,0.0,0.0,3.1418697834014893,-0.45403915643692017,0.6419745683670044,0.41999998688697815,1.0,3.2799832752061775e-06,-8.339598593920527e-07,8.465660528145236e-08,-1.9833856640616432e-05,0.00017983021098189056,-6.132945418357849e-05,0.0009432561928406358,-0.004689492750912905,-0.0003198107879143208,-0.007110234349966049,0.003379564033821225,1.3159373998641968,-0.8143353462219238,0.9868683815002441,0.18095196783542633,0.3934282958507538,0.7315379977226257,0.42000001668930054,-1.5301095247268677,3.0000011920928955,-0.04584788903594017,-2.9999992847442627,0.0008691533003002405,0.0007963840034790337,0.0007110277656465769,0.0006108740926720202,0.11094217747449875,0.09756709635257721,0.08334315568208694,0.06823883205652237
0.03333333333333333,0.008960944600403309,0.006801798939704895,0.0,0.9997960329055786,0.0,0.0,0.02019682340323925,0.4070180058479309,0.3153028190135956,0.0,0.0,0.0,-0.8691304326057434,-0.4540392756462097,0.6419745087623596,0.4200000464916229,1.0,3.3908236218849197e-06,-2.1324740373529494e-06,-3.7087911408661967e-08,0.0002635786950122565,0.00026937879738397896,-0.00010509719140827656,-0.0017707741353660822,0.004130927845835686,-0.00013548358401749283,-0.02754092402756214,0.02575487643480301,1.316664695739746,-1.5910545587539673,1.6001856327056885,-0.0768740102648735,0.3934282958507538,0.7315379977226257,0.42000001668930054,-1.4800903797149658,3.00000262260437,-0.09588772058486938,-3.000000476837158,0.002990207402035594,0.002652861410751939,0.0022774715907871723,0.0018609645776450634,0.16423165798187256,0.1397787630558014,0.11384095996618271,0.08632615953683853
0.05,0.017759529873728752,0.01377288531512022,0.0,0.9993746876716614,0.0,0.0,0.035358842462301254,0.5939752459526062,0.46516138315200806,0.0,0.0,0.0,2.6474523544311523,-0.4540393054485321,0.6419745683670044,0.4200000464916229,1.0,3.7651166167051997e-06,-2.2119024833955336e-06,5.637348365894468e-09,0.0002653102274052799,0.00026691530365496874,-0.0001044049859046936,-0.0017243424663320184,0.004177475813776255,-0.00012949523807037622,-0.05967121943831444,0.05324815213680267,1.3118388652801514,-2.187654495239258,1.733486533164978,-0.4637081027030945,0.3934282958507538,0.7315379977226257,0.42000001668930054,-1.4300720691680908,3.0000040531158447,-0.145926371216774,-3.0000007152557373,0.0057132369838654995,0.004921115934848785,0.004056847654283047,0.003115998348221183,0.19285127520561218,0.15595601499080658,0.11718503385782242,0.07644515484571457
0.06666666666666667,0.02907728962600231,0.02306743524968624,0.0,0.999447226524353,0.0,0.0,0.03324595093727112,0.7205071449279785,0.5952575206756592,0.0,0.0,0.0,-1.2118842601776123,-0.4540393054485321,0.6419745087623596,0.4200000464916229,0.9999999403953552,3.4067338674503844e-06,-2.2856738723930903e-06,4.301002434203838e-07,0.0002670263347681612,0.0002679180761333555,-0.00010437914170324802,-0.001740648876875639,0.004211838357150555,-0.00012851078645326197,-0.09855598956346512,0.08648829907178879,1.2995026111602783,-2.4789516925811768,2.146028757095337,-0.9877568483352661,0.3934282958507538,0.7315379977226257,0.42000001668930054,-1.3800537586212158,2.999997615814209,-0.1959630697965622,-3.0000011920928955,0.008366711437702179,0.006904906593263149,0.005332164000719786,0.0036421893164515495,0.1583082228899002,0.10882346332073212,0.05730730667710304,0.003683707909658551
0.08333333333333333,0.04264022037386894,0.0347258634865284,0.0,0.9989464282989502,0.0,0.0,0.04589197039604187,0.8696221709251404,0.7428749799728394,0.0,0.0,0.0,2.543898344039917,-0.4540393054485321,0.6419745087623596,0.4200000464916229,0.9999999403953552,3.6260375964047853e-06,-2.335399813091499e-06,3.0323869282256055e-07,0.0002661397447809577,0.0002668508095666766,-0.00010405457578599453,-0.0017283371416851878,0.004196438007056713,-0.00012790974869858474,-0.14404307305812836,0.12017150223255157,1.2788755893707275,-2.8868980407714844,1.9706642627716064,-1.4568982124328613,0.3934282958507538,0.7315379977226257,0.42000001668930054,-1.3300316333770752,3.000002145767212,-0.22426800429821014,-0.5860908031463623,0.010108929127454758,0.007841493934392929,0.005423385184258223,0.0028486880473792553,0.09587938338518143,0.04184441268444061,-0.014163050800561905,-0.07219662517309189
0.1,0.05087468400597572,0.047757674008607864,0.0,0.9990789890289307,0.0,0.0,0.04290881007909775,0.36318251490592957,0.8152140974998474,0.0,0.0,0.0,-1.3134255409240723,-0.4540393054485321,0.6419745087623596,0.4200000464916229,1.0,3.4220713587274076e-06,-2.3086856799636735e-06,1.7965174947676132e-07,0.0002668143715709448,0.00026800335035659373,-0.00010440708138048649,-0.0017429604195058346,0.0042070322670042515,-0.00012891279766336083,-0.18784376978874207,0.158318430185318,1.2507376670837402,-2.4658732414245605,2.4355173110961914,-1.8192672729492188,0.3934282958507538,0.7315379977226257,0.42000001668930054,-1.2800133228302002,3.000002145767212,-0.2255566269159317,0.3535928428173065,0.0062254914082586765,0.003204639768227935,-8.65411311679054e-06,-0.0034243951085954905,-0.35124194622039795,-0.4059915840625763,-0.4627508819103241,-0.5217830538749695
0.11666666666666667,0.05923893675208092,0.06232251226902008,0.0,0.9999422430992126,0.0,0.0,0.010750340297818184,0.6619625091552734,0.8819886445999146,0.0,0.0,0.0,-4.62536096572876,-0.4540393054485321,0.6419745683670044,0.4200000464916229,1.0,3.711511908477405e-06,-2.332793883397244e-06,2.574444977199164e-07,0.00026485658599995077,0.0002663535997271538,-0.00010423408821225166,-0.001718230894766748,0.004170102532953024,-0.000129159219795838,-0.2285153567790985,0.2009907364845276,1.2204692363739014,-2.468975782394409,2.5438051223754883,-1.8433434963226318,0.3934282958507538,0.7315379977226257,0.42000001668930054,-1.2300143241882324,2.9999992847442627,-0.2698383629322052,-3.000000476837158,0.0019188091391697526,-0.0023814381565898657,-0.006876899395138025,-0.011579686775803566,-0.09293974936008453,-0.1951816976070404,-0.29546764492988586,-0.3937818706035614
0.13333333333333333,0.06726999580860138,0.07425745576620102,0.0,0.9999997019767761,0.0,0.0,-0.0007498845225200057,0.40811169147491455,0.6485912799835205,0.0,0.0,0.0,-0.32457539439201355,-0.4540393054485321,0.6419745087623596,0.4200000464916229,1.0,3.335756900924025e-06,-2.232025735793286e-06,3.1132088906815625e-07,0.000266698538325727,0.0002675947325769812,-0.00010428577661514282,-0.00173714489210397,0.004205858334898949,-0.00012839627743232995,-0.27152544260025024,0.24152317643165588,1.189660668373108,-2.458228349685669,2.5794217586517334,-1.844153881072998,0.3934282958507538,0.7315379977226257,0.42000001668930054,-1.1799919605255127,2.999993085861206,-0.23564156889915466,2.999999523162842,3.3784610423026606e-05,-0.006229276768863201,-0.012627387419342995,-0.01917087286710739,-0.1452355533838272,-0.2707321047782898,-0.3918846845626831,-0.5085191130638123
0.15,0.0713554099202156,0.08360065519809723,0.0,0.9997169375419617,0.0,0.0,-0.023792171850800514,0.18361881375312805,0.5058071613311768,0.0,0.0,0.0,-3.5618748664855957,-0.4540393054485321,0.6419745087623596,0.4200000464916229,1.0,3.5189823393011466e-06,-2.283213461851119e-06,-3.625408737661928e-07,0.0002661829348653555,0.00026735683786682785,-0.00010425481013953686,-0.001734927762299776,0.00419573811814189,-0.0001286085316678509,-0.3104597330093384,0.28939563035964966,1.156348466873169,-2.204209804534912,3.1108651161193848,-2.190093755722046,0.3934282958507538,0.7315379977226257,0.42000001668930054,-1.1300021409988403,2.999999761581421,-0.26685163378715515,-3.0000007152557373,-0.004179842304438353,-0.01244273316115141,-0.02075626328587532,-0.029128869995474815,-0.3435724377632141,-0.4509037435054779,-0.5532271265983582,-0.6504892110824585
0.16666666666666666,0.07183483988046646,0.0942000299692154,0.0,0.9973344802856445,0.0,0.0,-0.07296544313430786,-0.03053305111825466,0.6894782781600952,0.0,0.0,0.0,-6.726409435272217,-0.4540393054485321,0.6419745087623596,0.4200000464916229,1.0,3.6666531286755344e-06,-2.3392676666844636e-06,-3.149868348373275e-07,0.0002659579913597554,0.0002666742948349565,-0.00010403618216514587,-0.0017253393307328224,0.004192851949483156,-0.0001277901028515771,-0.3474810719490051,0.3462170958518982,1.1126484870910645,-2.0983264446258545,3.630373001098633,-3.0050840377807617,0.3934282958507538,0.7315379977226257,0.42000001668930054,-1.0883904695510864,2.039276599884033,-0.23464538156986237,3.0000009536743164,-0.012248797342181206,-0.021969793364405632,-0.03165178373456001,-0.04130415990948677,-0.5763351917266846,-0.6400728821754456,-0.6988418102264404,-0.7528120875358582
0.18333333333333332,0.07779201865196228,0.10809106379747391,0.0,0.993904173374176,0.0,0.0,-0.11024754494428635,0.49174487590789795,0.8856415152549744,0.0,0.0,0.0,-3.0870280265808105,-0.4540393054485321,0.6419745087623596,0.4200000464916229,1.0,3.8143518850120017e-06,-2.399646291451063e-06,-2.7025731696994626e-07,0.0002654919517226517,0.00026611160137690604,-0.00010391208343207836,-0.001717837294563651,0.004184891935437918,-0.0001275384856853634,-0.38466382026672363,0.4040036201477051,1.0579432249069214,-2.063028573989868,3.5456483364105225,-3.5663766860961914,0.3934282958507538,0.7315379977226257,0.42000001668930054,-1.041300654411316,3.000000238418579,-0.265830397605896,-3.0000007152557373,-0.019118402153253555,-0.02984713762998581,-0.04044991731643677,-0.05094139277935028,-0.4028092622756958,-0.4452784061431885,-0.48336082696914673,-0.5174635648727417
0.2,0.08061967045068741,0.11876017600297928,0.0,0.9873209595680237,0.0,0.0,-0.15873658657073975,0.19672051072120667,0.6119322776794434,0.0,0.0,0.0,-6.574679851531982,-0.4540393054485321,0.6419745087623596,0.4200000464916229,1.0,3.60014178113488e-06,-2.2913188786333194e-06,-2.2019581535914767e-07,0.0002657303411979228,0.000266449642367661,-0.00010398100130259991,-0.0017227079952135682,0.004188801161944866,-0.00012772933405358344,-0.4178507924079895,0.4640640914440155,0.9905492067337036,-1.72198486328125,3.8062310218811035,-4.36697244644165,0.3934282958507538,0.7315379977226257,0.42000001668930054,-0.9912976026535034,3.0000040531158447,-0.31585827469825745,-3.000000476837158,-0.03245783597230911,-0.04292496293783188,-0.053243909031152725,-0.06344711035490036,-0.7769581079483032,-0.7630798816680908,-0.7455254197120667,-0.7267316579818726
0.21666666666666667,0.08036171644926071,0.12602026760578156,0.0,0.9828723669052124,0.0,0.0,-0.18428759276866913,-0.08498956263065338,0.36079642176628113,0.0,0.0,0.0,-1.99834144115448,-0.4540393054485321,0.6419745087623596,0.4200000464916229,0.9999999403953552,3.639765509433346e-06,-2.2620554318564245e-06,2.2246267405989784e-07,0.0002668736851774156,0.00026754505233839154,-0.00010411837138235569,-0.001740424195304513,0.004211109131574631,-0.0001278398121939972,-0.4469987154006958,0.518015444278717,0.9107818603515625,-1.4393107891082764,3.0838873386383057,-5.138251304626465,0.3934282958507538,0.7315379977226257,0.42000001668930054,-0.9412907361984253,2.999999761581421,-0.3658875823020935,-2.999999761581421,-0.04821421951055527,-0.058389998972415924,-0.06823927164077759,-0.07780079543590546,-0.981758177280426,-0.9499503374099731,-0.9304652214050293,-0.9048983454704285
0.23333333333333334,0.07718929648399353,0.13385993242263794,0.0,0.9754171967506409,0.0,0.0,-0.2203661948442459,-0.30240482091903687,0.5267917513847351,0.0,0.0,0.0,-5.169669151306152,-0.4540392756462097,0.6419745087623596,0.4200000464916229,1.0,3.420862867642427e-06,-2.3168847747001564e-06,2.9557546099567844e-07,0.0002668003726284951,0.0002680391480680555,-0.0001044226810336113,-0.001743673230521381,0.004206716548651457,-0.00012899257126264274,-0.4697962999343872,0.5664042234420776,0.8185198307037354,-1.0562251806259155,2.7150378227233887,-5.795101165771484,0.3934282958507538,0.7315379977226257,0.42000001668930054,-0.8912800550460815,3.000002145767212,-0.4159185290336609,-2.999999761581421,-0.06477346271276474,-0.07492267340421677,-0.08475460857152939,-0.09429933875799179,-0.9981623888015747,-0.9975356459617615,-0.9970319867134094,-0.9966303110122681
0.25,0.07687631994485855,0.13872532546520233,0.0,0.9717912673950195,0.0,0.0,-0.23584258556365967,0.041445694863796234,0.20786693692207336,0.0,0.0,0.0,-0.6932864785194397,-0.4540393054485321,0.6419745087623596,0.4200000464916229,0.9999999403953552,3.3477410852356115e-06,-2.259247139591025e-06,1.808245286838428e-07,0.00026687796344049275,0.00026791173149831593,-0.00010439660400152206,-0.001740482752211392,0.004208273719996214,-0.000128701634821482,-0.48703306913375854,0.6018220782279968,0.7197369337081909,-0.7098645567893982,1.7179921865463257,-6.075373649597168,0.3934282958507538,0.7315379977226257,0.42000001668930054,-0.8412695527076721,2.9999983310699463,-0.4659501910209656,-2.999997854232788,-0.08091305196285248,-0.09092608839273453,-0.10058681666851044,-0.10988510400056839,-0.9915919303894043,-0.9927557706832886,-0.9932810664176941,-0.9743086695671082
0.26666666666666666,0.07222101092338562,0.14040827751159668,0.0,0.9649247527122498,0.0,0.0,-0.26252660155296326,-0.387247771024704,0.06043947488069534,0.0,0.0,0.0,-4.198578357696533,-0.4540393054485321,0.6419745087623596,0.4200000464916229,0.9999999403953552,3.535858922987245e-06,-2.300381765962811e-06,-1.2688288109075074e-07,0.0002660186728462577,0.0002671214169822633,-0.00010419590398669243,-0.001731729949824512,0.004193051252514124,-0.0001284938771277666,-0.49093663692474365,0.6211034059524536,0.6171649098396301,0.29055291414260864,0.7057672739028931,-6.027930736541748,0.3934282958507538,0.7315379977226257,0.42000001668930054,-0.7912606000900269,3.000000476837158,-0.5159807205200195,-2.999999761581421,-0.09903401136398315,-0.10866924375295639,-0.11804237961769104,-0.12711530923843384,-1.0042564868927002,-1.0031884908676147,-1.0023765563964844,-1.001733660697937
0.2833333333333333,0.07134736329317093,0.13946786522865295,0.0,0.9626639485359192,0.0,0.0,-0.27069926261901855,0.05585629492998123,-0.09588763117790222,0.0,0.0,0.0,-0.0427987240254879,-0.4540393054485321,0.6419745683670044,0.4200000464916229,1.0,3.593616384023335e-06,-2.2627473299507983e-06,-5.656242407781065e-08,0.0002670465619303286,0.0002677490992937237,-0.00010416517034173012,-0.0017431023297831416,0.004214038606733084,-0.0001278891577385366,-0.48547250032424927,0.6345261931419373,0.5220835208892822,0.5571568012237549,0.8309496641159058,-5.406309127807617,0.3934282958507538,0.7315379977226257,0.42000001668930054,-0.7412518262863159,3.000000238418579,-0.5660104155540466,-3.0000035762786865,-0.11523167043924332,-0.12500405311584473,-0.13445739448070526,-0.14363205432891846,-1.0152086019515991,-1.011452078819275,-1.0085878372192383,-1.0063081979751587
0.3,0.06679220497608185,0.1365627497434616,0.0,0.956632137298584,0.0,0.0,-0.2912987470626831,-0.39327991008758545,-0.2092471420764923,0.0,0.0,0.0,-3.4063000679016113,-0.4540392756462097,0.6419745087623596,0.4200000464916229,0.9999999403953552,3.7251772937452188e-06,-2.2361962237482658e-06,3.828464514299412e-07,0.00026479634107090533,0.0002667300868779421,-0.0001045397948473692,-0.0017188932979479432,0.004166616592556238,-0.00013016474258620292,-0.4690232276916504,0.6431376934051514,0.4356503486633301,1.4048585891723633,0.3347267508506775,-4.928389549255371,0.3934282958507538,0.7315379977226257,0.42000001668930054,-0.6912443041801453,3.000002384185791,-0.6160379648208618,-3.0000009536743164,-0.13337498903274536,-0.14278216660022736,-0.15195678174495697,-0.16090992093086243,-1.0039924383163452,-1.0030206441879272,-1.0022751092910767,-1.0016783475875854
0.31666666666666665,0.06059560924768448,0.13141116499900818,0.0,0.9558466076850891,0.0,0.0,-0.2938660681247711,-0.3846590220928192,-0.3522861897945404,0.0,0.0,0.0,0.6248990297317505,-0.4540393054485321,0.6419745087623596,0.4200000464916229,0.9999999403953552,3.557964646461187e-06,-2.279028421980911e-06,2.282919808749284e-07,0.00026598668773658574,0.00026658549904823303,-0.00010399171151220798,-0.0017241586465388536,0.004193612840026617,-0.0001276987313758582,-0.46968352794647217,0.646429181098938,0.42701780796051025,0.09845734387636185,0.1611151248216629,-0.23578783869743347,0.3934282958507538,0.7315379977226257,0.42000001668930054,-0.6412416100502014,2.999995708465576,-0.6664332747459412,-3.0000009536743164,-0.14296366274356842,-0.15283255279064178,-0.1620105504989624,-0.16972608864307404,-0.4390577971935272,-0.4658811390399933,-0.4653674364089966,-0.3947642743587494
0.3333333333333333,0.05236316844820976,0.1239190623164177,0.0,0.9508178234100342,0.0,0.0,-0.30975058674812317,-0.545171320438385,-0.49125608801841736,0.0,0.0,0.0,-2.8645448684692383,-0.45268529653549194,0.6443827152252197,0.4200001060962677,0.9996992945671082,-1.1582631486817263e-05,1.2927904208481777e-05,-0.024519920349121094,0.13402581214904785,0.2417541742324829,-0.0004497702175285667,0.027947448194026947,-0.005940556526184082,-5.605098724365234,-0.4669893980026245,0.6496288776397705,0.42352527379989624,0.2677196264266968,0.28397974371910095,-0.17489683628082275,0.3934282958507538,0.7315379977226257,0.42000001668930054,-0.5912362933158875,2.9999756813049316,-0.7165037989616394,-2.9998207092285156,-0.15109409391880035,-0.16088758409023285,-0.16952906548976898,-0.17568649351596832,-0.500677764415741,-0.4669942557811737,-0.40809300541877747,-0.29838836193084717
0.35,0.0417480431497097,0.11421021819114685,0.0,0.9509755969047546,0.0,0.0,-0.3092659115791321,-0.6765649914741516,-0.6206381916999817,0.0,0.0,0.0,1.0011935234069824,-0.4487745761871338,0.6514321565628052,0.4200836420059204,0.9955461025238037,0.0021716831251978874,-0.00021019323321525007,-0.09425055235624313,0.35593345761299133,0.6563916802406311,0.02031858265399933,1.0096030235290527,-0.09596451371908188,-3.2462596893310547,-0.46197545528411865,0.6575585603713989,0.42191576957702637,0.2871420681476593,0.6273158192634583,0.09989698231220245,0.3934282958507538,0.7315379977226257,0.42000001668930054,-0.5412312746047974,3.000002384185791,-0.7665401697158813,-2.9999120235443115,-0.16040419042110443,-0.168928325176239,-0.17588190734386444,-0.17964237928390503,-0.5299356579780579,-0.4299635589122772,-0.3056381344795227,-0.14611345529556274
0.36666666666666664,0.03383319079875946,0.10203299671411514,0.0,0.94654381275177,0.0,0.0,-0.3225753605365753,-0.34718242287635803,-0.7807881832122803,0.0,0.0,0.0,-2.526224136352539,-0.4419458210468292,0.6642355918884277,0.42000043392181396,0.9922928810119629,-6.692216265946627e-05,2.9676077247131616e-05,-0.12391380220651627,0.5598008632659912,0.9808090925216675,-0.0021223865915089846,0.10148925334215164,-0.020289430394768715,-4.368330001831055,-0.4540148973464966,0.6701174974441528,0.42070841789245605,0.6705102920532227,0.8946696519851685,-0.21088173985481262,0.3934282958507538,0.7315379977226257,0.42000001668930054,-0.4912264943122864,2.999985694885254,-0.8165642023086548,-3.0000014305114746,-0.16932658851146698,-0.17557327449321747,-0.17984113097190857,-0.1804380863904953,-0.49424290657043457,-0.3349893093109131,-0.15278391540050507,0.05117800086736679
0.3833333333333333,0.02355622500181198,0.08812591433525085,0.0,0.9316571950912476,0.0,0.0,-0.36333855986595154,-0.712042510509491,-0.8603557348251343,0.0,0.0,0.0,-6.1366753578186035,-0.429544061422348,0.6844308376312256,0.42020896077156067,0.9869722127914429,0.00410313718020916,-0.0014971981290727854,-0.16083121299743652,0.9738938808441162,1.4924321174621582,0.08072028309106827,2.281777858734131,-2.031708002090454,-5.28508186340332,-0.44026947021484375,0.6882854700088501,0.42114168405532837,1.0683393478393555,1.4275238513946533,0.11884091794490814,0.3934282958507538,0.7315379977226257,0.42000001668930054,-0.44122281670570374,2.9999992847442627,-0.8666217923164368,-2.9999873638153076,-0.1797131597995758,-0.18277108669281006,-0.18349812924861908,-0.18030843138694763,-0.5998777151107788,-0.4072624146938324,-0.19584999978542328,0.024490170180797577
0.4,0.01675347611308098,0.0713745653629303,0.0,0.9033927321434021,0.0,0.0,-0.428814172744751,-0.38216787576675415,-1.0464836359024048,0.0,0.0,0.0,-9.277789115905762,-0.3984993100166321,0.7148247957229614,0.42498543858528137,0.9771267771720886,0.038965292274951935,-0.03654782474040985,-0.205837681889534,2.9085640907287598,2.4802322387695312,0.3359888792037964,27.122339248657227,-10.051012992858887,7.106860160827637,-0.408963680267334,0.7205697894096375,0.42521387338638306,2.7627291679382324,2.3911004066467285,0.4321596622467041,0.3934282958507538,0.7315379977226257,0.42000001668930054,-0.3962598443031311,1.9608339071273804,-0.8400925397872925,2.994617223739624,-0.18962638080120087,-0.18895232677459717,-0.18568360805511475,-0.17846764624118805,-0.7222445011138916,-0.4482485353946686,-0.16426409780979156,0.1116623729467392
0.4166666666666667,0.011919313110411167,0.05918604135513306,0.0,0.859218955039978,0.0,0.0,-0.5116080641746521,-0.19776910543441772,-0.7396624684333801,0.0,0.0,0.0,-11.87386417388916,-0.3276445269584656,0.7616689801216125,0.43195655941963196,0.9543122053146362,0.10784747451543808,-0.07642978429794312,-0.2679841220378876,5.762752056121826,2.8689982891082764,0.525725245475769,10.59325885772705,-11.6340913772583,22.645055770874023,-0.33734259009361267,0.7684795260429382,0.43203988671302795,5.313307285308838,3.437513828277588,0.5150156021118164,0.3934282958507538,0.7315379977226257,0.42000001668930054,-0.37656649947166443,0.8476720452308655,-0.7900649309158325,2.9976603984832764,-0.2048901915550232,-0.20185495913028717,-0.19272029399871826,-0.18016654253005981,-0.6140764355659485,-0.6648166179656982,-0.3752180337905884,-0.12231044471263885
0.43333333333333335,0.011189015582203865,0.04949995502829552,0.0,0.8220531344413757,0.0,0.0,-0.5694107413291931,0.010239298455417156,-0.5222570896148682,0.0,0.0,0.0,-7.056295871734619,-0.23760539293289185,0.8123506307601929,0.4424517750740051,0.9111930727958679,0.15120753645896912,-0.100675567984581,-0.36976736783981323,5.88157320022583,2.0191826820373535,0.789725124835968,-8.343008041381836,-0.21049395203590393,5.502513885498047,-0.24678145349025726,0.8215251564979553,0.4420711100101471,5.7329912185668945,2.8516132831573486,0.6417443752288818,0.3934282958507538,0.7315379977226257,0.42000001668930054,-0.36399245262145996,0.7174744606018066,-0.8173240423202515,-2.9992785453796387,-0.21606294810771942,-0.2128792107105255,-0.1993410736322403,-0.1831398755311966,-0.671142578125,-0.6189626455307007,-0.3752143979072571,-0.1821301281452179
0.45,0.007294198963791132,0.04511706158518791,0.0,0.803554892539978,0.0,0.0,-0.5952306985855103,-0.1976664513349533,-0.22301450371742249,0.0,0.0,0.0,-2.37735915184021,-0.1397569179534912,0.8474387526512146,0.4542314410209656,0.8459529280662537,0.1674223095178604,-0.10921075940132141,-0.49437475204467773,6.427393913269043,1.1515965461730957,0.8005955219268799,5.20131778717041,-10.129364967346191,2.242626190185547,-0.148339182138443,0.8585857152938843,0.4529764652252197,6.131165504455566,1.723516583442688,0.7310903072357178,0.3934282958507538,0.7315379977226257,0.42000001668930054,-0.3523429334163666,0.6352392435073853,-0.8673490881919861,-3.000000476837158,-0.23044835031032562,-0.2255576103925705,-0.2073650360107422,-0.187418133020401,-0.7083572149276733,-0.6522539258003235,-0.4123026728630066,-0.21946507692337036
0.4666666666666667,0.0082384729757905,0.035180531442165375,0.0,0.7775408625602722,0.0,0.0,-0.6288323998451233,0.020828813314437866,-0.631009042263031,0.0,0.0,0.0,-5.80091667175293,-0.038120537996292114,0.8659341335296631,0.4617463946342468,0.7948452830314636,0.15515801310539246,-0.11626558005809784,-0.5750036239624023,6.094361782073975,-0.5973890423774719,0.2386828064918518,-12.805577278137207,-14.398900985717773,25.561067581176758,-0.04410266503691673,0.8788435459136963,0.4611208140850067,6.41403341293335,0.5241509675979614,0.5475730895996094,0.3934282958507538,0.7315379977226257,0.42000001668930054,-0.34397828578948975,0.3318323791027069,-0.9173744916915894,-3.000002861022949,-0.2370239794254303,-0.2308862805366516,-0.2092328667640686,-0.18643108010292053,-0.532891571521759,-0.359307199716568,-0.10420069098472595,0.11412245035171509
0.48333333333333334,0.009062368422746658,0.030231960117816925,0.0,0.7629135847091675,0.0,0.0,-0.6465004682540894,0.15563812851905823,-0.287495493888855,0.0,0.0,0.0,-1.4530644416809082,0.061652690172195435,0.8643043041229248,0.467947393655777,0.7416835427284241,0.1409982144832611,-0.11873067915439606,-0.6449247598648071,5.643070697784424,-1.2834988832473755,0.19953535497188568,-12.113062858581543,-7.443270206451416,20.496814727783203,0.05828878656029701,0.8771580457687378,0.4679938554763794,6.139486312866211,-0.47559845447540283,0.4703800678253174,0.3934282958507538,0.7315379977226257,0.42000001668930054,-0.3361985683441162,0.4854784309864044,-0.9673998951911926,-3.000002384185791,-0.239989772439003,-0.23998835682868958,-0.2151990681886673,-0.18871912360191345,-0.015404334291815758,-0.011137041263282299,-0.34581196308135986,-0.19709867238998413
0.5,0.00935597438365221,0.028614994138479233,0.0,0.7428018450737,0.0,0.0,-0.6695113182067871,-0.03797302767634392,-0.021062960848212242,0.0,0.0,0.0,-4.51855993270874,0.15549534559249878,0.8485230207443237,0.4675181210041046,0.6421741843223572,0.08468645811080933,-0.1602519452571869,-0.7448219060897827,4.683752536773682,-1.5690662860870361,-0.15771685540676117,-10.68251895904541,-1.8132026195526123,34.35662841796875,0.15103034675121307,0.8636767864227295,0.47021180391311646,5.410074234008789,-1.211761236190796,-0.027805285528302193,0.3934282958507538,0.7315379977226257,0.42000001668930054,-0.3258914053440094,0.6234666705131531,-1.0174245834350586,-2.9999992847442627,-0.23999828100204468,-0.2398252934217453,-0.22023352980613708,-0.1920527219772339,-0.0032528077717870474,0.056193239986896515,-0.20571361482143402,-0.14490501582622528
0.5166666666666666,0.011363058350980282,0.02378307469189167,0.0,0.7339338064193726,0.0,0.0,-0.679220974445343,0.12944358587265015,-0.29730626940727234,0.0,0.0,0.0,-0.6096580624580383,0.23372715711593628,0.8242601156234741,0.46234121918678284,0.5707589983940125,0.05808623135089874,-0.14286698400974274,-0.8065042495727539,4.163159370422363,-1.9001258611679077,-0.43940383195877075,-0.9758013486862183,-0.10635961592197418,-5.798783302307129,0.23016177117824554,0.8392202258110046,0.4652511775493622,4.218284606933594,-1.7952487468719482,-0.4627211093902588,0.3934282958507538,0.7315379977226257,0.42000001668930054,-0.3138158917427063,0.860319972038269,-1.0674468278884888,-3.000000238418579,-0.23733940720558167,-0.23584549129009247,-0.22018806636333466,-0.19185595214366913,0.14240409433841705,0.2535003125667572,0.05754944309592247,0.03691765293478966
0.5333333333333333,0.01582350581884384,0.02280534617602825,0.0,0.7162149548530579,0.0,0.0,-0.6978797316551208,0.3228004574775696,-0.04383983835577965,0.0,0.0,0.0,-3.8790712356567383,0.2973560690879822,0.7975656986236572,0.44956883788108826,0.5345281958580017,0.02583964355289936,-0.132101371884346,-0.8343627452850342,3.4941115379333496,-1.7384167909622192,-0.7604645490646362,-2.1865079402923584,3.877817392349243,-2.8741745948791504,0.2950795590877533,0.8116860389709473,0.4530940651893616,3.5812063217163086,-1.6123603582382202,-0.9463220834732056,0.3934282958507538,0.7315379977226257,0.42000001668930054,-0.2964549958705902,1.01986825466156,-1.1174689531326294,-3.0000009536743164,-0.23495841026306152,-0.23199696838855743,-0.2196236401796341,-0.1925799548625946,0.31941676139831543,0.35608869791030884,0.13184811174869537,-0.01742885820567608
0.55,0.02278936840593815,0.023806748911738396,0.0,0.7119119763374329,0.0,0.0,-0.7022687196731567,0.44576409459114075,0.16082532703876495,0.0,0.0,0.0,0.20389895141124725,0.34821027517318726,0.7695016264915466,0.4320294260978699,0.4947684407234192,-0.009871438145637512,-0.11475705355405807,-0.8613578677177429,2.4881486892700195,-2.4347517490386963,-0.9356898665428162,-6.662124156951904,7.104547023773193,13.659433364868164,0.346962571144104,0.7830517292022705,0.4357483983039856,2.6088342666625977,-1.7195408344268799,-1.137141466140747,0.3934282958507538,0.7315379977226257,0.42000001668930054,-0.2831224203109741,0.34234341979026794,-1.16749107837677,-3.0000011920928955,-0.2298125922679901,-0.22630871832370758,-0.2173456847667694,-0.19321796298027039,0.315377414226532,0.3356032073497772,0.1410796195268631,-0.062032293528318405
0.5666666666666667,0.03133421763777733,0.022530756890773773,0.0,0.6980552673339844,0.0,0.0,-0.7160438895225525,0.5665398836135864,-0.1518670618534088,0.0,0.0,0.0,-3.226997137069702,0.3836698830127716,0.752976655960083,0.422146201133728,0.4733159840106964,0.025818081572651863,-0.046642303466796875,-0.8792780637741089,1.5678094625473022,-0.6650754809379578,-0.2435808628797531,4.843898773193359,9.004496574401855,-9.387533187866211,0.3799094259738922,0.7640985250473022,0.4250813126564026,1.4452489614486694,-0.7412043809890747,-0.21264095604419708,0.3934282958507538,0.7315379977226257,0.42000001668930054,-0.27621990442276,0.8590745329856873,-1.2175740003585815,-2.9975531101226807,-0.221523717045784,-0.21851006150245667,-0.21305343508720398,-0.19294336438179016,0.5795496106147766,0.5274266004562378,0.32096707820892334,0.061264850199222565
0.5833333333333334,0.037606131285429,0.02413804642856121,0.0,0.6962440609931946,0.0,0.0,-0.7178050875663757,0.3127985894680023,0.10713016986846924,0.0,0.0,0.0,0.6196898818016052,0.4026854932308197,0.744035005569458,0.42002567648887634,0.4946146607398987,-0.00039249417022801936,0.0005482973647303879,-0.8691121339797974,0.8924069404602051,-0.5412952303886414,0.02022998407483101,0.6146687269210815,0.8909197449684143,5.4046196937561035,0.3976777493953705,0.7496763467788696,0.4230501055717468,0.7720866799354553,-0.7228556275367737,0.10733574628829956,0.3934282958507538,0.7315379977226257,0.42000001668930054,-0.26830849051475525,0.18786199390888214,-1.254518985748291,-1.4747018814086914,-0.21509958803653717,-0.2122790515422821,-0.20923514664173126,-0.19285403192043304,0.46469178795814514,0.4295556843280792,0.28583523631095886,0.04994812607765198
0.6,0.044890474528074265,0.02185075543820858,0.0,0.6843552589416504,0.0,0.0,-0.7291487455368042,0.4437006413936615,-0.1812678575515747,0.0,0.0,0.0,-2.8179829120635986,0.40997523069381714,0.7372875809669495,0.4199989140033722,0.5379108190536499,1.617991642888228e-06,3.341993215144612e-05,-0.8430017232894897,0.1676989197731018,-0.2635582387447357,-0.00033579595037736,-0.013247588649392128,-0.01498604379594326,6.292980194091797,0.40590763092041016,0.7431336641311646,0.4224446713924408,0.18215304613113403,-0.2165786772966385,-0.04688459262251854,0.3934282958507538,0.7315379977226257,0.42000001668930054,-0.2776218354701996,-1.190032958984375,-1.2152793407440186,2.9998109340667725,-0.2050846368074417,-0.20341110229492188,-0.20294590294361115,-0.19083185493946075,0.5774806141853333,0.5112376809120178,0.37638261914253235,0.12993177771568298
0.6166666666666667,0.053957127034664154,0.023924633860588074,0.0,0.6845025420188904,0.0,0.0,-0.7290104627609253,0.5727742910385132,0.10745099931955338,0.0,0.0,0.0,0.8802953362464905,0.41181546449661255,0.7337073087692261,0.42000165581703186,0.561915934085846,6.597537867492065e-05,-2.785661126836203e-05,-0.8271942138671875,0.03686941787600517,-0.20441780984401703,-0.0018693149322643876,0.055405691266059875,0.06790588051080704,2.3587775230407715,0.4050658941268921,0.7383958697319031,0.4240707755088806,-0.08590826392173767,-0.14458373188972473,0.16227734088897705,0.3934282958507538,0.7315379977226257,0.42000001668930054,-0.32209664583206177,-3.0000014305114746,-1.2362499237060547,-2.999713897705078,-0.19944894313812256,-0.19831010699272156,-0.19927357137203217,-0.19059127569198608,0.46663543581962585,0.38883599638938904,0.27760788798332214,0.04982239753007889
0.6333333333333333,0.062022075057029724,0.027639934793114662,0.0,0.7005274295806885,0.0,0.0,-0.7136254906654358,0.43226635456085205,0.28422263264656067,0.0,0.0,0.0,3.662947177886963,0.41150179505348206,0.7316421866416931,0.42008185386657715,0.5646704435348511,0.0011827934067696333,-0.0016777587588876486,-0.825313925743103,-0.13235343992710114,-0.04091333597898483,0.03413210064172745,-0.6205718517303467,-1.6012821197509766,-1.047680377960205,0.4027647376060486,0.7369157075881958,0.42680951952934265,-0.24012741446495056,-0.028413424268364906,0.17540611326694489,0.3934282958507538,0.7315379977226257,0.42000001668930054,-0.3721168041229248,-2.999995470046997,-1.2862211465835571,-2.9993083477020264,-0.1918717622756958,-0.19214282929897308,-0.1947868913412094,-0.18966084718704224,0.45078909397125244,0.3666195869445801,0.27795735001564026,0.07889234274625778
0.65,0.07112396508455276,0.026585761457681656,0.0,0.7052149772644043,0.0,0.0,-0.7089935541152954,0.5072376728057861,-0.09445101767778397,0.0,0.0,0.0,-0.22166839241981506,0.40984538197517395,0.7311232089996338,0.4200000762939453,0.5607335567474365,-1.1288089041272542e-07,3.3428810297664313e-07,-0.8279961943626404,-0.06984572112560272,-0.023181553930044174,-2.123060403391719e-05,-0.000844098161906004,-0.0011755642481148243,-0.900775671005249,0.40167415142059326,0.7405348420143127,0.43062466382980347,-0.08872474730014801,0.27275365591049194,0.2684014141559601,0.3934282958507538,0.7315379977226257,0.42000001668930054,-0.42217251658439636,-2.999987840652466,-1.3361859321594238,-2.999401330947876,-0.1792263388633728,-0.18162037432193756,-0.18623153865337372,-0.18471133708953857,0.7046469449996948,0.6101077198982239,0.5295405983924866,0.3539487421512604
0.6666666666666666,0.08121782541275024,0.022903384640812874,0.0,0.7170928120613098,0.0,0.0,-0.6969776749610901,0.657219648361206,-0.2851720452308655,0.0,0.0,0.0,3.182931661605835,0.40782010555267334,0.7310502529144287,0.42008817195892334,0.5753567218780518,0.0012603747891262174,-0.0018136233557015657,-0.8178995847702026,-0.15731744468212128,0.0011961149284616113,0.02298651449382305,-0.3983141779899597,-1.078037977218628,0.22754314541816711,0.3989608883857727,0.741476833820343,0.43794214725494385,-0.2110079824924469,-0.03716524317860603,0.678668737411499,0.3934282958507538,0.7315379977226257,0.42000001668930054,-0.4721865653991699,-3.0000009536743164,-1.3862042427062988,-2.999999523162842,-0.17247816920280457,-0.17505282163619995,-0.17946657538414001,-0.17924131453037262,0.2831633985042572,0.3157203793525696,0.37883320450782776,0.36009472608566284
0.6833333333333333,0.09346658736467361,0.01684127189218998,0.0,0.7187253832817078,0.0,0.0,-0.6952940821647644,0.7591644525527954,-0.46205875277519226,0.0,0.0,0.0,-0.7152644395828247,0.40597087144851685,0.7310521006584167,0.4200000464916229,0.5764972567558289,3.2009072015171114e-07,-1.8501924614611198e-07,-0.8170990347862244,-0.08742508292198181,3.9718761399853975e-05,-3.5980483517050743e-06,0.0002091981441481039,0.00012181146303191781,0.130330890417099,0.400646448135376,0.7422446012496948,0.44828927516937256,0.34436774253845215,0.04646846279501915,0.6876718997955322,0.3934282958507538,0.7315379977226257,0.42000001668930054,-0.5221992135047913,-3.0,-1.4362225532531738,-3.0,-0.1690741777420044,-0.17074459791183472,-0.1736183613538742,-0.17303915321826935,0.19885477423667908,0.26535001397132874,0.3754711449146271,0.4241434335708618
0.7,0.1085527241230011,0.014271333813667297,0.0,0.6988595128059387,0.0,0.0,-0.7152589559555054,0.9865313172340393,0.05613977089524269,0.0,0.0,0.0,-4.394867897033691,0.40549609065055847,0.7310521006584167,0.4200001358985901,0.5768186450004578,8.070767307799542e-07,1.762494093782152e-06,-0.816872239112854,-0.005816339515149593,-1.7569554984220304e-05,-0.00020011572632938623,-0.006415266543626785,0.00036748903221450746,0.009413703344762325,0.41007107496261597,0.7437989115715027,0.46779853105545044,0.795190155506134,0.08968599885702133,1.745107889175415,0.3934282958507538,0.7315379977226257,0.42000001668930054,-0.5722118020057678,-2.999957799911499,-1.4862408638000488,-2.9999964237213135,-0.17203721404075623,-0.1717604696750641,-0.17198888957500458,-0.16973036527633667,-0.3887726664543152,-0.24473178386688232,-0.06006530672311783,0.07142961025238037
0.7166666666666667,0.12072295695543289,0.018614178523421288,0.0,0.6858338713645935,0.0,0.0,-0.7277581095695496,0.6346113681793213,0.05381273478269577,0.0,0.0,0.0,-0.7044137716293335,0.40549585223197937,0.7310523986816406,0.4200000464916229,0.5768189430236816,2.5889863763950416e-07,-3.5749637845583493e-06,-0.8168720602989197,0.00010970189759973437,-0.0003006060142070055,-8.143344894051552e-05,0.007325423881411552,-0.0012629155535250902,-0.0007470815908163786,0.42282068729400635,0.7459713220596313,0.5016089081764221,0.9142219424247742,0.25303810834884644,2.2672882080078125,0.3934282958507538,0.7315379977226257,0.42000001668930054,-0.6147052049636841,-2.1349093914031982,-1.5362591743469238,-2.9999992847442627,-0.17874795198440552,-0.17643895745277405,-0.17402096092700958,-0.16992594301700592,-0.003373686457052827,0.005006412509828806,0.056928835809230804,0.07692734152078629
0.7333333333333333,0.12828344106674194,0.02151520550251007,0.0,0.697767972946167,0.0,0.0,-0.7163237929344177,0.3900991380214691,0.24448764324188232,0.0,0.0,0.0,2.826864242553711,0.4054957926273346,0.7310523390769958,0.4200000464916229,0.5768187642097473,3.944765580854437e-07,-3.155013928335393e-06,-0.8168721199035645,9.217134356731549e-05,-0.0002663397172000259,-8.697551675140858e-05,0.006424036808311939,-0.0016120413783937693,-0.0006836801767349243,0.43966782093048096,0.7473325729370117,0.5313688516616821,1.016805648803711,0.004293255507946014,1.4072918891906738,0.3934282958507538,0.7315379977226257,0.42000001668930054,-0.6209075450897217,1.1112247705459595,-1.5862774848937988,-3.0,-0.1780690848827362,-0.17561383545398712,-0.1724088191986084,-0.16800853610038757,0.09903813153505325,0.10452384501695633,0.14224226772785187,0.15296269953250885
0.75,0.1312633603811264,0.018841257318854332,0.0,0.6976966261863708,0.0,0.0,-0.7163933515548706,0.1785130500793457,-0.16309195756912231,0.0,0.0,0.0,-0.8271724581718445,0.405495822429657,0.7310523986816406,0.4200000464916229,0.5768189430236816,5.029380076848611e-07,-3.2159487091121264e-06,-0.8168720006942749,9.486221824772656e-05,-0.0002643102779984474,-8.752685971558094e-05,0.006357582751661539,-0.0015696851769462228,-0.0006868073251098394,0.45102590322494507,0.7505618929862976,0.5490232706069946,0.26282626390457153,0.08260136842727661,0.8435993194580078,0.3934282958507538,0.7315379977226257,0.42000001668930054,-0.6168470978736877,-0.48587095737457275,-1.547305703163147,2.99992036819458,-0.16965864598751068,-0.16817067563533783,-0.1654513031244278,-0.16187278926372528,0.3454083502292633,0.3313863277435303,0.33495742082595825,0.3138187527656555
0.7666666666666666,0.13298791646957397,0.020861946046352386,0.0,0.7076867818832397,0.0,0.0,-0.7065263390541077,0.01117554772645235,0.19677375257015228,0.0,0.0,0.0,2.4368720054626465,0.405495822429657,0.7310523986816406,0.4200000464916229,0.5768189430236816,4.860174271925644e-07,-3.070288130402332e-06,-0.8168720006942749,9.556599252391607e-05,-0.00026508813607506454,-8.766120299696922e-05,0.006373850628733635,-0.0015645138919353485,-0.0006893717800267041,0.45682650804519653,0.7480734586715698,0.5619324445724487,0.47285017371177673,-0.18593457341194153,0.7420847415924072,0.3934282958507538,0.7315379977226257,0.42000001668930054,-0.6150033473968506,0.6082774996757507,-1.5576975345611572,-2.999999761581421,-0.16818195581436157,-0.16626913845539093,-0.16296036541461945,-0.15922465920448303,0.09992027282714844,0.11228500306606293,0.13117043673992157,0.12792553007602692
0.7833333333333333,0.13480600714683533,0.020149236544966698,0.0,0.7058668732643127,0.0,0.0,-0.7083444595336914,0.12178252637386322,-0.06622390449047089,0.0,0.0,0.0,-1.1554944515228271,0.405495822429657,0.7310523986816406,0.4200000464916229,0.5768190622329712,5.003839760320261e-07,-2.9255895697133383e-06,-0.8168718814849854,9.456354746362194e-05,-0.0002648367080837488,-8.747330866754055e-05,0.006372783798724413,-0.0015758543740957975,-0.000686925312038511,0.46069684624671936,0.7476824522018433,0.5669565796852112,-0.0346541628241539,-0.008563823997974396,0.02062898874282837,0.3934282958507538,0.7315379977226257,0.42000001668930054,-0.6121148467063904,-0.193745419383049,-1.5188090801239014,3.0,-0.16487641632556915,-0.16309261322021484,-0.159851536154747,-0.1564827263355255,0.11752253770828247,0.1271197497844696,0.13499197363853455,0.12491493672132492
0.8,0.13719548285007477,0.019329635426402092,0.0,0.714273989200592,0.0,0.0,-0.6998661756515503,0.16878578066825867,-0.10162150859832764,0.0,0.0,0.0,2.1641218662261963,0.405495822429657,0.7310523986816406,0.4200000464916229,0.5768189430236816,3.795683767293667e-07,-3.0924422844691435e-06,-0.8168719410896301,9.184062946587801e-05,-0.00026779837207868695,-8.679646998643875e-05,0.006462676450610161,-0.001620778813958168,-0.0006853077211417258,0.46182525157928467,0.7442774772644043,0.5682799816131592,0.22202163934707642,-0.24703997373580933,0.17055541276931763,0.3934282958507538,0.7315379977226257,0.42000001668930054,-0.6153429746627808,-0.1919189989566803,-1.5345807075500488,-2.9999992847442627,-0.16495662927627563,-0.16247670352458954,-0.15859325230121613,-0.15483029186725616,0.031088104471564293,0.06474900990724564,0.09707671403884888,0.12113912403583527
0.8166666666666667,0.13766010105609894,0.016098223626613617,0.0,0.7110710144042969,0.0,0.0,-0.7031201720237732,-0.017307214438915253,-0.24567611515522003,0.0,0.0,0.0,-1.414533019065857,0.405495822429657,0.7310523986816406,0.4200000464916229,0.5768191814422607,4.7262537350434286e-07,-2.944244215541403e-06,-0.8168718218803406,9.547636727802455e-05,-0.0002647313813213259,-8.769216947257519e-05,0.006365252658724785,-0.0015649512642994523,-0.0006888241623528302,0.466488242149353,0.7387977838516235,0.5650947690010071,0.30589669942855835,-0.4352990388870239,-0.37329840660095215,0.3934282958507538,0.7315379977226257,0.42000001668930054,-0.6281460523605347,-1.2439807653427124,-1.4957565069198608,2.9999992847442627,-0.16568562388420105,-0.16234275698661804,-0.1576106697320938,-0.15307049453258514,-0.049793459475040436,0.014268930070102215,0.07682748138904572,0.13769929111003876
0.8333333333333334,0.13946597278118134,0.01494020875543356,0.0,0.6947459578514099,0.0,0.0,-0.7192552089691162,0.15578524768352509,-0.009440749883651733,0.0,0.0,0.0,-3.540611982345581,0.405495822429657,0.7310523986816406,0.4200000464916229,0.5768188834190369,3.133150414669217e-07,-2.945724190794863e-06,-0.8168720006942749,9.02922693057917e-05,-0.00026771804550662637,-8.64777248352766e-05,0.00646938243880868,-0.0016388669610023499,-0.0006816021632403135,0.47342896461486816,0.7344416379928589,0.5603733062744141,0.4989057779312134,-0.17333929240703583,-0.09376965463161469,0.3934282958507538,0.7315379977226257,0.42000001668930054,-0.6365617513656616,0.12383674830198288,-1.5120232105255127,-3.000000476837158,-0.1662248969078064,-0.16249379515647888,-0.15732717514038086,-0.15222999453544617,-0.010554637759923935,-0.007079143542796373,-3.675813786685467e-08,0.017653314396739006
0.85,0.14375655353069305,0.016955602914094925,0.0,0.6925450563430786,0.0,0.0,-0.7213746309280396,0.2905322015285492,0.18475189805030823,0.0,0.0,0.0,0.5593473315238953,0.405495822429657,0.7310523986816406,0.4200000464916229,0.5768190622329712,4.7037352146617195e-07,-3.1601309729012428e-06,-0.8168718814849854,9.774391946848482e-05,-0.0002651569084264338,-8.815131150186062e-05,0.006363234017044306,-0.001539804507046938,-0.0006945247878320515,0.4815903306007385,0.7337335348129272,0.5610820055007935,0.5003135204315186,0.10301846265792847,0.19038191437721252,0.3934282958507538,0.7315379977226257,0.42000001668930054,-0.6107262969017029,2.729011058807373,-1.5620415210723877,-3.000000476837158,-0.1653614193201065,-0.16222985088825226,-0.15761105716228485,-0.1528550535440445,0.0905592292547226,0.02494577318429947,-0.03981996327638626,-0.09225920587778091
0.8666666666666667,0.14584916830062866,0.01441588532179594,0.0,0.7086477279663086,0.0,0.0,-0.7055624723434448,0.12558312714099884,-0.18599453568458557,0.0,0.0,0.0,3.9262096881866455,0.405495822429657,0.7310523986816406,0.4200000464916229,0.5768189430236816,4.818307388632093e-07,-3.0218352549127303e-06,-0.8168720006942749,9.541219333186746e-05,-0.00026474299374967813,-8.768425323069096e-05,0.006365748587995768,-0.001566127291880548,-0.0006884772446937859,0.4862338602542877,0.7341085076332092,0.5639178156852722,0.028347283601760864,-0.1362667679786682,0.19146400690078735,0.3934282958507538,0.7315379977226257,0.42000001668930054,-0.5992986559867859,-1.0398374795913696,-1.5231349468231201,2.999999523162842,-0.16042810678482056,-0.15859782695770264,-0.15527835488319397,-0.15160615742206573,0.15949304401874542,0.12020189315080643,0.07662757486104965,0.041524603962898254
0.8833333333333333,0.14553382992744446,0.016154102981090546,0.0,0.7144801020622253,0.0,0.0,-0.6996557712554932,-0.03464720398187637,0.12184841930866241,0.0,0.0,0.0,-0.019169248640537262,0.405495822429657,0.7310523986816406,0.4200000464916229,0.5768190622329712,4.833922275793157e-07,-2.876523922168417e-06,-0.8168718814849854,9.44400453590788e-05,-0.0002648690133355558,-8.744513615965843e-05,0.006374369375407696,-0.0015774070052430034,-0.0006866947514936328,0.4841395318508148,0.7331290245056152,0.5596948862075806,-0.2339411973953247,0.0014090347103774548,-0.5625482201576233,0.3934282958507538,0.7315379977226257,0.42000001668930054,-0.6042079329490662,0.33591482043266296,-1.538813591003418,-3.0000009536743164,-0.16111773252487183,-0.15955674648284912,-0.15662336349487305,-0.15324629843235016,0.025237170979380608,-0.007139225956052542,-0.0463593527674675,-0.07950128614902496
