vladlanda/robotic-transformer/data/env_000_episode_0091.csv
sim_time_s,robot_box_x,robot_box_y,robot_box_z,robot_box_quat_w,robot_box_quat_x,robot_box_quat_y,robot_box_quat_z,robot_box_linvel_x,robot_box_linvel_y,robot_box_linvel_z,robot_box_angvel_x,robot_box_angvel_y,robot_box_angvel_z,cube_world_x,cube_world_y,cube_world_z,cube_quat_w,cube_quat_x,cube_quat_y,cube_quat_z,cube_linvel_x,cube_linvel_y,cube_linvel_z,cube_angvel_x,cube_angvel_y,cube_angvel_z,endpoint_world_x,endpoint_world_y,endpoint_world_z,endpoint_linvel_x,endpoint_linvel_y,endpoint_linvel_z,target_cube_world_x,target_cube_world_y,target_cube_world_z,gripper_actual_pos_rad_gp_leftgearjoint,gripper_actual_vel_rad_s_gp_leftgearjoint,gripper_actual_pos_rad_gp_rotatingjoint,gripper_actual_vel_rad_s_gp_rotatingjoint,motor_angle_rad_joint1,motor_angle_rad_joint2,motor_angle_rad_joint3,motor_angle_rad_joint4,motor_speed_rad_s_joint1,motor_speed_rad_s_joint2,motor_speed_rad_s_joint3,motor_speed_rad_s_joint4
0.0,0.0,0.0,0.0,1.0,0.0,0.0,0.0,0.0,0.0,0.0,0.0,0.0,0.0,-0.35030290484428406,0.7480705380439758,0.41999998688697815,1.0,0.0,0.0,0.0,0.0,0.0,0.0,0.0,0.0,0.0,3.42540442943573e-06,-0.005000244826078415,1.313499927520752,0.0,0.0,0.0,0.4101731479167938,0.6904717087745667,0.42000001668930054,-1.5707999467849731,0.0,0.0,0.0,0.0,0.0,0.0,0.0,0.0,0.0,0.0,0.0
0.016666666666666666,0.0019488345133140683,0.0013651862973347306,0.0,0.9999973177909851,0.0,0.0,-0.00232251500710845,0.168474942445755,0.11765418946743011,0.0,0.0,0.0,-0.43009695410728455,-0.3503030240535736,0.748070240020752,0.41999998688697815,1.0,3.279964630564791e-06,-8.339746386809566e-07,8.465587342243452e-08,-1.9833529222523794e-05,0.00017983045836444944,-6.132945418357849e-05,0.0009432713268324733,-0.004689474124461412,-0.00031981561915017664,-0.007050188258290291,0.004010370001196861,1.3156077861785889,-0.801915168762207,1.0380141735076904,0.15538626909255981,0.4101731479167938,0.6904717087745667,0.42000001668930054,-1.5301076173782349,3.0000040531158447,-0.04586084559559822,-3.0000007152557373,0.0005275131552480161,0.0004761718155350536,0.00041202097781933844,0.00033524524769745767,0.08646612614393234,0.07444143295288086,0.06159062683582306,0.0477975532412529
0.03333333333333333,0.00750200217589736,0.005348874256014824,0.0,0.9996715188026428,0.0,0.0,-0.025628864765167236,0.4008234143257141,0.28778696060180664,0.0,0.0,0.0,-3.5957207679748535,-0.35030314326286316,0.7480701804161072,0.4200000464916229,1.0,3.3908495424839202e-06,-2.13246403291123e-06,-3.7113540685140833e-08,0.00026357793831266463,0.00026937888469547033,-0.00010509486310184002,-0.0017707492224872112,0.004130844492465258,-0.00013548089191317558,-0.02466971054673195,0.028015045449137688,1.3162815570831299,-1.2809752225875854,1.7618683576583862,-0.06164241582155228,0.4101731479167938,0.6904717087745667,0.42000001668930054,-1.480088233947754,2.9999985694885254,-0.09590067714452744,-3.0000014305114746,0.002400940051302314,0.002016059122979641,0.0015940640587359667,0.0011332748690620065,0.15075145661830902,0.11871615797281265,0.0852808877825737,0.05031276494264603
0.05,0.016049858182668686,0.011763414368033409,0.0,0.999547004699707,0.0,0.0,-0.03009672835469246,0.5483443140983582,0.427276611328125,0.0,0.0,0.0,0.4686366319656372,-0.35030317306518555,0.748070240020752,0.4200000464916229,1.0,3.765192104765447e-06,-2.211900209658779e-06,5.597691199454857e-09,0.00026530851027928293,0.0002669154782779515,-0.00010440615005791187,-0.0017244016053155065,0.004177400376647711,-0.00012949206575285643,-0.05134224519133568,0.05854707956314087,1.312264084815979,-1.813436508178711,1.9939836263656616,-0.40104296803474426,0.4101731479167938,0.6904717087745667,0.42000001668930054,-1.430069923400879,2.999999523162842,-0.14592456817626953,-3.0,0.00467525003477931,0.0037257615476846695,0.002706503961235285,0.0016125994734466076,0.14763298630714417,0.10646630823612213,0.06351764500141144,0.01865602657198906
0.06666666666666667,0.027118559926748276,0.02039976976811886,0.0,0.9988290667533875,0.0,0.0,-0.04837865009903908,0.7245787978172302,0.5594810247421265,0.0,0.0,0.0,-3.0379226207733154,-0.35030317306518555,0.7480701804161072,0.4200000464916229,0.9999999403953552,3.406822997931158e-06,-2.285597702211817e-06,4.3007378280890407e-07,0.0002670248504728079,0.0002679188910406083,-0.0001043803058564663,-0.0017407664563506842,0.004211778752505779,-0.00012850675557274371,-0.07889176905155182,0.09691758453845978,1.3033493757247925,-1.4989261627197266,2.580691337585449,-0.6506695747375488,0.4101731479167938,0.6904717087745667,0.42000001668930054,-1.3800418376922607,3.0000030994415283,-0.13503926992416382,3.000000476837158,0.006122172810137272,0.004234800115227699,0.0022397374268621206,0.0001325250050285831,0.05818531662225723,-0.014873427338898182,-0.08988986909389496,-0.16694393754005432
0.08333333333333333,0.03298301249742508,0.03277767822146416,0.0,0.9953451156616211,0.0,0.0,-0.09637461602687836,0.3531908690929413,0.6919447779655457,0.0,0.0,0.0,-6.437130928039551,-0.35030317306518555,0.7480701804161072,0.4200000464916229,0.9999999403953552,3.626143552537542e-06,-2.3353795768343844e-06,3.0320177302201046e-07,0.00026613884256221354,0.0002668504021130502,-0.00010405178181827068,-0.0017283395864069462,0.004196345806121826,-0.00012790612527169287,-0.10166928172111511,0.1413184106349945,1.2907700538635254,-1.2681734561920166,2.7210679054260254,-0.6875660419464111,0.4101731479167938,0.6904717087745667,0.42000001668930054,-1.3300468921661377,3.0000007152557373,-0.1669447273015976,-2.999999523162842,0.002068652305752039,-0.0007850450347177684,-0.0037894584238529205,-0.006952930707484484,-0.11912880837917328,-0.20850753784179688,-0.2981836795806885,-0.38826748728752136
0.1,0.04378681257367134,0.04629766196012497,0.0,0.9922444224357605,0.0,0.0,-0.12430188059806824,0.688943088054657,0.8286615610122681,0.0,0.0,0.0,-2.317286729812622,-0.35030317306518555,0.7480701804161072,0.4200000464916229,1.0,3.4221898204123136e-06,-2.308617240487365e-06,1.7961028220270236e-07,0.0002668149827513844,0.0002680047182366252,-0.00010440824553370476,-0.0017431126907467842,0.004207078833132982,-0.00012891080405097455,-0.12875673174858093,0.18586283922195435,1.2772562503814697,-1.727705478668213,2.8594753742218018,-0.913093090057373,0.4101731479167938,0.6904717087745667,0.42000001668930054,-1.2800288200378418,2.999990463256836,-0.1332838237285614,2.999999761581421,0.0026600821875035763,-0.0019277214305475354,-0.006647282280027866,-0.01150618027895689,-0.022953668609261513,-0.1172042191028595,-0.21035397052764893,-0.3023930490016937
0.11666666666666667,0.05200422182679176,0.058199506253004074,0.0,0.986611545085907,0.0,0.0,-0.163087859749794,0.4771912097930908,0.6473416686058044,0.0,0.0,0.0,-5.47299861907959,-0.35030317306518555,0.748070240020752,0.4200000464916229,1.0,3.7115171380719403e-06,-2.3327377220994094e-06,2.5742639309100923e-07,0.00026485745911486447,0.00026635476388037205,-0.00010423408821225166,-0.0017183205345645547,0.004170126281678677,-0.00012915924889966846,-0.15331491827964783,0.23651903867721558,1.2620034217834473,-1.2047606706619263,3.281022548675537,-0.8871186971664429,0.4101731479167938,0.6904717087745667,0.42000001668930054,-1.230041265487671,2.999999761581421,-0.16518424451351166,-3.000000476837158,8.90211304067634e-05,-0.00616309093311429,-0.012521909549832344,-0.018993765115737915,-0.14830231666564941,-0.26263660192489624,-0.37440404295921326,-0.4834427833557129
0.13333333333333333,0.0567735880613327,0.0706535205245018,0.0,0.982978343963623,0.0,0.0,-0.18372151255607605,0.19915443658828735,0.7814165949821472,0.0,0.0,0.0,-1.0569343566894531,-0.35030317306518555,0.7480701804161072,0.4200000464916229,1.0,3.3356991480104625e-06,-2.2319643449009163e-06,3.113098898666067e-07,0.0002666966465767473,0.00026759441243484616,-0.00010428344830870628,-0.00173711939714849,0.0042058308608829975,-0.0001283991296077147,-0.18195220828056335,0.29070937633514404,1.2419037818908691,-1.9229745864868164,3.4146440029144287,-1.5165793895721436,0.4101731479167938,0.6904717087745667,0.42000001668930054,-1.1961102485656738,1.2012068033218384,-0.13154257833957672,2.9999983310699463,-0.0033611604012548923,-0.011210354045033455,-0.019106872379779816,-0.027054620906710625,-0.25596117973327637,-0.33062484860420227,-0.4015620946884155,-0.4687100648880005
0.15,0.06519997119903564,0.08012308180332184,0.0,0.9768979549407959,0.0,0.0,-0.21370622515678406,0.5505495667457581,0.47856956720352173,0.0,0.0,0.0,-4.339519500732422,-0.35030317306518555,0.7480701804161072,0.4200000464916229,1.0,3.518883659126004e-06,-2.2831864043837413e-06,-3.6254408541935845e-07,0.0002661842736415565,0.0002673580020200461,-0.00010425597429275513,-0.0017349525587633252,0.004195696674287319,-0.00012860969582106918,-0.2112329602241516,0.3522524833679199,1.2139464616775513,-1.6077156066894531,3.9743614196777344,-1.8866910934448242,0.4101731479167938,0.6904717087745667,0.42000001668930054,-1.1510968208312988,3.0,-0.16345743834972382,-2.9999988079071045,-0.006265647709369659,-0.01541338860988617,-0.02454592101275921,-0.0336652472615242,-0.31538811326026917,-0.3707154393196106,-0.4235907793045044,-0.47387903928756714
0.16666666666666666,0.0684286504983902,0.09175135940313339,0.0,0.9627137780189514,0.0,0.0,-0.27052202820777893,0.19654932618141174,0.7137622237205505,0.0,0.0,0.0,-7.67434549331665,-0.35030317306518555,0.7480701804161072,0.4200000464916229,1.0,3.6664860090240836e-06,-2.339219236091594e-06,-3.1498129260398855e-07,0.000265957583906129,0.00026667368365451694,-0.0001040350180119276,-0.00172534235753119,0.0041928584687411785,-0.0001277906121686101,-0.2391926646232605,0.4198722243309021,1.1742165088653564,-1.6015024185180664,4.296866416931152,-2.697207450866699,0.4101731479167938,0.6904717087745667,0.42000001668930054,-1.1111822128295898,1.8515232801437378,-0.21346618235111237,-3.0,-0.018031269311904907,-0.02718101441860199,-0.03630762919783592,-0.045420385897159576,-0.6213676333427429,-0.6301423907279968,-0.6366351842880249,-0.6410989761352539
0.18333333333333332,0.07648830115795135,0.10470271855592728,0.0,0.9516123533248901,0.0,0.0,-0.3073010742664337,0.4471849501132965,0.8483667969703674,0.0,0.0,0.0,-3.5470194816589355,-0.35030317306518555,0.7480701804161072,0.4200000464916229,1.0,3.8142322864587186e-06,-2.3995798983378336e-06,-2.702603580928553e-07,0.0002654909039847553,0.0002661114267539233,-0.00010391208343207836,-0.001717755920253694,0.004184814170002937,-0.0001275418180739507,-0.27054500579833984,0.48997506499290466,1.1210150718688965,-1.669084072113037,4.375784397125244,-3.713334560394287,0.4101731479167938,0.6904717087745667,0.42000001668930054,-1.063651442527771,2.9999992847442627,-0.26349538564682007,-3.000000476837158,-0.026827309280633926,-0.03597472608089447,-0.04505893215537071,-0.05409634858369827,-0.7438170909881592,-0.6998462677001953,-0.6560004949569702,-0.6129732131958008
0.2,0.08102284371852875,0.1150168851017952,0.0,0.947902500629425,0.0,0.0,-0.3185606896877289,0.22218888998031616,0.5513206720352173,0.0,0.0,0.0,-0.2227213829755783,-0.35030317306518555,0.7480701804161072,0.4200000464916229,1.0,3.599930778364069e-06,-2.291256123498897e-06,-2.2017269429852604e-07,0.00026572923525236547,0.0002664503117557615,-0.00010398100130259991,-0.001722716842778027,0.004188799764961004,-0.0001277321280213073,-0.3007138669490814,0.5564992427825928,1.0528415441513062,-1.5984477996826172,3.902329206466675,-4.433488845825195,0.4101731479167938,0.6904717087745667,0.42000001668930054,-1.0136425495147705,3.0000014305114746,-0.3135227560997009,-2.9999990463256836,-0.04038655757904053,-0.04849690571427345,-0.05656227841973305,-0.06461479514837265,-0.8551144599914551,-0.7859428524971008,-0.7181342244148254,-0.6525894999504089
0.21666666666666667,0.08135484904050827,0.12663622200489044,0.0,0.9400781989097595,0.0,0.0,-0.3409588932991028,-0.04943842813372612,0.7173218131065369,0.0,0.0,0.0,-3.7039804458618164,-0.35030317306518555,0.7480701804161072,0.4200000464916229,0.9999999403953552,3.63946242032398e-06,-2.2619665287493262e-06,2.2250399922540964e-07,0.00026687447098083794,0.0002675448777154088,-0.00010411837138235569,-0.0017403843812644482,0.00421105744317174,-0.00012783669808413833,-0.32381224632263184,0.6207606792449951,0.972632110118866,-1.205245018005371,3.6851043701171875,-5.089008331298828,0.4101731479167938,0.6904717087745667,0.42000001668930054,-0.9636332988739014,3.000001907348633,-0.3635496497154236,-3.0000016689300537,-0.05585339292883873,-0.06403391063213348,-0.07128850370645523,-0.078028105199337,-0.9411964416503906,-0.9433419108390808,-0.899692177772522,-0.8273299336433411
0.23333333333333334,0.08535228669643402,0.13588780164718628,0.0,0.9376367926597595,0.0,0.0,-0.3476165235042572,0.2490004599094391,0.4366697669029236,0.0,0.0,0.0,0.16063767671585083,-0.35030314326286316,0.7480701804161072,0.4200000464916229,1.0,3.4205174870294286e-06,-2.316806103408453e-06,2.9562716008513235e-07,0.0002668004890438169,0.00026803973014466465,-0.00010442547500133514,-0.0017438001232221723,0.004206894896924496,-0.00012899792636744678,-0.3460957109928131,0.6740015149116516,0.8830447196960449,-1.2384352684020996,2.776827335357666,-5.652392864227295,0.4101731479167938,0.6904717087745667,0.42000001668930054,-0.9136238694190979,2.9999992847442627,-0.41357892751693726,-2.999999523162842,-0.06977474689483643,-0.07757842540740967,-0.08388961106538773,-0.08934611827135086,-0.8938488960266113,-0.8429255485534668,-0.7680807113647461,-0.679804265499115
0.25,0.08541423082351685,0.14327634871006012,0.0,0.9303683638572693,0.0,0.0,-0.36662620306015015,-0.027881693094968796,0.34791499376296997,0.0,0.0,0.0,-3.265364646911621,-0.35030317306518555,0.7480701804161072,0.4200000464916229,0.9999999403953552,3.347446863699588e-06,-2.259109578517382e-06,1.8086505804149056e-07,0.00026687653735280037,0.0002679114695638418,-0.0001043954398483038,-0.0017404556274414062,0.0042081899009644985,-0.00012870357022620738,-0.36169466376304626,0.7147804498672485,0.7820495367050171,-0.693393886089325,2.0934324264526367,-6.237227439880371,0.4101731479167938,0.6904717087745667,0.42000001668930054,-0.8636131882667542,2.999995231628418,-0.4636097550392151,-2.9999992847442627,-0.08556490391492844,-0.0933857411146164,-0.09970907121896744,-0.10509718954563141,-0.9026569128036499,-0.910121500492096,-0.9183405041694641,-0.9241329431533813
0.26666666666666666,0.08266734331846237,0.14660245180130005,0.0,0.9296470284461975,0.0,0.0,-0.36845138669013977,-0.21729284524917603,0.10258596390485764,0.0,0.0,0.0,0.632024884223938,-0.35030317306518555,0.7480701804161072,0.4200000464916229,0.9999999403953552,3.5355112686374923e-06,-2.3001468889560783e-06,-1.2682981775924418e-07,0.00026601721765473485,0.0002671225811354816,-0.0001041970681399107,-0.0017317159799858928,0.004192830994725227,-0.0001284919708268717,-0.3738660216331482,0.7391430139541626,0.6764260530471802,-0.580958366394043,0.8688969016075134,-6.418651103973389,0.4101731479167938,0.6904717087745667,0.42000001668930054,-0.8136036992073059,2.999995470046997,-0.5136410593986511,-3.000000476837158,-0.10208731144666672,-0.1098872646689415,-0.11619286984205246,-0.12156330794095993,-0.9904240369796753,-0.9915053248405457,-0.9917705655097961,-0.991680920124054
0.2833333333333333,0.07709594815969467,0.14659783244132996,0.0,0.923672616481781,0.0,0.0,-0.3831825852394104,-0.3842065930366516,-0.04643162712454796,0.0,0.0,0.0,-2.7784597873687744,-0.35030317306518555,0.748070240020752,0.4200000464916229,1.0,3.5932494029111695e-06,-2.262480848003179e-06,-5.650359113928971e-08,0.0002670456888154149,0.00026774840080179274,-0.00010416633449494839,-0.0017430947627872229,0.0042140730656683445,-0.00012789174797944725,-0.3781375288963318,0.7480412721633911,0.5683200359344482,0.08966680616140366,0.10714785009622574,-6.368348121643066,0.4101731479167938,0.6904717087745667,0.42000001668930054,-0.763594925403595,3.0000009536743164,-0.5636709332466125,-3.000002861022949,-0.11950729787349701,-0.12711788713932037,-0.1332796961069107,-0.1385367214679718,-1.0051900148391724,-1.0039050579071045,-1.0029257535934448,-1.0021448135375977
0.3,0.06972576677799225,0.14416030049324036,0.0,0.9242535829544067,0.0,0.0,-0.38177916407585144,-0.5053176879882812,-0.18838851153850555,0.0,0.0,0.0,1.0762650966644287,-0.35030314326286316,0.7480701804161072,0.4200000464916229,0.9999999403953552,3.724779389813193e-06,-2.2358647129294695e-06,3.829072738881223e-07,0.0002647978253662586,0.00026673043612390757,-0.00010453932918608189,-0.001718905521556735,0.004166657570749521,-0.000130163854919374,-0.3738744258880615,0.7484579086303711,0.46940580010414124,0.5073661804199219,-0.10027666389942169,-5.528397560119629,0.4101731479167938,0.6904717087745667,0.42000001668930054,-0.7135865688323975,3.0000014305114746,-0.6136995553970337,-3.0000007152557373,-0.13690301775932312,-0.144356831908226,-0.15040326118469238,-0.15557117760181427,-1.0164883136749268,-1.0124709606170654,-1.0093917846679688,-1.0069218873977661
0.31666666666666665,0.05986233428120613,0.13938024640083313,0.0,0.9190148115158081,0.0,0.0,-0.39422306418418884,-0.6383131146430969,-0.3286503255367279,0.0,0.0,0.0,-2.4871599674224854,-0.3516068756580353,0.74506676197052,0.4215848445892334,0.9989321827888489,0.03686219081282616,-0.00198596459813416,-0.027778122574090958,0.05018310248851776,-0.017705842852592468,0.09798196703195572,4.993017196655273,0.015016025863587856,-1.7132811546325684,-0.3687061071395874,0.7490537166595459,0.4295530915260315,0.05289845913648605,-0.10321900248527527,-0.13511784374713898,0.4101731479167938,0.6904717087745667,0.42000001668930054,-0.6636443734169006,3.0000948905944824,-0.6641725897789001,-3.0027730464935303,-0.14654213190078735,-0.15441519021987915,-0.16066688299179077,-0.16576634347438812,-0.206666961312294,-0.24290478229522705,-0.25686928629875183,-0.24247583746910095
0.3333333333333333,0.04784471169114113,0.13218457996845245,0.0,0.9202641248703003,0.0,0.0,-0.39129775762557983,-0.7606807351112366,-0.47653645277023315,0.0,0.0,0.0,1.280134916305542,-0.3510320484638214,0.7447051405906677,0.42190149426460266,0.9981240034103394,0.05007859691977501,-0.0017640964360907674,-0.03517825901508331,0.024118246510624886,-0.01842501387000084,0.002212799619883299,0.1234494224190712,-0.007934633642435074,-0.5636774897575378,-0.3695424199104309,0.7510890960693359,0.4273316264152527,0.074493907392025,0.10282406955957413,-0.18996953964233398,0.4101731479167938,0.6904717087745667,0.42000001668930054,-0.6136379241943359,2.9999966621398926,-0.7142109274864197,-2.9999804496765137,-0.15206138789653778,-0.15954697132110596,-0.16512687504291534,-0.16918706893920898,-0.39886367321014404,-0.3381575644016266,-0.26519525051116943,-0.17556226253509521
0.35,0.039306849241256714,0.1220073476433754,0.0,0.9156326055526733,0.0,0.0,-0.4020160138607025,-0.43166384100914,-0.6594755053520203,0.0,0.0,0.0,-2.26957368850708,-0.35077813267707825,0.7450152039527893,0.42118388414382935,0.9988480806350708,0.030319029465317726,-0.0011340636992827058,-0.037172313779592514,0.012599790468811989,0.03132445365190506,-0.058118052780628204,-3.1881654262542725,0.2349371612071991,-0.11660929769277573,-0.3666984736919403,0.7518206834793091,0.42454373836517334,0.33636677265167236,0.10155171155929565,-0.15314941108226776,0.4101731479167938,0.6904717087745667,0.42000001668930054,-0.5636330246925354,2.999988555908203,-0.7642621994018555,-2.999995708465576,-0.15940962731838226,-0.16534516215324402,-0.16919416189193726,-0.17128150165081024,-0.4642740488052368,-0.3444591760635376,-0.21721185743808746,-0.07940313220024109
0.36666666666666664,0.028922952711582184,0.11031068116426468,0.0,0.9175748825073242,0.0,0.0,-0.39756304025650024,-0.6952416300773621,-0.722636878490448,0.0,0.0,0.0,1.5599929094314575,-0.3439801335334778,0.7475314736366272,0.42153623700141907,0.9890772104263306,0.03953928127884865,-0.00484048156067729,-0.14191345870494843,0.5134764313697815,0.23434434831142426,0.07376376539468765,3.895886182785034,-0.6584310531616211,-18.056867599487305,-0.35888975858688354,0.7561274766921997,0.4231802225112915,0.680841326713562,0.49768301844596863,-0.11137378215789795,0.4101731479167938,0.6904717087745667,0.42000001668930054,-0.5136287212371826,2.999997138977051,-0.814286470413208,-2.999999523162842,-0.170244961977005,-0.17321468889713287,-0.1740279644727707,-0.17298480868339539,-0.658207356929779,-0.4675242602825165,-0.27387648820877075,-0.07620874792337418
0.3833333333333333,0.021970229223370552,0.09592463076114655,0.0,0.9134992957115173,0.0,0.0,-0.40684032440185547,-0.3601822853088379,-0.9009245038032532,0.0,0.0,0.0,-2.136559247970581,-0.33378979563713074,0.7527519464492798,0.4214403033256531,0.9622753262519836,0.03430717810988426,-0.011642048135399818,-0.26965460181236267,0.6852859854698181,0.3711163103580475,-0.023846901953220367,-2.3796520233154297,0.21026912331581116,-3.265977144241333,-0.3456260561943054,0.7619474530220032,0.4223301410675049,0.9628502130508423,0.2658587396144867,-0.01628779247403145,0.4101731479167938,0.6904717087745667,0.42000001668930054,-0.46362465620040894,2.9998779296875,-0.8643407225608826,-3.0000007152557373,-0.17925597727298737,-0.17889446020126343,-0.17624594271183014,-0.17160940170288086,-0.5074350833892822,-0.28542762994766235,-0.05462441220879555,0.18387570977210999
0.4,0.01240235660225153,0.08010789006948471,0.0,0.8963448405265808,0.0,0.0,-0.44335752725601196,-0.6518406867980957,-0.9748172163963318,0.0,0.0,0.0,-5.787545680999756,-0.3135189414024353,0.7630318999290466,0.4223856031894684,0.9497740268707275,-0.011573364026844501,-0.01951269805431366,-0.31211283802986145,1.5574887990951538,0.8366304039955139,0.10591130703687668,12.660975456237793,-12.204477310180664,-2.8550190925598145,-0.32427337765693665,0.7715805172920227,0.4238274097442627,1.623344898223877,0.828000545501709,0.2403801828622818,0.4101731479167938,0.6904717087745667,0.42000001668930054,-0.4136843681335449,2.906181573867798,-0.9143540263175964,-2.999999761581421,-0.18899652361869812,-0.1848938912153244,-0.1783643662929535,-0.16973774135112762,-0.54478520154953,-0.3376375436782837,-0.12384182214736938,0.09475528448820114
0.4166666666666667,0.00574216153472662,0.06131548807024956,0.0,0.8641723394393921,0.0,0.0,-0.5031960010528564,-0.34894242882728577,-1.1739675998687744,0.0,0.0,0.0,-8.902239799499512,-0.2726406753063202,0.7814595699310303,0.42846691608428955,0.9277902841567993,-0.0036655892618000507,-0.048388734459877014,-0.3699326813220978,3.743987560272217,1.6027761697769165,0.6512870788574219,15.465778350830078,-16.408597946166992,8.57492733001709,-0.2818877696990967,0.7913057208061218,0.4293868839740753,3.3923606872558594,1.4509391784667969,0.5914498567581177,0.4101731479167938,0.6904717087745667,0.42000001668930054,-0.38278084993362427,1.0651358366012573,-0.9643761515617371,-2.9999985694885254,-0.1983513981103897,-0.19052846729755402,-0.1802152395248413,-0.16779394447803497,-0.6132678985595703,-0.3680497109889984,-0.12277408689260483,0.11813146620988846
0.43333333333333335,0.0014958257088437676,0.048079125583171844,0.0,0.8149599432945251,0.0,0.0,-0.5795173048973083,-0.20705147087574005,-0.6634204983711243,0.0,0.0,0.0,-11.677090644836426,-0.19165830314159393,0.8075875043869019,0.43836620450019836,0.9020284414291382,0.05340128391981125,-0.08776630461215973,-0.41927313804626465,6.3067474365234375,1.2704541683197021,0.7931141257286072,5.87698221206665,-11.931196212768555,20.021625518798828,-0.1998451054096222,0.8186225891113281,0.4391660988330841,6.11312198638916,1.8867402076721191,0.7099588513374329,0.4101731479167938,0.6904717087745667,0.42000001668930054,-0.36885714530944824,0.6849368810653687,-0.9269012808799744,2.999242067337036,-0.21378517150878906,-0.202357217669487,-0.18695177137851715,-0.16987529397010803,-0.8831945061683655,-0.7845291495323181,-0.49661800265312195,-0.24486088752746582
0.45,0.0004782714240718633,0.038804784417152405,0.0,0.7751536965370178,0.0,0.0,-0.6317726969718933,-0.0068176486529409885,-0.5584635734558105,0.0,0.0,0.0,-6.6682915687561035,-0.09276473522186279,0.8311200737953186,0.4517388641834259,0.8420047760009766,0.09262735396623611,-0.1155424490571022,-0.5187464356422424,5.756888389587402,0.3223925232887268,1.118738055229187,-7.635619163513184,9.218114852905273,10.426179885864258,-0.10090534389019012,0.844750165939331,0.4531528353691101,6.074984073638916,1.2279877662658691,0.853390097618103,0.4101731479167938,0.6904717087745667,0.42000001668930054,-0.3562384247779846,0.7553201913833618,-0.9526476860046387,-2.9976775646209717,-0.22379770874977112,-0.21343162655830383,-0.19528014957904816,-0.17497390508651733,-0.46499499678611755,-0.5284733176231384,-0.4152185916900635,-0.2789613902568817
0.4666666666666667,-0.0024001565761864185,0.03354905545711517,0.0,0.7574440836906433,0.0,0.0,-0.6529000401496887,-0.14454789459705353,-0.28903794288635254,0.0,0.0,0.0,-1.9592540264129639,0.004789955914020538,0.8391223549842834,0.46469372510910034,0.7690650820732117,0.10391887277364731,-0.0985608622431755,-0.6229168176651001,5.668797969818115,-1.1029428243637085,0.6337100863456726,-17.28053092956543,-10.45180892944336,29.12249755859375,-0.0017558010295033455,0.854356586933136,0.46591490507125854,6.091778755187988,0.1082078069448471,0.822033703327179,0.4101731479167938,0.6904717087745667,0.42000001668930054,-0.34413671493530273,0.5788686275482178,-1.0026715993881226,-3.0000040531158447,-0.23414956033229828,-0.2234032154083252,-0.20270873606204987,-0.17968523502349854,-0.5359872579574585,-0.4941279888153076,-0.35718265175819397,-0.2132694572210312
0.48333333333333334,-0.0006045401678420603,0.02203195169568062,0.0,0.7311024069786072,0.0,0.0,-0.6822677254676819,0.19704027473926544,-0.8398920893669128,0.0,0.0,0.0,-5.764018535614014,0.10001435875892639,0.8325516581535339,0.4715866446495056,0.7203065752983093,0.08933065086603165,-0.09122085571289062,-0.6818042993545532,5.455525875091553,-1.5930025577545166,0.39069777727127075,-16.543869018554688,-4.8968424797058105,13.225893020629883,0.09667401015758514,0.8486469984054565,0.4737784266471863,5.870787620544434,-0.8533941507339478,0.3750004768371582,0.4101731479167938,0.6904717087745667,0.42000001668930054,-0.3340059816837311,0.5513870716094971,-1.0526938438415527,-3.000004529953003,-0.23639537394046783,-0.2252875566482544,-0.20311684906482697,-0.17846691608428955,1.802109181880951e-07,0.04623757302761078,0.1317453533411026,0.22222647070884705
0.5,-0.0025485705118626356,0.013908634893596172,0.0,0.7154204249382019,0.0,0.0,-0.6986942291259766,-0.11344552785158157,-0.41972121596336365,0.0,0.0,0.0,-1.4681742191314697,0.18769526481628418,0.8121966123580933,0.4762399196624756,0.6501284241676331,0.06168094277381897,-0.08751054853200912,-0.7522434592247009,4.4405107498168945,-2.257694721221924,0.5243538618087769,0.8580836653709412,-1.6000901460647583,33.360774993896484,0.1856573522090912,0.8285585641860962,0.4799446165561676,5.208779335021973,-1.5107076168060303,0.33329999446868896,0.4101731479167938,0.6904717087745667,0.42000001668930054,-0.3276349902153015,0.16422604024410248,-1.1027159690856934,-3.0000014305114746,-0.23999476432800293,-0.22732795774936676,-0.20351077616214752,-0.1774628460407257,-0.007489307317882776,-0.07739338278770447,-0.03274567425251007,-0.0073450785130262375
0.5166666666666666,-0.0018087648786604404,0.009572556242346764,0.0,0.6939060091972351,0.0,0.0,-0.7200655937194824,0.0995679721236229,-0.17521153390407562,0.0,0.0,0.0,-4.474785804748535,0.2625652253627777,0.7879955172538757,0.47487565875053406,0.607395350933075,0.040886878967285156,-0.08131951093673706,-0.7891680598258972,3.5078444480895996,-2.110492467880249,0.06340053677558899,8.618697166442871,-2.7095725536346436,32.152374267578125,0.2618717551231384,0.8036900162696838,0.48010003566741943,4.268383502960205,-1.7092630863189697,-0.26616930961608887,0.4101731479167938,0.6904717087745667,0.42000001668930054,-0.3252705931663513,0.11282779276371002,-1.152738094329834,-2.999746799468994,-0.23774589598178864,-0.22681757807731628,-0.20343855023384094,-0.17807094752788544,0.16680878400802612,0.07201147824525833,0.01512566301971674,-0.06025131046772003
0.5333333333333333,0.0015275204787030816,0.009396271780133247,0.0,0.6867270469665527,0.0,0.0,-0.7269153594970703,0.233366459608078,0.05101148411631584,0.0,0.0,0.0,-0.193872332572937,0.3211786150932312,0.7591604590415955,0.4658389687538147,0.5550867319107056,-0.0296236090362072,-0.09128601104021072,-0.8262372016906738,2.9134202003479004,-1.661319375038147,-0.6171563267707825,-12.301231384277344,8.181435585021973,6.407113552093506,0.3211437463760376,0.775147020816803,0.4739225208759308,3.06160569190979,-1.8053209781646729,-0.5394002795219421,0.4101731479167938,0.6904717087745667,0.42000001668930054,-0.3197740316390991,0.6137142181396484,-1.2027602195739746,-3.0000014305114746,-0.23442283272743225,-0.22500871121883392,-0.2030399590730667,-0.1793937236070633,0.2833486795425415,0.18616341054439545,0.06662613153457642,-0.07219397276639938
0.55,0.007246517576277256,0.006009177304804325,0.0,0.6702224612236023,0.0,0.0,-0.7421602606773376,0.38971081376075745,-0.2404787838459015,0.0,0.0,0.0,-3.5083811283111572,0.3676501214504242,0.7349974513053894,0.4500684440135956,0.47288116812705994,-0.05517571046948433,-0.11359529942274094,-0.8720293045043945,2.6124184131622314,-1.3052479028701782,-1.1055546998977661,-2.9221432209014893,-8.871522903442383,-17.157352447509766,0.36431312561035156,0.7501506805419922,0.45948731899261475,2.093468427658081,-1.4214932918548584,-1.05845308303833,0.4101731479167938,0.6904717087745667,0.42000001668930054,-0.301221638917923,1.6153709888458252,-1.252772569656372,-2.9999961853027344,-0.2266915738582611,-0.2193423956632614,-0.2001735270023346,-0.17960290610790253,0.4558202922344208,0.34244635701179504,0.1636175662279129,-0.033684439957141876
0.5666666666666667,0.0155960563570261,0.0062838830053806305,0.0,0.6668058633804321,0.0,0.0,-0.7452314496040344,0.5193301439285278,0.044735733419656754,0.0,0.0,0.0,0.39395061135292053,0.3957815170288086,0.7127896547317505,0.42986932396888733,0.4948391616344452,-0.05064357817173004,-0.10989820212125778,-0.8605183362960815,1.16486656665802,-1.9826600551605225,-0.9156942963600159,4.029487609863281,0.8829904198646545,10.73375129699707,0.3945179879665375,0.7252323627471924,0.4395502805709839,1.434545636177063,-1.377766489982605,-1.356454849243164,0.4101731479167938,0.6904717087745667,0.42000001668930054,-0.27034419775009155,1.657888412475586,-1.2147173881530762,2.999831438064575,-0.22162342071533203,-0.2157088667154312,-0.1993475705385208,-0.1819312572479248,0.37906673550605774,0.27016764879226685,0.07001063227653503,-0.14690937101840973
0.5833333333333334,0.02418074943125248,0.0025911673437803984,0.0,0.6530068516731262,0.0,0.0,-0.7573519945144653,0.5252630114555359,-0.25592365860939026,0.0,0.0,0.0,-3.029902458190918,0.407715380191803,0.7041414976119995,0.421299546957016,0.5053846836090088,-0.019442403689026833,0.01765657588839531,-0.8624942898750305,-0.03754187002778053,-1.061335802078247,0.6309828162193298,-13.266755104064941,19.031293869018555,24.57256317138672,0.40690648555755615,0.7130558490753174,0.43062347173690796,0.00950143113732338,-0.10673728585243225,0.4210188090801239,0.4101731479167938,0.6904717087745667,0.42000001668930054,-0.2552572190761566,0.17876867949962616,-1.2362653017044067,-2.996168851852417,-0.21032314002513885,-0.20721116662025452,-0.19509845972061157,-0.18197248876094818,0.6334414482116699,0.4825046956539154,0.24461030960083008,0.009265102446079254
0.6,0.029909448698163033,0.0019960927311331034,0.0,0.6522946357727051,0.0,0.0,-0.7579655051231384,0.2734488844871521,-0.01361868716776371,0.0,0.0,0.0,0.763770341873169,0.4090231955051422,0.6989455819129944,0.4224974811077118,0.5371060967445374,-0.01434495858848095,0.0033170825336128473,-0.8433861136436462,-0.1744096279144287,-0.5523567795753479,0.27932459115982056,6.643059730529785,8.156876564025879,-2.8522889614105225,0.40553662180900574,0.7071799039840698,0.4325934648513794,-0.0671607181429863,-0.3813951015472412,-0.279385507106781,0.4101731479167938,0.6904717087745667,0.42000001668930054,-0.2709355354309082,-1.4545255899429321,-1.1982717514038086,3.000001907348633,-0.2013920247554779,-0.20033657550811768,-0.1917952001094818,-0.1822243332862854,0.5943142175674438,0.46351921558380127,0.2408120036125183,0.020139669999480247
0.6166666666666667,0.03651302307844162,0.004796791356056929,0.0,0.6406847238540649,0.0,0.0,-0.7678040266036987,0.40576794743537903,0.20529471337795258,0.0,0.0,0.0,-2.7391774654388428,0.407000333070755,0.691290557384491,0.4241558611392975,0.5253395438194275,-0.05325489863753319,0.08859817683696747,-0.8445901274681091,0.051934100687503815,-0.2098534107208252,-0.03944982588291168,2.8490426540374756,12.53853988647461,-1.7447243928909302,0.40383780002593994,0.7048261165618896,0.42687177658081055,0.1381252408027649,0.039516787976026535,0.1638912409543991,0.4101731479167938,0.6904717087745667,0.42000001668930054,-0.298346608877182,-1.880676031112671,-1.219679594039917,-2.998462438583374,-0.19190900027751923,-0.1932867020368576,-0.18860158324241638,-0.18275640904903412,0.6199517250061035,0.46463972330093384,0.23067216575145721,0.009552687406539917
0.6333333333333333,0.044690798968076706,0.003012815024703741,0.0,0.6415523290634155,0.0,0.0,-0.7670792937278748,0.47379598021507263,-0.13155193626880646,0.0,0.0,0.0,1.0399259328842163,0.4071912467479706,0.6920276284217834,0.4264262020587921,0.5375676155090332,-0.07740461826324463,0.09562923014163971,-0.8341969847679138,0.023476939648389816,0.02287859283387661,0.07016074657440186,3.434173107147217,3.7611539363861084,-0.64789879322052,0.4041563868522644,0.7054025530815125,0.4300749599933624,-0.061620887368917465,0.008895641192793846,0.21035124361515045,0.4101731479167938,0.6904717087745667,0.42000001668930054,-0.3467347323894501,-2.999922513961792,-1.269657015800476,-2.9993226528167725,-0.1787366420030594,-0.1827774941921234,-0.18201492726802826,-0.17988130450248718,0.6835939884185791,0.5684000253677368,0.37725603580474854,0.1931820660829544
0.65,0.05537821352481842,0.005117518361657858,0.0,0.6645612120628357,0.0,0.0,-0.7472338080406189,0.6706676483154297,0.1276123821735382,0.0,0.0,0.0,4.4489336013793945,0.40714195370674133,0.6925340294837952,0.42591407895088196,0.5196295976638794,-0.07822912186384201,0.1127590537071228,-0.8432974219322205,-0.04038552567362785,0.055499762296676636,-0.03263445943593979,-0.4631168246269226,-2.5239713191986084,-1.3352481126785278,0.40275293588638306,0.705646276473999,0.43345147371292114,-0.08986619859933853,0.15133319795131683,0.21332082152366638,0.4101731479167938,0.6904717087745667,0.42000001668930054,-0.3967176079750061,-2.9962210655212402,-1.3196239471435547,-2.9993276596069336,-0.17104125022888184,-0.17621354758739471,-0.17777538299560547,-0.17789264023303986,0.5214054584503174,0.44489800930023193,0.30475884675979614,0.17155972123146057
0.6666666666666666,0.06292548775672913,0.0036684717051684856,0.0,0.6730383634567261,0.0,0.0,-0.739607572555542,0.36861422657966614,-0.14636659622192383,0.0,0.0,0.0,0.3119567334651947,0.4061855673789978,0.6934425234794617,0.4237375557422638,0.519607424736023,-0.054561905562877655,0.08901622891426086,-0.8480018973350525,-0.08826117217540741,0.03412419930100441,-0.09519641846418381,-3.0011610984802246,-5.880184650421143,0.15434007346630096,0.4011267125606537,0.7077149152755737,0.4376664459705353,-0.14827826619148254,0.05868066847324371,0.27924826741218567,0.4101731479167938,0.6904717087745667,0.42000001668930054,-0.44671517610549927,-2.9998087882995605,-1.3695976734161377,-2.99998140335083,-0.16426725685596466,-0.169732928276062,-0.17250104248523712,-0.17369818687438965,0.3054525554180145,0.33787357807159424,0.3218773305416107,0.3123939037322998
0.6833333333333333,0.07036828994750977,-0.0013560671359300613,0.0,0.6596761345863342,0.0,0.0,-0.7515499591827393,0.48754164576530457,-0.36910420656204224,0.0,0.0,0.0,-3.011331081390381,0.4042015075683594,0.6943994164466858,0.4214065670967102,0.5216396450996399,-0.018176639452576637,0.029727842658758163,-0.8524540662765503,-0.13075491786003113,0.06431131064891815,-0.15355496108531952,-4.127089023590088,-8.087186813354492,-0.07230203598737717,0.4024182856082916,0.7094084024429321,0.4465998411178589,0.2841763198375702,0.10581089556217194,0.9041581153869629,0.4101731479167938,0.6904717087745667,0.42000001668930054,-0.49672824144363403,-2.9999821186065674,-1.4196158647537231,-2.999999761581421,-0.1615283340215683,-0.16599096357822418,-0.16842105984687805,-0.16915175318717957,0.08386983722448349,0.16563314199447632,0.2142326682806015,0.2707328796386719
0.7,0.08191651105880737,-0.0009925492340698838,0.0,0.6237377524375916,0.0,0.0,-0.7816336750984192,0.6419994831085205,0.009698239155113697,0.0,0.0,0.0,-6.419408321380615,0.40260088443756104,0.6953849792480469,0.4200000464916229,0.5237640142440796,1.7826650378083286e-08,7.946912887746294e-07,-0.8518633842468262,-0.03501274809241295,0.036269787698984146,-3.595626913011074e-05,-0.0005561753059737384,-0.0015120503958314657,0.6884434223175049,0.41441357135772705,0.7071816921234131,0.46819883584976196,1.2687857151031494,-0.15807627141475677,1.7639530897140503,0.4101731479167938,0.6904717087745667,0.42000001668930054,-0.5467408299446106,-2.999986171722412,-1.4696341753005981,-2.999999523162842,-0.1681615710258484,-0.16988980770111084,-0.17011088132858276,-0.16861216723918915,-0.2733781933784485,-0.145717591047287,-0.03870963305234909,0.07528148591518402
0.7166666666666667,0.09416376054286957,0.0023105184081941843,0.0,0.6022427082061768,0.0,0.0,-0.7983130812644958,0.7877991795539856,0.17631787061691284,0.0,0.0,0.0,-2.1823010444641113,0.40252670645713806,0.6954594850540161,0.41999995708465576,0.5241888165473938,4.069523583893897e-06,-6.298253538261633e-06,-0.8516020178794861,0.0005995667888782918,0.00011405435361666605,-0.0001732792006805539,-0.0077325268648564816,0.011217856779694557,-0.00013890498667024076,0.43478912115097046,0.7089724540710449,0.4994484782218933,1.2299103736877441,0.31502941250801086,1.9434895515441895,0.4101731479167938,0.6904717087745667,0.42000001668930054,-0.5677919983863831,0.21483798325061798,-1.5196524858474731,-2.999999523162842,-0.17262758314609528,-0.17292582988739014,-0.17204055190086365,-0.1693800687789917,-0.09824313223361969,-0.08342382311820984,-0.08418676257133484,-0.08126416802406311
0.7333333333333333,0.10357154160737991,0.006284273229539394,0.0,0.6066896319389343,0.0,0.0,-0.7949388027191162,0.48386701941490173,0.2896731197834015,0.0,0.0,0.0,1.5658968687057495,0.4025269150733948,0.6954593658447266,0.4200000464916229,0.5241891145706177,-9.21576948087477e-09,-2.454875811963575e-06,-0.8516018986701965,3.2710972845961805e-06,-0.00023339010658673942,-6.814277730882168e-05,0.0064138504676520824,-0.0023575990926474333,-0.0006707702414132655,0.4538809359073639,0.7152518630027771,0.5255532264709473,0.9559379816055298,0.40427300333976746,1.247725248336792,0.4101731479167938,0.6904717087745667,0.42000001668930054,-0.5432716608047485,2.5067145824432373,-1.4808681011199951,2.9999990463256836,-0.17225073277950287,-0.17253480851650238,-0.1718369722366333,-0.16932529211044312,0.08342842757701874,0.08077441155910492,0.0670616626739502,0.05254726856946945
0.75,0.10798423737287521,0.005222714506089687,0.0,0.5993176102638245,0.0,0.0,-0.8005113005638123,0.292902410030365,-0.07917653024196625,0.0,0.0,0.0,-1.835957407951355,0.4025269150733948,0.6954593658447266,0.4200000464916229,0.5241891741752625,8.90174902679064e-08,-2.5007573185575893e-06,-0.8516018390655518,6.777734597562812e-06,-0.00023864646209403872,-6.901589222252369e-05,0.006537389010190964,-0.002342164283618331,-0.0006929294322617352,0.4634253978729248,0.7229542136192322,0.5402300357818604,0.14038614928722382,0.29426923394203186,0.6401528120040894,0.4101731479167938,0.6904717087745667,0.42000001668930054,-0.5195927023887634,0.4924764037132263,-1.4308154582977295,2.9999990463256836,-0.1662558764219284,-0.16718223690986633,-0.16727587580680847,-0.16557949781417847,0.12548507750034332,0.1465131640434265,0.1541198492050171,0.15098793804645538
0.7666666666666666,0.11023690551519394,0.009327647276222706,0.0,0.6056241989135742,0.0,0.0,-0.7957507967948914,0.07649843394756317,0.25129443407058716,0.0,0.0,0.0,1.7159442901611328,0.4025269150733948,0.6954593658447266,0.4200000464916229,0.5241890549659729,-9.846276327607484e-08,-2.4201010546676116e-06,-0.8516018390655518,5.001914360036608e-06,-0.00023873076133895665,-6.865942850708961e-05,0.006548992823809385,-0.0023629008792340755,-0.000689151871483773,0.46322885155677795,0.7269960641860962,0.547771692276001,-0.0628763884305954,0.34746819734573364,0.27340513467788696,0.4101731479167938,0.6904717087745667,0.42000001668930054,-0.49607738852500916,2.1664578914642334,-1.4483381509780884,-2.999999761581421,-0.1685931533575058,-0.1682681292295456,-0.16740289330482483,-0.16506490111351013,0.00710093230009079,0.04264403507113457,0.06479009985923767,0.0704573318362236
0.7833333333333333,0.1097024455666542,0.008198955096304417,0.0,0.6000104546546936,0.0,0.0,-0.7999921441078186,-0.07344744354486465,-0.13472206890583038,0.0,0.0,0.0,-1.7221993207931519,0.4025269150733948,0.6954593658447266,0.4200000464916229,0.5241891145706177,-9.602242556638885e-08,-2.459327106407727e-06,-0.851601779460907,5.50000822840957e-06,-0.00023890618467703462,-6.876885890960693e-05,0.006551123224198818,-0.0023581429850310087,-0.0006907361675985157,0.45633745193481445,0.7316386699676514,0.5465375185012817,-0.775587797164917,0.2109614759683609,-0.22300633788108826,0.4101731479167938,0.6904717087745667,0.42000001668930054,-0.4916219115257263,-1.333268404006958,-1.4097585678100586,2.999999523162842,-0.16689100861549377,-0.16619399189949036,-0.16513648629188538,-0.16286562383174896,0.09019634127616882,0.11982712149620056,0.13877590000629425,0.14058390259742737
0.8,0.11159574240446091,0.013032727874815464,0.0,0.6076405048370361,0.0,0.0,-0.7942122220993042,0.042831771075725555,0.30594658851623535,0.0,0.0,0.0,1.9229609966278076,0.4025269150733948,0.6954593658447266,0.4200000464916229,0.5241891741752625,-9.049876581457283e-08,-2.318520500921295e-06,-0.8516017198562622,4.909294148092158e-06,-0.00023910745221655816,-6.864708848297596e-05,0.006559467874467373,-0.0023657497949898243,-0.0006900050793774426,0.4454277455806732,0.7336812615394592,0.5416710376739502,-0.4347672462463379,0.3005184531211853,-0.3192123770713806,0.4101731479167938,0.6904717087745667,0.42000001668930054,-0.4925205409526825,1.023082971572876,-1.4276988506317139,-2.999993324279785,-0.17295771837234497,-0.17042230069637299,-0.16773204505443573,-0.16419604420661926,-0.14648714661598206,-0.09734251350164413,-0.050239697098731995,-0.014695629477500916
0.8166666666666667,0.1136702299118042,0.013801165856420994,0.0,0.6028690338134766,0.0,0.0,-0.7978401780128479,0.16666801273822784,-0.012494439259171486,0.0,0.0,0.0,-1.6784809827804565,0.4025269150733948,0.6954593658447266,0.4200000464916229,0.5241891741752625,-1.135753322500932e-07,-2.7890225737792207e-06,-0.8516018390655518,5.783531378256157e-06,-0.000238374515902251,-6.882869638502598e-05,0.006535452790558338,-0.002352694980800152,-0.0006898799911141396,0.4381049573421478,0.7364809513092041,0.5335396528244019,-0.43803954124450684,0.014187134802341461,-0.483980268239975,0.4101731479167938,0.6904717087745667,0.42000001668930054,-0.5177339315414429,-3.000000476837158,-1.3891758918762207,2.9999992847442627,-0.17333203554153442,-0.17027334868907928,-0.1669732928276062,-0.162904292345047,-0.044811345636844635,0.0018054293468594551,0.05642596259713173,0.10847847908735275
0.8333333333333334,0.11859086900949478,0.01140301302075386,0.0,0.5869448781013489,0.0,0.0,-0.8096268773078918,0.339969277381897,-0.20974761247634888,0.0,0.0,0.0,-2.8604161739349365,0.4025269150733948,0.6954593658447266,0.4200000464916229,0.5241891741752625,-1.0164776398369213e-07,-2.676236817933386e-06,-0.8516018390655518,5.984010385873262e-06,-0.00023835226602386683,-6.884988397359848e-05,0.006534163374453783,-0.002349617425352335,-0.0006901768501847982,0.4360673129558563,0.7354065775871277,0.5281765460968018,0.1868310570716858,-0.08758369833230972,-0.0463709682226181,0.4101731479167938,0.6904717087745667,0.42000001668930054,-0.5677486658096313,-2.999985456466675,-1.4075332880020142,-3.000000476837158,-0.1768789440393448,-0.17269234359264374,-0.16807077825069427,-0.16267837584018707,-0.2114083170890808,-0.15157508850097656,-0.07649489492177963,0.002574499696493149
0.85,0.12563882768154144,0.011101079173386097,0.0,0.5873942971229553,0.0,0.0,-0.8093008995056152,0.4568047821521759,0.051538657397031784,0.0,0.0,0.0,1.062754511833191,0.4025269150733948,0.6954593658447266,0.4200000464916229,0.5241891741752625,-9.401338729730924e-08,-2.7625171696854522e-06,-0.8516018390655518,5.54451526113553e-06,-0.00023847832926549017,-6.876257248222828e-05,0.006539619993418455,-0.002355391625314951,-0.0006895949481986463,0.4413717985153198,0.7361513376235962,0.5296822190284729,0.40234237909317017,0.11648151278495789,0.23521870374679565,0.4101731479167938,0.6904717087745667,0.42000001668930054,-0.5946950316429138,-0.4345906376838684,-1.4575515985488892,-2.9999992847442627,-0.1801121085882187,-0.17531278729438782,-0.16974450647830963,-0.16325554251670837,-0.1478852480649948,-0.12748675048351288,-0.08581675589084625,-0.033220674842596054
0.8666666666666667,0.12980663776397705,0.006723188329488039,0.0,0.6112563014030457,0.0,0.0,-0.7914327383041382,0.19624558091163635,-0.29722005128860474,0.0,0.0,0.0,4.270129203796387,0.4025269150733948,0.6954593658447266,0.4200000464916229,0.5241891741752625,-8.925849215302151e-08,-2.651098157002707e-06,-0.8516018390655518,5.860099918209016e-06,-0.0002383202372584492,-6.881938315927982e-05,0.006533909123390913,-0.002350789727643132,-0.0006898092688061297,0.44851717352867126,0.737438976764679,0.532762885093689,0.3786256015300751,-0.051119498908519745,0.16954538226127625,0.4101731479167938,0.6904717087745667,0.42000001668930054,-0.621954083442688,-2.6255135536193848,-1.4226042032241821,3.000000476837158,-0.17941005527973175,-0.17442946135997772,-0.1683376282453537,-0.1611493080854416,-0.05061715841293335,-0.007771795615553856,0.051928017288446426,0.11795124411582947
0.8833333333333333,0.13575199246406555,0.005952604115009308,0.0,0.6202598214149475,0.0,0.0,-0.7843964099884033,0.3498682975769043,0.05500692129135132,0.0,0.0,0.0,0.3032970428466797,0.4025269150733948,0.6954593658447266,0.4200000464916229,0.5241891741752625,-1.1771624741641062e-07,-2.7270998543826863e-06,-0.8516018390655518,6.379331352945883e-06,-0.00023824573145247996,-6.89381267875433e-05,0.006529101636260748,-0.0023448755964636803,-0.0006907721399329603,0.4552251100540161,0.7339096069335938,0.5322632789611816,0.4554443359375,-0.23158061504364014,-0.09490989148616791,0.4101731479167938,0.6904717087745667,0.42000001668930054,-0.6643294095993042,-2.4415948390960693,-1.4403003454208374,-3.0000007152557373,-0.18355926871299744,-0.17730042338371277,-0.1696949601173401,-0.16093289852142334,-0.14129090309143066,-0.09368371963500977,-0.028683019801974297,0.04447966441512108
