vladlanda/robotic-transformer/data/env_000_episode_0292.csv
sim_time_s,robot_box_x,robot_box_y,robot_box_z,robot_box_quat_w,robot_box_quat_x,robot_box_quat_y,robot_box_quat_z,robot_box_linvel_x,robot_box_linvel_y,robot_box_linvel_z,robot_box_angvel_x,robot_box_angvel_y,robot_box_angvel_z,cube_world_x,cube_world_y,cube_world_z,cube_quat_w,cube_quat_x,cube_quat_y,cube_quat_z,cube_linvel_x,cube_linvel_y,cube_linvel_z,cube_angvel_x,cube_angvel_y,cube_angvel_z,endpoint_world_x,endpoint_world_y,endpoint_world_z,endpoint_linvel_x,endpoint_linvel_y,endpoint_linvel_z,target_cube_world_x,target_cube_world_y,target_cube_world_z,gripper_actual_pos_rad_gp_leftgearjoint,gripper_actual_vel_rad_s_gp_leftgearjoint,gripper_actual_pos_rad_gp_rotatingjoint,gripper_actual_vel_rad_s_gp_rotatingjoint,motor_angle_rad_joint1,motor_angle_rad_joint2,motor_angle_rad_joint3,motor_angle_rad_joint4,motor_speed_rad_s_joint1,motor_speed_rad_s_joint2,motor_speed_rad_s_joint3,motor_speed_rad_s_joint4
0.0,0.0,0.0,0.0,1.0,0.0,0.0,0.0,0.0,0.0,0.0,0.0,0.0,0.0,-0.3574552536010742,0.6712920069694519,0.41999998688697815,1.0,0.0,0.0,0.0,0.0,0.0,0.0,0.0,0.0,0.0,3.42540442943573e-06,-0.005000244826078415,1.313499927520752,0.0,0.0,0.0,0.4333087205886841,0.7436134815216064,0.42000001668930054,-1.5707999467849731,0.0,0.0,0.0,0.0,0.0,0.0,0.0,0.0,0.0,0.0,0.0
0.016666666666666666,0.0028939233161509037,0.0021577749866992235,0.0,0.9998443126678467,0.0,0.0,0.0176447331905365,0.24124887585639954,0.18173453211784363,0.0,0.0,0.0,3.141766309738159,-0.35745537281036377,0.671291708946228,0.41999998688697815,1.0,3.2799905511637917e-06,-8.339794135281409e-07,8.465515577427141e-08,-1.9833774786093272e-05,0.00017983047291636467,-6.132945418357849e-05,0.0009432245860807598,-0.004689525347203016,-0.00031981084612198174,-0.007101858034729958,0.0034268791787326336,1.3159418106079102,-0.8128616809844971,0.9884870052337646,0.18096816539764404,0.4333087205886841,0.7436134815216064,0.42000001668930054,-1.5301096439361572,3.0000009536743164,-0.04585202410817146,-3.0000016689300537,0.0008724856888875365,0.0007990258163772523,0.0007134745246730745,0.0006136318552307785,0.11085059493780136,0.09749045968055725,0.08326845616102219,0.06815356016159058
0.03333333333333333,0.008979457430541515,0.006768861319869757,0.0,0.999833345413208,0.0,0.0,0.018255211412906647,0.40716713666915894,0.3146962821483612,0.0,0.0,0.0,-0.8687456846237183,-0.3574554920196533,0.6712916493415833,0.4200000464916229,1.0,3.3908531804627273e-06,-2.132488134520827e-06,-3.710428941872124e-08,0.0002635785494931042,0.0002693783608265221,-0.00010509602725505829,-0.0017707846127450466,0.004130862653255463,-0.00013547409616876394,-0.027467746287584305,0.026373468339443207,1.3165912628173828,-1.58565354347229,1.622880458831787,-0.08609092980623245,0.4333087205886841,0.7436134815216064,0.42000001668930054,-1.4800902605056763,3.0000011920928955,-0.09589184820652008,-3.0,0.0029881983064115047,0.002650638809427619,0.0022753363009542227,0.001859217300079763,0.16388894617557526,0.1394631415605545,0.11354193091392517,0.08603218197822571
0.05,0.01848878152668476,0.013868479058146477,0.0,0.9999602437019348,0.0,0.0,-0.008920330554246902,0.6359060406684875,0.47185736894607544,0.0,0.0,0.0,-4.073356628417969,-0.3574555218219757,0.671291708946228,0.4200000464916229,1.0,3.7651284401363228e-06,-2.2118861124909017e-06,5.622759147172474e-09,0.00026530996547080576,0.00026691515813581645,-0.00010440382175147533,-0.00172425655182451,0.004177390597760677,-0.00012948956282343715,-0.05698006972670555,0.05777429789304733,1.3118773698806763,-1.943703055381775,2.0703773498535156,-0.461686909198761,0.4333087205886841,0.7436134815216064,0.42000001668930054,-1.4300719499588013,2.999999523162842,-0.14592795073986053,-3.000000476837158,0.006003606598824263,0.00516472989693284,0.0042535290122032166,0.0032657899428159,0.20654302835464478,0.1662312150001526,0.1239960640668869,0.07975436002016068
0.06666666666666667,0.030813535675406456,0.02335442416369915,0.0,0.9998449087142944,0.0,0.0,-0.01761261187493801,0.7724632620811462,0.6159343123435974,0.0,0.0,0.0,-0.03412248194217682,-0.3574555218219757,0.6712916493415833,0.4200000464916229,0.9999999403953552,3.406727046240121e-06,-2.285541313540307e-06,4.300959517422598e-07,0.0002670243557076901,0.00026791688287630677,-0.00010437681339681149,-0.0017406673869118094,0.004211694002151489,-0.00012850009079556912,-0.09354563802480698,0.09141817688941956,1.301077127456665,-2.304405689239502,2.134155750274658,-0.8248982429504395,0.4333087205886841,0.7436134815216064,0.42000001668930054,-1.38004469871521,3.0000007152557373,-0.14549364149570465,2.565241813659668,0.008650870062410831,0.0070763686671853065,0.0053892540745437145,0.0035843949299305677,0.1419449895620346,0.08938366174697876,0.034676115959882736,-0.02224605903029442
0.08333333333333333,0.045585617423057556,0.032311566174030304,0.0,0.9991893172264099,0.0,0.0,-0.04025864973664284,0.9478656053543091,0.4981956481933594,0.0,0.0,0.0,-3.555488348007202,-0.3574555218219757,0.6712916493415833,0.4200000464916229,0.9999999403953552,3.626046236604452e-06,-2.3352185962721705e-06,3.032309905393049e-07,0.0002661395992618054,0.00026685046032071114,-0.00010405178181827068,-0.001728326897136867,0.004196362104266882,-0.0001279068528674543,-0.12715010344982147,0.13119661808013916,1.2870391607284546,-1.767353892326355,2.6243789196014404,-0.8599501848220825,0.4333087205886841,0.7436134815216064,0.42000001668930054,-1.3300381898880005,3.0000007152557373,-0.17986150085926056,-2.999999523162842,0.009556619450449944,0.006835192441940308,0.003944966476410627,0.0009003228624351323,7.916241884231567e-08,-0.08439239114522934,-0.17359566688537598,-0.2643457055091858
0.1,0.05442068725824356,0.043981537222862244,0.0,0.9956619143486023,0.0,0.0,-0.09304460883140564,0.3910464346408844,0.7828335165977478,0.0,0.0,0.0,-7.308493137359619,-0.3574555218219757,0.6712916493415833,0.4200000464916229,1.0,3.4220856832689606e-06,-2.308508555870503e-06,1.796387323338422e-07,0.0002668147790245712,0.0002680039615370333,-0.00010440708138048649,-0.001743073109537363,0.0042070988565683365,-0.00012890923244412988,-0.15749692916870117,0.1777360886335373,1.268439769744873,-1.8332738876342773,2.9531326293945312,-1.2923083305358887,0.4333087205886841,0.7436134815216064,0.42000001668930054,-1.2800216674804688,2.999992847442627,-0.1461821347475052,3.0000007152557373,0.003036840818822384,-0.0005048640887252986,-0.004303633235394955,-0.008304544724524021,-0.5115113854408264,-0.5534416437149048,-0.5996311902999878,-0.6482416391372681
0.11666666666666667,0.06064600497484207,0.05795878916978836,0.0,0.9919842481613159,0.0,0.0,-0.12636177241802216,0.3736756443977356,0.780470609664917,0.0,0.0,0.0,-2.7289137840270996,-0.3574555218219757,0.671291708946228,0.4200000464916229,1.0,3.7115089526196243e-06,-2.3326181235461263e-06,2.574328163973405e-07,0.00026485760463401675,0.0002663538616616279,-0.00010423408821225166,-0.001718149520456791,0.0041700140573084354,-0.00012915405386593193,-0.19399619102478027,0.22124090790748596,1.2456750869750977,-2.2573390007019043,2.668692111968994,-1.387702226638794,0.4333087205886841,0.7436134815216064,0.42000001668930054,-1.2300312519073486,3.0000007152557373,-0.1779698133468628,-3.000000238418579,-0.004263055045157671,-0.008841242641210556,-0.013701182790100574,-0.01876402273774147,-0.3164646625518799,-0.40063318610191345,-0.4837275743484497,-0.5646236538887024
0.13333333333333333,0.0732160434126854,0.06771247088909149,0.0,0.9853098392486572,0.0,0.0,-0.17077632248401642,0.7625178694725037,0.650175929069519,0.0,0.0,0.0,-5.975893020629883,-0.3574555218219757,0.6712916493415833,0.4200000464916229,0.9999999403953552,3.4247336770931724e-06,-2.301910399182816e-06,1.5600640779211972e-07,0.0002670715330168605,0.00026811304269358516,-0.0001044438686221838,-0.0017433013999834657,0.004212083760648966,-0.00012877254630438983,-0.22810152173042297,0.27244842052459717,1.219689965248108,-1.8213472366333008,3.552194118499756,-1.8050334453582764,0.4333087205886841,0.7436134815216064,0.42000001668930054,-1.1800123453140259,2.9999961853027344,-0.14973193407058716,3.0000009536743164,-0.006221570540219545,-0.012626098468899727,-0.019262831658124924,-0.026038557291030884,-0.36700180172920227,-0.4452376067638397,-0.5220009684562683,-0.5967927575111389
0.15,0.08337687700986862,0.07605763524770737,0.0,0.9801872372627258,0.0,0.0,-0.19807320833206177,0.5577594041824341,0.4240543246269226,0.0,0.0,0.0,-1.7523428201675415,-0.3574555218219757,0.6712916493415833,0.4200000464916229,1.0,3.7139102460059803e-06,-2.207734723924659e-06,-1.690771540552305e-07,0.0002635330893099308,0.0002653599367477,-0.00010421965271234512,-0.0017012956086546183,0.004144070204347372,-0.00012960158346686512,-0.2624381482601166,0.3280290961265564,1.1839011907577515,-2.007415294647217,3.479844093322754,-2.4883689880371094,0.4333087205886841,0.7436134815216064,0.42000001668930054,-1.1368849277496338,2.208927869796753,-0.18150241672992706,-3.000001907348633,-0.013606430031359196,-0.021031226962804794,-0.028649985790252686,-0.03636907413601875,-0.4770265817642212,-0.5249252319335938,-0.5700506567955017,-0.6127125024795532
0.16666666666666666,0.08942849189043045,0.08525466173887253,0.0,0.9729816913604736,0.0,0.0,-0.23088239133358002,0.29968154430389404,0.5790730714797974,0.0,0.0,0.0,-4.750913143157959,-0.3574555218219757,0.6712916493415833,0.4200000464916229,0.9999999403953552,3.638394900917774e-06,-2.2786573481425876e-06,2.7008260872207757e-07,0.00026682819589041173,0.00026750031975097954,-0.00010410277172923088,-0.0017399706412106752,0.004210254643112421,-0.0001278170384466648,-0.29605069756507874,0.3893594741821289,1.135660171508789,-1.9033161401748657,3.8739352226257324,-3.272764205932617,0.4333087205886841,0.7436134815216064,0.42000001668930054,-1.0880684852600098,2.9999988079071045,-0.23151621222496033,-3.000000476837158,-0.023292789235711098,-0.03128112107515335,-0.03940082713961601,-0.0475689135491848,-0.609110414981842,-0.6325253248214722,-0.6517133712768555,-0.6675010919570923
0.18333333333333332,0.094752237200737,0.0917094498872757,0.0,0.9570615291595459,0.0,0.0,-0.2898847758769989,0.2593984603881836,0.31450292468070984,0.0,0.0,0.0,-8.19723892211914,-0.3574555218219757,0.6712916493415833,0.4200000464916229,1.0,3.3864457691379357e-06,-2.30015280067164e-06,1.4395375558251544e-07,0.00026674618129618466,0.0002678719174582511,-0.00010436843149363995,-0.0017412154702469707,0.004206051118671894,-0.0001287856139242649,-0.32383275032043457,0.45944851636886597,1.0721147060394287,-1.305646538734436,4.442807197570801,-4.254362106323242,0.4333087205886841,0.7436134815216064,0.42000001668930054,-1.0380654335021973,3.0000007152557373,-0.2815437614917755,-2.999999761581421,-0.03340762108564377,-0.0416204109787941,-0.049895573407411575,-0.05816854536533356,-0.6648183465003967,-0.661583662033081,-0.6548065543174744,-0.6457719802856445
0.2,0.10120443999767303,0.0996609479188919,0.0,0.9440727829933167,0.0,0.0,-0.3297370672225952,0.41334018111228943,0.507636308670044,0.0,0.0,0.0,-3.779290199279785,-0.3574555218219757,0.671291708946228,0.4200000464916229,1.0,3.675527068480733e-06,-2.326378989891964e-06,2.2116010711670242e-07,0.00026484543923288584,0.0002663143095560372,-0.00010421895422041416,-0.0017176928231492639,0.004169886466115713,-0.0001290956570301205,-0.3470157980918884,0.5260196924209595,0.9923763275146484,-1.0483100414276123,3.926970958709717,-5.216610908508301,0.4333087205886841,0.7436134815216064,0.42000001668930054,-0.9880592823028564,2.9999990463256836,-0.33157023787498474,-3.0000009536743164,-0.04795167222619057,-0.05586206540465355,-0.06311102956533432,-0.07038787007331848,-0.9293854236602783,-0.9385587573051453,-0.8586465120315552,-0.7796414494514465
0.21666666666666667,0.1051110178232193,0.1080787405371666,0.0,0.9419395327568054,0.0,0.0,-0.33578261733055115,0.15686766803264618,0.5281350016593933,0.0,0.0,0.0,0.2529490888118744,-0.3574555218219757,0.6712916493415833,0.4200000464916229,1.0,3.322290922369575e-06,-2.2078170331951696e-06,2.74303062042236e-07,0.00026662991149351,0.0002674962452147156,-0.0001042631920427084,-0.0017357823671773076,0.0042047821916639805,-0.00012833590153604746,-0.3683646321296692,0.5797276496887207,0.9013539552688599,-1.0772408246994019,2.8395349979400635,-5.716989040374756,0.4333087205886841,0.7436134815216064,0.42000001668930054,-0.9380495548248291,2.9999992847442627,-0.3815995156764984,-3.000000238418579,-0.06416194885969162,-0.07201451808214188,-0.07877179980278015,-0.08441419899463654,-0.9871171116828918,-0.9893310070037842,-0.9611583352088928,-0.8604373335838318
0.23333333333333334,0.10573778301477432,0.11306219547986984,0.0,0.9351938366889954,0.0,0.0,-0.3541363477706909,-0.033224500715732574,0.24937301874160767,0.0,0.0,0.0,-3.1862435340881348,-0.3574555218219757,0.6712916493415833,0.4200000464916229,1.0,3.656512717498117e-06,-2.373275947320508e-06,-4.0765530684439e-07,0.00026611698558554053,0.0002672603295650333,-0.00010423362255096436,-0.001733599347062409,0.004194695968180895,-0.0001285477919736877,-0.3825167417526245,0.6242312788963318,0.800066351890564,-0.5613883137702942,2.2950778007507324,-6.316074371337891,0.4333087205886841,0.7436134815216064,0.42000001668930054,-0.8880388736724854,2.999998092651367,-0.43163034319877625,-2.9999992847442627,-0.08040565252304077,-0.08826079964637756,-0.09488439559936523,-0.0997065007686615,-0.9894351959228516,-0.9913715720176697,-0.9828513264656067,-0.974913477897644
0.25,0.10765200853347778,0.11917076259851456,0.0,0.9343663454055786,0.0,0.0,-0.3563138246536255,0.15306344628334045,0.3997983932495117,0.0,0.0,0.0,0.7065961956977844,-0.3574555218219757,0.671291708946228,0.4200000464916229,1.0,3.6305416415416403e-06,-2.2424751477956306e-06,1.123084913956518e-08,0.00026680060545913875,0.00026705965865403414,-0.00010390975512564182,-0.0017341973725706339,0.004210582468658686,-0.0001270233915420249,-0.3915584683418274,0.6515134572982788,0.6937244534492493,-0.37694108486175537,1.0190691947937012,-6.398072242736816,0.4333087205886841,0.7436134815216064,0.42000001668930054,-0.8380287885665894,2.9999687671661377,-0.48166152834892273,-2.999999761581421,-0.09691858291625977,-0.10470154881477356,-0.11129236221313477,-0.1161082461476326,-0.907895565032959,-0.9225051403045654,-0.9369955658912659,-0.9508985280990601
0.26666666666666666,0.107607901096344,0.12280067056417465,0.0,0.9287521243095398,0.0,0.0,-0.370701402425766,-0.06037530675530434,0.15876397490501404,0.0,0.0,0.0,-2.68772292137146,-0.3574554920196533,0.6712916493415833,0.4200000464916229,0.9999999403953552,3.7401789541036123e-06,-2.23619849748502e-06,4.499796375512233e-07,0.00026479712687432766,0.00026673119282349944,-0.00010454165749251842,-0.0017189347418025136,0.004166691564023495,-0.0001301629818044603,-0.3917548656463623,0.6644651889801025,0.5860551595687866,0.36650508642196655,0.37518078088760376,-6.287291526794434,0.4333087205886841,0.7436134815216064,0.42000001668930054,-0.7880199551582336,3.0000007152557373,-0.5316916108131409,-3.0000009536743164,-0.11430484801530838,-0.12191367894411087,-0.1283719539642334,-0.13308292627334595,-1.0077922344207764,-1.0058660507202148,-1.0043953657150269,-1.0032259225845337
0.2833333333333333,0.10445667058229446,0.1231788918375969,0.0,0.9300139546394348,0.0,0.0,-0.36752429604530334,-0.23316700756549835,-0.01749367080628872,0.0,0.0,0.0,1.271294116973877,-0.3574555218219757,0.6712916493415833,0.4200000464916229,1.0,3.3917049222509377e-06,-2.291024657097296e-06,1.2460675691272627e-07,0.00026677080313675106,0.0002678929013200104,-0.0001043747179210186,-0.0017412520246580243,0.004206160549074411,-0.00012877813423983753,-0.38501912355422974,0.6704115867614746,0.4896426200866699,0.5808508396148682,0.2444290965795517,-5.330445766448975,0.4333087205886841,0.7436134815216064,0.42000001668930054,-0.7380111813545227,3.0,-0.581720232963562,-3.0000016689300537,-0.13173359632492065,-0.1391855627298355,-0.1455279141664505,-0.15014874935150146,-1.0193003416061401,-1.0145988464355469,-1.0110012292861938,-1.0081205368041992
0.3,0.09884516894817352,0.12107454240322113,0.0,0.9258986711502075,0.0,0.0,-0.37777194380760193,-0.3894859552383423,-0.1738864630460739,0.0,0.0,0.0,-2.134800434112549,-0.3574555218219757,0.671291708946228,0.4200000464916229,1.0,3.6808205550187267e-06,-2.3189752482721815e-06,2.0109349918584485e-07,0.0002647904329933226,0.0002662576735019684,-0.00010421290062367916,-0.001716798054985702,0.004168906714767218,-0.00012909369252156466,-0.36934220790863037,0.6741164922714233,0.4012914299964905,1.3023780584335327,0.13212361931800842,-5.13961124420166,0.4333087205886841,0.7436134815216064,0.42000001668930054,-0.688004195690155,2.999999523162842,-0.6317469477653503,-3.0000038146972656,-0.14912810921669006,-0.15640518069267273,-0.16261447966098785,-0.1671297550201416,-1.0077738761901855,-1.005906343460083,-1.004471778869629,-1.0033135414123535
0.31666666666666665,0.09098038822412491,0.11646433919668198,0.0,0.9281474947929382,0.0,0.0,-0.37221258878707886,-0.5134506821632385,-0.31542009115219116,0.0,0.0,0.0,1.596975564956665,-0.3569610118865967,0.6731293797492981,0.42104920744895935,0.99867182970047,0.001368178753182292,0.02489861659705639,-0.04508550465106964,0.12452372163534164,0.30125710368156433,0.15257763862609863,1.6709840297698975,5.957900047302246,-12.125398635864258,-0.369913250207901,0.6794960498809814,0.4240010380744934,0.16639073193073273,0.48001760244369507,-0.1649877279996872,0.4333087205886841,0.7436134815216064,0.42000001668930054,-0.6382185816764832,3.0000011920928955,-0.682232141494751,-2.9995670318603516,-0.15063750743865967,-0.15832850337028503,-0.1645514816045761,-0.1686324030160904,-0.3036741018295288,-0.28560006618499756,-0.2504832148551941,-0.19806106388568878
0.3333333333333333,0.08087459951639175,0.10949485003948212,0.0,0.924502968788147,0.0,0.0,-0.38117486238479614,-0.6506898403167725,-0.4587864577770233,0.0,0.0,0.0,-2.0679144859313965,-0.3550029695034027,0.6779305338859558,0.4221702516078949,0.9889389872550964,0.007456405088305473,0.057061757892370224,-0.1367037147283554,0.16171453893184662,0.3456336557865143,0.03682972490787506,0.5624067187309265,1.689315915107727,-13.482683181762695,-0.3645508289337158,0.6868796348571777,0.4214406907558441,0.47015294432640076,0.49670732021331787,-0.14826186001300812,0.4333087205886841,0.7436134815216064,0.42000001668930054,-0.5882131457328796,2.9997289180755615,-0.7322789430618286,-2.9999263286590576,-0.1569247543811798,-0.1638759821653366,-0.16911056637763977,-0.17198605835437775,-0.4074351489543915,-0.3421686887741089,-0.26591435074806213,-0.18216487765312195
0.35,0.06869783252477646,0.10024120658636093,0.0,0.9269856214523315,0.0,0.0,-0.3750969171524048,-0.7772017121315002,-0.5945077538490295,0.0,0.0,0.0,1.708872675895691,-0.3482569456100464,0.6892940998077393,0.42274901270866394,0.9861913919448853,0.02541402541100979,0.044617317616939545,-0.1574476659297943,0.5084940791130066,0.8339776992797852,0.07311695069074631,-0.6940024495124817,0.2533510625362396,-5.37041711807251,-0.3566100001335144,0.696929931640625,0.4205840826034546,0.5423645377159119,0.7540633082389832,0.034351661801338196,0.4333087205886841,0.7436134815216064,0.42000001668930054,-0.5382082462310791,2.999992609024048,-0.7823109030723572,-3.0000014305114746,-0.16461868584156036,-0.16990070044994354,-0.17328163981437683,-0.17420995235443115,-0.4404875636100769,-0.32472166419029236,-0.19829438626766205,-0.06773696839809418
0.36666666666666664,0.059918951243162155,0.08820748329162598,0.0,0.9236578941345215,0.0,0.0,-0.38321805000305176,-0.4416261613368988,-0.7697373628616333,0.0,0.0,0.0,-1.9535232782363892,-0.33890262246131897,0.7040945291519165,0.422086626291275,0.9796115159988403,0.018284732475876808,0.04146769270300865,-0.19572241604328156,0.6171396374702454,0.9439416527748108,-0.048929158598184586,-2.268467903137207,0.6002060770988464,-4.980007171630859,-0.34431445598602295,0.7093065977096558,0.4199652671813965,0.8672932982444763,0.7426275014877319,0.09561321139335632,0.4333087205886841,0.7436134815216064,0.42000001668930054,-0.4881564676761627,2.9999349117279053,-0.8323174715042114,-2.9999794960021973,-0.17182816565036774,-0.17481185495853424,-0.17568057775497437,-0.174015074968338,-0.3905240595340729,-0.23796512186527252,-0.07218266278505325,0.09809154272079468
0.3833333333333333,0.04878242686390877,0.0745842233300209,0.0,0.9081301093101501,0.0,0.0,-0.4186880886554718,-0.7508115172386169,-0.8423495888710022,0.0,0.0,0.0,-5.58418607711792,-0.3231876790523529,0.7251062989234924,0.42155247926712036,0.9705690145492554,0.009263248182833195,0.011468177661299706,-0.2403714805841446,1.254892110824585,1.5391534566879272,0.03037547878921032,-3.674788236618042,-3.3519513607025146,-7.107468128204346,-0.32499223947525024,0.7265745401382446,0.4218236804008484,1.486862063407898,1.3156092166900635,0.12426846474409103,0.4333087205886841,0.7436134815216064,0.42000001668930054,-0.43811681866645813,2.9914333820343018,-0.8823303580284119,-3.0000452995300293,-0.18009944260120392,-0.18019157648086548,-0.1779433786869049,-0.17309707403182983,-0.48287612199783325,-0.31045860052108765,-0.12569370865821838,0.061623308807611465
0.4,0.040673594921827316,0.05800388380885124,0.0,0.8782446980476379,0.0,0.0,-0.47821155190467834,-0.4451875388622284,-1.038749098777771,0.0,0.0,0.0,-8.761884689331055,-0.2866840362548828,0.7524837255477905,0.42606475949287415,0.9542409181594849,0.006527241785079241,-0.01871931552886963,-0.2983810007572174,2.9798977375030518,1.6512784957885742,0.23788926005363464,37.0170783996582,-22.436798095703125,13.052999496459961,-0.28827616572380066,0.7546648979187012,0.4257010817527771,3.029601573944092,2.0965054035186768,0.5759643316268921,0.4333087205886841,0.7436134815216064,0.42000001668930054,-0.3961262106895447,1.5235501527786255,-0.9323527812957764,-2.999706268310547,-0.18839126825332642,-0.18533998727798462,-0.17977793514728546,-0.1716228872537613,-0.5883068442344666,-0.36699435114860535,-0.1389581859111786,0.08424971997737885
0.4166666666666667,0.034682855010032654,0.046492986381053925,0.0,0.8310487270355225,0.0,0.0,-0.5561996102333069,-0.31128188967704773,-0.5666210651397705,0.0,0.0,0.0,-11.726884841918945,-0.21034175157546997,0.7893064618110657,0.4335311949253082,0.9308675527572632,0.07533648610115051,-0.06501418352127075,-0.35154375433921814,6.0319695472717285,2.0242340564727783,0.484920471906662,21.501996994018555,-20.42616844177246,13.15492057800293,-0.21166253089904785,0.7918493747711182,0.43359917402267456,5.840452194213867,2.551781415939331,0.6037702560424805,0.4333087205886841,0.7436134815216064,0.42000001668930054,-0.3764146864414215,0.9510316848754883,-0.8952060341835022,2.9959309101104736,-0.20401215553283691,-0.1978030502796173,-0.18694709241390228,-0.1739596277475357,-0.8975661396980286,-0.845196545124054,-0.5275411009788513,-0.24815073609352112
0.43333333333333335,0.03220634162425995,0.03815135732293129,0.0,0.7924185395240784,0.0,0.0,-0.6099777221679688,-0.08769576251506805,-0.46766358613967896,0.0,0.0,0.0,-6.7894606590271,-0.1135270893573761,0.8257830142974854,0.44470030069351196,0.8860462307929993,0.11205444484949112,-0.0918290764093399,-0.4403786063194275,6.072796821594238,1.500447154045105,0.8613194823265076,3.6359245777130127,-3.019705057144165,-2.197572946548462,-0.1150955855846405,0.8294551372528076,0.44439005851745605,5.940298080444336,1.8767694234848022,0.6572536826133728,0.4333087205886841,0.7436134815216064,0.42000001668930054,-0.36165791749954224,0.9918538928031921,-0.9212307333946228,-3.000000476837158,-0.2137230932712555,-0.20839545130729675,-0.19562400877475739,-0.178925558924675,-0.5089134573936462,-0.5396500825881958,-0.45212504267692566,-0.2758665978908539
0.45,0.03287271410226822,0.03305297717452049,0.0,0.7743205428123474,0.0,0.0,-0.6327935457229614,0.09810669720172882,-0.25245362520217896,0.0,0.0,0.0,-2.379791259765625,-0.014077860862016678,0.8472352623939514,0.45603036880493164,0.8342865109443665,0.09751690179109573,-0.10108484327793121,-0.5331400632858276,6.005767345428467,0.1247107982635498,0.6587984561920166,6.310410022735596,-13.607765197753906,17.88278579711914,-0.015226945281028748,0.8527255058288574,0.4549678862094879,6.11684513092041,0.9049210548400879,0.7522929906845093,0.4333087205886841,0.7436134815216064,0.42000001668930054,-0.34323346614837646,1.0571588277816772,-0.9712547063827515,-3.0000035762786865,-0.22352787852287292,-0.21760153770446777,-0.20286495983600616,-0.18316766619682312,-0.5685786008834839,-0.49933913350105286,-0.3785071074962616,-0.2168043553829193
0.4666666666666667,0.03217572346329689,0.0316944494843483,0.0,0.7489916682243347,0.0,0.0,-0.662579357624054,-0.054224893450737,-0.014043683186173439,0.0,0.0,0.0,-5.417928695678711,0.08415934443473816,0.8512911796569824,0.4639829099178314,0.7530790567398071,0.09592476487159729,-0.12365220487117767,-0.6390464305877686,5.436870574951172,-1.0933654308319092,0.4421340525150299,-13.96886157989502,6.72130012512207,13.468914031982422,0.08164143562316895,0.8584765791893005,0.46354198455810547,5.829503059387207,-0.15750104188919067,0.49501076340675354,0.4333087205886841,0.7436134815216064,0.42000001668930054,-0.32733404636383057,0.7113250494003296,-1.021278977394104,-2.999988079071045,-0.23319880664348602,-0.22571270167827606,-0.2088921219110489,-0.1866498738527298,-0.5317775011062622,-0.4207993745803833,-0.2966480255126953,-0.15692202746868134
0.48333333333333334,0.03506666421890259,0.024736836552619934,0.0,0.7350537776947021,0.0,0.0,-0.6780087947845459,0.2502976059913635,-0.5515848994255066,0.0,0.0,0.0,-1.5276782512664795,0.1733754277229309,0.8422610759735107,0.46713772416114807,0.6866905093193054,0.06177518144249916,-0.12360195815563202,-0.713696300983429,4.673223495483398,-1.39927339553833,0.18075525760650635,4.935026168823242,-6.217128753662109,20.215171813964844,0.17116191983222961,0.8505077958106995,0.46745967864990234,5.152814865112305,-0.8894839286804199,0.08435042947530746,0.4333087205886841,0.7436134815216064,0.42000001668930054,-0.31745079159736633,0.4642971456050873,-1.0713011026382446,-3.0000016689300537,-0.2354143112897873,-0.22667111456394196,-0.20877239108085632,-0.18545053899288177,0.019186433404684067,0.09302332252264023,0.1336209774017334,0.1578197032213211
0.5,0.03439352661371231,0.021215306594967842,0.0,0.7112119793891907,0.0,0.0,-0.7029776573181152,-0.027313271537423134,-0.1879182755947113,0.0,0.0,0.0,-4.814934730529785,0.24942800402641296,0.825227677822113,0.4646208882331848,0.6341472268104553,0.03391069173812866,-0.12420981377363205,-0.762416660785675,3.9426212310791016,-1.30084228515625,-0.45734459161758423,-12.514450073242188,2.7739827632904053,21.873106002807617,0.24736666679382324,0.8343541622161865,0.46601051092147827,4.429304122924805,-1.109900712966919,-0.15658769011497498,0.4333087205886841,0.7436134815216064,0.42000001668930054,-0.3087790012359619,0.568412184715271,-1.1213232278823853,-3.0000016689300537,-0.23727986216545105,-0.2270948886871338,-0.2086208462715149,-0.1852456033229828,0.056253448128700256,0.08749951422214508,0.06049181893467903,1.1185696280335833e-07
0.5166666666666666,0.035750098526477814,0.020917223766446114,0.0,0.7028558254241943,0.0,0.0,-0.7113323211669922,0.1110934168100357,0.06943967193365097,0.0,0.0,0.0,-0.3023894429206848,0.3125529885292053,0.803212583065033,0.4557592570781708,0.5752573609352112,-0.008669319562613964,-0.11863981932401657,-0.8092765212059021,3.123587131500244,-1.6349728107452393,-0.6322475075721741,-7.162023067474365,2.01352858543396,1.7619051933288574,0.31077706813812256,0.8130322694778442,0.45838361978530884,3.3793182373046875,-1.4893732070922852,-0.6394550204277039,0.4333087205886841,0.7436134815216064,0.42000001668930054,-0.29635724425315857,0.8077606558799744,-1.1713453531265259,-3.000000476837158,-0.2365172654390335,-0.22579780220985413,-0.20789217948913574,-0.18575206398963928,0.047268204391002655,0.0791298896074295,0.03714282065629959,-0.05104168504476547
0.5333333333333333,0.03938239440321922,0.019205698743462563,0.0,0.6873044967651367,0.0,0.0,-0.7263694405555725,0.26930251717567444,-0.18201424181461334,0.0,0.0,0.0,-3.4597671031951904,0.3619423508644104,0.7821817994117737,0.4393739402294159,0.5255320072174072,-0.03286176547408104,-0.11128029227256775,-0.8428243398666382,2.4908828735351562,-1.3042876720428467,-1.1170004606246948,0.18536193668842316,2.8497207164764404,-2.951294422149658,0.3594115674495697,0.7907134294509888,0.4423099458217621,2.572563648223877,-1.3087605237960815,-1.144181489944458,0.4333087205886841,0.7436134815216064,0.42000001668930054,-0.27959972620010376,1.2762537002563477,-1.2213674783706665,-3.000000238418579,-0.2346317023038864,-0.22378133237361908,-0.20702023804187775,-0.18681839108467102,0.20080998539924622,0.18406011164188385,0.08852963894605637,-0.055615440011024475
0.55,0.04572730138897896,0.020378785207867622,0.0,0.684291660785675,0.0,0.0,-0.7292084097862244,0.40308788418769836,0.0929734855890274,0.0,0.0,0.0,0.4412159323692322,0.395249605178833,0.7618885040283203,0.4219297468662262,0.5041311979293823,-0.040346112102270126,-0.016997864469885826,-0.8625165820121765,1.0635461807250977,-1.4116963148117065,0.06615655869245529,-8.890703201293945,-6.803557872772217,11.608097076416016,0.3939235806465149,0.7692091464996338,0.42462706565856934,1.2538580894470215,-0.7959005832672119,-0.17513638734817505,0.4333087205886841,0.7436134815216064,0.42000001668930054,-0.26131710410118103,0.6941181421279907,-1.271408200263977,-2.9938948154449463,-0.23307929933071136,-0.22250714898109436,-0.2073328197002411,-0.18953749537467957,0.24016059935092926,0.17035897076129913,0.033695705235004425,-0.14043313264846802
0.5666666666666667,0.050326455384492874,0.017622139304876328,0.0,0.6713518500328064,0.0,0.0,-0.741138756275177,0.17730039358139038,-0.21306112408638,0.0,0.0,0.0,-2.9003381729125977,0.4105638563632965,0.7556520104408264,0.4217209815979004,0.5147057771682739,-0.022219832986593246,-0.026750100776553154,-0.8566613793373108,0.49090340733528137,-0.4633173644542694,0.2272622287273407,10.722582817077637,2.813485860824585,5.030184745788574,0.40765833854675293,0.7620267868041992,0.4248133897781372,0.5294272899627686,-0.3523678779602051,0.05568888783454895,0.4333087205886841,0.7436134815216064,0.42000001668930054,-0.2552756369113922,0.3373172879219055,-1.2358003854751587,2.9952473640441895,-0.22555303573608398,-0.21682897210121155,-0.20447766780853271,-0.18999478220939636,0.3876875340938568,0.29871729016304016,0.1525033563375473,-0.024046897888183594
0.5833333333333334,0.05537217855453491,0.018596339970827103,0.0,0.6712027192115784,0.0,0.0,-0.7412738800048828,0.3262248635292053,0.0687137097120285,0.0,0.0,0.0,0.8326266407966614,0.41588094830513,0.7489455342292786,0.4205542206764221,0.5275678634643555,-0.010624402202665806,-0.0021542846225202084,-0.8494437336921692,-0.01956488937139511,-0.1838608980178833,0.12179401516914368,14.23525333404541,8.864265441894531,6.5239577293396,0.41271793842315674,0.754637598991394,0.42325443029403687,0.18454250693321228,-0.35221537947654724,-0.1844610869884491,0.4333087205886841,0.7436134815216064,0.42000001668930054,-0.24887436628341675,0.43766307830810547,-1.2567917108535767,-2.9980666637420654,-0.22153997421264648,-0.2139883190393448,-0.20372481644153595,-0.19183900952339172,0.370344877243042,0.2599804103374481,0.10247378796339035,-0.07839106023311615
0.6,0.062337782233953476,0.015583977103233337,0.0,0.6600208282470703,0.0,0.0,-0.7512472867965698,0.4550865888595581,-0.2129959613084793,0.0,0.0,0.0,-2.6281635761260986,0.4166331887245178,0.7489308714866638,0.420670747756958,0.5577546954154968,-0.007025741506367922,-0.0062331571243703365,-0.8299527168273926,-0.04688050225377083,-0.0034801200963556767,0.02340691164135933,-0.8437101244926453,-0.38080254197120667,5.438332557678223,0.4137910008430481,0.7556741237640381,0.42393481731414795,0.023754488676786423,0.14694800972938538,0.10709556192159653,0.4333087205886841,0.7436134815216064,0.42000001668930054,-0.2576891779899597,-1.2754122018814087,-1.2224915027618408,2.9999170303344727,-0.21243414282798767,-0.2072734832763672,-0.20002330839633942,-0.19139347970485687,0.4539649188518524,0.33740076422691345,0.18548400700092316,0.018297038972377777
0.6166666666666667,0.06742580980062485,0.015549995936453342,0.0,0.661533534526825,0.0,0.0,-0.749915599822998,0.21261270344257355,0.013211413286626339,0.0,0.0,0.0,1.0807708501815796,0.416920006275177,0.7486023902893066,0.4200403392314911,0.5736536383628845,-0.0005813984316773713,-0.0006656256737187505,-0.8190974593162537,-0.040965475142002106,-0.01764308102428913,-0.05928624048829079,2.812642812728882,-1.132392168045044,3.5702128410339355,0.41370368003845215,0.7543537616729736,0.4232428967952728,0.07985421270132065,-0.09954039752483368,-0.09963279962539673,0.4333087205886841,0.7436134815216064,0.42000001668930054,-0.30406269431114197,-2.9999990463256836,-1.243660569190979,-2.999997138977051,-0.20735418796539307,-0.20362283289432526,-0.19835519790649414,-0.1919865608215332,0.3550678789615631,0.2588959336280823,0.1343795657157898,-0.0038149801548570395
0.6333333333333333,0.07261694967746735,0.01846877858042717,0.0,0.6520026922225952,0.0,0.0,-0.7582166790962219,0.33537301421165466,0.22392414510250092,0.0,0.0,0.0,-2.4275591373443604,0.4168538451194763,0.7485388517379761,0.42000001668930054,0.574627697467804,6.222339834494051e-06,-3.369315209056367e-06,-0.8184149265289307,0.0005903685232624412,9.089286322705448e-05,-0.0002192426472902298,-0.00876090582460165,0.002888886723667383,-0.0016254320507869124,0.41678860783576965,0.7554190158843994,0.4233678877353668,0.2500632405281067,0.16036108136177063,0.18816013634204865,0.4333087205886841,0.7436134815216064,0.42000001668930054,-0.3540697991847992,-2.9997334480285645,-1.293668270111084,-2.9993929862976074,-0.19988112151622772,-0.19834566116333008,-0.19550032913684845,-0.19155628979206085,0.5521440505981445,0.40074291825294495,0.24458719789981842,0.09614691138267517
0.65,0.07959365844726562,0.01742241531610489,0.0,0.654768168926239,0.0,0.0,-0.7558297514915466,0.4463428556919098,-0.06419042497873306,0.0,0.0,0.0,1.3046406507492065,0.4178076684474945,0.7491557002067566,0.42069974541664124,0.5693250894546509,-0.012935478240251541,-0.0013588354922831059,-0.8220095038414001,0.02399277500808239,0.01569822058081627,-0.01939910650253296,0.17466995120048523,-0.69057697057724,-0.37794581055641174,0.4190961718559265,0.7578122615814209,0.4301671087741852,0.006853025406599045,0.05172184854745865,0.682369589805603,0.4333087205886841,0.7436134815216064,0.42000001668930054,-0.40408286452293396,-2.9999992847442627,-1.3436869382858276,-3.0000007152557373,-0.19027385115623474,-0.1908411979675293,-0.19007493555545807,-0.18801431357860565,0.3225730061531067,0.2707260847091675,0.22184868156909943,0.18262839317321777
0.6666666666666666,0.08808955550193787,0.013960758224129677,0.0,0.6462191343307495,0.0,0.0,-0.7631518840789795,0.541910707950592,-0.2769465446472168,0.0,0.0,0.0,-2.2653424739837646,0.4178534746170044,0.7491173148155212,0.41999638080596924,0.5680683255195618,-0.00019069174595642835,-0.000143761993967928,-0.8229812979698181,0.09174202382564545,0.004217874724417925,0.07516895234584808,0.7720180153846741,3.740614652633667,1.0780911445617676,0.42306938767433167,0.7592726945877075,0.44064128398895264,0.4203633964061737,0.078908771276474,0.7066226601600647,0.4333087205886841,0.7436134815216064,0.42000001668930054,-0.45409664511680603,-3.0000016689300537,-1.3937052488327026,-2.9993505477905273,-0.1860654503107071,-0.1870473176240921,-0.18655049800872803,-0.18453823029994965,0.23509545624256134,0.2290235310792923,0.23547276854515076,0.2575196325778961
0.6833333333333333,0.09979267418384552,0.014170880429446697,0.0,0.6150701642036438,0.0,0.0,-0.7884723544120789,0.6788008809089661,0.09011811017990112,0.0,0.0,0.0,-5.676120281219482,0.41887345910072327,0.7491047382354736,0.42029625177383423,0.5736880302429199,-0.004280232358723879,0.006111145485192537,-0.8190399408340454,0.04990987107157707,0.00034409287036396563,0.00021777767688035965,0.003739834064617753,0.010591456666588783,0.6714799404144287,0.43143805861473083,0.7596169114112854,0.4601926803588867,0.6952829360961914,0.07732150703668594,1.684068202972412,0.4333087205886841,0.7436134815216064,0.42000001668930054,-0.5041098594665527,-2.9999711513519287,-1.4437235593795776,-2.9999990463256836,-0.18760019540786743,-0.1878032386302948,-0.18634700775146484,-0.18318414688110352,-0.06979475915431976,-0.039977677166461945,0.004583796951919794,0.06413422524929047
0.7,0.11031654477119446,0.01678975485265255,0.0,0.5986040830612183,0.0,0.0,-0.8010450601577759,0.5875776410102844,0.18406115472316742,0.0,0.0,0.0,-1.4555556774139404,0.4190961718559265,0.7491532564163208,0.4199998676776886,0.5751335620880127,-3.134927828796208e-05,-8.220254130719695e-06,-0.8180594444274902,-0.0023926824796944857,-0.0012673859018832445,-0.0012697101337835193,-0.003592872992157936,0.0041478718630969524,0.0040585934184491634,0.443673312664032,0.762331485748291,0.4892779588699341,0.6813706159591675,0.26634323596954346,1.8440577983856201,0.4333087205886841,0.7436134815216064,0.42000001668930054,-0.5305882692337036,-0.3860540986061096,-1.4937418699264526,-2.999999523162842,-0.18792922794818878,-0.1880199909210205,-0.18621337413787842,-0.18246552348136902,0.043783411383628845,0.030492722988128662,0.028845418244600296,0.03897744417190552
0.7166666666666667,0.11659722030162811,0.021024033427238464,0.0,0.6071672439575195,0.0,0.0,-0.7945740818977356,0.3083297312259674,0.31534063816070557,0.0,0.0,0.0,2.1171069145202637,0.41909298300743103,0.7491514682769775,0.41999998688697815,0.5751351118087769,-2.7567180040932726e-06,-4.470397016120842e-06,-0.818058431148529,1.6536130715394393e-05,-0.0003502667532302439,-9.416765533387661e-05,0.0087941475212574,-0.003311844076961279,-0.000690408400259912,0.4565390944480896,0.7671864032745361,0.512481153011322,0.7427573800086975,0.2973971366882324,1.0357275009155273,0.4333087205886841,0.7436134815216064,0.42000001668930054,-0.5173549652099609,1.7728632688522339,-1.543756365776062,-3.0,-0.18530061841011047,-0.18575218319892883,-0.18414781987667084,-0.18044887483119965,0.20959784090518951,0.19194293022155762,0.17946907877922058,0.17147491872310638
0.7333333333333333,0.11870519071817398,0.020841846242547035,0.0,0.6029265522956848,0.0,0.0,-0.7977967262268066,0.11207161098718643,-0.0793360099196434,0.0,0.0,0.0,-1.63209867477417,0.41909298300743103,0.7491515278816223,0.41999998688697815,0.5751352310180664,-3.082808007093263e-06,-4.0728459680394735e-06,-0.8180582523345947,9.935937669069972e-06,-0.0003482881002128124,-9.746500290930271e-05,0.008666805922985077,-0.0032322220504283905,-0.0006714410847052932,0.46300122141838074,0.7731611728668213,0.5254708528518677,0.04309989511966705,0.2824892997741699,0.6615680456161499,0.4333087205886841,0.7436134815216064,0.42000001668930054,-0.514739453792572,-1.2011181116104126,-1.5049060583114624,3.0000007152557373,-0.17891669273376465,-0.18001896142959595,-0.17905272543430328,-0.17598094046115875,0.28248316049575806,0.2728107273578644,0.2564716339111328,0.23251931369304657
0.75,0.12028439342975616,0.025889026001095772,0.0,0.6109703183174133,0.0,0.0,-0.7916535139083862,0.08815275877714157,0.43546807765960693,0.0,0.0,0.0,2.1610374450683594,0.4190930128097534,0.7491515278816223,0.41999998688697815,0.5751352906227112,-2.938425950560486e-06,-4.229860678606201e-06,-0.81805819272995,1.0429444955661893e-05,-0.00034807942574843764,-9.725801646709442e-05,0.008662469685077667,-0.0032266431953758,-0.0006720562232658267,0.46386298537254333,0.7752381563186646,0.533408522605896,0.08739510178565979,0.09341457486152649,0.33711010217666626,0.4333087205886841,0.7436134815216064,0.42000001668930054,-0.5204444527626038,0.38353240489959717,-1.5209468603134155,-2.999999523162842,-0.18018382787704468,-0.1801247000694275,-0.17826037108898163,-0.17460578680038452,-0.13938774168491364,-0.05615299940109253,0.007881972007453442,0.04931551218032837
0.7666666666666666,0.12172111868858337,0.027634305879473686,0.0,0.6068454384803772,0.0,0.0,-0.7948198318481445,0.11526459455490112,0.018506092950701714,0.0,0.0,0.0,-1.5252799987792969,0.4190930128097534,0.7491514682769775,0.41999998688697815,0.5751350522041321,-2.9520922453230014e-06,-4.063172582391417e-06,-0.818058431148529,1.1531622476468328e-05,-0.00034845294430851936,-9.682076051831245e-05,0.008680474944412708,-0.0032241903245449066,-0.0006745391874574125,0.46134495735168457,0.775723397731781,0.5320053100585938,-0.3638799786567688,-0.06098201498389244,-0.30832603573799133,0.4333087205886841,0.7436134815216064,0.42000001668930054,-0.5483035445213318,-3.0000014305114746,-1.4821593761444092,3.000000238418579,-0.18036308884620667,-0.17927533388137817,-0.17664043605327606,-0.17252863943576813,0.01186650525778532,0.0764385238289833,0.12537093460559845,0.15540112555027008
0.7833333333333333,0.12534074485301971,0.03008253686130047,0.0,0.6143794059753418,0.0,0.0,-0.789010763168335,0.25915077328681946,0.25458824634552,0.0,0.0,0.0,1.9006242752075195,0.4190930128097534,0.7491515278816223,0.41999998688697815,0.5751354694366455,-3.064158818233409e-06,-4.109959718334721e-06,-0.81805819272995,7.39676397643052e-06,-0.0003481539024505764,-9.817024692893028e-05,0.008659740909934044,-0.0032528715673834085,-0.000666085456032306,0.46084702014923096,0.7746462821960449,0.5297397375106812,0.24328656494617462,-0.038385652005672455,0.07397687435150146,0.4333087205886841,0.7436134815216064,0.42000001668930054,-0.5944145917892456,-2.536719560623169,-1.4986913204193115,-2.9999990463256836,-0.18037880957126617,-0.178422749042511,-0.17502295970916748,-0.1703062504529953,0.007191389799118042,0.045435573905706406,0.08492767065763474,0.12243735045194626
0.8,0.13077308237552643,0.030405309051275253,0.0,0.6090279817581177,0.0,0.0,-0.7931487560272217,0.36027809977531433,-0.02640519104897976,0.0,0.0,0.0,-1.7265444993972778,0.4190930128097534,0.7491515278816223,0.41999998688697815,0.5751352906227112,-3.057335561607033e-06,-4.001506567874458e-06,-0.81805819272995,7.412212653434835e-06,-0.00034795718966051936,-9.81409102678299e-05,0.008654026314616203,-0.003251815214753151,-0.0006658523925580084,0.4670782685279846,0.7731107473373413,0.528864860534668,0.4751903712749481,-0.22128820419311523,-0.02667251229286194,0.4333087205886841,0.7436134815216064,0.42000001668930054,-0.6436727046966553,-2.99999737739563,-1.5487096309661865,-3.000000476837158,-0.1788545846939087,-0.17631354928016663,-0.17221567034721375,-0.16674049198627472,0.03749379888176918,0.09897615760564804,0.16866876184940338,0.24286194145679474
0.8166666666666667,0.1381945013999939,0.027346543967723846,0.0,0.5819491744041443,0.0,0.0,-0.8132251501083374,0.4881911873817444,-0.24555617570877075,0.0,0.0,0.0,-4.97878885269165,0.4190930128097534,0.7491514682769775,0.41999998688697815,0.5751350522041321,-2.9513582830986707e-06,-4.03183594244183e-06,-0.8180584907531738,1.1379985153325833e-05,-0.00034845314803533256,-9.687547571957111e-05,0.008679906837642193,-0.0032259777653962374,-0.0006742789992131293,0.477274626493454,0.768616259098053,0.533231258392334,0.7743633985519409,-0.31454241275787354,0.665183424949646,0.4333087205886841,0.7436134815216064,0.42000001668930054,-0.6936748623847961,-2.999971628189087,-1.5987279415130615,-2.999999523162842,-0.1796770840883255,-0.1759747862815857,-0.17057588696479797,-0.16372346878051758,-0.06950048357248306,-3.835710231214762e-06,0.07544077187776566,0.1566309630870819
0.8333333333333334,0.14895963668823242,0.028290104120969772,0.0,0.5682275891304016,0.0,0.0,-0.8228714466094971,0.6339739561080933,0.050673600286245346,0.0,0.0,0.0,-0.966254711151123,0.4190930128097534,0.7491515278816223,0.41999998688697815,0.5751354098320007,-3.0748165045224596e-06,-4.081376573594753e-06,-0.8180581331253052,7.31428008293733e-06,-0.0003481390594970435,-9.819585829973221e-05,0.008659029379487038,-0.003253435017541051,-0.0006659049540758133,0.48664605617523193,0.7661763429641724,0.5461920499801636,0.4507286250591278,0.12711311876773834,0.8392806649208069,0.4333087205886841,0.7436134815216064,0.42000001668930054,-0.709175169467926,0.8208078145980835,-1.648745059967041,-3.0,-0.1832747906446457,-0.1784220188856125,-0.17189912497997284,-0.16395550966262817,-3.5332050174474716e-08,-0.006415962241590023,-0.01381231565028429,-0.020403539761900902
0.85,0.15578359365463257,0.030480988323688507,0.0,0.5801382660865784,0.0,0.0,-0.8145180344581604,0.33386337757110596,0.17746371030807495,0.0,0.0,0.0,2.5834274291992188,0.4190930128097534,0.7491515278816223,0.41999998688697815,0.5751352906227112,-2.9446853204717627e-06,-4.214323325868463e-06,-0.8180582523345947,1.0480399396328721e-05,-0.0003482342872302979,-9.727943688631058e-05,0.008666998706758022,-0.0032301999162882566,-0.0006725569255650043,0.49246323108673096,0.7714904546737671,0.5576019287109375,0.16268566250801086,0.4402655363082886,0.5727750658988953,0.4333087205886841,0.7436134815216064,0.42000001668930054,-0.672003448009491,2.9999794960021973,-1.6095954179763794,3.0000009536743164,-0.18055109679698944,-0.17651809751987457,-0.1708216816186905,-0.16367341578006744,0.22832579910755157,0.1627463400363922,0.0940127968788147,0.02470085769891739
0.8666666666666667,0.1584022343158722,0.02848021127283573,0.0,0.5782809853553772,0.0,0.0,-0.8158376812934875,0.12376829236745834,-0.19582366943359375,0.0,0.0,0.0,-1.2602144479751587,0.4190930128097534,0.7491515278816223,0.41999998688697815,0.5751352906227112,-3.0891862934367964e-06,-4.065779648954049e-06,-0.81805819272995,1.031639112625271e-05,-0.0003482552128843963,-9.7338343039155e-05,0.008667103946208954,-0.003231598064303398,-0.0006722772377543151,0.4894169270992279,0.7785369753837585,0.5637972354888916,-0.5191381573677063,0.35057932138442993,0.3149075508117676,0.4333087205886841,0.7436134815216064,0.42000001668930054,-0.6532836556434631,-0.46796366572380066,-1.5595389604568481,2.999999761581421,-0.17500750720500946,-0.17222650349140167,-0.1678495556116104,-0.16204436123371124,0.26925957202911377,0.2151820808649063,0.1535070538520813,0.08631042391061783
0.8833333333333333,0.1582217663526535,0.0314519926905632,0.0,0.5877264738082886,0.0,0.0,-0.8090596795082092,-0.05658586323261261,0.31510260701179504,0.0,0.0,0.0,2.2661290168762207,0.4190930128097534,0.7491515278816223,0.41999998688697815,0.575135350227356,-3.0822552616882604e-06,-4.107979748368962e-06,-0.8180582523345947,1.0410439244878944e-05,-0.00034832596429623663,-9.731901809573174e-05,0.00866935309022665,-0.003232185961678624,-0.0006726091960445046,0.48255401849746704,0.782616376876831,0.5676047801971436,-0.30990326404571533,0.25330549478530884,0.1820024996995926,0.4333087205886841,0.7436134815216064,0.42000001668930054,-0.6349044442176819,2.4077491760253906,-1.5605241060256958,-2.630571126937866,-0.17663179337978363,-0.1734369695186615,-0.1688554584980011,-0.16308197379112244,-0.18276293575763702,-0.1402626484632492,-0.11026324331760406,-0.09646205604076385
