vladlanda/robotic-transformer/data/env_000_episode_0157.csv
sim_time_s,robot_box_x,robot_box_y,robot_box_z,robot_box_quat_w,robot_box_quat_x,robot_box_quat_y,robot_box_quat_z,robot_box_linvel_x,robot_box_linvel_y,robot_box_linvel_z,robot_box_angvel_x,robot_box_angvel_y,robot_box_angvel_z,cube_world_x,cube_world_y,cube_world_z,cube_quat_w,cube_quat_x,cube_quat_y,cube_quat_z,cube_linvel_x,cube_linvel_y,cube_linvel_z,cube_angvel_x,cube_angvel_y,cube_angvel_z,endpoint_world_x,endpoint_world_y,endpoint_world_z,endpoint_linvel_x,endpoint_linvel_y,endpoint_linvel_z,target_cube_world_x,target_cube_world_y,target_cube_world_z,gripper_actual_pos_rad_gp_leftgearjoint,gripper_actual_vel_rad_s_gp_leftgearjoint,gripper_actual_pos_rad_gp_rotatingjoint,gripper_actual_vel_rad_s_gp_rotatingjoint,motor_angle_rad_joint1,motor_angle_rad_joint2,motor_angle_rad_joint3,motor_angle_rad_joint4,motor_speed_rad_s_joint1,motor_speed_rad_s_joint2,motor_speed_rad_s_joint3,motor_speed_rad_s_joint4
0.0,0.0,0.0,0.0,1.0,0.0,0.0,0.0,0.0,0.0,0.0,0.0,0.0,0.0,-0.4071979224681854,0.7075980305671692,0.41999998688697815,1.0,0.0,0.0,0.0,0.0,0.0,0.0,0.0,0.0,0.0,3.42540442943573e-06,-0.005000244826078415,1.313499927520752,0.0,0.0,0.0,0.41299450397491455,0.726421058177948,0.42000001668930054,-1.5707999467849731,0.0,0.0,0.0,0.0,0.0,0.0,0.0,0.0,0.0,0.0,0.0
0.016666666666666666,0.0028778850100934505,0.0021806680597364902,0.0,0.9998081922531128,0.0,0.0,0.019586581736803055,0.24087215960025787,0.18240931630134583,0.0,0.0,0.0,3.1418697834014893,-0.407198041677475,0.7075977325439453,0.41999998688697815,1.0,3.279964630564791e-06,-8.339746386809566e-07,8.465587342243452e-08,-1.9833529222523794e-05,0.00017983045836444944,-6.132945418357849e-05,0.0009432713268324733,-0.004689474124461412,-0.00031981561915017664,-0.007110234349966049,0.003379564033821225,1.3159373998641968,-0.8143353462219238,0.9868683815002441,0.18095196783542633,0.41299450397491455,0.726421058177948,0.42000001668930054,-1.5301095247268677,3.0000011920928955,-0.04584788903594017,-2.9999992847442627,0.0008691533003002405,0.0007963840034790337,0.0007110277656465769,0.0006108740926720202,0.11094217747449875,0.09756709635257721,0.08334315568208694,0.06823883205652237
0.03333333333333333,0.008960990235209465,0.006801999639719725,0.0,0.9997960329055786,0.0,0.0,0.020196838304400444,0.407022088766098,0.31530800461769104,0.0,0.0,0.0,-0.869132936000824,-0.4071981608867645,0.7075976729393005,0.4200000464916229,1.0,3.3908179375430336e-06,-2.132458348569344e-06,-3.7097745320124886e-08,0.00026357852038927376,0.00026937833172269166,-0.00010509369894862175,-0.0017707126680761576,0.004130884539335966,-0.0001354814594378695,-0.027553897351026535,0.026235323399305344,1.316590428352356,-1.5913729667663574,1.6161222457885742,-0.08582523465156555,0.41299450397491455,0.726421058177948,0.42000001668930054,-1.4800904989242554,3.0000033378601074,-0.09588771313428879,-3.000000476837158,0.002990097738802433,0.002652703784406185,0.002277270657941699,0.0018607234815135598,0.1642138510942459,0.13975746929645538,0.11381620913743973,0.08629828691482544
0.05,0.01795136369764805,0.013586949557065964,0.0,0.9999844431877136,0.0,0.0,0.00558008486405015,0.6068223118782043,0.4479725956916809,0.0,0.0,0.0,-2.2151541709899902,-0.4071981906890869,0.7075977325439453,0.4200000464916229,1.0,3.7651293496310245e-06,-2.2119379536889028e-06,5.6273887771851605e-09,0.0002653067058417946,0.00026691422681324184,-0.00010440615005791187,-0.0017243530601263046,0.00417736079543829,-0.00012949267693329602,-0.05794041231274605,0.05664515495300293,1.3116304874420166,-2.00972580909729,2.0072245597839355,-0.4776490330696106,0.41299450397491455,0.726421058177948,0.42000001668930054,-1.4300721883773804,3.0000038146972656,-0.14592638611793518,-3.0000011920928955,0.005803454201668501,0.0049853334203362465,0.004094952717423439,0.003127923933789134,0.19709132611751556,0.15791282057762146,0.1168447881937027,0.07379648089408875
0.06666666666666667,0.0294354110956192,0.0227520614862442,0.0,0.9999446868896484,0.0,0.0,0.010517282411456108,0.7338471412658691,0.5934207439422607,0.0,0.0,0.0,1.6195777654647827,-0.4071981906890869,0.7075976729393005,0.4200000464916229,0.9999999403953552,3.406754103707499e-06,-2.2856077066535363e-06,4.300980265270482e-07,0.0002670255198609084,0.0002679179306142032,-0.0001043803058564663,-0.001740670995786786,0.004211848136037588,-0.00012850687198806554,-0.09526941180229187,0.08933325111865997,1.3002346754074097,-2.341899871826172,2.0656611919403076,-0.8643214702606201,0.41299450397491455,0.726421058177948,0.42000001668930054,-1.3800538778305054,3.0000011920928955,-0.1959463655948639,-2.9999990463256836,0.008184132166206837,0.0066370004788041115,0.004978337790817022,0.0032025359105318785,0.1323472112417221,0.0784897580742836,0.02255629003047943,-0.03552096709609032
0.08333333333333333,0.04315411299467087,0.034076910465955734,0.0,0.9999999403953552,0.0,0.0,0.0003377131070010364,0.871414065361023,0.7147954106330872,0.0,0.0,0.0,-2.145977735519409,-0.4071981906890869,0.7075976729393005,0.4200000464916229,0.9999999403953552,3.6260603337723296e-06,-2.3353738924924983e-06,3.0322857469400333e-07,0.00026613770751282573,0.00026685066404752433,-0.00010405178181827068,-0.0017283547203987837,0.004196325317025185,-0.000127911422168836,-0.13162612915039062,0.129373237490654,1.2835981845855713,-2.051119327545166,2.6364142894744873,-1.1189157962799072,0.41299450397491455,0.726421058177948,0.42000001668930054,-1.330024003982544,2.9999942779541016,-0.16217881441116333,3.000000238418579,0.008982982486486435,0.006359459832310677,0.003584729740396142,0.0006513061816804111,0.0032132905907928944,-0.07440806925296783,-0.15417052805423737,-0.23600952327251434
0.1,0.05091135576367378,0.04897375777363777,0.0,0.9991673231124878,0.0,0.0,-0.040799543261528015,0.33128419518470764,0.9668596386909485,0.0,0.0,0.0,-5.878852844238281,-0.4071981906890869,0.7075976729393005,0.4200000464916229,1.0,3.4220743145851884e-06,-2.30867885875341e-06,1.7964234189093986e-07,0.0002668164379429072,0.0002680036413948983,-0.00010440708138048649,-0.0017430284060537815,0.004207152873277664,-0.00012891023652628064,-0.16290879249572754,0.17557255923748016,1.2636303901672363,-1.7705769538879395,2.8457083702087402,-1.22434401512146,0.41299450397491455,0.726421058177948,0.42000001668930054,-1.2800313234329224,3.000002145767212,-0.19391721487045288,-3.0000007152557373,0.0027235387824475765,-0.0008016132633201778,-0.004529452417045832,-0.008469770662486553,-0.4984124004840851,-0.553374171257019,-0.6108364462852478,-0.6709750890731812
0.11666666666666667,0.05445891246199608,0.06473655253648758,0.0,0.9980531334877014,0.0,0.0,-0.06236939877271652,0.32202669978141785,0.9865415096282959,0.0,0.0,0.0,-1.2173651456832886,-0.4071981906890869,0.7075977325439453,0.4200000464916229,1.0,3.7114557471795706e-06,-2.332793883397244e-06,2.5744137133187905e-07,0.0002648575755301863,0.00026635421090759337,-0.00010423525236546993,-0.001718215993605554,0.004170078784227371,-0.00012915751722175628,-0.199241042137146,0.21820268034934998,1.2429308891296387,-2.304938316345215,2.6902270317077637,-1.2731499671936035,0.41299450397491455,0.726421058177948,0.42000001668930054,-1.2300282716751099,2.9999969005584717,-0.24395090341567993,-2.9999990463256836,-0.004206981509923935,-0.008960804902017117,-0.013914081268012524,-0.019077837467193604,-0.15038247406482697,-0.2616758942604065,-0.369274377822876,-0.47300392389297485
0.13333333333333333,0.062133487313985825,0.07801216095685959,0.0,0.9955047965049744,0.0,0.0,-0.09471084177494049,0.49663206934928894,0.7290328145027161,0.0,0.0,0.0,-4.793899059295654,-0.4071981906890869,0.7075976729393005,0.4200000464916229,1.0,3.335647988933488e-06,-2.2320116386254085e-06,3.113250670594425e-07,0.00026669682119973004,0.000267594848992303,-0.00010428694076836109,-0.0017371177673339844,0.004205875098705292,-0.00012840732233598828,-0.23341211676597595,0.2694285213947296,1.2202513217926025,-1.8171577453613281,3.4342899322509766,-1.4665591716766357,0.41299450397491455,0.726421058177948,0.42000001668930054,-1.180009365081787,2.9999935626983643,-0.2099272906780243,3.0000014305114746,-0.0050897300243377686,-0.012053631246089935,-0.019131314009428024,-0.026329999789595604,-0.08914511650800705,-0.2209196239709854,-0.347431480884552,-0.46846702694892883
0.15,0.06766260415315628,0.08822590857744217,0.0,0.9879783391952515,0.0,0.0,-0.15459242463111877,0.26980894804000854,0.5580887794494629,0.0,0.0,0.0,-8.086082458496094,-0.4071981906890869,0.7075976729393005,0.4200000464916229,1.0,3.518864104989916e-06,-2.283212324982742e-06,-3.625428917075624e-07,0.00026618369156494737,0.00026735756546258926,-0.00010425550863146782,-0.0017349214758723974,0.004195664543658495,-0.00012860912829637527,-0.2636115849018097,0.32868191599845886,1.1918377876281738,-1.711521863937378,3.7632393836975098,-1.9627203941345215,0.41299450397491455,0.726421058177948,0.42000001668930054,-1.151226282119751,0.6340880393981934,-0.24132496118545532,-2.9999992847442627,-0.008764584548771381,-0.01759655587375164,-0.026454269886016846,-0.03534378483891487,-0.3121327757835388,-0.40334537625312805,-0.48965558409690857,-0.5710939168930054
0.16666666666666666,0.07519969344139099,0.10000041127204895,0.0,0.9805445075035095,0.0,0.0,-0.196296826004982,0.3776676058769226,0.6988222599029541,0.0,0.0,0.0,-3.8447203636169434,-0.4071981906890869,0.7075976729393005,0.4200000464916229,1.0,3.666546717795427e-06,-2.3392813091049902e-06,-3.150027225728991e-07,0.0002659583115018904,0.00026667400379665196,-0.00010403734631836414,-0.001725324080325663,0.004192811902612448,-0.00012778834206983447,-0.29847705364227295,0.38964927196502686,1.1506681442260742,-2.0996389389038086,3.890714168548584,-2.9410829544067383,0.41299450397491455,0.726421058177948,0.42000001668930054,-1.1098837852478027,2.9999420642852783,-0.23124535381793976,2.9999918937683105,-0.014354534447193146,-0.024206072092056274,-0.03401054069399834,-0.043779484927654266,-0.6433732509613037,-0.6426396369934082,-0.6406790614128113,-0.6380289793014526
0.18333333333333332,0.07869673520326614,0.11302443593740463,0.0,0.9692182540893555,0.0,0.0,-0.24620303511619568,0.17874950170516968,0.8571900725364685,0.0,0.0,0.0,-6.859033584594727,-0.4071981906890869,0.7075976729393005,0.4200000464916229,1.0,3.8142911762406584e-06,-2.3995992251002463e-06,-2.7027797955270216e-07,0.00026548971072770655,0.000266111281234771,-0.00010391324758529663,-0.0017178148264065385,0.004184778779745102,-0.00012754148337990046,-0.33235618472099304,0.4562109112739563,1.0982073545455933,-1.7268375158309937,4.266833305358887,-3.3463680744171143,0.41299450397491455,0.726421058177948,0.42000001668930054,-1.0598878860473633,2.99999737739563,-0.2624865770339966,-2.9999992847442627,-0.02664162963628769,-0.036518849432468414,-0.04631146416068077,-0.0560389943420887,-0.7612909078598022,-0.7653549313545227,-0.766611635684967,-0.7654098868370056
0.2,0.0803711861371994,0.12329303473234177,0.0,0.9612099528312683,0.0,0.0,-0.2758178412914276,0.060029707849025726,0.5255357027053833,0.0,0.0,0.0,-2.622624397277832,-0.4071981906890869,0.7075976729393005,0.4200000464916229,1.0,3.5999869396619033e-06,-2.2913013708603103e-06,-2.201937832069234e-07,0.00026573010836727917,0.0002664492931216955,-0.00010398332960903645,-0.0017227825010195374,0.004188841208815575,-0.00012773113849107176,-0.36373284459114075,0.5230139493942261,1.0343788862228394,-1.6321029663085938,4.072640895843506,-4.284754276275635,0.41299450397491455,0.726421058177948,0.42000001668930054,-1.011691927909851,2.763366937637329,-0.31251266598701477,-2.9999992847442627,-0.03914779797196388,-0.048708509653806686,-0.05814483016729355,-0.06748645007610321,-0.7753680348396301,-0.7361043095588684,-0.6953748464584351,-0.6538829803466797
0.21666666666666667,0.07787243276834488,0.13584719598293304,0.0,0.9484502077102661,0.0,0.0,-0.3169262707233429,-0.23850353062152863,0.7647673487663269,0.0,0.0,0.0,-5.871218204498291,-0.4071981906890869,0.7075976729393005,0.4200000464916229,0.9999999403953552,3.639563374235877e-06,-2.2620122308580903e-06,2.2247465381042275e-07,0.00026687391800805926,0.0002675444120541215,-0.00010411837138235569,-0.001740379841066897,0.004211025312542915,-0.00012783984129782766,-0.3886576294898987,0.5890312790870667,0.9541372060775757,-1.2513506412506104,3.905885696411133,-5.186001300811768,0.41299450397491455,0.726421058177948,0.42000001668930054,-0.9617525339126587,3.000000476837158,-0.3625403940677643,-3.0000009536743164,-0.05446658283472061,-0.06400170177221298,-0.07293641567230225,-0.08173760771751404,-0.8330367803573608,-0.8512850403785706,-0.868374228477478,-0.8825201392173767
0.23333333333333334,0.07908505201339722,0.1436731070280075,0.0,0.9409782886505127,0.0,0.0,-0.3384668827056885,0.0833231583237648,0.39454567432403564,0.0,0.0,0.0,-1.4394121170043945,-0.4071981608867645,0.7075976729393005,0.4200000464916229,1.0,3.420630036998773e-06,-2.3168879579316126e-06,2.955902687062917e-07,0.0002668013039510697,0.0002680388279259205,-0.00010442384518682957,-0.0017437251517549157,0.004206957295536995,-0.00012900005094707012,-0.4107431471347809,0.6455199122428894,0.8627000451087952,-1.0338503122329712,3.069962978363037,-5.81956672668457,0.41299450397491455,0.726421058177948,0.42000001668930054,-0.9117456674575806,2.9999983310699463,-0.41257062554359436,-3.0,-0.06754353642463684,-0.0768120065331459,-0.08545441180467606,-0.09397116303443909,-0.9872022867202759,-0.9334643483161926,-0.865959882736206,-0.8024394512176514
0.25,0.07439835369586945,0.1552564948797226,0.0,0.9285411238670349,0.0,0.0,-0.3712296187877655,-0.2811657786369324,0.6863551735877991,0.0,0.0,0.0,-4.837960243225098,-0.4071981906890869,0.7075976729393005,0.4200000464916229,0.9999999403953552,3.347485289850738e-06,-2.2592903405893594e-06,1.8084206487856136e-07,0.0002668781380634755,0.00026791184791363776,-0.0001043954398483038,-0.001740514999255538,0.004208283498883247,-0.000128701634821482,-0.42268097400665283,0.6856003999710083,0.7584051489830017,-0.3954218626022339,1.971627950668335,-6.39984130859375,0.41299450397491455,0.726421058177948,0.42000001668930054,-0.8617349863052368,2.999997138977051,-0.46260184049606323,-2.9999992847442627,-0.0844053402543068,-0.09352527558803558,-0.10207700729370117,-0.11053795367479324,-0.6975972056388855,-0.7522282004356384,-0.8041126728057861,-0.8505069017410278
0.26666666666666666,0.07484453916549683,0.1612337976694107,0.0,0.923018753528595,0.0,0.0,-0.3847549855709076,0.04308216646313667,0.274415522813797,0.0,0.0,0.0,-0.5029767155647278,-0.4071981906890869,0.7075976729393005,0.4200000464916229,0.9999999403953552,3.707919859152753e-06,-2.392595661149244e-06,-1.2726982845379098e-07,0.00026603692094795406,0.00026716693537309766,-0.00010421336628496647,-0.0017321702325716615,0.004193120636045933,-0.00012854926171712577,-0.4308697283267975,0.7093300819396973,0.6523246169090271,-0.25654664635658264,0.876684844493866,-6.379727363586426,0.41299450397491455,0.726421058177948,0.42000001668930054,-0.8117254376411438,2.9999961853027344,-0.512633204460144,-3.000000476837158,-0.09583223611116409,-0.10513054579496384,-0.11388867348432541,-0.12253492325544357,-0.9515321254730225,-0.8989226818084717,-0.852125346660614,-0.8083666563034058
0.2833333333333333,0.07145928591489792,0.16428613662719727,0.0,0.929288923740387,0.0,0.0,-0.3693535625934601,-0.29358866810798645,0.1555701345205307,0.0,0.0,0.0,2.8685977458953857,-0.4071981906890869,0.7075977325439453,0.4200000464916229,0.9999999403953552,3.5725404359254753e-06,-2.304164354427485e-06,1.2984229158519156e-07,0.0002652165130712092,0.00026455134502612054,-0.00010317238047719002,-0.0017021878156811,0.004185077268630266,-0.00012500181037466973,-0.4371582865715027,0.713677167892456,0.548731803894043,-0.2780301868915558,-0.3713906705379486,-5.956258773803711,0.41299450397491455,0.726421058177948,0.42000001668930054,-0.7617166638374329,3.000002384185791,-0.5626629590988159,-2.9999988079071045,-0.11292432993650436,-0.12209337204694748,-0.1307627558708191,-0.13929760456085205,-1.0058144330978394,-1.004401445388794,-1.003322720527649,-1.002456545829773
0.3,0.07161931693553925,0.16373011469841003,0.0,0.9290695190429688,0.0,0.0,-0.36990514397621155,0.028546255081892014,-0.07746949791908264,0.0,0.0,0.0,-0.77525794506073,-0.4071981906890869,0.7075976729393005,0.4200000464916229,1.0,3.744931063920376e-06,-2.238220076833386e-06,-1.7679303709883243e-07,0.00026436246116645634,0.00026623631129041314,-0.00010443315841257572,-0.0017120876582339406,0.004158840514719486,-0.0001299011637456715,-0.4345403015613556,0.7109706997871399,0.4477618932723999,0.5907961130142212,-0.32423409819602966,-5.814303398132324,0.41299450397491455,0.726421058177948,0.42000001668930054,-0.7117087244987488,3.000002384185791,-0.612690806388855,-3.000002145767212,-0.1297207474708557,-0.13877205550670624,-0.14738427102565765,-0.155888631939888,-1.0267153978347778,-1.0202492475509644,-1.0153058767318726,-1.0113404989242554
0.31666666666666665,0.06815280020236969,0.16174012422561646,0.0,0.9346812963485718,0.0,0.0,-0.35548678040504456,-0.30562132596969604,-0.1402631402015686,0.0,0.0,0.0,2.7060954570770264,-0.4071981906890869,0.7075977325439453,0.42000001668930054,0.9999999403953552,3.4813374441000633e-06,-2.6616460218065185e-06,2.331790227572128e-07,0.00027441870770417154,0.00022546334366779774,-8.493606583215296e-05,-0.0012854104861617088,0.0045980894938111305,5.942268330727529e-07,-0.42984193563461304,0.711209774017334,0.4161953926086426,0.3182308077812195,0.432529479265213,-0.0347043052315712,0.41299450397491455,0.726421058177948,0.42000001668930054,-0.6619249582290649,2.9761598110198975,-0.66298907995224,-2.8016316890716553,-0.13900582492351532,-0.1484440118074417,-0.15730014443397522,-0.1658317893743515,-0.1846178025007248,-0.2561592161655426,-0.30724838376045227,-0.3301837146282196
0.3333333333333333,0.059907201677560806,0.15810944139957428,0.0,0.9340940117835999,0.0,0.0,-0.35702720284461975,-0.55418461561203,-0.25382205843925476,0.0,0.0,0.0,-1.1581571102142334,-0.40659546852111816,0.708490252494812,0.42000001668930054,0.9999760985374451,1.01703371910844e-05,-1.5754408195789438e-06,-0.00691016111522913,0.1507660448551178,0.2131109982728958,-0.00032003657543100417,-0.018078340217471123,0.013643236830830574,-3.059023380279541,-0.4256744384765625,0.7152456641197205,0.42482876777648926,0.47185808420181274,0.15392403304576874,-0.1764499545097351,0.41299450397491455,0.726421058177948,0.42000001668930054,-0.611912190914154,2.9999890327453613,-0.7130427360534668,-2.99999737739563,-0.1448293924331665,-0.15415515005588531,-0.162568137049675,-0.1702260673046112,-0.5427104234695435,-0.47179022431373596,-0.3867604732513428,-0.2831907868385315
0.35,0.050978098064661026,0.15167993307113647,0.0,0.9387694597244263,0.0,0.0,-0.34454596042633057,-0.5073027014732361,-0.44958385825157166,0.0,0.0,0.0,2.4592885971069336,-0.4024592638015747,0.714119017124176,0.4200000762939453,0.9986656308174133,-1.9758747384912567e-06,6.478365776274586e-06,-0.05164192616939545,0.29971861839294434,0.4029783308506012,-0.00017635853146202862,0.010617169551551342,-0.002703047124668956,-6.6436567306518555,-0.4165898859500885,0.7200649976730347,0.42147332429885864,0.6264644265174866,0.3854505717754364,-0.18881283700466156,0.41299450397491455,0.726421058177948,0.42000001668930054,-0.561907172203064,2.9999825954437256,-0.7630743980407715,-2.9999992847442627,-0.15254424512386322,-0.16055959463119507,-0.16738982498645782,-0.17312750220298767,-0.38156452775001526,-0.29806458950042725,-0.19754740595817566,-0.07644566148519516
0.36666666666666664,0.040904656052589417,0.142671138048172,0.0,0.9376057982444763,0.0,0.0,-0.34770017862319946,-0.6466702222824097,-0.5790272355079651,0.0,0.0,0.0,-1.3567838668823242,-0.395894318819046,0.7227524518966675,0.420000284910202,0.9900009632110596,2.0648507415899076e-05,-2.2811709641246125e-06,-0.1410599797964096,0.5093380808830261,0.6538903713226318,-0.0003714818158186972,-0.01641983538866043,0.022643763571977615,-15.142502784729004,-0.4043276309967041,0.7285537719726562,0.4199133515357971,0.8230788111686707,0.6727454662322998,0.03566097468137741,0.41299450397491455,0.726421058177948,0.42000001668930054,-0.5118799209594727,3.0000030994415283,-0.8131005764007568,-2.9999566078186035,-0.15920285880565643,-0.16571418941020966,-0.17074890434741974,-0.17434997856616974,-0.378243088722229,-0.286543607711792,-0.17841589450836182,-0.05121293663978577
0.3833333333333333,0.02827252261340618,0.13144882023334503,0.0,0.9256512522697449,0.0,0.0,-0.3783777356147766,-0.8098701238632202,-0.7146135568618774,0.0,0.0,0.0,-4.834423542022705,-0.3821236491203308,0.738842248916626,0.4207342863082886,0.979866087436676,-0.01824468933045864,0.0034399605356156826,-0.19879068434238434,1.0812554359436035,1.2093167304992676,0.07024552673101425,-3.3501908779144287,1.286073923110962,-5.769142150878906,-0.387965589761734,0.7430502772331238,0.42084378004074097,1.175450086593628,1.0848759412765503,0.08919313549995422,0.41299450397491455,0.726421058177948,0.42000001668930054,-0.4618319869041443,2.9999771118164062,-0.8631097078323364,-2.9999747276306152,-0.16545997560024261,-0.1702767014503479,-0.17327947914600372,-0.17448142170906067,-0.34555765986442566,-0.23400254547595978,-0.1013159453868866,0.05361660569906235
0.4,0.017122095450758934,0.11739814281463623,0.0,0.90195232629776,0.0,0.0,-0.4318356215953827,-0.6194846034049988,-0.8944708108901978,0.0,0.0,0.0,-7.776854515075684,-0.35674741864204407,0.7636886835098267,0.4226112365722656,0.967711865901947,-0.03454616665840149,-0.010492960922420025,-0.2494596242904663,2.001603603363037,1.7129021883010864,0.11189979314804077,22.409866333007812,-11.410459518432617,1.9657484292984009,-0.3624418377876282,0.7676419615745544,0.42273786664009094,1.9410661458969116,1.804677963256836,0.21907047927379608,0.41299450397491455,0.726421058177948,0.42000001668930054,-0.41233029961586,2.683976411819458,-0.9131254553794861,-3.0000016689300537,-0.17233169078826904,-0.1749241203069687,-0.17532093822956085,-0.17354023456573486,-0.4352879226207733,-0.2890188694000244,-0.12157008051872253,0.0659385696053505
0.4166666666666667,0.009888282045722008,0.10033369809389114,0.0,0.8632819056510925,0.0,0.0,-0.5047220587730408,-0.35949715971946716,-1.0764013528823853,0.0,0.0,0.0,-10.633460998535156,-0.3020147681236267,0.8008425831794739,0.4263648986816406,0.9499452710151672,0.01941072754561901,-0.05306626483798027,-0.30726394057273865,4.76833438873291,2.61991024017334,0.21820861101150513,24.48358726501465,-17.78650665283203,9.522455215454102,-0.3071334958076477,0.8052813410758972,0.4262133538722992,4.324625015258789,2.6469950675964355,0.43503183126449585,0.41299450397491455,0.726421058177948,0.42000001668930054,-0.38578349351882935,0.9750280380249023,-0.8761811256408691,2.9962000846862793,-0.18359746038913727,-0.18230551481246948,-0.17865107953548431,-0.1727239489555359,-0.7391444444656372,-0.4765762984752655,-0.211773082613945,0.049707505851984024
0.43333333333333335,0.0053608533926308155,0.08867909759283066,0.0,0.8061115145683289,0.0,0.0,-0.5917636752128601,-0.22295822203159332,-0.568693995475769,0.0,0.0,0.0,-13.316007614135742,-0.20570550858974457,0.8426023125648499,0.43389126658439636,0.9251385927200317,0.06528334319591522,-0.08708088099956512,-0.3636941611766815,7.392752170562744,2.1867940425872803,0.6418189406394958,13.15252685546875,-15.581830978393555,12.252202987670898,-0.2102876603603363,0.8488626480102539,0.43388184905052185,6.964112281799316,2.645843267440796,0.6241545677185059,0.41299450397491455,0.726421058177948,0.42000001668930054,-0.37119537591934204,0.8532801270484924,-0.8834467530250549,-3.000002384185791,-0.199790358543396,-0.196792334318161,-0.1883997619152069,-0.1768425852060318,-0.9319322109222412,-0.9211006760597229,-0.7148049473762512,-0.38251248002052307
0.45,-0.0020066113211214542,0.08219742029905319,0.0,0.7572424411773682,0.0,0.0,-0.6531338691711426,-0.40341717004776,-0.3786424696445465,0.0,0.0,0.0,-8.039648056030273,-0.09433503448963165,0.8706806898117065,0.44436216354370117,0.8801341652870178,0.08832085132598877,-0.10374845564365387,-0.45475220680236816,6.7542877197265625,0.4712001383304596,0.7143077254295349,17.98206329345703,-7.680618762969971,23.1021728515625,-0.09806542098522186,0.8793461918830872,0.444471538066864,6.752553939819336,1.2407575845718384,0.6813244819641113,0.41299450397491455,0.726421058177948,0.42000001668930054,-0.35559046268463135,0.9781426787376404,-0.91190505027771,-0.6954637765884399,-0.21370312571525574,-0.21100077033042908,-0.2022755742073059,-0.18523144721984863,-0.6191917657852173,-0.6777951717376709,-0.7397598028182983,-0.4985573887825012
0.4666666666666667,-0.004426920786499977,0.06979610025882721,0.0,0.7286043167114258,0.0,0.0,-0.6849348545074463,-0.060055334120988846,-0.9243204593658447,0.0,0.0,0.0,-4.1865715980529785,0.016874991357326508,0.881157636642456,0.4526708424091339,0.8033655285835266,0.06722354888916016,-0.1544409692287445,-0.5711678266525269,6.474831581115723,-0.43360772728919983,0.019063159823417664,-24.124876022338867,-15.062396049499512,9.029973030090332,0.01160845160484314,0.8908097147941589,0.45497629046440125,6.493380546569824,0.027812644839286804,0.789253830909729,0.41299450397491455,0.726421058177948,0.42000001668930054,-0.33874714374542236,0.8474844098091125,-0.9583091139793396,-3.0000038146972656,-0.2216039001941681,-0.21851979196071625,-0.2096312791109085,-0.18853053450584412,-0.3783360421657562,-0.2977619767189026,-0.23598505556583405,1.4114925761532504e-07
0.48333333333333334,-0.010150552727282047,0.06026401370763779,0.0,0.7216985821723938,0.0,0.0,-0.692207396030426,-0.29992029070854187,-0.4706193804740906,0.0,0.0,0.0,-0.20592385530471802,0.11478446424007416,0.8709858059883118,0.4613717198371887,0.7406484484672546,0.05459142476320267,-0.12950830161571503,-0.6570290923118591,5.006916522979736,-1.9113720655441284,0.3239184319972992,-16.023698806762695,-11.389261245727539,28.147472381591797,0.11110454797744751,0.8826678395271301,0.46402668952941895,5.639761447906494,-0.8564500212669373,0.49555158615112305,0.41299450397491455,0.726421058177948,0.42000001668930054,-0.3286602199077606,0.2532545030117035,-1.0083328485488892,-3.0000030994415283,-0.2324637770652771,-0.22661161422729492,-0.2155650109052658,-0.1905500292778015,-0.5301913619041443,-0.3938513398170471,-0.2945653796195984,-0.13228332996368408
0.5,-0.012304711155593395,0.055814776569604874,0.0,0.707119882106781,0.0,0.0,-0.7070937156677246,-0.07228267192840576,-0.1918436884880066,0.0,0.0,0.0,-3.3373661041259766,0.19607603549957275,0.8519819378852844,0.46311041712760925,0.6663562655448914,0.03261629119515419,-0.12040548771619797,-0.7351243495941162,4.208955764770508,-2.013108730316162,0.0006835740059614182,-3.0017764568328857,-2.2288711071014404,14.733845710754395,0.1927497684955597,0.8640433549880981,0.46620815992355347,4.634362697601318,-1.5258677005767822,-0.003938611596822739,0.41299450397491455,0.726421058177948,0.42000001668930054,-0.32358139753341675,0.3635137677192688,-1.0583547353744507,-3.000000238418579,-0.23935754597187042,-0.2315058559179306,-0.21895931661128998,-0.19198305904865265,-0.3416216969490051,-0.21049001812934875,-0.10928050428628922,-0.01403809618204832
0.5166666666666666,-0.01110491156578064,0.04963565245270729,0.0,0.7053333520889282,0.0,0.0,-0.7088757753372192,0.12302061170339584,-0.35950079560279846,0.0,0.0,0.0,0.6900460124015808,0.26314619183540344,0.8224858641624451,0.45828336477279663,0.5937714576721191,-0.011317918077111244,-0.1198078989982605,-0.7955836057662964,3.398864269256592,-1.9639880657196045,-0.5078606009483337,-8.583266258239746,4.501847743988037,-0.35139915347099304,0.260528564453125,0.8352895975112915,0.4627267122268677,3.6147515773773193,-2.039748191833496,-0.3477656841278076,0.41299450397491455,0.726421058177948,0.42000001668930054,-0.3134324848651886,0.7820408344268799,-1.1083768606185913,-2.999999523162842,-0.23999279737472534,-0.23323650658130646,-0.2190687507390976,-0.1911979466676712,-0.008377375081181526,-0.1046820655465126,-0.0017918426310643554,0.025060461834073067
0.5333333333333333,-0.007468175143003464,0.04671366885304451,0.0,0.6948633790016174,0.0,0.0,-0.7191417813301086,0.2599177658557892,-0.12378215789794922,0.0,0.0,0.0,-2.604167938232422,0.3164760172367096,0.7918441295623779,0.4461842477321625,0.5382645726203918,-0.0444948673248291,-0.10496534407138824,-0.835029125213623,2.7979609966278076,-1.8125383853912354,-0.7541572451591492,-0.6319572329521179,8.295114517211914,-7.186466693878174,0.3145541250705719,0.8044543862342834,0.4509214162826538,2.9331626892089844,-1.8276774883270264,-0.9602043628692627,0.41299450397491455,0.726421058177948,0.42000001668930054,-0.296577125787735,1.1513824462890625,-1.158398985862732,-2.9997668266296387,-0.23780998587608337,-0.23336631059646606,-0.21857663989067078,-0.19154787063598633,0.2589758336544037,0.1329333633184433,0.11383946239948273,-0.00436891196295619
0.55,-0.0013019993202760816,0.04370000958442688,0.0,0.6966119408607483,0.0,0.0,-0.7174481153488159,0.4148610234260559,-0.18940843641757965,0.0,0.0,0.0,1.1783877611160278,0.35735341906547546,0.7628684639930725,0.4294714033603668,0.4967598617076874,-0.08246571570634842,-0.08468015491962433,-0.8598012924194336,1.8487131595611572,-2.2597568035125732,-0.8733107447624207,-8.73845386505127,-2.1697604656219482,7.015249729156494,0.3564986288547516,0.7744983434677124,0.43424516916275024,2.1061816215515137,-1.724979281425476,-1.0545045137405396,0.41299450397491455,0.726421058177948,0.42000001668930054,-0.2800288498401642,0.6613773107528687,-1.2084211111068726,-2.9999775886535645,-0.23118551075458527,-0.2289333939552307,-0.21521179378032684,-0.19106082618236542,0.4667271375656128,0.3372238874435425,0.2394697368144989,0.02512742578983307
0.5666666666666667,0.00675696786493063,0.04345273971557617,0.0,0.6881293654441833,0.0,0.0,-0.7255880236625671,0.5222011208534241,0.04514562711119652,0.0,0.0,0.0,-2.3009355068206787,0.3845110237598419,0.7479533553123474,0.42173969745635986,0.46910977363586426,-0.03972196951508522,-0.020486513152718544,-0.8820081353187561,1.1714162826538086,-0.4861465394496918,-0.059774961322546005,2.583672523498535,-1.9116909503936768,2.853431463241577,0.38165390491485596,0.7571170330047607,0.42514508962631226,1.0992870330810547,-0.6346220970153809,-0.2418251484632492,0.41299450397491455,0.726421058177948,0.42000001668930054,-0.27110815048217773,0.8646167516708374,-1.1880176067352295,2.999077796936035,-0.22084087133407593,-0.22164197266101837,-0.2107008844614029,-0.19106686115264893,0.7027668952941895,0.5081874132156372,0.30818361043930054,0.007011317647993565
0.5833333333333334,0.012251942418515682,0.0408061221241951,0.0,0.6909146308898926,0.0,0.0,-0.7229363322257996,0.2541075646877289,-0.2257908135652542,0.0,0.0,0.0,1.258535623550415,0.399079293012619,0.741378903388977,0.4200158417224884,0.5042651295661926,0.00012483903265092522,-0.0001591435429872945,-0.8635488748550415,0.6060085892677307,-0.3973715603351593,-0.004133574198931456,0.04062652960419655,0.20038147270679474,2.524254083633423,0.39351266622543335,0.7443145513534546,0.4232635498046875,0.3985949456691742,-0.6964598894119263,0.1154177188873291,0.41299450397491455,0.726421058177948,0.42000001668930054,-0.27247288823127747,-0.8604865074157715,-1.2097601890563965,-2.9998342990875244,-0.21124586462974548,-0.2140532284975052,-0.20565609633922577,-0.1903526484966278,0.5120139718055725,0.4333583116531372,0.3023245632648468,0.06339472532272339
0.6,0.018439404666423798,0.04161204770207405,0.0,0.6825870871543884,0.0,0.0,-0.7308042645454407,0.4049643576145172,0.049175847321748734,0.0,0.0,0.0,-2.184821844100952,0.40386712551116943,0.7365524768829346,0.4200004041194916,0.5343988537788391,9.538990525470581e-06,-1.0556950655882247e-05,-0.845232367515564,0.14682668447494507,-0.17844705283641815,-0.0006852763472124934,0.020058682188391685,0.028629885986447334,4.3916401863098145,0.39900824427604675,0.7390491962432861,0.42522963881492615,0.34101712703704834,-0.0938141793012619,0.1376046985387802,0.41299450397491455,0.726421058177948,0.42000001668930054,-0.27390557527542114,0.5596787929534912,-1.2597098350524902,-2.9981191158294678,-0.2034984529018402,-0.20766524970531464,-0.20164793729782104,-0.19035403430461884,0.6453011631965637,0.5262717008590698,0.3412688374519348,0.07142224162817001
0.6166666666666667,0.026720626279711723,0.038377292454242706,0.0,0.6864056587219238,0.0,0.0,-0.7272188663482666,0.5233660936355591,-0.20815375447273254,0.0,0.0,0.0,1.4882361888885498,0.40571165084838867,0.7343422770500183,0.4199995696544647,0.5552752614021301,5.602355486189481e-06,-3.7786430766573176e-05,-0.8316666483879089,0.09803495556116104,-0.11623583734035492,-0.000398926786147058,0.030436167493462563,0.01033027470111847,2.482234239578247,0.4007915258407593,0.7354774475097656,0.42450183629989624,-0.10159087926149368,-0.2566490173339844,-0.05291087180376053,0.41299450397491455,0.726421058177948,0.42000001668930054,-0.3045455813407898,-2.9999990463256836,-1.2228434085845947,2.999826192855835,-0.19252897799015045,-0.19815629720687866,-0.19489631056785583,-0.18773791193962097,0.5119705200195312,0.47382548451423645,0.3479776978492737,0.14062662422657013
0.6333333333333333,0.03691990301012993,0.03878047317266464,0.0,0.6791645288467407,0.0,0.0,-0.7339860796928406,0.6398124694824219,0.04904710501432419,0.0,0.0,0.0,-2.086869478225708,0.40670984983444214,0.7331819534301758,0.4200000464916229,0.5639091730117798,-2.679877582068002e-07,-2.463609405367606e-07,-0.825836718082428,0.04704846069216728,-0.054019808769226074,-7.008202373981476e-07,6.0846414271509275e-05,-7.247854796332831e-07,0.8940648436546326,0.40124449133872986,0.7362280488014221,0.4264085590839386,0.12201687693595886,0.17812925577163696,0.20266848802566528,0.41299450397491455,0.726421058177948,0.42000001668930054,-0.3545655310153961,-2.999990701675415,-1.2433701753616333,-2.99916410446167,-0.1843106597661972,-0.1907949149608612,-0.18979425728321075,-0.18601778149604797,0.6097787022590637,0.5328298807144165,0.3743211627006531,0.16046853363513947
0.65,0.049279097467660904,0.03753512352705002,0.0,0.6839093565940857,0.0,0.0,-0.7295669913291931,0.7767236828804016,-0.06302014738321304,0.0,0.0,0.0,1.6702560186386108,0.40688687562942505,0.7329815030097961,0.4200000464916229,0.5649989247322083,2.267295258207014e-06,3.5776679396803956e-06,-0.8250916004180908,-0.00019320924184285104,0.0003242032544221729,-0.00011563650332391262,-0.002538324799388647,-0.008120868355035782,-0.0025425872299820185,0.40129876136779785,0.7385694980621338,0.42964857816696167,-0.11172185093164444,0.0701373815536499,0.19882407784461975,0.41299450397491455,0.726421058177948,0.42000001668930054,-0.40457502007484436,-3.0,-1.2933764457702637,-3.000000476837158,-0.17388135194778442,-0.1814039796590805,-0.1828254908323288,-0.18230871856212616,0.44413429498672485,0.4318878650665283,0.3330358862876892,0.18442673981189728
0.6666666666666666,0.05874776467680931,0.03843719884753227,0.0,0.6778668165206909,0.0,0.0,-0.7351847290992737,0.4931977093219757,0.13210278749465942,0.0,0.0,0.0,-2.0082619190216064,0.4068867266178131,0.7329820990562439,0.4200000464916229,0.5649988055229187,2.0439492232071643e-07,-3.1848455819272203e-06,-0.8250917196273804,7.929209823487327e-05,-0.0002654276613611728,-8.380436338484287e-05,0.00660354271531105,-0.001710632350295782,-0.0007216007797978818,0.4014405608177185,0.7403631210327148,0.43380141258239746,0.016439616680145264,0.09989285469055176,0.29245293140411377,0.41299450397491455,0.726421058177948,0.42000001668930054,-0.4545559883117676,-2.998126745223999,-1.3433500528335571,-2.999854326248169,-0.16584663093090057,-0.1736832857131958,-0.17665618658065796,-0.17825734615325928,0.482570618391037,0.47639286518096924,0.4030536413192749,0.30499038100242615
0.6833333333333333,0.06814831495285034,0.03709878772497177,0.0,0.6822616457939148,0.0,0.0,-0.7311080694198608,0.5922799706459045,-0.14044810831546783,0.0,0.0,0.0,1.7375633716583252,0.4068867564201355,0.7329820990562439,0.4200000464916229,0.5649982690811157,2.527314961753291e-07,-3.025078740392928e-06,-0.825092077255249,7.707318582106382e-05,-0.00025980130885727704,-8.408795110881329e-05,0.006445302627980709,-0.001745670335367322,-0.0007104959222488105,0.40158891677856445,0.7418469786643982,0.44594889879226685,0.022729801014065742,0.11520375311374664,1.1933692693710327,0.41299450397491455,0.726421058177948,0.42000001668930054,-0.5045686960220337,-2.999999761581421,-1.3933682441711426,-3.0,-0.16021156311035156,-0.16743268072605133,-0.1708173304796219,-0.1731492578983307,0.21511486172676086,0.2828472852706909,0.29428577423095703,0.2917180061340332
0.7,0.07919815927743912,0.032882753759622574,0.0,0.6761293411254883,0.0,0.0,-0.7367829084396362,0.6883944869041443,-0.3445179760456085,0.0,0.0,0.0,-1.9387255907058716,0.4068867564201355,0.7329820990562439,0.4200000464916229,0.56499844789505,2.251369153327687e-07,-3.039831881324062e-06,-0.8250919580459595,6.982177001191303e-05,-0.00026236282428726554,-8.258363232016563e-05,0.006550439167767763,-0.0018437966937199235,-0.0006990198162384331,0.4086344838142395,0.7435342073440552,0.4626445174217224,0.7603418827056885,0.0444829985499382,0.9895886778831482,0.41299450397491455,0.726421058177948,0.42000001668930054,-0.5545812845230103,-3.000000476837158,-1.4433865547180176,-2.9999992847442627,-0.15791402757167816,-0.16364184021949768,-0.16631682217121124,-0.16803978383541107,0.12618397176265717,0.23037710785865784,0.29515814781188965,0.36008086800575256
0.7166666666666667,0.09318313002586365,0.03249390795826912,0.0,0.6479389667510986,0.0,0.0,-0.7616922855377197,0.8213571906089783,0.011944062076508999,0.0,0.0,0.0,-5.357200622558594,0.4068867564201355,0.7329820990562439,0.4200000464916229,0.5649985074996948,2.478728902133298e-07,-2.9016073312959634e-06,-0.8250918388366699,7.752511010039598e-05,-0.00025926425587385893,-8.421344682574272e-05,0.006428832653909922,-0.0017384858801960945,-0.0007108587305992842,0.4246217608451843,0.7433253526687622,0.48647934198379517,1.2417752742767334,0.03107614256441593,1.9478135108947754,0.41299450397491455,0.726421058177948,0.42000001668930054,-0.6045928597450256,-2.999983310699463,-1.4934048652648926,-3.0,-0.16164036095142365,-0.16482976078987122,-0.16557250916957855,-0.1653657853603363,-0.18004688620567322,-0.04747299477458,0.05629131197929382,0.16576559841632843
0.7333333333333333,0.10441863536834717,0.034185826778411865,0.0,0.6338953375816345,0.0,0.0,-0.7734188437461853,0.5756763219833374,0.11382803320884705,0.0,0.0,0.0,-1.1474010944366455,0.4068867564201355,0.7329820394515991,0.4200000464916229,0.5649986267089844,1.4960980365685828e-07,-2.6663676635507727e-06,-0.8250918388366699,7.622381235705689e-05,-0.0002580101718194783,-8.394545875489712e-05,0.0064042555168271065,-0.0017475339118391275,-0.000705856888089329,0.44668352603912354,0.7462723255157471,0.5216092467308044,1.3665639162063599,0.3404807150363922,2.2658400535583496,0.41299450397491455,0.726421058177948,0.42000001668930054,-0.6233708262443542,0.46000799536705017,-1.5434231758117676,-3.0,-0.1635797917842865,-0.1653074026107788,-0.16506034135818481,-0.1637943685054779,-0.010083225555717945,0.028064021840691566,0.03846581280231476,0.05193224176764488
0.75,0.11042200773954391,0.03418514505028725,0.0,0.6442387104034424,0.0,0.0,-0.7648244500160217,0.33197376132011414,0.08146901428699493,0.0,0.0,0.0,2.393813371658325,0.4068867564201355,0.7329820990562439,0.4200000464916229,0.5649985074996948,2.744199321114138e-07,-2.792944997054292e-06,-0.8250918388366699,7.518134225392714e-05,-0.0002592061064206064,-8.378247730433941e-05,0.006439425516873598,-0.001767724403180182,-0.0007054152665659785,0.46494346857070923,0.7515325546264648,0.5536795854568481,0.7554279565811157,0.19760650396347046,1.6444766521453857,0.41299450397491455,0.726421058177948,0.42000001668930054,-0.5933750867843628,2.902700185775757,-1.5045689344406128,2.99999737739563,-0.16107948124408722,-0.16233883798122406,-0.1620643585920334,-0.16074928641319275,-0.02606778033077717,0.048687223345041275,0.0934298187494278,0.1318141371011734
0.7666666666666666,0.11326104402542114,0.03129977360367775,0.0,0.6416740417480469,0.0,0.0,-0.7669774293899536,0.12111994624137878,-0.2670052647590637,0.0,0.0,0.0,-1.2955565452575684,0.4068867564201355,0.7329820990562439,0.4200000464916229,0.56499844789505,2.8393645834512427e-07,-2.8958982056792593e-06,-0.8250918984413147,7.401900074910372e-05,-0.00025928847026079893,-8.346885442733765e-05,0.006449160631746054,-0.0017792790895327926,-0.0007027350948192179,0.4702303111553192,0.754655659198761,0.5744442939758301,-0.11515676975250244,0.16320796310901642,1.023945689201355,0.41299450397491455,0.726421058177948,0.42000001668930054,-0.5617895722389221,1.0229129791259766,-1.4545124769210815,3.000000476837158,-0.1608773022890091,-0.16095896065235138,-0.15998327732086182,-0.15810270607471466,0.047075189650058746,0.11559121310710907,0.1559360921382904,0.1857508420944214
0.7833333333333333,0.11271210014820099,0.03342888876795769,0.0,0.6507248282432556,0.0,0.0,-0.7593136429786682,-0.09033599495887756,0.2676127552986145,0.0,0.0,0.0,2.3127527236938477,0.4068867564201355,0.7329820990562439,0.4200000464916229,0.5649985671043396,2.513699541850656e-07,-2.990418124682037e-06,-0.8250918388366699,7.670211198274046e-05,-0.00025966568500734866,-8.403509855270386e-05,0.006443795748054981,-0.001749867806211114,-0.000709457031916827,0.46640121936798096,0.7548891305923462,0.5889225602149963,-0.28831812739372253,0.0024517010897397995,0.7576544284820557,0.41299450397491455,0.726421058177948,0.42000001668930054,-0.526264488697052,3.0,-1.4715888500213623,-3.0,-0.16542686522006989,-0.16338640451431274,-0.160805344581604,-0.15761351585388184,-0.31121236085891724,-0.18700838088989258,-0.09162366390228271,-0.014319883659482002
0.8,0.11340516805648804,0.032384175807237625,0.0,0.6460767984390259,0.0,0.0,-0.7632724046707153,0.0589720755815506,-0.12863968312740326,0.0,0.0,0.0,-1.7682756185531616,0.4068867564201355,0.7329820990562439,0.4200000464916229,0.5649986863136292,2.558884375503112e-07,-2.8659094368777005e-06,-0.8250917792320251,7.638531678821892e-05,-0.00025862196343950927,-8.394545875489712e-05,0.006418887060135603,-0.001747972215525806,-0.0007071767468005419,0.45600515604019165,0.7572696208953857,0.5941408276557922,-0.9994546175003052,0.16614457964897156,0.07017819583415985,0.41299450397491455,0.726421058177948,0.42000001668930054,-0.5073645114898682,-0.4497673213481903,-1.4329416751861572,3.0,-0.16623647511005402,-0.16329045593738556,-0.16011761128902435,-0.156495600938797,-0.015347697772085667,0.02727021835744381,0.05417516082525253,0.07243027538061142
0.8166666666666667,0.11600391566753387,0.033077750355005264,0.0,0.6517692804336548,0.0,0.0,-0.7584173083305359,0.20221267640590668,0.0986332893371582,0.0,0.0,0.0,1.6824156045913696,0.4068867266178131,0.7329820990562439,0.4200000464916229,0.5649983286857605,8.551126029487932e-08,-2.926365141320275e-06,-0.8250920176506042,7.29911116650328e-05,-0.0002591232187114656,-8.327001705765724e-05,0.006450388580560684,-0.0017910936148837209,-0.00070032081566751,0.4459896981716156,0.7599712610244751,0.5952897071838379,-0.25480613112449646,0.2100565880537033,0.11714889109134674,0.41299450397491455,0.726421058177948,0.42000001668930054,-0.4941714406013489,1.8238264322280884,-1.4463527202606201,-3.000000238418579,-0.1663529872894287,-0.16302227973937988,-0.15957365930080414,-0.15569555759429932,0.03882325068116188,0.042000096291303635,0.045195166021585464,0.05241930112242699
0.8333333333333334,0.11654174327850342,0.03067813254892826,0.0,0.6459758877754211,0.0,0.0,-0.7633577585220337,-0.030823014676570892,-0.1786101758480072,0.0,0.0,0.0,-1.7135154008865356,0.4068867564201355,0.7329820990562439,0.4200000464916229,0.5649986267089844,9.920997001700016e-08,-3.019847781615681e-06,-0.8250918388366699,7.48464954085648e-05,-0.0002583731838967651,-8.358387276530266e-05,0.006421623285859823,-0.0017635280964896083,-0.0007030098931863904,0.4423435926437378,0.7622019052505493,0.5937790870666504,-0.22589807212352753,-0.010489771142601967,-0.14623911678791046,0.41299450397491455,0.726421058177948,0.42000001668930054,-0.5094694495201111,-3.0000009536743164,-1.4077755212783813,3.0,-0.16456462442874908,-0.16134272515773773,-0.15794974565505981,-0.1540345698595047,0.016885166987776756,0.03218701481819153,0.05058727040886879,0.07244380563497543
0.85,0.11838977038860321,0.032178059220314026,0.0,0.6516757011413574,0.0,0.0,-0.7584977149963379,0.1467323899269104,0.11058413237333298,0.0,0.0,0.0,1.6850382089614868,0.4068867564201355,0.7329820990562439,0.4200000464916229,0.5649985671043396,1.0189922505787763e-07,-2.9352677302085795e-06,-0.8250918984413147,7.4792631494347e-05,-0.00025852059479802847,-8.362042717635632e-05,0.006425191648304462,-0.0017662333557382226,-0.0007032825378701091,0.44178637862205505,0.7602603435516357,0.5911661982536316,0.20925143361091614,-0.10000833123922348,-0.1277608871459961,0.41299450397491455,0.726421058177948,0.42000001668930054,-0.5317376852035522,0.08043602854013443,-1.4257525205612183,-2.9999992847442627,-0.16677458584308624,-0.16282331943511963,-0.15860213339328766,-0.15382425487041473,-0.025420699268579483,-0.006063069216907024,0.025595445185899734,0.06339038908481598
0.8666666666666667,0.12223859131336212,0.02967429906129837,0.0,0.6454740166664124,0.0,0.0,-0.763782262802124,0.27312135696411133,-0.16888868808746338,0.0,0.0,0.0,-1.7960352897644043,0.4068867266178131,0.7329820990562439,0.4200000464916229,0.5649986863136292,1.264055242700124e-07,-2.850003511412069e-06,-0.8250918388366699,7.392852421617135e-05,-0.00025821817689575255,-8.345744572579861e-05,0.006422215607017279,-0.0017753872089087963,-0.0007009554537944496,0.4473581314086914,0.7585633993148804,0.5864940881729126,0.3998783826828003,-0.24163313210010529,-0.2813713550567627,0.41299450397491455,0.726421058177948,0.42000001668930054,-0.55894935131073,-3.0000007152557373,-1.3872357606887817,2.999999761581421,-0.1649053990840912,-0.16106964647769928,-0.15670490264892578,-0.15162181854248047,-0.009653789922595024,0.012694873847067356,0.04840508848428726,0.09094275534152985
0.8833333333333333,0.12852980196475983,0.03077002801001072,0.0,0.6496773362159729,0.0,0.0,-0.7602100372314453,0.40114158391952515,0.09021877497434616,0.0,0.0,0.0,1.8738526105880737,0.4068867564201355,0.7329820990562439,0.4200000464916229,0.5649982690811157,2.8231960413904744e-07,-2.884534296754282e-06,-0.8250919580459595,7.481287320842966e-05,-0.00025926221860572696,-8.362368680536747e-05,0.0064441971480846405,-0.0017695891438052058,-0.0007044364465400577,0.456315815448761,0.7542675733566284,0.5844558477401733,0.6864681243896484,-0.20589834451675415,0.07385411858558655,0.41299450397491455,0.726421058177948,0.42000001668930054,-0.5793986320495605,0.27923423051834106,-1.4056097269058228,-3.0000007152557373,-0.16637207567691803,-0.16213352978229523,-0.15712249279022217,-0.1512666642665863,-4.071625880897045e-08,3.1868694350123405e-09,0.01619039662182331,0.04340282082557678
0.9,0.13192233443260193,0.027681615203619003,0.0,0.645302414894104,0.0,0.0,-0.7639272212982178,0.1393708735704422,-0.22429437935352325,0.0,0.0,0.0,-1.5639722347259521,0.4068867564201355,0.7329820990562439,0.4200000464916229,0.5649985074996948,2.4526494257770537e-07,-3.0488777156278957e-06,-0.8250918984413147,6.90251326886937e-05,-0.000262481567915529,-8.239597082138062e-05,0.006557871121913195,-0.001853277673944831,-0.0006974274292588234,0.46854496002197266,0.750381350517273,0.5827656984329224,0.7134042382240295,-0.3345961570739746,-0.14103373885154724,0.41299450397491455,0.726421058177948,0.42000001668930054,-0.5955286622047424,-2.0048959255218506,-1.367150902748108,3.000000238418579,-0.16445019841194153,-0.16049940884113312,-0.15551914274692535,-0.14951463043689728,0.025349438190460205,0.0290847010910511,0.044245246797800064,0.06598813086748123
