vladlanda/robotic-transformer/data/env_000_episode_0258.csv
sim_time_s,robot_box_x,robot_box_y,robot_box_z,robot_box_quat_w,robot_box_quat_x,robot_box_quat_y,robot_box_quat_z,robot_box_linvel_x,robot_box_linvel_y,robot_box_linvel_z,robot_box_angvel_x,robot_box_angvel_y,robot_box_angvel_z,cube_world_x,cube_world_y,cube_world_z,cube_quat_w,cube_quat_x,cube_quat_y,cube_quat_z,cube_linvel_x,cube_linvel_y,cube_linvel_z,cube_angvel_x,cube_angvel_y,cube_angvel_z,endpoint_world_x,endpoint_world_y,endpoint_world_z,endpoint_linvel_x,endpoint_linvel_y,endpoint_linvel_z,target_cube_world_x,target_cube_world_y,target_cube_world_z,gripper_actual_pos_rad_gp_leftgearjoint,gripper_actual_vel_rad_s_gp_leftgearjoint,gripper_actual_pos_rad_gp_rotatingjoint,gripper_actual_vel_rad_s_gp_rotatingjoint,motor_angle_rad_joint1,motor_angle_rad_joint2,motor_angle_rad_joint3,motor_angle_rad_joint4,motor_speed_rad_s_joint1,motor_speed_rad_s_joint2,motor_speed_rad_s_joint3,motor_speed_rad_s_joint4
0.0,0.0,0.0,0.0,1.0,0.0,0.0,0.0,0.0,0.0,0.0,0.0,0.0,0.0,-0.46440041065216064,0.7748947739601135,0.41999998688697815,1.0,0.0,0.0,0.0,0.0,0.0,0.0,0.0,0.0,0.0,3.42540442943573e-06,-0.005000244826078415,1.313499927520752,0.0,0.0,0.0,0.376676082611084,0.6376775503158569,0.42000001668930054,-1.5707999467849731,0.0,0.0,0.0,0.0,0.0,0.0,0.0,0.0,0.0,0.0,0.0
0.016666666666666666,0.0028778850100934505,0.0021806680597364902,0.0,0.9998081922531128,0.0,0.0,0.019586581736803055,0.24087215960025787,0.18240931630134583,0.0,0.0,0.0,3.1418697834014893,-0.4644005298614502,0.7748944759368896,0.41999998688697815,1.0,3.2799832752061775e-06,-8.339598593920527e-07,8.465660528145236e-08,-1.9833856640616432e-05,0.00017983021098189056,-6.132945418357849e-05,0.0009432561928406358,-0.004689492750912905,-0.0003198107879143208,-0.007110234349966049,0.003379564033821225,1.3159373998641968,-0.8143353462219238,0.9868683815002441,0.18095196783542633,0.376676082611084,0.6376775503158569,0.42000001668930054,-1.5301095247268677,3.0000011920928955,-0.04584788903594017,-2.9999992847442627,0.0008691533003002405,0.0007963840034790337,0.0007110277656465769,0.0006108740926720202,0.11094217747449875,0.09756709635257721,0.08334315568208694,0.06823883205652237
0.03333333333333333,0.008960986509919167,0.00680196238681674,0.0,0.9997960329055786,0.0,0.0,0.020196842029690742,0.4070218503475189,0.3153083324432373,0.0,0.0,0.0,-0.8691312670707703,-0.46440064907073975,0.7748944163322449,0.4200000464916229,1.0,3.3908784189407015e-06,-2.132447662006598e-06,-3.7113029094371086e-08,0.0002635781711433083,0.0002693779533728957,-0.00010509602725505829,-0.001770740025676787,0.004130825400352478,-0.00013548026618082076,-0.027551552280783653,0.026147224009037018,1.3166041374206543,-1.5914556980133057,1.6158056259155273,-0.0840027928352356,0.376676082611084,0.6376775503158569,0.42000001668930054,-1.4800903797149658,3.000002145767212,-0.09588771313428879,-3.0000007152557373,0.0029901238158345222,0.0026527398731559515,0.002277315827086568,0.0018607757519930601,0.1642182618379593,0.13976238667964935,0.113821841776371,0.08630428463220596
0.05,0.017743267118930817,0.013770459219813347,0.0,0.99937903881073,0.0,0.0,0.03523539379239082,0.5937097668647766,0.465023934841156,0.0,0.0,0.0,2.649404525756836,-0.46440067887306213,0.7748944759368896,0.4200000464916229,1.0,3.7651825550710782e-06,-2.211884293501498e-06,5.609665620909254e-09,0.0002653094124980271,0.0002669155364856124,-0.0001044049859046936,-0.001724360859952867,0.00417743343859911,-0.00012949237134307623,-0.05968015640974045,0.05392634868621826,1.3116459846496582,-2.1874799728393555,1.7510234117507935,-0.47324883937835693,0.376676082611084,0.6376775503158569,0.42000001668930054,-1.4300720691680908,2.9999983310699463,-0.1459263563156128,-3.000000238418579,0.005705768242478371,0.00491386279463768,0.0040498278103768826,0.0031092201825231314,0.19269303977489471,0.15579339861869812,0.11701888591051102,0.0762765184044838
0.06666666666666667,0.029057038947939873,0.023063361644744873,0.0,0.9994507431983948,0.0,0.0,0.03313952311873436,0.7202785015106201,0.5951797962188721,0.0,0.0,0.0,-1.2096693515777588,-0.46440067887306213,0.7748944163322449,0.4200000464916229,0.9999999403953552,3.4068248169205617e-06,-2.2856320356368087e-06,4.300777334265149e-07,0.00026702528703026474,0.00026791737764142454,-0.00010437797755002975,-0.0017406486440449953,0.004211665131151676,-0.00012849978520534933,-0.09601224213838577,0.08873265981674194,1.299915075302124,-2.2053630352020264,2.308591842651367,-0.908769965171814,0.376676082611084,0.6376775503158569,0.42000001668930054,-1.3800537586212158,3.0000009536743164,-0.19596368074417114,-2.999999523162842,0.008045808412134647,0.006477473769336939,0.004797887988388538,0.003001192584633827,0.12255793809890747,0.06251876801252365,-7.8580342233181e-10,-0.06382012367248535
0.08333333333333333,0.03443025425076485,0.03569873794913292,0.0,1.0,0.0,0.0,8.322388748638332e-05,0.1902151256799698,0.8244786858558655,0.0,0.0,0.0,-4.93300199508667,-0.46440067887306213,0.7748944163322449,0.4200000464916229,0.9999999403953552,3.626150828495156e-06,-2.3353632059297524e-06,3.0320998689603584e-07,0.00026613965746946633,0.00026685226475819945,-0.00010405294597148895,-0.0017284216592088342,0.004196350462734699,-0.0001279056741623208,-0.13042107224464417,0.1312737613916397,1.2811952829360962,-1.977514386177063,2.674290657043457,-1.250516653060913,0.376676082611084,0.6376775503158569,0.42000001668930054,-1.3300286531448364,2.9999985694885254,-0.17986896634101868,2.9999985694885254,0.004414432682096958,0.002131765242666006,-0.0003194964083377272,-0.0029318546876311302,-0.31848961114883423,-0.3673439621925354,-0.41908228397369385,-0.4731183350086212
0.1,0.036515504121780396,0.04874822869896889,0.0,0.9999135136604309,0.0,0.0,-0.013153879903256893,0.16788119077682495,0.8368595838546753,0.0,0.0,0.0,-0.4519885778427124,-0.46440067887306213,0.7748944163322449,0.4200000464916229,1.0,3.422215741011314e-06,-2.3086440705810674e-06,1.7961383491638117e-07,0.0002668150991667062,0.00026800442719832063,-0.00010440708138048649,-0.001743118860758841,0.004207138903439045,-0.0001289104257011786,-0.16575947403907776,0.17199435830116272,1.2630245685577393,-2.0752124786376953,2.553765296936035,-1.0214648246765137,0.376676082611084,0.6376775503158569,0.42000001668930054,-1.2800328731536865,3.000002145767212,-0.21143248677253723,-3.0,0.0015600104816257954,-0.0022088733967393637,-0.006144934333860874,-0.010231150314211845,-0.0075228530913591385,-0.13166655600070953,-0.2532159686088562,-0.3715830445289612
0.11666666666666667,0.045820776373147964,0.0657905712723732,0.0,0.9991744756698608,0.0,0.0,-0.04062483832240105,0.6968931555747986,1.0883218050003052,0.0,0.0,0.0,-4.245445728302002,-0.46440067887306213,0.7748944759368896,0.4200000464916229,1.0,3.711592853505863e-06,-2.332753865630366e-06,2.574192592419422e-07,0.0002648566442076117,0.0002663531631696969,-0.0001042329240590334,-0.0017181416042149067,0.004169980529695749,-0.00012915612023789436,-0.19603890180587769,0.22155919671058655,1.2445563077926636,-1.613464117050171,3.3214058876037598,-1.1987535953521729,0.376676082611084,0.6376775503158569,0.42000001668930054,-1.23000967502594,2.999990463256836,-0.17757868766784668,3.0,0.005176411010324955,-0.0012293270556256175,-0.007726726587861776,-0.014289764687418938,0.22428905963897705,0.06211693584918976,-0.09525474160909653,-0.24734362959861755
0.13333333333333333,0.05134110152721405,0.07932661473751068,0.0,0.9952167868614197,0.0,0.0,-0.09769100695848465,0.3394302725791931,0.794955313205719,0.0,0.0,0.0,-7.496701240539551,-0.46440067887306213,0.7748944163322449,0.4200000464916229,1.0,3.3358085147483507e-06,-2.2319140953186434e-06,3.1129312105804274e-07,0.0002666973159648478,0.00026759272441267967,-0.00010428577661514282,-0.001737017184495926,0.004205896519124508,-0.00012840180716011673,-0.22269737720489502,0.2771531939506531,1.2239570617675781,-1.567885398864746,3.473421096801758,-1.2573747634887695,0.376676082611084,0.6376775503158569,0.42000001668930054,-1.1962535381317139,1.1779909133911133,-0.2092161327600479,-3.0,0.0025073904544115067,-0.005869755987077951,-0.014288638718426228,-0.022720569744706154,-0.1329185962677002,-0.2542703151702881,-0.371568888425827,-0.48457738757133484
0.15,0.05409567803144455,0.09408257156610489,0.0,0.9912790656089783,0.0,0.0,-0.13177932798862457,0.09079455584287643,0.9205594658851624,0.0,0.0,0.0,-3.0240797996520996,-0.46440067887306213,0.7748944163322449,0.4200000464916229,1.0,3.5190378184779547e-06,-2.283064759467379e-06,-3.625691817887855e-07,0.00026618439005687833,0.0002673580020200461,-0.00010425783693790436,-0.001735009253025055,0.004195804707705975,-0.00012860787683166564,-0.25903230905532837,0.3323696255683899,1.1975290775299072,-2.3287112712860107,3.517761707305908,-1.9048247337341309,0.376676082611084,0.6376775503158569,0.42000001668930054,-1.1541205644607544,2.9999923706054688,-0.17534594237804413,3.0000011920928955,-0.0011458571534603834,-0.0111086405813694,-0.021037103608250618,-0.030900780111551285,-0.2911977469921112,-0.3600046634674072,-0.42449042201042175,-0.4847326874732971
0.16666666666666666,0.05291039124131203,0.110838882625103,0.0,0.9841605424880981,0.0,0.0,-0.17727935314178467,-0.13797055184841156,1.0466028451919556,0.0,0.0,0.0,-6.388907432556152,-0.46440067887306213,0.7748944163322449,0.4200000464916229,1.0,3.6667033782578073e-06,-2.339081675017951e-06,-3.150136080876109e-07,0.00026595877716317773,0.0002666739164851606,-0.00010403385385870934,-0.001725254813209176,0.00419270945712924,-0.00012778321979567409,-0.2945186495780945,0.39372682571411133,1.1665582656860352,-1.8073939085006714,3.9647328853607178,-1.8661032915115356,0.376676082611084,0.6376775503158569,0.42000001668930054,-1.106374740600586,2.7131998538970947,-0.20697791874408722,-3.000000476837158,-0.007884194143116474,-0.019109610468149185,-0.030219677835702896,-0.04118415713310242,-0.5041103959083557,-0.5760935544967651,-0.643497884273529,-0.7063518762588501
0.18333333333333332,0.0494208037853241,0.12707270681858063,0.0,0.9789189100265503,0.0,0.0,-0.20424924790859222,-0.3077846169471741,0.9297657012939453,0.0,0.0,0.0,-2.2484235763549805,-0.46440067887306213,0.7748944163322449,0.4200000464916229,1.0,3.8144380596349947e-06,-2.3994705315999454e-06,-2.702848291846749e-07,0.00026549192261882126,0.000266112299868837,-0.00010391208343207836,-0.001717865583486855,0.004184891004115343,-0.000127535909996368,-0.3299633264541626,0.45678848028182983,1.126657485961914,-2.0509769916534424,3.9425158500671387,-2.8823723793029785,0.376676082611084,0.6376775503158569,0.42000001668930054,-1.0812684297561646,0.47437193989753723,-0.2570062279701233,-2.999999523162842,-0.01714547723531723,-0.028983622789382935,-0.040636301040649414,-0.05208029970526695,-0.6335929036140442,-0.6387132406234741,-0.6404609084129333,-0.6394956707954407
0.2,0.04960397630929947,0.1439056396484375,0.0,0.9696128368377686,0.0,0.0,-0.24464456737041473,-0.04092862457036972,1.041763424873352,0.0,0.0,0.0,-5.8017072677612305,-0.46440067887306213,0.7748944163322449,0.4200000464916229,1.0,3.6001295029564062e-06,-2.291185865033185e-06,-2.2020017809154524e-07,0.0002657297591213137,0.0002664490893948823,-0.00010398216545581818,-0.0017226807540282607,0.004188799764961004,-0.00012773256457876414,-0.36448174715042114,0.526038408279419,1.072859764099121,-1.9386579990386963,4.28134822845459,-3.6468615531921387,0.376676082611084,0.6376775503158569,0.42000001668930054,-1.0414302349090576,2.9999985694885254,-0.3070324659347534,-2.999999523162842,-0.02611084282398224,-0.0379796028137207,-0.049607038497924805,-0.06098216772079468,-0.7987176775932312,-0.748382031917572,-0.6978207230567932,-0.6480557918548584
0.21666666666666667,0.04584742337465286,0.1578340381383896,0.0,0.9636836051940918,0.0,0.0,-0.2670466899871826,-0.246024489402771,0.7750100493431091,0.0,0.0,0.0,-1.6847474575042725,-0.46440067887306213,0.7748944163322449,0.4200000464916229,0.9999999403953552,3.639737315097591e-06,-2.261905365230632e-06,2.224729200861475e-07,0.00026687447098083794,0.00026754679856821895,-0.00010411837138235569,-0.0017404091777279973,0.004210993647575378,-0.00012784003047272563,-0.39823657274246216,0.591854453086853,1.0040749311447144,-1.7738864421844482,3.9297561645507812,-4.526256561279297,0.376676082611084,0.6376775503158569,0.42000001668930054,-0.991430401802063,2.99999737739563,-0.3570582866668701,-2.9999992847442627,-0.041364531964063644,-0.052479084581136703,-0.06257801502943039,-0.07248377799987793,-0.9377830028533936,-0.9171608686447144,-0.8103278279304504,-0.7077347636222839
0.23333333333333334,0.04364416375756264,0.17306333780288696,0.0,0.9533839821815491,0.0,0.0,-0.3017598092556,-0.06165783107280731,0.9310503602027893,0.0,0.0,0.0,-5.135714530944824,-0.46440064907073975,0.7748944163322449,0.4200000464916229,1.0,3.42076441484096e-06,-2.3167292511061532e-06,2.956030868972448e-07,0.0002668006345629692,0.00026803917717188597,-0.00010442500934004784,-0.0017438046634197235,0.00420692004263401,-0.0001289931678911671,-0.4260076880455017,0.6549732685089111,0.9223235249519348,-1.4566291570663452,3.6351895332336426,-5.182486534118652,0.376676082611084,0.6376775503158569,0.42000001668930054,-0.9414253234863281,2.9999921321868896,-0.4070866107940674,-3.0000009536743164,-0.057271551340818405,-0.0683361291885376,-0.07813452184200287,-0.08705714344978333,-0.9745964407920837,-0.9597426056861877,-0.9498006105422974,-0.9447826147079468
0.25,0.040315717458724976,0.185276597738266,0.0,0.9482377171516418,0.0,0.0,-0.3175613582134247,-0.2505560517311096,0.6563107371330261,0.0,0.0,0.0,-0.9823062419891357,-0.46440067887306213,0.7748944163322449,0.4200000464916229,0.9999999403953552,3.347640813444741e-06,-2.259107077406952e-06,1.8085022190916789e-07,0.00026687653735280037,0.0002679111494217068,-0.00010439427569508553,-0.0017405003309249878,0.004208215046674013,-0.00012870266800746322,-0.4505341053009033,0.7058957815170288,0.8299374580383301,-1.2220830917358398,2.6949965953826904,-5.848608016967773,0.376676082611084,0.6376775503158569,0.42000001668930054,-0.8914165496826172,3.0000011920928955,-0.45711684226989746,-2.9999966621398926,-0.07377894967794418,-0.08476866781711578,-0.09444185346364975,-0.10326381027698517,-0.9893386960029602,-0.9901076555252075,-0.9740602970123291,-0.960030734539032
0.26666666666666666,0.03268009051680565,0.19345182180404663,0.0,0.9393790364265442,0.0,0.0,-0.3428804874420166,-0.6294151544570923,0.3348911702632904,0.0,0.0,0.0,-3.5646779537200928,-0.46440067887306213,0.7748944163322449,0.4200000464916229,0.9999999403953552,3.5357268188818125e-06,-2.3001737190497806e-06,-1.2685268302448094e-07,0.00026601794525049627,0.00026712287217378616,-0.0001041970681399107,-0.0017317483434453607,0.004192880354821682,-0.00012849216000176966,-0.4674997329711914,0.745079517364502,0.7265718579292297,-0.7294105887413025,1.988999843597412,-6.3970746994018555,0.376676082611084,0.6376775503158569,0.42000001668930054,-0.8414061665534973,2.9999992847442627,-0.5071477293968201,-3.0000007152557373,-0.0901859849691391,-0.1011388897895813,-0.11078035086393356,-0.11957231163978577,-0.9051854014396667,-0.9118430614471436,-0.9189372062683105,-0.9244143962860107
0.2833333333333333,0.026683468371629715,0.1954265981912613,0.0,0.9383490681648254,0.0,0.0,-0.34568920731544495,-0.24723288416862488,0.041375886648893356,0.0,0.0,0.0,0.5254096984863281,-0.46440067887306213,0.7748944759368896,0.4200000464916229,1.0,3.5934988318331307e-06,-2.2624899429501966e-06,-5.653167178820695e-08,0.0002670465619303286,0.0002677509910427034,-0.00010416633449494839,-0.0017431797459721565,0.004214051645249128,-0.0001278916170122102,-0.48069560527801514,0.7668120265007019,0.6183549165725708,-0.6257725358009338,0.7143872380256653,-6.542733192443848,0.376676082611084,0.6376775503158569,0.42000001668930054,-0.7913973331451416,2.999997615814209,-0.5571784377098083,-2.9999985694885254,-0.10667940229177475,-0.11753854155540466,-0.12709979712963104,-0.1357732117176056,-0.9945943355560303,-0.9951542019844055,-0.9956406354904175,-0.9772430062294006
0.3,0.018547939136624336,0.1952056884765625,0.0,0.9320141077041626,0.0,0.0,-0.36242204904556274,-0.5781736969947815,-0.04740995913743973,0.0,0.0,0.0,-3.0441396236419678,-0.46440064907073975,0.7748944163322449,0.4200000464916229,0.9999999403953552,3.7250752029649448e-06,-2.235918827864225e-06,3.828830017482687e-07,0.0002647972432896495,0.00026673058164305985,-0.00010453932918608189,-0.0017189180944114923,0.004166692495346069,-0.0001301649317611009,-0.48389261960983276,0.7738355398178101,0.5118342041969299,0.25815364718437195,0.12198051810264587,-6.017827033996582,0.376676082611084,0.6376775503158569,0.42000001668930054,-0.7413885593414307,3.0000011920928955,-0.6072075963020325,-2.999999761581421,-0.12461599707603455,-0.1351695954799652,-0.144501194357872,-0.15299536287784576,-1.0177029371261597,-1.0133655071258545,-1.0100579261779785,-1.007413625717163
0.31666666666666665,0.006453296635299921,0.19326472282409668,0.0,0.931843638420105,0.0,0.0,-0.36286014318466187,-0.7797621488571167,-0.14977163076400757,0.0,0.0,0.0,0.8836290836334229,-0.46440067887306213,0.7748944163322449,0.4200000464916229,0.9999999403953552,3.5577868402469903e-06,-2.278708961966913e-06,2.2836172774987062e-07,0.00026598546537570655,0.0002665847132448107,-0.00010398868471384048,-0.0017240389715880156,0.0041935034096241,-0.0001276976545341313,-0.47644948959350586,0.76999831199646,0.4173051118850708,0.7252947092056274,-0.5792847275733948,-5.4507036209106445,0.376676082611084,0.6376775503158569,0.42000001668930054,-0.6913812160491943,3.0000014305114746,-0.6572343707084656,-2.9999990463256836,-0.14210708439350128,-0.15244197845458984,-0.16161128878593445,-0.16997987031936646,-1.0012264251708984,-1.0009313821792603,-1.0007054805755615,-1.0005238056182861
0.3333333333333333,-0.007692438084632158,0.1889125406742096,0.0,0.9263813495635986,0.0,0.0,-0.3765867352485657,-0.8226332664489746,-0.3299315571784973,0.0,0.0,0.0,-2.6459603309631348,-0.4653235673904419,0.7712123990058899,0.4219677150249481,0.9977490901947021,0.04376249015331268,-0.008987230248749256,-0.050007209181785583,0.03954736888408661,-0.021317698061466217,0.06911607086658478,3.153470277786255,-0.7929400205612183,-0.9016903638839722,-0.4776281416416168,0.7731444835662842,0.4288317859172821,-0.1316664218902588,0.21162694692611694,-0.1654694527387619,0.376676082611084,0.6376775503158569,0.42000001668930054,-0.6414311528205872,2.9999935626983643,-0.7077301740646362,-2.999998092651367,-0.14432279765605927,-0.1556944102048874,-0.1654767394065857,-0.17391730844974518,-0.1894177794456482,-0.22494730353355408,-0.24185708165168762,-0.23356015980243683
0.35,-0.022589359432458878,0.18143914639949799,0.0,0.9271839261054993,0.0,0.0,-0.3746064305305481,-0.9327970743179321,-0.48592057824134827,0.0,0.0,0.0,1.1952627897262573,-0.46489834785461426,0.7713488936424255,0.42194223403930664,0.996549129486084,0.050917427986860275,-0.00319819338619709,-0.06547483801841736,0.028286520391702652,0.161301389336586,0.019348205998539925,1.8741353750228882,-0.6653504967689514,-10.166594505310059,-0.4773922860622406,0.7780332565307617,0.4256979823112488,0.10876615345478058,0.27963030338287354,-0.186167374253273,0.376676082611084,0.6376775503158569,0.42000001668930054,-0.5914254188537598,2.999951124191284,-0.7577637434005737,-2.999875068664551,-0.1494235396385193,-0.1603746861219406,-0.16949696838855743,-0.1769515872001648,-0.3736293315887451,-0.3060668408870697,-0.22808226943016052,-0.13539396226406097
0.36666666666666664,-0.03271923586726189,0.17077162861824036,0.0,0.922502338886261,0.0,0.0,-0.38599151372909546,-0.652012825012207,-0.6517326831817627,0.0,0.0,0.0,-2.1948184967041016,-0.46397656202316284,0.7745506763458252,0.42138680815696716,0.9901958107948303,0.035443395376205444,-0.0052413432858884335,-0.13501277565956116,0.06561985611915588,0.2037154585123062,-0.052425090223550797,-2.8530685901641846,0.5903980731964111,-8.010815620422363,-0.4741523861885071,0.7819240093231201,0.4229423403739929,0.31209874153137207,0.17738689482212067,-0.15106236934661865,0.376676082611084,0.6376775503158569,0.42000001668930054,-0.541420578956604,2.99997615814209,-0.8078143000602722,-2.999993324279785,-0.15447722375392914,-0.16401460766792297,-0.17155584692955017,-0.177205890417099,-0.5262597799301147,-0.3747919201850891,-0.2176123708486557,-0.05367370694875717
0.3833333333333333,-0.04660257324576378,0.15907441079616547,0.0,0.9238852858543396,0.0,0.0,-0.3826696276664734,-0.9031907320022583,-0.7227424383163452,0.0,0.0,0.0,1.6357476711273193,-0.45920461416244507,0.7816029787063599,0.42065081000328064,0.9814819693565369,0.016177570447325706,-0.003244916908442974,-0.19084247946739197,0.48150405287742615,0.609195351600647,-0.012298064306378365,-0.5443657636642456,0.14926795661449432,-5.900125980377197,-0.4667234420776367,0.7876979112625122,0.42123597860336304,0.5709577798843384,0.5306396484375,-0.059346139430999756,0.376676082611084,0.6376775503158569,0.42000001668930054,-0.49141591787338257,2.999979257583618,-0.8578534722328186,-2.999802589416504,-0.16610896587371826,-0.1721823811531067,-0.17619282007217407,-0.1782541573047638,-0.6986343264579773,-0.47704774141311646,-0.2514142394065857,-0.022698145359754562
0.4,-0.05678967759013176,0.14456237852573395,0.0,0.920202374458313,0.0,0.0,-0.39144301414489746,-0.5457191467285156,-0.9134392142295837,0.0,0.0,0.0,-2.0589563846588135,-0.4506070911884308,0.7921490669250488,0.4200052320957184,0.9720200300216675,-0.00010262309660902247,1.5447739087903756e-06,-0.23489786684513092,0.5748275518417358,0.6808836460113525,0.005088613834232092,-0.2708851099014282,0.14506502449512482,-5.1917901039123535,-0.45498964190483093,0.7955211400985718,0.421639621257782,0.8464116454124451,0.44658133387565613,0.13169549405574799,0.376676082611084,0.6376775503158569,0.42000001668930054,-0.44138383865356445,3.0,-0.9078812599182129,-2.9999775886535645,-0.17553359270095825,-0.1778583973646164,-0.17796370387077332,-0.17599083483219147,-0.5175857543945312,-0.2770055830478668,-0.025262800976634026,0.23507021367549896
0.4166666666666667,-0.06945657730102539,0.1284841150045395,0.0,0.9039000272750854,0.0,0.0,-0.42774373292922974,-0.8409134745597839,-0.9900072813034058,0.0,0.0,0.0,-5.724098205566406,-0.4309428632259369,0.8042547702789307,0.42308172583580017,0.9572405219078064,-0.02452729269862175,-0.0184174831956625,-0.2876623272895813,1.5394121408462524,0.8215552568435669,0.0987507775425911,37.38359832763672,-22.366174697875977,0.2034514993429184,-0.4351211190223694,0.8082931041717529,0.42426320910453796,1.51076078414917,0.9562225341796875,0.37274792790412903,0.376676082611084,0.6376775503158569,0.42000001668930054,-0.3958524167537689,1.8795148134231567,-0.9579007625579834,-3.0000009536743164,-0.18590271472930908,-0.1840723156929016,-0.1798558086156845,-0.17345143854618073,-0.6027098298072815,-0.3655761182308197,-0.12013412266969681,0.1301037222146988
0.43333333333333335,-0.07916273921728134,0.10956192761659622,0.0,0.8729019165039062,0.0,0.0,-0.4878956973552704,-0.532059371471405,-1.1774450540542603,0.0,0.0,0.0,-8.893523216247559,-0.3932737112045288,0.824242115020752,0.4290943443775177,0.9396101832389832,0.011152074672281742,-0.056183308362960815,-0.3374190330505371,3.421933174133301,0.9908374547958374,0.6547263264656067,14.011492729187012,-11.486014366149902,22.8330078125,-0.39690637588500977,0.8282372951507568,0.43021708726882935,3.0919430255889893,1.4819154739379883,0.5828337669372559,0.376676082611084,0.6376775503158569,0.42000001668930054,-0.3760799467563629,0.8610389232635498,-0.9464643001556396,2.996215581893921,-0.19598406553268433,-0.18992957472801208,-0.18139326572418213,-0.17065545916557312,-0.6790282726287842,-0.39462804794311523,-0.10842115432024002,0.17325860261917114
0.45,-0.08627645671367645,0.09621730446815491,0.0,0.8249437212944031,0.0,0.0,-0.5652148723602295,-0.3765718936920166,-0.6704068779945374,0.0,0.0,0.0,-11.686576843261719,-0.316960871219635,0.8521939516067505,0.438366174697876,0.9140439629554749,0.07262348383665085,-0.09890387207269669,-0.3866100013256073,5.985129356384277,1.3936209678649902,0.6647155284881592,4.184447288513184,-10.777844429016113,18.94035530090332,-0.3204749822616577,0.8563328981399536,0.43952029943466187,5.805569171905518,2.0527615547180176,0.7076709866523743,0.376676082611084,0.6376775503158569,0.42000001668930054,-0.36086639761924744,0.9295380115509033,-0.8964606523513794,2.9969065189361572,-0.2117043435573578,-0.2018669992685318,-0.18770191073417664,-0.17176902294158936,-0.8828028440475464,-0.7894718050956726,-0.47278425097465515,-0.19211889803409576
0.4666666666666667,-0.0898694396018982,0.08601682633161545,0.0,0.7843528985977173,0.0,0.0,-0.6203148365020752,-0.15182246267795563,-0.5774804949760437,0.0,0.0,0.0,-6.734550476074219,-0.21950219571590424,0.8807434439659119,0.45130735635757446,0.855282723903656,0.10108219087123871,-0.13434118032455444,-0.4901288151741028,6.0452446937561035,0.8774436116218567,1.15644109249115,-0.8110253214836121,1.5990164279937744,3.0875792503356934,-0.22422876954078674,0.886564314365387,0.452983021736145,5.994297027587891,1.5549335479736328,0.8586453199386597,0.376676082611084,0.6376775503158569,0.42000001668930054,-0.3445875942707062,1.0191688537597656,-0.9224590063095093,-2.999786853790283,-0.22182117402553558,-0.21299628913402557,-0.19489626586437225,-0.17547686398029327,-0.48499009013175964,-0.552430272102356,-0.37949302792549133,-0.233085498213768
0.48333333333333334,-0.09512031078338623,0.07180517911911011,0.0,0.7639495134353638,0.0,0.0,-0.6452760100364685,-0.27598950266838074,-0.7715170383453369,0.0,0.0,0.0,-2.4972362518310547,-0.11877764761447906,0.8944023251533508,0.46712765097618103,0.7888951301574707,0.11454916000366211,-0.10377664119005203,-0.5947717428207397,6.062154293060303,-0.8468134999275208,0.8150275945663452,-12.36573600769043,-12.025605201721191,22.698680877685547,-0.12325356900691986,0.9014661908149719,0.46734777092933655,6.360378265380859,0.1131221354007721,1.0076159238815308,0.376676082611084,0.6376775503158569,0.42000001668930054,-0.32714715600013733,0.864418089389801,-0.9724830389022827,-3.0000054836273193,-0.2292894423007965,-0.219976007938385,-0.19838309288024902,-0.17593930661678314,-0.7446349263191223,-0.5816478133201599,-0.29368242621421814,-0.0396721325814724
0.5,-0.10108471661806107,0.06271378695964813,0.0,0.7372975945472717,0.0,0.0,-0.6755681037902832,-0.4386886656284332,-0.516760528087616,0.0,0.0,0.0,-5.537096977233887,-0.016299575567245483,0.8815891742706299,0.4777649939060211,0.7134126424789429,0.08891155570745468,-0.12204455584287643,-0.6842822432518005,5.65756893157959,-2.0420925617218018,0.4224388599395752,-8.41584587097168,3.6713063716888428,26.324905395507812,-0.020586982369422913,0.8915680646896362,0.4799323081970215,6.250207901000977,-1.2027148008346558,0.7192902565002441,0.376676082611084,0.6376775503158569,0.42000001668930054,-0.31548628211021423,0.4131714999675751,-1.0225067138671875,-3.000000476837158,-0.24005170166492462,-0.2304743528366089,-0.20398323237895966,-0.1771257072687149,-0.03866828233003616,-0.5696624517440796,-0.30165979266166687,-0.053615719079971313
0.5166666666666666,-0.10521164536476135,0.0492437407374382,0.0,0.7227480411529541,0.0,0.0,-0.6911116242408752,-0.22821472585201263,-0.7804262042045593,0.0,0.0,0.0,-1.4932488203048706,0.07923321425914764,0.8533939719200134,0.4846717119216919,0.6385077238082886,0.062187518924474716,-0.09858783334493637,-0.7607371807098389,4.937751293182373,-2.7110822200775146,0.2550988793373108,-10.854866981506348,0.8421772122383118,15.605046272277832,0.07635693997144699,0.864683985710144,0.487302303314209,5.61261510848999,-2.1673390865325928,0.3434264659881592,0.376676082611084,0.6376775503158569,0.42000001668930054,-0.30974048376083374,0.2497737556695938,-1.0725288391113281,-3.0000011920928955,-0.23762834072113037,-0.23510423302650452,-0.20526672899723053,-0.17547671496868134,0.04351251944899559,-0.2433975785970688,-0.06894554197788239,0.07345138490200043
0.5333333333333333,-0.1067354679107666,0.0406169667840004,0.0,0.6996095776557922,0.0,0.0,-0.7145253419876099,-0.01200573705136776,-0.4950805604457855,0.0,0.0,0.0,-4.719799041748047,0.1625179648399353,0.8141140341758728,0.483150452375412,0.5736036896705627,0.013978855684399605,-0.09781230241060257,-0.8131519556045532,4.2917938232421875,-2.8116142749786377,-0.13009656965732574,0.8812121152877808,0.119813933968544,15.727984428405762,0.16074731945991516,0.8269780874252319,0.4882945418357849,4.834039688110352,-2.514066696166992,-0.19866028428077698,0.376676082611084,0.6376775503158569,0.42000001668930054,-0.3034754991531372,0.4378035366535187,-1.1225509643554688,-2.9999942779541016,-0.2374088168144226,-0.23842932283878326,-0.20676693320274353,-0.17563295364379883,0.17539198696613312,-0.007113320752978325,0.014731339178979397,0.01512470468878746
0.55,-0.10487791895866394,0.0356927327811718,0.0,0.6909173130989075,0.0,0.0,-0.7229337692260742,0.1411416381597519,-0.21358242630958557,0.0,0.0,0.0,-0.4512976109981537,0.23221266269683838,0.7698373198509216,0.47699064016342163,0.4932284355163574,-0.016435252502560616,-0.06869468837976456,-0.8670274615287781,3.6673851013183594,-2.854170560836792,-0.4141659438610077,-2.317312240600586,6.371048450469971,-6.990435600280762,0.2315930724143982,0.7831917405128479,0.4824907183647156,3.7619481086730957,-2.7780661582946777,-0.4868910312652588,0.376676082611084,0.6376775503158569,0.42000001668930054,-0.29298126697540283,0.7601019144058228,-1.1725730895996094,-3.000002145767212,-0.23451970517635345,-0.23759521543979645,-0.20637798309326172,-0.17598910629749298,0.24741338193416595,0.15861782431602478,0.07400023192167282,-0.024935120716691017
0.5666666666666667,-0.09985729306936264,0.026435231789946556,0.0,0.6720666289329529,0.0,0.0,-0.7404906749725342,0.2943624258041382,-0.5729751586914062,0.0,0.0,0.0,-3.899345874786377,0.28954997658729553,0.7281893491744995,0.46372175216674805,0.45343029499053955,-0.048119399696588516,-0.051235131919384,-0.888515830039978,2.9475669860839844,-2.6613545417785645,-0.6739920973777771,0.7443038821220398,13.138282775878906,0.5934304594993591,0.29026901721954346,0.7409249544143677,0.4699593484401703,3.0795705318450928,-2.5178816318511963,-0.980040431022644,0.376676082611084,0.6376775503158569,0.42000001668930054,-0.2793976962566376,0.7024664282798767,-1.2225761413574219,-2.9990224838256836,-0.22464732825756073,-0.22964751720428467,-0.2015116959810257,-0.1742640882730484,0.5396482944488525,0.47373098134994507,0.26901957392692566,0.05946794152259827
0.5833333333333334,-0.09316601604223251,0.022076863795518875,0.0,0.6663766503334045,0.0,0.0,-0.7456153035163879,0.4469963014125824,-0.23852545022964478,0.0,0.0,0.0,0.031569622457027435,0.3327438235282898,0.6865052580833435,0.4457438588142395,0.43083974719047546,-0.053352274000644684,-0.06921359896659851,-0.8981871604919434,2.000676155090332,-2.8681116104125977,-0.9268333911895752,8.637741088867188,7.554128170013428,1.311722993850708,0.33321407437324524,0.6987633109092712,0.45229464769363403,2.2016303539276123,-2.479780912399292,-1.2191779613494873,0.376676082611084,0.6376775503158569,0.42000001668930054,-0.26991668343544006,0.3944641053676605,-1.1846436262130737,3.0,-0.2185121327638626,-0.2236655056476593,-0.19891361892223358,-0.17514945566654205,0.4723384380340576,0.44728702306747437,0.1920618712902069,-0.06108551844954491
0.6,-0.08411917835474014,0.020776599645614624,0.0,0.6517348289489746,0.0,0.0,-0.7584469318389893,0.5896932482719421,-0.01761098951101303,0.0,0.0,0.0,-3.2294130325317383,0.36442694067955017,0.6511010527610779,0.42175790667533875,0.41157832741737366,-0.08840550482273102,-0.05363365262746811,-0.905489444732666,1.420347809791565,-2.13629412651062,-1.4191383123397827,-3.0164992809295654,7.159645080566406,5.243720054626465,0.36523500084877014,0.6630503535270691,0.4281349182128906,1.5685677528381348,-1.898573875427246,-1.5567131042480469,0.376676082611084,0.6376775503158569,0.42000001668930054,-0.2666510343551636,0.12852385640144348,-1.206345796585083,-3.000000476837158,-0.20948804914951324,-0.21572300791740417,-0.1962348371744156,-0.17750930786132812,0.5673693418502808,0.4920264184474945,0.14572539925575256,-0.18302522599697113
0.6166666666666667,-0.07304389774799347,0.022766469046473503,0.0,0.6501356959342957,0.0,0.0,-0.7598180770874023,0.6930974125862122,0.2044806182384491,0.0,0.0,0.0,0.6726658940315247,0.3784942328929901,0.636815071105957,0.4226892292499542,0.4266897439956665,-0.065183624625206,-0.02970409393310547,-0.9015567898750305,0.48504844307899475,-1.077774167060852,0.11005300283432007,1.8860608339309692,2.94626784324646,15.58250617980957,0.3784707188606262,0.6478829383850098,0.4290481209754944,0.4279477596282959,-0.6727739572525024,-0.005766415968537331,0.376676082611084,0.6376775503158569,0.42000001668930054,-0.2592295706272125,0.3788818120956421,-1.1676312685012817,2.9984171390533447,-0.1976800262928009,-0.20574556291103363,-0.19251947104930878,-0.17948047816753387,0.6749463677406311,0.5745714902877808,0.20001409947872162,-0.141131192445755
0.6333333333333333,-0.06551543623209,0.019260389730334282,0.0,0.6367118954658508,0.0,0.0,-0.7711017727851868,0.3648969829082489,-0.3516322374343872,0.0,0.0,0.0,-3.150026321411133,0.3858398497104645,0.6314685940742493,0.4222371280193329,0.4668995141983032,-0.04876628890633583,-0.01838315837085247,-0.8827732801437378,0.20927853882312775,-0.2569378614425659,0.02188676968216896,-0.1329316794872284,0.8935034871101379,5.947773456573486,0.38421088457107544,0.6429629325866699,0.42753028869628906,0.18072420358657837,-0.09277308732271194,-0.20498892664909363,0.376676082611084,0.6376775503158569,0.42000001668930054,-0.2805461585521698,-2.3706583976745605,-1.1175824403762817,2.999999523162842,-0.18136803805828094,-0.19073793292045593,-0.18371811509132385,-0.17725013196468353,0.9348980784416199,0.9391234517097473,0.6384159922599792,0.24452705681324005
0.65,-0.05501426011323929,0.018906479701399803,0.0,0.6352313160896301,0.0,0.0,-0.7723219394683838,0.733726978302002,0.0994381532073021,0.0,0.0,0.0,0.710865318775177,0.38886284828186035,0.6276675462722778,0.42136386036872864,0.5008552670478821,-0.02849012054502964,-0.018194807693362236,-0.8648706674575806,0.18764328956604004,-0.07723871618509293,0.04371234029531479,-3.1310760974884033,3.9813969135284424,2.455249786376953,0.3869096040725708,0.6410184502601624,0.4282377362251282,0.21419432759284973,-0.06534194946289062,0.07976970821619034,0.376676082611084,0.6376775503158569,0.42000001668930054,-0.3036760091781616,-0.5564467310905457,-1.1397887468338013,-2.9950649738311768,-0.17128682136535645,-0.18003512918949127,-0.17723441123962402,-0.1762501448392868,0.525722861289978,0.552050769329071,0.30493852496147156,4.833651473745704e-05
0.6666666666666666,-0.04810522869229317,0.016238784417510033,0.0,0.6236395835876465,0.0,0.0,-0.781711995601654,0.30252760648727417,-0.17783431708812714,0.0,0.0,0.0,-2.579495429992676,0.3896101117134094,0.6309208869934082,0.4203644394874573,0.5345773100852966,-0.007048421073704958,-0.005448556505143642,-0.8450725078582764,-0.19802938401699066,0.1611328274011612,-0.07079978287220001,2.918245315551758,-1.4397006034851074,5.833230972290039,0.3870329260826111,0.6433780193328857,0.4267321228981018,-0.2384682297706604,0.21458153426647186,-0.1011030375957489,0.376676082611084,0.6376775503158569,0.42000001668930054,-0.3177279829978943,-0.9684617519378662,-1.1020387411117554,2.999415636062622,-0.16131436824798584,-0.16999228298664093,-0.17128853499889374,-0.17506662011146545,0.4086812138557434,0.440624475479126,0.24172699451446533,0.013653911650180817
0.6833333333333333,-0.04113727807998657,0.017360446974635124,0.0,0.6256271600723267,0.0,0.0,-0.7801222205162048,0.4397602379322052,0.11019779741764069,0.0,0.0,0.0,1.204326868057251,0.38684138655662537,0.6328226327896118,0.4200000464916229,0.5572105646133423,3.1302383263209776e-07,1.0126341294380836e-06,-0.8303712010383606,-0.13372448086738586,0.10403470695018768,-4.103888932149857e-05,-0.0009821300627663732,-0.0019874863792210817,1.7770477533340454,0.3831031918525696,0.646227240562439,0.42722803354263306,-0.19764623045921326,0.21142703294754028,0.11887019872665405,0.376676082611084,0.6376775503158569,0.42000001668930054,-0.35894861817359924,-2.999802350997925,-1.1246472597122192,-2.999685287475586,-0.15744799375534058,-0.16537287831306458,-0.16934441030025482,-0.17605513334274292,0.24518176913261414,0.2718864679336548,0.11737542599439621,-0.03916997089982033
0.7,-0.03226468339562416,0.014725377783179283,0.0,0.6499358415603638,0.0,0.0,-0.7599890828132629,0.5572366118431091,-0.1870717853307724,0.0,0.0,0.0,4.696661949157715,0.38495126366615295,0.6343883872032166,0.4200006425380707,0.5574711561203003,-4.457002432900481e-06,-1.1350703971402254e-05,-0.8301963210105896,-0.13725405931472778,0.11953824013471603,0.00027848739409819245,0.01491142064332962,-0.05958769470453262,-1.5650075674057007,0.3806268274784088,0.6502538919448853,0.4292558431625366,-0.17779210209846497,0.2492094784975052,0.1492464691400528,0.376676082611084,0.6376775503158569,0.42000001668930054,-0.40899306535720825,-2.9997997283935547,-1.174621343612671,-2.9989888668060303,-0.1515502780675888,-0.1592307984828949,-0.1655648946762085,-0.17449097335338593,0.2746802568435669,0.30942127108573914,0.2080741971731186,0.12134253233671188
0.7166666666666667,-0.021455615758895874,0.009485156275331974,0.0,0.6597785949707031,0.0,0.0,-0.751460075378418,0.6829358339309692,-0.3676700294017792,0.0,0.0,0.0,0.507258415222168,0.38331589102745056,0.6358201503753662,0.4200000464916229,0.5504094958305359,-4.409426423990226e-07,-2.0035079373315057e-08,-0.8348947763442993,-0.07679130882024765,0.0663442388176918,-8.493774657836184e-06,-0.00039424063288606703,0.00016604943084530532,-0.5800352096557617,0.3787041902542114,0.6540976762771606,0.4331372380256653,-0.07249797135591507,0.15247425436973572,0.28678080439567566,0.376676082611084,0.6376775503158569,0.42000001668930054,-0.45902732014656067,-2.9999585151672363,-1.2245954275131226,-2.999807119369507,-0.14868919551372528,-0.15515010058879852,-0.16205139458179474,-0.17109867930412292,0.12826107442378998,0.23000094294548035,0.24844086170196533,0.3019919693470001
0.7333333333333333,-0.00880028773099184,0.001279360381886363,0.0,0.6466052532196045,0.0,0.0,-0.7628247737884521,0.7923569679260254,-0.556113600730896,0.0,0.0,0.0,-2.9942626953125,0.3827883303165436,0.6362757086753845,0.4200000464916229,0.5491499900817871,1.2533216704468941e-06,-1.6173248695849907e-06,-0.8357236981391907,-0.015251160599291325,0.01286134123802185,-8.04456794867292e-05,-0.0007964632823131979,0.004413076676428318,-0.0721542239189148,0.3805944621562958,0.6570824384689331,0.4428325891494751,0.28453269600868225,0.1667357087135315,0.9953631162643433,0.376676082611084,0.6376775503158569,0.42000001668930054,-0.5090402364730835,-2.9999845027923584,-1.2746140956878662,-2.9999988079071045,-0.14926248788833618,-0.15367260575294495,-0.15955893695354462,-0.16692475974559784,-0.11973446607589722,0.017599230632185936,0.11065077781677246,0.24674175679683685
0.75,0.007188335992395878,-0.0022602046374231577,0.0,0.610855758190155,0.0,0.0,-0.7917419075965881,0.9264233112335205,-0.18765734136104584,0.0,0.0,0.0,-6.35385274887085,0.38278815150260925,0.6362757682800293,0.4200000464916229,0.5491500496864319,1.0776716408145148e-06,-2.0838688215008005e-06,-0.8357236981391907,0.00010814159759320319,-0.00015442653966601938,-7.816962897777557e-05,0.0036161914467811584,-0.0006099903839640319,-0.0006231092847883701,0.3933984637260437,0.6545981168746948,0.46613332629203796,1.3017501831054688,-0.283461332321167,1.886692762374878,0.376676082611084,0.6376775503158569,0.42000001668930054,-0.5590526461601257,-2.9999239444732666,-1.3246324062347412,-2.9999921321868896,-0.1582854837179184,-0.15929873287677765,-0.16230341792106628,-0.1661209762096405,-0.49587738513946533,-0.3129968047142029,-0.14429780840873718,0.06807613372802734
0.7666666666666666,0.019833125174045563,-0.004586121533066034,0.0,0.5903773307800293,0.0,0.0,-0.8071273565292358,0.6805293560028076,-0.1161666065454483,0.0,0.0,0.0,-1.9977076053619385,0.38278818130493164,0.6362758278846741,0.4200000464916229,0.549150288105011,3.4533465509412054e-07,-2.670693902473431e-06,-0.8357235193252563,4.803774208994582e-05,-0.000251472694799304,-7.817288860678673e-05,0.006508003920316696,-0.0020143254660069942,-0.0007147775031626225,0.4176284074783325,0.6537928581237793,0.49943113327026367,1.499596118927002,0.14956489205360413,2.066446304321289,0.376676082611084,0.6376775503158569,0.42000001668930054,-0.5795039534568787,0.2738407552242279,-1.3746507167816162,-2.9999992847442627,-0.1639329046010971,-0.16320200264453888,-0.16453784704208374,-0.165991872549057,-0.210044264793396,-0.17016078531742096,-0.1280473917722702,-0.04757765680551529
0.7833333333333333,0.02758057415485382,-0.004642614163458347,0.0,0.5958636999130249,0.0,0.0,-0.8030855655670166,0.38680699467658997,0.04302544146776199,0.0,0.0,0.0,1.6858059167861938,0.38278818130493164,0.6362758278846741,0.4200000464916229,0.549150288105011,2.647403221089917e-07,-2.775993380055297e-06,-0.8357235789299011,4.942137820762582e-05,-0.0002494304208084941,-7.838010787963867e-05,0.006449579726904631,-0.0019854751881211996,-0.0007127652643248439,0.43994060158729553,0.6573153734207153,0.527927815914154,1.1060961484909058,0.2775586247444153,1.4053494930267334,0.376676082611084,0.6376775503158569,0.42000001668930054,-0.5537629723548889,2.59190034866333,-1.42466139793396,-2.999999761581421,-0.1658172309398651,-0.16467565298080444,-0.1654415875673294,-0.16574418544769287,-0.031504757702350616,-0.01934605836868286,0.006760925054550171,0.06299788504838943
0.8,0.03109774738550186,-0.008314652368426323,0.0,0.5892534852027893,0.0,0.0,-0.8079482316970825,0.16805821657180786,-0.3120507001876831,0.0,0.0,0.0,-1.9104417562484741,0.38278818130493164,0.6362758278846741,0.4200000464916229,0.5491502285003662,1.7448147104914824e-07,-2.800915353873279e-06,-0.8357236981391907,4.628390524885617e-05,-0.00025235052453354,-7.783481851220131e-05,0.006541762035340071,-0.0020384371746331453,-0.0007125049596652389,0.4506921172142029,0.6627376079559326,0.5444821119308472,0.17189402878284454,0.34650468826293945,0.770426869392395,0.376676082611084,0.6376775503158569,0.42000001668930054,-0.5129171013832092,2.3000056743621826,-1.3861477375030518,2.9999985694885254,-0.16515447199344635,-0.16394439339637756,-0.16436611115932465,-0.1639154851436615,0.027842849493026733,0.039914172142744064,0.06886650621891022,0.11530029028654099
0.8166666666666667,0.0315203033387661,-0.006848036777228117,0.0,0.5953536629676819,0.0,0.0,-0.8034637570381165,-0.023740645498037338,0.22061917185783386,0.0,0.0,0.0,1.7892606258392334,0.38278818130493164,0.6362758278846741,0.4200000464916229,0.5491504073143005,3.1304850267588336e-07,-2.8569586447702022e-06,-0.8357235193252563,4.737608469440602e-05,-0.00025258862297050655,-7.80508853495121e-05,0.006541904993355274,-0.002026711357757449,-0.0007156255887821317,0.44918060302734375,0.667346715927124,0.5557172298431396,-0.2777881324291229,0.30208921432495117,0.6027355194091797,0.376676082611084,0.6376775503158569,0.42000001668930054,-0.46616673469543457,3.0000009536743164,-1.3686085939407349,-0.5982459187507629,-0.17016296088695526,-0.16760388016700745,-0.16645190119743347,-0.1643226444721222,-0.3420010507106781,-0.2564840018749237,-0.15644027292728424,-0.0541485957801342
0.8333333333333334,0.030357036739587784,-0.008316650055348873,0.0,0.5893728137016296,0.0,0.0,-0.8078612089157104,-0.12997077405452728,-0.18975956737995148,0.0,0.0,0.0,-1.798454999923706,0.38278818130493164,0.6362758278846741,0.4200000464916229,0.5491504073143005,3.148348355352937e-07,-2.8396855213941308e-06,-0.8357234597206116,4.6992325223982334e-05,-0.0002523779112379998,-7.796939462423325e-05,0.006538459099829197,-0.0020301109179854393,-0.0007143115508370101,0.4388240575790405,0.6713336706161499,0.5596332550048828,-0.9667713642120361,0.16689324378967285,0.06474941223859787,0.376676082611084,0.6376775503158569,0.42000001668930054,-0.4493516981601715,-0.6785289645195007,-1.3225219249725342,3.0000011920928955,-0.17323675751686096,-0.16963963210582733,-0.16713540256023407,-0.1636020690202713,-0.12205430120229721,-0.06097610667347908,0.0202475618571043,0.10248828679323196
0.85,0.030638795346021652,-0.0063007669523358345,0.0,0.5945002436637878,0.0,0.0,-0.804095447063446,0.016499020159244537,0.11208796501159668,0.0,0.0,0.0,1.2470530271530151,0.38278818130493164,0.6362758278846741,0.4200000464916229,0.5491504669189453,3.16616478812648e-07,-2.822383066813927e-06,-0.8357235193252563,4.699096461990848e-05,-0.0002523775037843734,-7.796916179358959e-05,0.006538546644151211,-0.002030101837590337,-0.0007143039256334305,0.4260103702545166,0.6739616394042969,0.5608261823654175,-0.4769684076309204,0.2815641760826111,0.0898200049996376,0.376676082611084,0.6376775503158569,0.42000001668930054,-0.4491881728172302,0.5906917452812195,-1.3420289754867554,-2.9999990463256836,-0.17790363729000092,-0.1730659008026123,-0.16891148686408997,-0.16369180381298065,-0.07927057147026062,-0.0654999315738678,-0.01709098555147648,0.04284517094492912
0.8666666666666667,0.03228064253926277,-0.008506606332957745,0.0,0.5909866690635681,0.0,0.0,-0.8066812753677368,0.12786631286144257,-0.14999306201934814,0.0,0.0,0.0,-1.390291690826416,0.38278818130493164,0.6362758278846741,0.4200000464916229,0.549150288105011,2.1675369055174087e-07,-2.920677616202738e-06,-0.8357235193252563,4.494212043937296e-05,-0.0002523892908357084,-7.754238322377205e-05,0.006550116464495659,-0.0020537939853966236,-0.0007095869514159858,0.4204922020435333,0.6773231029510498,0.5599924325942993,-0.24564790725708008,0.0637868344783783,-0.05309734120965004,0.376676082611084,0.6376775503158569,0.42000001668930054,-0.4799486994743347,-3.0000011920928955,-1.3037456274032593,2.999999523162842,-0.1767277717590332,-0.17196902632713318,-0.16724689304828644,-0.16120710968971252,0.006049237214028835,0.028656648471951485,0.08871995657682419,0.1615229845046997
0.8833333333333333,0.036513473838567734,-0.013018563389778137,0.0,0.5669510960578918,0.0,0.0,-0.8237514495849609,0.31154176592826843,-0.3287021815776825,0.0,0.0,0.0,-4.5365309715271,0.38278818130493164,0.6362758874893188,0.4200000464916229,0.5491504073143005,3.4572605045468663e-07,-2.8314889277680777e-06,-0.8357234597206116,4.635232107830234e-05,-0.00025283763534389436,-7.781130261719227e-05,0.006554126273840666,-0.0020390162244439125,-0.0007138524088077247,0.4211195409297943,0.6751017570495605,0.5601180195808411,0.33564895391464233,-0.3311843276023865,0.21511925756931305,0.376676082611084,0.6376775503158569,0.42000001668930054,-0.5299507975578308,-2.9999537467956543,-1.3235870599746704,-2.9999983310699463,-0.17853903770446777,-0.17300499975681305,-0.16689616441726685,-0.15927836298942566,-0.1585153043270111,-0.09600720554590225,0.0014805772807449102,0.10888533294200897
0.9,0.04399674013257027,-0.014337816275656223,0.0,0.5574896335601807,0.0,0.0,-0.8301838636398315,0.46487462520599365,-0.037105489522218704,0.0,0.0,0.0,-0.2820163071155548,0.38278818130493164,0.6362758278846741,0.4200000464916229,0.5491503477096558,3.371422963027726e-07,-2.937765657406999e-06,-0.8357235193252563,4.734325921162963e-05,-0.0002525619347579777,-7.802690379321575e-05,0.0065421839244663715,-0.0020261032041162252,-0.0007153725600801408,0.42627495527267456,0.6717733144760132,0.5654486417770386,0.32677388191223145,-0.05505187809467316,0.39981040358543396,0.376676082611084,0.6376775503158569,0.42000001668930054,-0.5515632033348083,0.15107055008411407,-1.3736053705215454,-3.0,-0.18173614144325256,-0.17556628584861755,-0.1683512181043625,-0.15954989194869995,-0.050665419548749924,-0.06644325703382492,-0.057822223752737045,-0.04586407169699669
0.9166666666666666,0.04802381619811058,-0.017205607146024704,0.0,0.5741656422615051,0.0,0.0,-0.8187391757965088,0.2244427353143692,-0.15735703706741333,0.0,0.0,0.0,3.206537961959839,0.38278818130493164,0.6362758278846741,0.4200000464916229,0.549150288105011,3.3153270351249375e-07,-2.9594393708975986e-06,-0.8357236385345459,4.6708755689905956e-05,-0.0002524872252251953,-7.790466770529747e-05,0.006543019320815802,-0.002033622469753027,-0.0007138994988054037,0.43170636892318726,0.6726068258285522,0.5687085390090942,0.24195191264152527,0.029924426227808,-0.010111648589372635,0.376676082611084,0.6376775503158569,0.42000001668930054,-0.5364939570426941,1.5245031118392944,-1.3352320194244385,2.999999761581421,-0.1787208616733551,-0.17325085401535034,-0.16640780866146088,-0.1579626500606537,0.10849042981863022,0.09223254770040512,0.08698248863220215,0.07527613639831543
0.9333333333333333,0.049191541969776154,-0.02238902635872364,0.0,0.5752885937690735,0.0,0.0,-0.8179504871368408,0.010148413479328156,-0.3390541672706604,0.0,0.0,0.0,-0.8496003150939941,0.38278818130493164,0.6362758278846741,0.4200000464916229,0.5491503477096558,1.769012669683434e-07,-2.7142896215082146e-06,-0.8357235193252563,4.5311211579246446e-05,-0.00025229575112462044,-7.760594598948956e-05,0.006545733194798231,-0.002048769034445286,-0.0007104721735231578,0.43346673250198364,0.6710144877433777,0.5651902556419373,-0.04437316209077835,-0.17804905772209167,-0.2297600507736206,0.376676082611084,0.6376775503158569,0.42000001668930054,-0.5441935658454895,-2.1271302700042725,-1.2851793766021729,2.9999992847442627,-0.17748552560806274,-0.17221175134181976,-0.16543437540531158,-0.1571858525276184,0.02845877595245838,0.0248908381909132,0.025431135669350624,0.015758557245135307
