vladlanda/robotic-transformer/data/env_000_episode_0025.csv
sim_time_s,robot_box_x,robot_box_y,robot_box_z,robot_box_quat_w,robot_box_quat_x,robot_box_quat_y,robot_box_quat_z,robot_box_linvel_x,robot_box_linvel_y,robot_box_linvel_z,robot_box_angvel_x,robot_box_angvel_y,robot_box_angvel_z,cube_world_x,cube_world_y,cube_world_z,cube_quat_w,cube_quat_x,cube_quat_y,cube_quat_z,cube_linvel_x,cube_linvel_y,cube_linvel_z,cube_angvel_x,cube_angvel_y,cube_angvel_z,endpoint_world_x,endpoint_world_y,endpoint_world_z,endpoint_linvel_x,endpoint_linvel_y,endpoint_linvel_z,target_cube_world_x,target_cube_world_y,target_cube_world_z,gripper_actual_pos_rad_gp_leftgearjoint,gripper_actual_vel_rad_s_gp_leftgearjoint,gripper_actual_pos_rad_gp_rotatingjoint,gripper_actual_vel_rad_s_gp_rotatingjoint,motor_angle_rad_joint1,motor_angle_rad_joint2,motor_angle_rad_joint3,motor_angle_rad_joint4,motor_speed_rad_s_joint1,motor_speed_rad_s_joint2,motor_speed_rad_s_joint3,motor_speed_rad_s_joint4
0.0,0.0,0.0,0.0,1.0,0.0,0.0,0.0,0.0,0.0,0.0,0.0,0.0,0.0,-0.4183073341846466,0.7266132235527039,0.41999998688697815,1.0,0.0,0.0,0.0,0.0,0.0,0.0,0.0,0.0,0.0,3.42540442943573e-06,-0.005000244826078415,1.313499927520752,0.0,0.0,0.0,0.3445086181163788,0.770976185798645,0.42000001668930054,-1.5707999467849731,0.0,0.0,0.0,0.0,0.0,0.0,0.0,0.0,0.0,0.0,0.0
0.016666666666666666,0.0028778850100934505,0.0021806680597364902,0.0,0.9998081922531128,0.0,0.0,0.019586581736803055,0.24087215960025787,0.18240931630134583,0.0,0.0,0.0,3.1418697834014893,-0.41830745339393616,0.72661292552948,0.41999998688697815,1.0,3.2799914606584935e-06,-8.339814598912199e-07,8.465387679734704e-08,-1.9833554688375443e-05,0.00017983050202019513,-6.133061833679676e-05,0.0009432226070202887,-0.004689437802881002,-0.0003198152990080416,-0.007110234349966049,0.003379564033821225,1.3159373998641968,-0.8143353462219238,0.9868683815002441,0.18095196783542633,0.3445086181163788,0.770976185798645,0.42000001668930054,-1.5301095247268677,3.0000011920928955,-0.04584788903594017,-2.9999992847442627,0.0008691533003002405,0.0007963840034790337,0.0007110277656465769,0.0006108740926720202,0.11094217747449875,0.09756709635257721,0.08334315568208694,0.06823883205652237
0.03333333333333333,0.008960990235209465,0.006801999174058437,0.0,0.9997960329055786,0.0,0.0,0.020196838304400444,0.407022088766098,0.31530800461769104,0.0,0.0,0.0,-0.8691327571868896,-0.4183075726032257,0.7266128659248352,0.4200000464916229,1.0,3.390914116607746e-06,-2.132455392711563e-06,-3.71076644967161e-08,0.0002635782293509692,0.00026937935035675764,-0.00010509486310184002,-0.001770757487975061,0.0041308156214654446,-0.00013547815615311265,-0.02755391225218773,0.026233196258544922,1.3165907859802246,-1.5913734436035156,1.6161139011383057,-0.08578183501958847,0.3445086181163788,0.770976185798645,0.42000001668930054,-1.4800903797149658,3.0000033378601074,-0.09588771313428879,-3.000000476837158,0.0029900972731411457,0.002652703318744898,0.0022772711236029863,0.0018607245292514563,0.16421391069889069,0.13975751399993896,0.1138162836432457,0.0862983837723732
0.05,0.017583981156349182,0.013736833818256855,0.0,0.999432384967804,0.0,0.0,0.033688560128211975,0.588975191116333,0.46379169821739197,0.0,0.0,0.0,2.678900957107544,-0.4183076024055481,0.72661292552948,0.4200000464916229,1.0,3.7652293940482195e-06,-2.2118967990536476e-06,5.613899567435965e-09,0.000265309150563553,0.0002669153909664601,-0.0001044049859046936,-0.00172426737844944,0.004177379421889782,-0.0001294983085244894,-0.05958900973200798,0.05460597574710846,1.311434030532837,-2.1860690116882324,1.8036259412765503,-0.49127331376075745,0.3445086181163788,0.770976185798645,0.42000001668930054,-1.4300720691680908,3.0000009536743164,-0.145926371216774,-3.000000476837158,0.005645567085593939,0.00485676433891058,0.003995890729129314,0.0030584465712308884,0.19145485758781433,0.15456800162792206,0.1158163920044899,0.0751064121723175
0.06666666666666667,0.028822947293519974,0.023008298128843307,0.0,0.9994934797286987,0.0,0.0,0.03182492032647133,0.7158104181289673,0.5939735174179077,0.0,0.0,0.0,-1.1818106174468994,-0.4183076024055481,0.7266128659248352,0.4200000464916229,0.9999999403953552,3.4068445984303253e-06,-2.2855729184811935e-06,4.300823945868615e-07,0.000267024093773216,0.0002679175231605768,-0.0001043803058564663,-0.0017406325787305832,0.004211729858070612,-0.00012850853090640157,-0.09591908752918243,0.09011934697628021,1.2992907762527466,-2.208798408508301,2.336796998977661,-0.9382431507110596,0.3445086181163788,0.770976185798645,0.42000001668930054,-1.3800537586212158,3.000001907348633,-0.19596368074417114,-2.9999990463256836,0.00798164214938879,0.006421571597456932,0.004750795196741819,0.0029629289638251066,0.12343654781579971,0.06391484290361404,0.0023334468714892864,-0.061355795711278915
0.08333333333333333,0.043017126619815826,0.034444715827703476,0.0,0.9999994039535522,0.0,0.0,0.0011215024860575795,0.9361053109169006,0.7267072200775146,0.0,0.0,0.0,-4.489595890045166,-0.4183076024055481,0.7266128659248352,0.4200000464916229,0.9999999403953552,3.6261940294934902e-06,-2.335324097657576e-06,3.032077131592814e-07,0.00026613869704306126,0.00026684990734793246,-0.00010405178181827068,-0.0017283851047977805,0.004196336027234793,-0.00012790512118954211,-0.1312306672334671,0.133182093501091,1.2819738388061523,-2.0765540599823,2.6955056190490723,-1.1372804641723633,0.3445086181163788,0.770976185798645,0.42000001668930054,-1.3300268650054932,2.9999959468841553,-0.1654115915298462,2.9999985694885254,0.009120017290115356,0.006468625273555517,0.003666255157440901,0.0007059425697661936,0.04852355271577835,-0.025560161098837852,-0.10178864747285843,-0.1800685077905655
0.1,0.05174758657813072,0.049698565155267715,0.0,0.9996188282966614,0.0,0.0,-0.027608409523963928,0.3864029347896576,0.9934507012367249,0.0,0.0,0.0,-2.830434799194336,-0.4183076024055481,0.7266128659248352,0.4200000464916229,1.0,3.4221902751596645e-06,-2.308589955646312e-06,1.7962148035621794e-07,0.0002668164379429072,0.00026800547493621707,-0.00010440824553370476,-0.0017430244479328394,0.0042070322670042515,-0.00012891182268504053,-0.16593506932258606,0.1757981777191162,1.2622321844100952,-1.9920490980148315,2.590373992919922,-1.1813420057296753,0.3445086181163788,0.770976185798645,0.42000001668930054,-1.2800332307815552,3.000002145767212,-0.19709192216396332,-3.000000238418579,0.003374200314283371,-0.00013555539771914482,-0.0038491650484502316,-0.007775390986353159,-0.4752116799354553,-0.5297195315361023,-0.5868468880653381,-0.6467381715774536
0.11666666666666667,0.055773742496967316,0.06638079881668091,0.0,0.9974631071090698,0.0,0.0,-0.0711856484413147,0.2522931694984436,0.9726759195327759,0.0,0.0,0.0,-5.947513103485107,-0.4183076024055481,0.72661292552948,0.4200000464916229,1.0,3.7115696613909677e-06,-2.3326665541389957e-06,2.5742116349647404e-07,0.00026485652779228985,0.0002663531631696969,-0.00010423525236546993,-0.0017182076117023826,0.004170072730630636,-0.00012915638217236847,-0.19797083735466003,0.22152626514434814,1.2435204982757568,-1.8201899528503418,2.9815475940704346,-1.0852115154266357,0.3445086181163788,0.770976185798645,0.42000001668930054,-1.230026364326477,3.000001907348633,-0.2471255660057068,-3.000000238418579,-0.004366003908216953,-0.009183160029351711,-0.014208881184458733,-0.019452955573797226,-0.37781813740730286,-0.4782097041606903,-0.5768341422080994,-0.6736384630203247
0.13333333333333333,0.05880024656653404,0.0825914740562439,0.0,0.9956987500190735,0.0,0.0,-0.09264950454235077,0.1712643802165985,0.9505956768989563,0.0,0.0,0.0,-1.4690390825271606,-0.4183076024055481,0.7266128659248352,0.4200000464916229,1.0,3.33580555889057e-06,-2.2318915853247745e-06,3.1130230127018876e-07,0.0002666967629920691,0.00026759342290461063,-0.00010428694076836109,-0.0017371419817209244,0.004205943085253239,-0.0001284025638597086,-0.23331251740455627,0.2705594301223755,1.2218197584152222,-2.135590076446533,3.161665201187134,-1.4890828132629395,0.3445086181163788,0.770976185798645,0.42000001668930054,-1.1848903894424438,2.430607557296753,-0.21496424078941345,3.000000238418579,-0.009336937218904495,-0.01598663069307804,-0.022776059806346893,-0.02971300669014454,-0.2689122259616852,-0.3782220780849457,-0.4823976755142212,-0.5812980532646179
0.15,0.06800276041030884,0.09450400620698929,0.0,0.9917579293251038,0.0,0.0,-0.12812595069408417,0.7240470051765442,0.6180481314659119,0.0,0.0,0.0,-5.274746417999268,-0.4183076024055481,0.7266128659248352,0.4200000464916229,1.0,3.5190355447412003e-06,-2.283108187839389e-06,-3.6255448776501e-07,0.000266183604253456,0.0002673582639545202,-0.00010425667278468609,-0.0017349626868963242,0.004195743706077337,-0.00012861307186540216,-0.2672770917415619,0.32642531394958496,1.1953198909759521,-1.9332460165023804,3.574777126312256,-1.74418306350708,0.3445086181163788,0.770976185798645,0.42000001668930054,-1.1425420045852661,2.5987420082092285,-0.24632520973682404,-2.999999761581421,-0.010008574463427067,-0.018788645043969154,-0.027601778507232666,-0.036452244967222214,-0.013501780107617378,-0.13288341462612152,-0.24614174664020538,-0.3531290590763092
0.16666666666666666,0.0752231702208519,0.10290807485580444,0.0,0.9893786907196045,0.0,0.0,-0.1453610360622406,0.2590171992778778,0.4814431667327881,0.0,0.0,0.0,-0.7792766094207764,-0.4183076024055481,0.7266128659248352,0.4200000464916229,1.0,3.666726797746378e-06,-2.339156480957172e-06,-3.150096574700001e-07,0.00026595761300995946,0.0002666733635123819,-0.0001040350180119276,-0.0017252563266083598,0.004192715510725975,-0.00012778647942468524,-0.30351418256759644,0.3841056227684021,1.1577343940734863,-2.1207406520843506,3.5807480812072754,-2.678208112716675,0.3445086181163788,0.770976185798645,0.42000001668930054,-1.1060700416564941,1.8160752058029175,-0.21225693821907043,2.9999988079071045,-0.01575513742864132,-0.025506887584924698,-0.03522806987166405,-0.04492727294564247,-0.5995035171508789,-0.6111396551132202,-0.6209222674369812,-0.6293461322784424
0.18333333333333332,0.07544293254613876,0.11488662660121918,0.0,0.9848328828811646,0.0,0.0,-0.1735055148601532,0.041839126497507095,0.6232450008392334,0.0,0.0,0.0,-4.055138111114502,-0.4183076024055481,0.7266128659248352,0.4200000464916229,1.0,3.814431011051056e-06,-2.3995532956178067e-06,-2.702744552607328e-07,0.0002654912241268903,0.000266111281234771,-0.00010391324758529663,-0.001717864186502993,0.00418497622013092,-0.00012754154158756137,-0.3360258936882019,0.4464462399482727,1.106925368309021,-1.8561949729919434,3.927765369415283,-3.2184581756591797,0.3445086181163788,0.770976185798645,0.42000001668930054,-1.058658242225647,3.00000262260437,-0.24363474547863007,-3.0000016689300537,-0.029642462730407715,-0.03941137343645096,-0.04910675808787346,-0.0587582103908062,-0.6121928691864014,-0.6696963310241699,-0.7216728329658508,-0.7680138349533081
0.2,0.0819244459271431,0.12695449590682983,0.0,0.9734938144683838,0.0,0.0,-0.22871334850788116,0.34925317764282227,0.7628011107444763,0.0,0.0,0.0,-7.565062046051025,-0.4183076024055481,0.7266128659248352,0.4200000464916229,1.0,3.6001260923512746e-06,-2.2912167878530454e-06,-2.2018525669409428e-07,0.0002657284203451127,0.0002664485073182732,-0.00010398100130259991,-0.0017226488562300801,0.0041888137347996235,-0.00012773837079294026,-0.3661010265350342,0.5162646770477295,1.045114278793335,-1.5666571855545044,4.318708896636963,-4.216722011566162,0.3445086181163788,0.770976185798645,0.42000001668930054,-1.0166122913360596,2.086562156677246,-0.2936611771583557,-3.000000238418579,-0.03837597370147705,-0.048927489668130875,-0.05931992456316948,-0.06958254426717758,-0.809799075126648,-0.7933315634727478,-0.775515615940094,-0.7567039728164673
0.21666666666666667,0.08397043496370316,0.13637688755989075,0.0,0.9642762541770935,0.0,0.0,-0.26489877700805664,0.09427697956562042,0.5256819128990173,0.0,0.0,0.0,-3.2341840267181396,-0.4183076024055481,0.7266128659248352,0.4200000464916229,0.9999999403953552,3.6397161693457747e-06,-2.261916051793378e-06,2.224815318641049e-07,0.00026687278295867145,0.0002675443247426301,-0.00010411837138235569,-0.0017404217505827546,0.004211027175188065,-0.00012783741112798452,-0.39401066303253174,0.5807565450668335,0.9654518365859985,-1.3102800846099854,3.870021343231201,-5.299914360046387,0.3445086181163788,0.770976185798645,0.42000001668930054,-0.9680034518241882,3.0000014305114746,-0.34368833899497986,-3.0000009536743164,-0.05371289700269699,-0.06410498917102814,-0.0740283951163292,-0.0835549533367157,-0.9153004288673401,-0.9090738892555237,-0.9035339951515198,-0.8729239702224731
0.23333333333333334,0.08234435319900513,0.14701078832149506,0.0,0.9508635401725769,0.0,0.0,-0.30961036682128906,-0.17432014644145966,0.6844883561134338,0.0,0.0,0.0,-6.39466667175293,-0.4183075726032257,0.7266128659248352,0.4200000464916229,1.0,3.4208417218906106e-06,-2.3167299332271796e-06,2.955848401597905e-07,0.00026680331211537123,0.0002680404868442565,-0.00010442500934004784,-0.0017438061768189073,0.004206990823149681,-0.00012899591820314527,-0.41491562128067017,0.6407349109649658,0.8700947761535645,-0.9339998960494995,3.41871976852417,-6.057413101196289,0.3445086181163788,0.770976185798645,0.42000001668930054,-0.9179936647415161,3.0000035762786865,-0.39371800422668457,-3.0000009536743164,-0.06954657286405563,-0.07996383309364319,-0.089897021651268,-0.09941799193620682,-0.9896963238716125,-0.9915624856948853,-0.9867312908172607,-0.9747786521911621
0.25,0.08442521095275879,0.15374672412872314,0.0,0.9422363638877869,0.0,0.0,-0.3349488079547882,0.15105344355106354,0.33380189538002014,0.0,0.0,0.0,-1.9290776252746582,-0.4183076024055481,0.7266128659248352,0.4200000464916229,0.9999999403953552,3.3477169836260146e-06,-2.259082293676329e-06,1.808312646289778e-07,0.0002668776432983577,0.0002679125755093992,-0.00010439660400152206,-0.0017405485268682241,0.0042083123698830605,-0.00012870294449385256,-0.43074846267700195,0.6873660683631897,0.7651879787445068,-0.5769286155700684,2.3636434078216553,-6.575072765350342,0.3445086181163788,0.770976185798645,0.42000001668930054,-0.8679829835891724,2.99999737739563,-0.4437493085861206,-3.0000011920928955,-0.08485101908445358,-0.09515947848558426,-0.10494322329759598,-0.11398985981941223,-0.9909952878952026,-0.9921639561653137,-0.9899308085441589,-0.9585987329483032
0.26666666666666666,0.08111710846424103,0.1642455756664276,0.0,0.9443947076797485,0.0,0.0,-0.3288140296936035,-0.16963186860084534,0.5876729488372803,0.0,0.0,0.0,1.7531750202178955,-0.4183076024055481,0.7266128659248352,0.4200000464916229,0.9999999403953552,3.535839823598508e-06,-2.3001828139967984e-06,-1.268791862685248e-07,0.000266018119873479,0.00026712199905887246,-0.00010419473983347416,-0.0017316329758614302,0.004192839842289686,-0.00012849616177845746,-0.43942832946777344,0.7085179090499878,0.6571251153945923,-0.34894007444381714,0.6092516779899597,-6.349900245666504,0.3445086181163788,0.770976185798645,0.42000001668930054,-0.8179730772972107,2.999953031539917,-0.4937809705734253,-2.999997854232788,-0.10188407450914383,-0.11202984303236008,-0.12171994149684906,-0.1307121068239212,-0.6780977249145508,-0.7417072057723999,-0.799972414970398,-0.8515204787254333
0.2833333333333333,0.08298542350530624,0.16917702555656433,0.0,0.9420872330665588,0.0,0.0,-0.3353678584098816,0.12354236841201782,0.23469457030296326,0.0,0.0,0.0,-1.4643622636795044,-0.4183076024055481,0.72661292552948,0.4200000464916229,1.0,3.5935649975726847e-06,-2.262558382426505e-06,-5.655136803284222e-08,0.00026704679476097226,0.00026774988509714603,-0.00010416749864816666,-0.0017431802116334438,0.004214214626699686,-0.00012789499305654317,-0.4426202178001404,0.7209593057632446,0.5522254705429077,0.10994406789541245,0.5977627038955688,-6.068220138549805,0.3445086181163788,0.770976185798645,0.42000001668930054,-0.7679643034934998,3.0000014305114746,-0.543811559677124,-3.000000238418579,-0.11431879550218582,-0.12517614662647247,-0.13553056120872498,-0.14513611793518066,-1.0130099058151245,-1.009805679321289,-1.0073682069778442,-1.0054250955581665
0.3,0.08075237274169922,0.1710558384656906,0.0,0.9455010890960693,0.0,0.0,-0.3256189227104187,-0.22810806334018707,0.0787501260638237,0.0,0.0,0.0,2.0777993202209473,-0.4183075726032257,0.7266128659248352,0.4200000464916229,0.9999999403953552,3.725162969203666e-06,-2.2359929516824195e-06,3.8286188441816194e-07,0.00026479855296202004,0.0002667319786269218,-0.0001045397948473692,-0.0017189806094393134,0.004166760481894016,-0.00013016823504585773,-0.4349019527435303,0.7265506982803345,0.4569855034351349,0.8245687484741211,0.11165536195039749,-5.413297653198242,0.3445086181163788,0.770976185798645,0.42000001668930054,-0.7179559469223022,3.0000011920928955,-0.5938401818275452,-3.0000009536743164,-0.13222508132457733,-0.1427803337574005,-0.15290915966033936,-0.16233830153942108,-1.009755253791809,-1.0073875188827515,-1.0055805444717407,-1.0041275024414062
0.31666666666666665,0.07506997883319855,0.17061351239681244,0.0,0.9436722993850708,0.0,0.0,-0.3308814764022827,-0.3182409703731537,-0.0934072956442833,0.0,0.0,0.0,-1.4886304140090942,-0.41832423210144043,0.7262498736381531,0.4205145835876465,0.9999420046806335,0.010253969579935074,-0.0025994579773396254,-0.002022092230618,-0.003779057180508971,-0.04121533781290054,0.06206493079662323,2.4800477027893066,-0.6289163827896118,-0.7066912055015564,-0.4279104173183441,0.7286635041236877,0.42449361085891724,0.5147160887718201,0.33857280015945435,-0.12976381182670593,0.3445086181163788,0.770976185798645,0.42000001668930054,-0.66806560754776,2.9841885566711426,-0.6444883346557617,-2.79333233833313,-0.14143006503582,-0.15256184339523315,-0.1629927158355713,-0.17238207161426544,-0.10141894221305847,-0.17165479063987732,-0.21377459168434143,-0.22205908596515656
0.3333333333333333,0.06822408735752106,0.16725552082061768,0.0,0.947019636631012,0.0,0.0,-0.3211756646633148,-0.45929184556007385,-0.2420436292886734,0.0,0.0,0.0,2.074831008911133,-0.4152214229106903,0.7304005026817322,0.4233821630477905,0.996242880821228,0.03007480874657631,0.0426790751516819,-0.0690949484705925,0.21070165932178497,0.24228042364120483,0.10112719237804413,4.210003852844238,1.6417545080184937,-5.717212200164795,-0.4230896532535553,0.7347450256347656,0.42764952778816223,0.3979790210723877,0.3048419952392578,-0.21374425292015076,0.3445086181163788,0.770976185798645,0.42000001668930054,-0.6180586814880371,2.9999845027923584,-0.6945400834083557,-2.9999747276306152,-0.14393123984336853,-0.15539561212062836,-0.16575480997562408,-0.17461006343364716,-0.28642338514328003,-0.2529962956905365,-0.20319195091724396,-0.13584719598293304
0.35,0.05898408591747284,0.16158215701580048,0.0,0.9450199007987976,0.0,0.0,-0.3270127773284912,-0.5989291071891785,-0.38026049733161926,0.0,0.0,0.0,-1.6565685272216797,-0.4115673005580902,0.7346425652503967,0.4235698878765106,0.9903895854949951,0.05159532278776169,0.04209920018911362,-0.12121875584125519,0.25010213255882263,0.29642489552497864,0.009459704160690308,1.8359285593032837,-2.0816750526428223,-8.530193328857422,-0.415582537651062,0.740136981010437,0.42451876401901245,0.5245270133018494,0.3920944631099701,-0.17432843148708344,0.3445086181163788,0.770976185798645,0.42000001668930054,-0.568053662776947,2.9999778270721436,-0.7445938587188721,-2.999994993209839,-0.14971905946731567,-0.1602846384048462,-0.16951186954975128,-0.1770039200782776,-0.36982980370521545,-0.30019694566726685,-0.22036083042621613,-0.13140179216861725
0.36666666666666664,0.0475468710064888,0.1536463350057602,0.0,0.948131799697876,0.0,0.0,-0.3178774416446686,-0.7279212474822998,-0.5147743225097656,0.0,0.0,0.0,2.0548181533813477,-0.40472424030303955,0.74288409948349,0.4233420193195343,0.9832984209060669,0.06478636711835861,0.01647096872329712,-0.16927920281887054,0.5235381722450256,0.6260020136833191,-0.01943303644657135,0.03460678458213806,-1.6260815858840942,-4.543216705322266,-0.405446320772171,0.7472742199897766,0.42181020975112915,0.6695243120193481,0.47703900933265686,-0.13327451050281525,0.3445086181163788,0.770976185798645,0.42000001668930054,-0.5180487632751465,2.999969244003296,-0.7946401834487915,-2.999992609024048,-0.15701694786548615,-0.16577206552028656,-0.17301839590072632,-0.17840313911437988,-0.4299847483634949,-0.3032006025314331,-0.16647085547447205,-0.023234773427248
0.3833333333333333,0.03903241828083992,0.14312803745269775,0.0,0.946133553981781,0.0,0.0,-0.32377660274505615,-0.4145149886608124,-0.6779048442840576,0.0,0.0,0.0,-1.6258457899093628,-0.3955739140510559,0.7537134289741516,0.42165395617485046,0.9781363606452942,0.041452571749687195,-0.008096998557448387,-0.2036304622888565,0.619512677192688,0.7156363129615784,-0.10993389785289764,-3.9275219440460205,-1.5226677656173706,-4.5190110206604,-0.3934926986694336,0.7548819780349731,0.42045915126800537,0.8080307245254517,0.4871920347213745,-0.07690282166004181,0.3445086181163788,0.770976185798645,0.42000001668930054,-0.46804460883140564,2.999967098236084,-0.8446940779685974,-2.9999818801879883,-0.16426022350788116,-0.17049133777618408,-0.17500732839107513,-0.17753148078918457,-0.43670037388801575,-0.26565974950790405,-0.08213426172733307,0.10844624787569046
0.4,0.027781039476394653,0.13093751668930054,0.0,0.9338914752006531,0.0,0.0,-0.35755655169487,-0.7601979374885559,-0.7602555751800537,0.0,0.0,0.0,-5.2326340675354,-0.38056737184524536,0.7683221101760864,0.42210903763771057,0.9692664742469788,-0.005512389354407787,-0.011230203323066235,-0.24569475650787354,1.1784110069274902,0.8701503276824951,-0.6872442960739136,29.93437957763672,-20.97772979736328,0.7935415506362915,-0.37766748666763306,0.7675272226333618,0.42129409313201904,1.281574010848999,1.2189548015594482,0.127933531999588,0.3445086181163788,0.770976185798645,0.42000001668930054,-0.4182373881340027,2.633018970489502,-0.8947176337242126,-3.001192569732666,-0.17365947365760803,-0.17662426829338074,-0.17764969170093536,-0.17656594514846802,-0.5392341613769531,-0.34349754452705383,-0.13371288776397705,0.08350935578346252
0.4166666666666667,0.020181361585855484,0.11601080000400543,0.0,0.9093825817108154,0.0,0.0,-0.41596072912216187,-0.4285975694656372,-0.9399803876876831,0.0,0.0,0.0,-8.33673095703125,-0.35111895203590393,0.7927421927452087,0.42382675409317017,0.9524439573287964,-0.00545634888112545,-0.040012214332818985,-0.3020258843898773,2.7316200733184814,1.2961101531982422,0.18424828350543976,18.682174682617188,-15.973573684692383,14.382020950317383,-0.34824874997138977,0.7913810014724731,0.4233924448490143,2.417001962661743,1.7421190738677979,0.2768232822418213,0.3445086181163788,0.770976185798645,0.42000001668930054,-0.38912564516067505,1.07081139087677,-0.9447382688522339,-3.0000007152557373,-0.18169932067394257,-0.1814023107290268,-0.1789301037788391,-0.17422828078269958,-0.6263415813446045,-0.38518962264060974,-0.1337425857782364,0.11940676718950272
0.43333333333333335,0.014852830208837986,0.10464265197515488,0.0,0.8697572946548462,0.0,0.0,-0.4934796690940857,-0.23360218107700348,-0.6580092906951904,0.0,0.0,0.0,-11.10604190826416,-0.28725749254226685,0.8278160095214844,0.42757630348205566,0.9366857409477234,0.03686227649450302,-0.07859613001346588,-0.33923983573913574,5.107726097106934,2.3133389949798584,0.24186909198760986,13.998586654663086,-14.938553810119629,10.434805870056152,-0.28447869420051575,0.8267802000045776,0.4274533987045288,4.895502090454102,2.644365072250366,0.31046852469444275,0.3445086181163788,0.770976185798645,0.42000001668930054,-0.37086060643196106,1.262297511100769,-0.9075326919555664,3.000476121902466,-0.1958267241716385,-0.19186042249202728,-0.18418163061141968,-0.17453457415103912,-0.67371666431427,-0.5742564797401428,-0.2975616455078125,-0.04241984710097313
0.45,0.013253962621092796,0.09624030441045761,0.0,0.8331689238548279,0.0,0.0,-0.5530185103416443,-0.023030750453472137,-0.442892849445343,0.0,0.0,0.0,-6.880312442779541,-0.20399874448776245,0.8705950975418091,0.4346656799316406,0.9062536358833313,0.0650857463479042,-0.11259768158197403,-0.4022311568260193,5.317790985107422,1.8643600940704346,0.6082441210746765,16.243759155273438,-5.910985469818115,14.765962600708008,-0.20183971524238586,0.8710095286369324,0.43464380502700806,5.159032821655273,2.451171398162842,0.513573944568634,0.3445086181163788,0.770976185798645,0.42000001668930054,-0.34568896889686584,1.4979043006896973,-0.9333534836769104,-2.9996848106384277,-0.2066890001296997,-0.20125944912433624,-0.18991266191005707,-0.17703665792942047,-0.6235082149505615,-0.5326135158538818,-0.3446524143218994,-0.18667037785053253
0.4666666666666667,0.010116268880665302,0.08628986030817032,0.0,0.8150579333305359,0.0,0.0,-0.5793794393539429,-0.19173994660377502,-0.6010625958442688,0.0,0.0,0.0,-2.5985939502716064,-0.11747056245803833,0.900285542011261,0.44506534934043884,0.859117865562439,0.0771840438246727,-0.11338497698307037,-0.4930546283721924,5.394526481628418,0.649172306060791,0.5348423719406128,-5.604808330535889,-9.864046096801758,6.44490909576416,-0.11574096977710724,0.9008582234382629,0.44457077980041504,5.3062052726745605,1.2086414098739624,0.8124172687530518,0.3445086181163788,0.770976185798645,0.42000001668930054,-0.3217353820800781,1.2455805540084839,-0.9833774566650391,-3.000004529953003,-0.21869827806949615,-0.21041229367256165,-0.1951482892036438,-0.1789514571428299,-0.8577324151992798,-0.6248857975006104,-0.35506975650787354,-0.12363478541374207
0.48333333333333334,0.004352041054517031,0.07998879998922348,0.0,0.7909413576126099,0.0,0.0,-0.6118919253349304,-0.3830915689468384,-0.3232860267162323,0.0,0.0,0.0,-5.608564853668213,-0.03231070563197136,0.9099205136299133,0.45366787910461426,0.8253096342086792,0.06443080306053162,-0.11016854643821716,-0.5500685572624207,5.036704063415527,-0.6925164461135864,0.5714475512504578,16.17691421508789,-10.894928932189941,26.01930809020996,-0.030287493020296097,0.9106811285018921,0.4536595344543457,5.085779190063477,0.0682777464389801,0.5059557557106018,0.3445086181163788,0.770976185798645,0.42000001668930054,-0.30457860231399536,0.7121720910072327,-1.033400297164917,-3.0000035762786865,-0.2322322279214859,-0.22135098278522491,-0.20155532658100128,-0.18129000067710876,-0.7299370169639587,-0.5648124814033508,-0.3038365840911865,-0.06210083141922951
0.5,0.0013249872718006372,0.07010455429553986,0.0,0.7776583433151245,0.0,0.0,-0.6286871433258057,-0.12109693139791489,-0.5725440382957458,0.0,0.0,0.0,-1.4581725597381592,0.04866613820195198,0.9046658873558044,0.4592841565608978,0.77516108751297,0.04481049254536629,-0.09018784016370773,-0.6236854195594788,4.43042516708374,-1.20979642868042,0.12813983857631683,1.433383822441101,-12.877181053161621,8.262503623962402,0.04934629052877426,0.9058979749679565,0.4588268995285034,4.634338855743408,-0.7512642741203308,0.26416441798210144,0.3445086181163788,0.770976185798645,0.42000001668930054,-0.29175496101379395,0.7196146845817566,-1.0834224224090576,-3.00000262260437,-0.23999559879302979,-0.2269277125597,-0.2036764770746231,-0.18033500015735626,-0.008365706540644169,-0.44113582372665405,-0.23803016543388367,-0.06410853564739227
0.5166666666666666,0.0010185114806517959,0.06471282988786697,0.0,0.7564406394958496,0.0,0.0,-0.6540623307228088,0.050864607095718384,-0.30846792459487915,0.0,0.0,0.0,-4.797577857971191,0.12020505219697952,0.8892966508865356,0.45722073316574097,0.7258347272872925,0.004719335585832596,-0.10008333623409271,-0.6805328130722046,3.888533592224121,-1.6783888339996338,-0.14509913325309753,1.322252869606018,-7.348126411437988,20.166677474975586,0.1204858273267746,0.8910094499588013,0.45861726999282837,4.110196113586426,-1.0210247039794922,-0.17622001469135284,0.3445086181163788,0.770976185798645,0.42000001668930054,-0.2804727554321289,0.49779364466667175,-1.1334445476531982,-3.0000011920928955,-0.23935361206531525,-0.2336711883544922,-0.20792783796787262,-0.18247593939304352,0.10583823174238205,-0.1884182095527649,-0.11467842757701874,-0.05510040372610092
0.5333333333333333,8.79250728758052e-05,0.06304632872343063,0.0,0.7488141059875488,0.0,0.0,-0.6627801060676575,-0.09337170422077179,-0.018958574160933495,0.0,0.0,0.0,-0.26582449674606323,0.1832469254732132,0.8678558468818665,0.4510589838027954,0.6942850947380066,-0.02201511338353157,-0.08171796798706055,-0.7147066593170166,3.3830199241638184,-1.929075002670288,-0.4900774359703064,-1.439935564994812,-3.9417262077331543,9.490901947021484,0.1837124526500702,0.8689107298851013,0.452634334564209,3.5436739921569824,-1.5360512733459473,-0.44357502460479736,0.3445086181163788,0.770976185798645,0.42000001668930054,-0.2680584490299225,0.7600513100624084,-1.1834666728973389,-3.000001907348633,-0.23806805908679962,-0.23620520532131195,-0.20990939438343048,-0.18410973250865936,0.11536095291376114,-0.06677338480949402,-0.07976049184799194,-0.10325663536787033
0.55,0.0017581793945282698,0.056820694357156754,0.0,0.732446014881134,0.0,0.0,-0.6808251142501831,0.09745289385318756,-0.4000135660171509,0.0,0.0,0.0,-3.7201437950134277,0.23968839645385742,0.8449053764343262,0.43769967555999756,0.6525222659111023,-0.0692153126001358,-0.07556670904159546,-0.7508086562156677,2.9788355827331543,-1.8530429601669312,-0.8701093196868896,-3.176964282989502,-3.4337592124938965,12.573091506958008,0.24005958437919617,0.846100389957428,0.44024306535720825,3.174484968185425,-1.4188480377197266,-0.869299054145813,0.3445086181163788,0.770976185798645,0.42000001668930054,-0.25531205534935,0.6614694595336914,-1.2334887981414795,-3.000000476837158,-0.22987517714500427,-0.23152142763137817,-0.20721229910850525,-0.18340279161930084,0.4464036822319031,0.29134130477905273,0.15340831875801086,0.013821152970194817
0.5666666666666667,0.005217148456722498,0.05506924167275429,0.0,0.7280776500701904,0.0,0.0,-0.6854946613311768,0.22065085172653198,-0.06021274998784065,0.0,0.0,0.0,0.18220199644565582,0.2868075668811798,0.8191542625427246,0.4231606125831604,0.619745135307312,-0.06402841955423355,-0.029393954202532768,-0.7816343307495117,2.0341832637786865,-1.8646568059921265,-0.36423906683921814,22.160245895385742,-3.373765468597412,36.931617736816406,0.28707557916641235,0.8193668127059937,0.42423057556152344,2.5455949306488037,-1.5509405136108398,-0.8004833459854126,0.3445086181163788,0.770976185798645,0.42000001668930054,-0.2441648244857788,0.5245937705039978,-1.2835090160369873,-2.9999895095825195,-0.22571690380573273,-0.2287575751543045,-0.20665234327316284,-0.18513768911361694,0.31488609313964844,0.24088864028453827,0.07040213793516159,-0.10077150911092758
0.5833333333333334,0.011416785418987274,0.050309158861637115,0.0,0.7152921557426453,0.0,0.0,-0.6988255381584167,0.42202234268188477,-0.3233543932437897,0.0,0.0,0.0,-2.9726245403289795,0.3140314519405365,0.8041611313819885,0.42278191447257996,0.6524261832237244,-0.030545206740498543,-0.051308538764715195,-0.7554961442947388,1.451966643333435,-0.6333882212638855,-0.048329636454582214,2.5231425762176514,0.0072568440809845924,-3.750380039215088,0.3155423402786255,0.805496096611023,0.42467325925827026,1.3662420511245728,-0.7445903420448303,-0.13335521519184113,0.3445086181163788,0.770976185798645,0.42000001668930054,-0.23254746198654175,0.9146386981010437,-1.2586133480072021,2.999752998352051,-0.2168480008840561,-0.22175030410289764,-0.2036031186580658,-0.18582549691200256,0.47859764099121094,0.39577317237854004,0.15202440321445465,-0.07980974018573761
0.6,0.015497981570661068,0.04811742529273033,0.0,0.7151308655738831,0.0,0.0,-0.6989905834197998,0.1794675588607788,-0.07060952484607697,0.0,0.0,0.0,0.7663034796714783,0.33283939957618713,0.7917621731758118,0.42373645305633545,0.6336392164230347,-0.02037225104868412,-0.01720391772687435,-0.7731689810752869,0.4706857204437256,-1.3498075008392334,-0.20438863337039948,-5.741394996643066,-6.18898868560791,28.114276885986328,0.33307820558547974,0.7916818857192993,0.42487630248069763,0.9455364346504211,-0.810926616191864,0.06111093983054161,0.3445086181163788,0.770976185798645,0.42000001668930054,-0.22533832490444183,0.3419919013977051,-1.278913974761963,-3.001366138458252,-0.21102187037467957,-0.21667253971099854,-0.20231623947620392,-0.1881072223186493,0.3185979723930359,0.2946884036064148,0.07077180594205856,-0.13932955265045166
0.6166666666666667,0.02053947001695633,0.045837994664907455,0.0,0.7043630480766296,0.0,0.0,-0.709839940071106,0.3531722128391266,-0.1386522799730301,0.0,0.0,0.0,-2.7687315940856934,0.33963683247566223,0.7817174196243286,0.4223760664463043,0.7038541436195374,0.04155045002698898,-0.028432605788111687,-0.7085579633712769,-0.003020136384293437,-0.3583885431289673,0.1454012393951416,8.596390724182129,0.08182640373706818,26.076702117919922,0.34346336126327515,0.7845410704612732,0.42333218455314636,0.4289705157279968,-0.2402607500553131,-0.09765041619539261,0.3445086181163788,0.770976185798645,0.42000001668930054,-0.22120532393455505,0.5189342498779297,-1.244015097618103,2.9994771480560303,-0.20143912732601166,-0.20840968191623688,-0.1987365037202835,-0.18881118297576904,0.6662794947624207,0.5784774422645569,0.2850794792175293,0.018279120326042175
0.6333333333333333,0.023403752595186234,0.04604559764266014,0.0,0.7054469585418701,0.0,0.0,-0.7087627053260803,0.11295440047979355,0.07435116171836853,0.0,0.0,0.0,0.9825029969215393,0.344639390707016,0.7777350544929504,0.42092016339302063,0.7319509983062744,-0.005055879708379507,-0.015589209273457527,-0.681160032749176,-0.2732618451118469,-1.182361125946045,0.07680394500494003,7.971535682678223,-10.804281234741211,20.83404541015625,0.34574779868125916,0.7789526581764221,0.4244767129421234,0.10293290764093399,-0.29004546999931335,0.12495025247335434,0.3445086181163788,0.770976185798645,0.42000001668930054,-0.25571778416633606,-2.9521946907043457,-1.264800786972046,-2.999537229537964,-0.19213131070137024,-0.20005281269550323,-0.19472922384738922,-0.188718780875206,0.45970311760902405,0.43579161167144775,0.20889395475387573,0.004571887664496899
0.65,0.026745008304715157,0.049236856400966644,0.0,0.6963018178939819,0.0,0.0,-0.7177490592002869,0.23987561464309692,0.2641378939151764,0.0,0.0,0.0,-2.405294418334961,0.342213898897171,0.7708728909492493,0.4219953119754791,0.7942007184028625,-0.0388789139688015,0.014529320411384106,-0.6062362790107727,0.13152308762073517,0.11706571280956268,0.15665502846240997,-2.9387047290802,6.838540077209473,-1.9722113609313965,0.3471124470233917,0.7800585627555847,0.4270537495613098,0.171575129032135,0.19489914178848267,0.17911078035831451,0.3445086181163788,0.770976185798645,0.42000001668930054,-0.286836713552475,-0.9827693700790405,-1.3147497177124023,-2.998469352722168,-0.1815059334039688,-0.19079171121120453,-0.1899390071630478,-0.18786722421646118,0.7191928625106812,0.6198123693466187,0.34476548433303833,0.10309102386236191
0.6666666666666666,0.03216579928994179,0.04938933998346329,0.0,0.6991443634033203,0.0,0.0,-0.7149805426597595,0.35272008180618286,-0.0489405058324337,0.0,0.0,0.0,1.356864094734192,0.3442668318748474,0.7725186347961426,0.423299103975296,0.7827690243721008,-0.06746527552604675,0.03745097666978836,-0.6175099611282349,0.08140991628170013,0.09984492510557175,0.0623352974653244,-2.157651901245117,1.038036823272705,-3.662180185317993,0.34755009412765503,0.7812941074371338,0.42993903160095215,-0.08341517299413681,0.03564809635281563,0.18102328479290009,0.3445086181163788,0.770976185798645,0.42000001668930054,-0.3314657509326935,-2.999979257583618,-1.364749550819397,-2.999990463256836,-0.17092010378837585,-0.18112683296203613,-0.1840202361345291,-0.18528297543525696,0.4909765124320984,0.48032885789871216,0.3066299557685852,0.1490567922592163
0.6833333333333333,0.03952810540795326,0.048163577914237976,0.0,0.6914104223251343,0.0,0.0,-0.7224621772766113,0.4763481318950653,-0.1480512171983719,0.0,0.0,0.0,-2.2369446754455566,0.34540271759033203,0.7738761305809021,0.42309027910232544,0.7651439309120178,-0.06264588236808777,0.04106522351503372,-0.639487087726593,0.06468334794044495,0.07381760329008102,-0.03672410175204277,1.3114672899246216,-0.5983296036720276,-3.358491897583008,0.3479412794113159,0.7830020785331726,0.433832049369812,0.03368476405739784,0.11660736799240112,0.2812912166118622,0.3445086181163788,0.770976185798645,0.42000001668930054,-0.38143983483314514,-2.993879556655884,-1.4147193431854248,-2.9999475479125977,-0.16369429230690002,-0.17358553409576416,-0.17855645716190338,-0.18159031867980957,0.43554815649986267,0.4770749509334564,0.39185094833374023,0.325523316860199
0.7,0.049141716212034225,0.04269289970397949,0.0,0.6641673445701599,0.0,0.0,-0.7475839257240295,0.6207510828971863,-0.39807069301605225,0.0,0.0,0.0,-5.315676212310791,0.3460206091403961,0.7747289538383484,0.4217481017112732,0.7516166567802429,-0.03402164205908775,0.0300491563975811,-0.6580364108085632,0.018591273576021194,0.044715963304042816,-0.08054474741220474,0.7114869356155396,-4.615387916564941,-2.440929651260376,0.34954172372817993,0.7850098013877869,0.44401949644088745,0.2148057222366333,0.08694008737802505,1.0681216716766357,0.3445086181163788,0.770976185798645,0.42000001668930054,-0.43145379424095154,-2.999967098236084,-1.4647377729415894,-2.9999988079071045,-0.1599085032939911,-0.16832876205444336,-0.1736832708120346,-0.17683479189872742,0.08892480283975601,0.21246616542339325,0.23837389051914215,0.27708205580711365
0.7166666666666667,0.06288684159517288,0.04248742014169693,0.0,0.6492902636528015,0.0,0.0,-0.7605406641960144,0.7531659603118896,0.00178894167765975,0.0,0.0,0.0,-1.3052129745483398,0.34555864334106445,0.7752844095230103,0.42000752687454224,0.7424119710922241,0.0008296755841001868,-0.0005352672887966037,-0.6699427366256714,-0.07449480146169662,0.006186367012560368,-0.02998863160610199,-0.29088956117630005,1.24941885471344,-0.8894202709197998,0.35225480794906616,0.7873167991638184,0.4685365557670593,0.21292157471179962,0.42532727122306824,1.8198020458221436,0.3445086181163788,0.770976185798645,0.42000001668930054,-0.48145684599876404,-2.9999969005584717,-1.5147560834884644,-2.9999935626983643,-0.16524173319339752,-0.17087240517139435,-0.17496156692504883,-0.17682583630084991,-0.14291220903396606,-0.05439869686961174,-0.04121575132012367,-0.0236816443502903
0.7333333333333333,0.0721629336476326,0.044335998594760895,0.0,0.6583773493766785,0.0,0.0,-0.7526880502700806,0.4997727870941162,0.09198380261659622,0.0,0.0,0.0,2.2758469581604004,0.34538906812667847,0.7753095030784607,0.4200000464916229,0.741832435131073,4.868470568908378e-07,-1.2476096344471443e-05,-0.6705851554870605,0.0011557897087186575,-0.0008683406049385667,-0.0003074854612350464,0.010232500731945038,0.016062282025814056,0.0010109208524227142,0.35901957750320435,0.7924612760543823,0.4923959970474243,0.5461335778236389,0.25106391310691833,1.0993205308914185,0.3445086181163788,0.770976185798645,0.42000001668930054,-0.5100460648536682,-0.6152682304382324,-1.5647743940353394,-3.0,-0.16697576642036438,-0.17102694511413574,-0.17450827360153198,-0.17566750943660736,0.009303923696279526,0.09353169798851013,0.13428658246994019,0.182369664311409
0.75,0.07715973258018494,0.04062720760703087,0.0,0.6556841731071472,0.0,0.0,-0.7550352215766907,0.26733607053756714,-0.2524435520172119,0.0,0.0,0.0,-1.2896479368209839,0.34538960456848145,0.7753087878227234,0.42000001668930054,0.741832971572876,8.558511694900517e-07,-3.736026201295317e-06,-0.6705845594406128,0.00027337970095686615,-0.00024268982815556228,-9.591714479029179e-05,0.0035581535194069147,0.0026919408701360226,0.00012860159040428698,0.3662797510623932,0.7954443693161011,0.5036439895629883,0.29278063774108887,-0.04428105056285858,0.4055793881416321,0.3445086181163788,0.770976185798645,0.42000001668930054,-0.5460519790649414,-3.0000011920928955,-1.530648112297058,3.0000009536743164,-0.16359063982963562,-0.16661252081394196,-0.16966725885868073,-0.1703581064939499,0.057937875390052795,0.15939092636108398,0.2269773781299591,0.28703638911247253
0.7666666666666666,0.08423549681901932,0.04176788032054901,0.0,0.6644646525382996,0.0,0.0,-0.7473196387290955,0.3875431418418884,0.09805896133184433,0.0,0.0,0.0,2.2552032470703125,0.34538963437080383,0.7753087878227234,0.42000001668930054,0.741832971572876,1.0958486882373109e-06,-4.170952706772368e-06,-0.6705845594406128,0.00027543166652321815,-0.0002444458659738302,-9.624520316720009e-05,0.0035871805157512426,0.002726126927882433,0.00012976620928384364,0.3705182671546936,0.7947136163711548,0.5132592916488647,0.24796690046787262,0.13471375405788422,0.7449815273284912,0.3445086181163788,0.770976185798645,0.42000001668930054,-0.5804012417793274,-1.2471718788146973,-1.5461868047714233,-3.0,-0.16654253005981445,-0.16749246418476105,-0.16895677149295807,-0.16828304529190063,-0.050325069576501846,0.024270161986351013,0.08025610446929932,0.12541960179805756
0.7833333333333333,0.08754806965589523,0.03933094069361687,0.0,0.6618195176124573,0.0,0.0,-0.749663233757019,0.14375397562980652,-0.19483476877212524,0.0,0.0,0.0,-1.2371538877487183,0.34538963437080383,0.7753087878227234,0.42000001668930054,0.741832971572876,1.027467988024e-06,-4.06783237849595e-06,-0.6705845594406128,0.0002755449677351862,-0.00024555064737796783,-9.59928147494793e-05,0.0036106582265347242,0.002731719985604286,0.0001316936541115865,0.3773972690105438,0.7933144569396973,0.5194507837295532,0.5098860263824463,-0.3392029106616974,0.16174663603305817,0.3445086181163788,0.770976185798645,0.42000001668930054,-0.6202920079231262,-3.0000009536743164,-1.5961936712265015,-3.000000238418579,-0.16695675253868103,-0.16634471714496613,-0.16639380156993866,-0.1644624024629593,-0.11518338322639465,0.01571708917617798,0.14397135376930237,0.261353075504303
0.8,0.09234557300806046,0.03734954074025154,0.0,0.6381604671478271,0.0,0.0,-0.7699033617973328,0.313774049282074,-0.17297954857349396,0.0,0.0,0.0,-4.633683681488037,0.34538960456848145,0.7753087878227234,0.42000001668930054,0.741832971572876,1.0594447985567967e-06,-4.044418346893508e-06,-0.6705845594406128,0.0002751904830802232,-0.00024386952281929553,-9.631272405385971e-05,0.0035753243137151003,0.002720060059800744,0.00012897056876681745,0.38763412833213806,0.7874512672424316,0.5253467559814453,0.7861582040786743,-0.3087802529335022,0.6534086465835571,0.3445086181163788,0.770976185798645,0.42000001668930054,-0.6627935767173767,-2.1391139030456543,-1.6462105512619019,-2.999990224838257,-0.1714068502187729,-0.1684425324201584,-0.16609475016593933,-0.16195502877235413,-0.1704447716474533,-0.06113838776946068,0.05839571729302406,0.17057541012763977
0.8166666666666667,0.09923740476369858,0.037376608699560165,0.0,0.629471480846405,0.0,0.0,-0.7770235538482666,0.45179659128189087,0.06325293332338333,0.0,0.0,0.0,-0.32542529702186584,0.34538960456848145,0.7753087878227234,0.42000001668930054,0.741832971572876,1.030778321364778e-06,-3.970190391555661e-06,-0.6705845594406128,0.0002750373678281903,-0.00024353341723326594,-9.630899876356125e-05,0.0035687515046447515,0.002717697061598301,0.00012854319356847554,0.3990183472633362,0.7865883111953735,0.5387493371963501,0.6012030243873596,0.163153737783432,0.9681423902511597,0.3445086181163788,0.770976185798645,0.42000001668930054,-0.6675096750259399,1.2808492183685303,-1.6962250471115112,-2.999999523162842,-0.17340250313282013,-0.16950953006744385,-0.16602641344070435,-0.1608796864748001,-0.04248865693807602,-0.03462015464901924,-0.014220221899449825,-0.0028189595323055983
0.8333333333333334,0.10341574251651764,0.03737685829401016,0.0,0.6445554494857788,0.0,0.0,-0.7645576000213623,0.21034882962703705,0.06638987362384796,0.0,0.0,0.0,3.1367387771606445,0.34538963437080383,0.7753087878227234,0.42000001668930054,0.741832971572876,1.08899473616475e-06,-4.0666336644790135e-06,-0.6705845594406128,0.00027488372870720923,-0.00024408454191870987,-9.605358354747295e-05,0.0035816568415611982,0.0027191161643713713,0.0001297617855016142,0.40791913866996765,0.7898801565170288,0.5521125197410583,0.422802209854126,0.16691076755523682,0.697409987449646,0.3445086181163788,0.770976185798645,0.42000001668930054,-0.6403824687004089,1.8982229232788086,-1.6569424867630005,2.9999992847442627,-0.17127598822116852,-0.167772114276886,-0.1644396036863327,-0.15958088636398315,0.07087936252355576,0.05816958099603653,0.05733097344636917,0.04454897716641426
0.85,0.10449863225221634,0.03506401181221008,0.0,0.6459165215492249,0.0,0.0,-0.7634080052375793,0.0025940926279872656,-0.17520584166049957,0.0,0.0,0.0,-0.6108032464981079,0.34538960456848145,0.7753087878227234,0.42000001668930054,0.741832971572876,1.0716101996877114e-06,-4.042311502416851e-06,-0.6705845594406128,0.00027519286959432065,-0.00024386114091612399,-9.631318971514702e-05,0.0035750523675233126,0.002720057498663664,0.00012895795225631446,0.40952685475349426,0.7919869422912598,0.5594234466552734,-0.2372128814458847,0.07986174523830414,0.3316582441329956,0.3445086181163788,0.770976185798645,0.42000001668930054,-0.627694308757782,-0.20541983842849731,-1.6068860292434692,2.999999523162842,-0.17041632533073425,-0.16698402166366577,-0.1635318547487259,-0.15876972675323486,-1.1292286217212677e-08,0.011206023395061493,0.03143611177802086,0.03664146363735199
0.8666666666666667,0.10267546027898788,0.0373409129679203,0.0,0.6585928201675415,0.0,0.0,-0.7524994611740112,-0.12085041403770447,0.15680909156799316,0.0,0.0,0.0,2.726219415664673,0.34538960456848145,0.7753087878227234,0.42000001668930054,0.741832971572876,1.042881535795459e-06,-3.9680426198174246e-06,-0.6705845594406128,0.00027503789169713855,-0.00024353306798730046,-9.630783461034298e-05,0.0035688013304024935,0.002717778319492936,0.00012854335363954306,0.4084855914115906,0.7906031608581543,0.5645349621772766,0.16222400963306427,-0.07182677835226059,0.3090193271636963,0.3445086181163788,0.770976185798645,0.42000001668930054,-0.6065952777862549,2.4856228828430176,-1.6206629276275635,-3.0,-0.17420673370361328,-0.16984042525291443,-0.16529372334480286,-0.15968936681747437,-0.12449133396148682,-0.09492596238851547,-0.04965478926897049,-0.012271217070519924
0.8833333333333333,0.10259709507226944,0.035889070481061935,0.0,0.6578732132911682,0.0,0.0,-0.753128707408905,0.03822848200798035,-0.10219737887382507,0.0,0.0,0.0,-1.094535231590271,0.34538963437080383,0.7753087878227234,0.42000001668930054,0.741832971572876,1.0753124115581159e-06,-4.065318989887601e-06,-0.6705845594406128,0.0002748884435277432,-0.00024409372417721897,-9.605381637811661e-05,0.0035818181931972504,0.0027191354893147945,0.00012976866855751723,0.40578925609588623,0.7919682860374451,0.5670394897460938,-0.4811292290687561,0.12360285222530365,0.12975402176380157,0.3445086181163788,0.770976185798645,0.42000001668930054,-0.5858808755874634,0.1830960512161255,-1.581600546836853,3.000000476837158,-0.1736571490764618,-0.16946743428707123,-0.16482345759868622,-0.15920382738113403,-0.022588428109884262,-0.02751290798187256,-0.01901252195239067,-0.01716332882642746
0.9,0.10116203874349594,0.03711271658539772,0.0,0.6665392518043518,0.0,0.0,-0.7454699277877808,-0.11536891013383865,0.1251591593027115,0.0,0.0,0.0,2.1058924198150635,0.34538960456848145,0.7753087878227234,0.42000001668930054,0.741832971572876,1.0837363788596122e-06,-4.040193744003773e-06,-0.6705845594406128,0.00027518882416188717,-0.00024385178403463215,-9.63122583925724e-05,0.003574950620532036,0.0027201035991311073,0.0001289479259867221,0.4017571806907654,0.7921451330184937,0.570838212966919,-0.026332013309001923,-0.028578806668519974,0.36972254514694214,0.3445086181163788,0.770976185798645,0.42000001668930054,-0.5851037502288818,-0.06975363194942474,-1.5584182739257812,0.01983719877898693,-0.17434336245059967,-0.17019200325012207,-0.1652631163597107,-0.1593514382839203,-0.005040348041802645,-0.013488655909895897,0.0018713423050940037,0.023424172773957253
