vladlanda/robotic-transformer/data/env_000_episode_0207.csv
sim_time_s,robot_box_x,robot_box_y,robot_box_z,robot_box_quat_w,robot_box_quat_x,robot_box_quat_y,robot_box_quat_z,robot_box_linvel_x,robot_box_linvel_y,robot_box_linvel_z,robot_box_angvel_x,robot_box_angvel_y,robot_box_angvel_z,cube_world_x,cube_world_y,cube_world_z,cube_quat_w,cube_quat_x,cube_quat_y,cube_quat_z,cube_linvel_x,cube_linvel_y,cube_linvel_z,cube_angvel_x,cube_angvel_y,cube_angvel_z,endpoint_world_x,endpoint_world_y,endpoint_world_z,endpoint_linvel_x,endpoint_linvel_y,endpoint_linvel_z,target_cube_world_x,target_cube_world_y,target_cube_world_z,gripper_actual_pos_rad_gp_leftgearjoint,gripper_actual_vel_rad_s_gp_leftgearjoint,gripper_actual_pos_rad_gp_rotatingjoint,gripper_actual_vel_rad_s_gp_rotatingjoint,motor_angle_rad_joint1,motor_angle_rad_joint2,motor_angle_rad_joint3,motor_angle_rad_joint4,motor_speed_rad_s_joint1,motor_speed_rad_s_joint2,motor_speed_rad_s_joint3,motor_speed_rad_s_joint4
0.0,0.0,0.0,0.0,1.0,0.0,0.0,0.0,0.0,0.0,0.0,0.0,0.0,0.0,-0.36820825934410095,0.6942330002784729,0.41999998688697815,1.0,0.0,0.0,0.0,0.0,0.0,0.0,0.0,0.0,0.0,3.42540442943573e-06,-0.005000244826078415,1.313499927520752,0.0,0.0,0.0,0.3295862376689911,0.6910572052001953,0.42000001668930054,-1.5707999467849731,0.0,0.0,0.0,0.0,0.0,0.0,0.0,0.0,0.0,0.0,0.0
0.016666666666666666,0.0028801034204661846,0.002178117400035262,0.0,0.9998133778572083,0.0,0.0,0.019319545477628708,0.2409379482269287,0.18231512606143951,0.0,0.0,0.0,3.1418182849884033,-0.3682083785533905,0.694232702255249,0.41999998688697815,1.0,3.279964630564791e-06,-8.339746386809566e-07,8.465587342243452e-08,-1.9833529222523794e-05,0.00017983045836444944,-6.132945418357849e-05,0.0009432713268324733,-0.004689474124461412,-0.00031981561915017664,-0.007109072059392929,0.0033859580289572477,1.315938115119934,-0.8141012787818909,0.987127423286438,0.18096007406711578,0.3295862376689911,0.6910572052001953,0.42000001668930054,-1.5301095247268677,3.000002861022949,-0.04584855958819389,-3.000000476837158,0.0008699955069459975,0.0007966489647515118,0.0007112101302482188,0.0006110634421929717,0.11094542592763901,0.0975833609700203,0.08336076885461807,0.06825513392686844
0.03333333333333333,0.008963728323578835,0.006797983776777983,0.0,0.9998013973236084,0.0,0.0,0.01992974616587162,0.40705057978630066,0.3152228891849518,0.0,0.0,0.0,-0.8690906763076782,-0.36820849776268005,0.6942326426506042,0.4200000464916229,1.0,3.3908179375430336e-06,-2.132458348569344e-06,-3.7097745320124886e-08,0.00026357852038927376,0.00026937833172269166,-0.00010509369894862175,-0.0017707126680761576,0.004130884539335966,-0.0001354814594378695,-0.027541276067495346,0.026197075843811035,1.3165993690490723,-1.590646743774414,1.616842269897461,-0.08464180678129196,0.3295862376689911,0.6910572052001953,0.42000001668930054,-1.4800903797149658,3.0000014305114746,-0.0958883985877037,-3.0000011920928955,0.002990485168993473,0.002652755007147789,0.0022773011587560177,0.0018607788952067494,0.16418041288852692,0.1397378146648407,0.11380090564489365,0.08628416806459427
0.05,0.01847401075065136,0.013899300247430801,0.0,0.9999756217002869,0.0,0.0,-0.006983391009271145,0.6362429261207581,0.4722890257835388,0.0,0.0,0.0,-4.073879241943359,-0.36820852756500244,0.694232702255249,0.4200000464916229,1.0,3.7651902857760433e-06,-2.2119197637948673e-06,5.609367637049445e-09,0.00026530938339419663,0.00026691678795032203,-0.00010440615005791187,-0.0017243892652913928,0.004177466034889221,-0.00012949809024576098,-0.05718526244163513,0.057259976863861084,1.3119590282440186,-1.9525105953216553,2.039621353149414,-0.4534286856651306,0.3295862376689911,0.6910572052001953,0.42000001668930054,-1.4300720691680908,2.9999988079071045,-0.1459207981824875,-2.9999990463256836,0.006013033911585808,0.005173828918486834,0.004262320697307587,0.003274146933108568,0.20711080729961395,0.16678045690059662,0.12452586740255356,0.08027103543281555
0.06666666666666667,0.03078484907746315,0.02338688261806965,0.0,0.9998801946640015,0.0,0.0,-0.015480010770261288,0.7724865078926086,0.6161060929298401,0.0,0.0,0.0,-0.03854810446500778,-0.36820852756500244,0.6942326426506042,0.4200000464916229,0.9999999403953552,3.406832092878176e-06,-2.28558906201215e-06,4.300801492718165e-07,0.0002670248504728079,0.0002679176686797291,-0.0001043803058564663,-0.00174071139190346,0.00421183044090867,-0.00012850876373704523,-0.09337420761585236,0.09029371291399002,1.3016752004623413,-2.2446224689483643,2.089451313018799,-0.7695207595825195,0.3295862376689911,0.6910572052001953,0.42000001668930054,-1.3800444602966309,3.000002861022949,-0.12147864699363708,3.0000011920928955,0.008588253520429134,0.00698684249073267,0.005272463895380497,0.0034406492486596107,0.13371868431568146,0.0782565101981163,0.020630689337849617,-0.03921404480934143
0.08333333333333333,0.03735187649726868,0.034752584993839264,0.0,0.9992063045501709,0.0,0.0,-0.039833880960941315,0.2684122323989868,0.742468535900116,0.0,0.0,0.0,-3.902904510498047,-0.36820852756500244,0.6942326426506042,0.4200000464916229,0.9999999403953552,3.626166289905086e-06,-2.3353043161478126e-06,3.032100153177453e-07,0.00026614085072651505,0.0002668516826815903,-0.00010405341163277626,-0.001728349830955267,0.004196455702185631,-0.0001279077841900289,-0.12518152594566345,0.12916253507137299,1.286903977394104,-1.6170413494110107,2.580946445465088,-0.9291239976882935,0.3295862376689911,0.6910572052001953,0.42000001668930054,-1.3300405740737915,3.000000238418579,-0.1534550040960312,-3.00000262260437,0.005295051261782646,0.002809278666973114,0.00016281836724374443,-0.0026524621061980724,-0.31280091404914856,-0.38119038939476013,-0.45188841223716736,-0.5251314043998718
0.1,0.046251099556684494,0.04813078045845032,0.0,0.9957325458526611,0.0,0.0,-0.09228558838367462,0.6936031579971313,0.8007605671882629,0.0,0.0,0.0,-7.07786226272583,-0.36820852756500244,0.6942326426506042,0.4200000464916229,1.0,3.4222334761579987e-06,-2.3086047349352157e-06,1.796183539681806e-07,0.0002668157103471458,0.00026800340856425464,-0.00010440708138048649,-0.0017429988365620375,0.004207124002277851,-0.00012891183723695576,-0.15486682951450348,0.1750044971704483,1.2691731452941895,-1.900097131729126,2.914724349975586,-1.1975749731063843,0.3295862376689911,0.6910572052001953,0.42000001668930054,-1.2800244092941284,2.9999959468841553,-0.12537109851837158,3.0000009536743164,0.0020477112848311663,-0.0017580845160409808,-0.0057410974986851215,-0.009910824708640575,-0.06801805645227432,-0.15883034467697144,-0.24901919066905975,-0.3385704755783081
0.11666666666666667,0.05550522729754448,0.05913828685879707,0.0,0.9924688339233398,0.0,0.0,-0.12249726802110672,0.5037868022918701,0.6047453880310059,0.0,0.0,0.0,-2.410435199737549,-0.36820852756500244,0.694232702255249,0.4200000464916229,1.0,3.7116215025889687e-06,-2.3326904283749172e-06,2.5741752551766695e-07,0.00026485833222977817,0.0002663549967110157,-0.00010423408821225166,-0.0017181988805532455,0.004170059692114592,-0.00012915713887196034,-0.19008328020572662,0.22103887796401978,1.2484626770019531,-2.060822010040283,2.9330241680145264,-1.2742998600006104,0.3295862376689911,0.6910572052001953,0.42000001668930054,-1.2300338745117188,3.0000014305114746,-0.15727518498897552,-3.0000014305114746,0.000734591914806515,-0.004793900530785322,-0.010464759543538094,-0.016285888850688934,-0.11127454787492752,-0.21902422606945038,-0.3240332007408142,-0.42614462971687317
0.13333333333333333,0.061613697558641434,0.06672949343919754,0.0,0.9867467880249023,0.0,0.0,-0.1622675210237503,0.31399160623550415,0.39310675859451294,0.0,0.0,0.0,-5.6601362228393555,-0.36820852756500244,0.6942326426506042,0.4200000464916229,1.0,3.3357862321281573e-06,-2.231929329354898e-06,3.1130659294831275e-07,0.00026669795624911785,0.00026759557658806443,-0.00010428577661514282,-0.0017371183494105935,0.004205892328172922,-0.00012840361159760505,-0.2225576490163803,0.27540555596351624,1.2231595516204834,-1.7622803449630737,3.6491951942443848,-1.7506858110427856,0.3295862376689911,0.6910572052001953,0.42000001668930054,-1.180018663406372,2.999992847442627,-0.1236969456076622,2.9999992847442627,-0.0018775038188323379,-0.009206291288137436,-0.01661587506532669,-0.024112043902277946,-0.21487107872962952,-0.3146889805793762,-0.4106288552284241,-0.5026193857192993
0.15,0.06375391781330109,0.0755900889635086,0.0,0.974571943283081,0.0,0.0,-0.2240748405456543,0.055159736424684525,0.5905810594558716,0.0,0.0,0.0,-8.689224243164062,-0.36820852756500244,0.6942326426506042,0.4200000464916229,1.0,3.5189802929380676e-06,-2.2830829493614146e-06,-3.625531803663762e-07,0.00026618537958711386,0.0002673575363587588,-0.00010425481013953686,-0.0017349323024973273,0.004195748828351498,-0.0001286051847273484,-0.2540389895439148,0.33744531869888306,1.1890771389007568,-1.765627145767212,3.967726707458496,-2.3617982864379883,0.3295862376689911,0.6910572052001953,0.42000001668930054,-1.1425820589065552,1.5843678712844849,-0.1556595414876938,-3.0000009536743164,-0.007270195055752993,-0.016044534742832184,-0.02482316642999649,-0.03361128643155098,-0.4043804407119751,-0.47311368584632874,-0.5373784899711609,-0.5972200036048889
0.16666666666666666,0.06965098530054092,0.08438452333211899,0.0,0.9629223942756653,0.0,0.0,-0.26977860927581787,0.36262860894203186,0.5368356108665466,0.0,0.0,0.0,-4.386833667755127,-0.36820852756500244,0.6942326426506042,0.4200000464916229,1.0,3.666678594527184e-06,-2.3391096419800306e-06,-3.150171608012897e-07,0.00026595700182951987,0.0002666723739821464,-0.00010403268970549107,-0.0017252295510843396,0.0041927071288228035,-0.00012778618838638067,-0.28860533237457275,0.4015069007873535,1.1418150663375854,-1.90842866897583,4.110246658325195,-3.3025050163269043,0.3295862376689911,0.6910572052001953,0.42000001668930054,-1.0970306396484375,2.9999868869781494,-0.2056891918182373,-2.9999427795410156,-0.012781963683664799,-0.022432096302509308,-0.032015301287174225,-0.041541002690792084,-0.5224148035049438,-0.5336583852767944,-0.542638897895813,-0.5497196912765503
0.18333333333333332,0.07209756970405579,0.09120632708072662,0.0,0.9582899808883667,0.0,0.0,-0.2857976257801056,0.11359849572181702,0.2852191627025604,0.0,0.0,0.0,-0.6296895146369934,-0.36820852756500244,0.6942326426506042,0.4200000464916229,1.0,3.814429419435328e-06,-2.399473942205077e-06,-2.702885524286103e-07,0.0002654908748809248,0.00026611171779222786,-0.00010391091927886009,-0.0017177866538986564,0.00418477039784193,-0.00012754213821608573,-0.32217729091644287,0.4639950394630432,1.0798089504241943,-1.7869735956192017,3.742053985595703,-4.029230117797852,0.3295862376689911,0.6910572052001953,0.42000001668930054,-1.0470274686813354,3.0000016689300537,-0.2557162642478943,-3.000000476837158,-0.025109408423304558,-0.03431368246674538,-0.04344166815280914,-0.05251529440283775,-0.7447023391723633,-0.7122589945793152,-0.6793243288993835,-0.6466176509857178
0.2,0.07064566016197205,0.09884439408779144,0.0,0.9505051970481873,0.0,0.0,-0.3107086420059204,-0.15516424179077148,0.4784072935581207,0.0,0.0,0.0,-3.9187445640563965,-0.36820852756500244,0.6942326426506042,0.4200000464916229,1.0,3.600096079026116e-06,-2.2911845007911325e-06,-2.2019764855940593e-07,0.00026572897331789136,0.0002664489147718996,-0.00010398100130259991,-0.0017226696945726871,0.004188799764961004,-0.00012773496564477682,-0.347769558429718,0.5274949669837952,1.0067178010940552,-1.2988848686218262,3.75203800201416,-4.635356903076172,0.3295862376689911,0.6910572052001953,0.42000001668930054,-0.9970206022262573,2.999999523162842,-0.30574285984039307,-3.0000014305114746,-0.04066765680909157,-0.04926513880491257,-0.057542987167835236,-0.06578145176172256,-0.951850175857544,-0.9181222915649414,-0.8703638315200806,-0.8228469491004944
0.21666666666666667,0.07271934300661087,0.10798889398574829,0.0,0.9323479533195496,0.0,0.0,-0.3615623414516449,0.22155648469924927,0.5810245275497437,0.0,0.0,0.0,-7.432855129241943,-0.36820852756500244,0.6942326426506042,0.4200000464916229,0.9999999403953552,3.6396977520780638e-06,-2.2619728952122387e-06,2.224548865115139e-07,0.000266873772488907,0.0002675457508303225,-0.00010411953553557396,-0.0017404764657840133,0.004211100284010172,-0.00012783778947778046,-0.36558210849761963,0.5920662879943848,0.9213922023773193,-0.7168928980827332,3.7998600006103516,-5.469268321990967,0.3295862376689911,0.6910572052001953,0.42000001668930054,-0.9470118284225464,3.000000238418579,-0.35577213764190674,-3.0000014305114746,-0.055544327944517136,-0.06371065974235535,-0.07121795415878296,-0.07868862897157669,-0.8918358683586121,-0.8649484515190125,-0.8130912780761719,-0.7618195414543152
0.23333333333333334,0.07213620841503143,0.11451256275177002,0.0,0.91849285364151,0.0,0.0,-0.3954375088214874,-0.07996761798858643,0.3833732604980469,0.0,0.0,0.0,-3.0882229804992676,-0.36820849776268005,0.6942326426506042,0.4200000464916229,1.0,3.42080284099211e-06,-2.3168156531028217e-06,2.9557230618593167e-07,0.0002668006927706301,0.0002680390316527337,-0.00010442431084811687,-0.0017437431961297989,0.004206867888569832,-0.0001289910142077133,-0.37961187958717346,0.6435365676879883,0.8256556987762451,-0.4666282534599304,2.731703758239746,-6.024310111999512,0.3295862376689911,0.6910572052001953,0.42000001668930054,-0.8970011472702026,3.0000009536743164,-0.40580320358276367,-2.9999992847442627,-0.07200876623392105,-0.08002067357301712,-0.08675642311573029,-0.09310434013605118,-0.8458243608474731,-0.87028968334198,-0.8929663300514221,-0.9132984280586243
0.25,0.07083894312381744,0.11949829757213593,0.0,0.9182296395301819,0.0,0.0,-0.3960484564304352,-0.06680716574192047,0.21512126922607422,0.0,0.0,0.0,0.7945301532745361,-0.36820852756500244,0.6942326426506042,0.4200000464916229,0.9999999403953552,3.3476630960649345e-06,-2.259201437482261e-06,1.8082572239563888e-07,0.00026687735226005316,0.00026791065465658903,-0.00010439311154186726,-0.0017403911333531141,0.004208162892609835,-0.00012870095088146627,-0.39210885763168335,0.6760903596878052,0.7245742082595825,-0.6429944038391113,1.3666191101074219,-6.156325340270996,0.3295862376689911,0.6910572052001953,0.42000001668930054,-0.8469906449317932,2.9999876022338867,-0.45583486557006836,-3.0000009536743164,-0.08861655741930008,-0.09657605737447739,-0.1032768115401268,-0.10954201966524124,-0.9910309314727783,-0.9914088249206543,-0.9914181232452393,-0.9913514852523804
0.26666666666666666,0.06728772073984146,0.1208120658993721,0.0,0.912692129611969,0.0,0.0,-0.4086478352546692,-0.2667301297187805,0.032123979181051254,0.0,0.0,0.0,-2.501171350479126,-0.36820852756500244,0.6942326426506042,0.4200000464916229,0.9999999403953552,3.535753194228164e-06,-2.3002676243777387e-06,-1.2687392825228017e-07,0.00026601721765473485,0.0002671221154741943,-0.00010419590398669243,-0.0017316217999905348,0.00419279420748353,-0.0001284939207835123,-0.3971136808395386,0.6922812461853027,0.6183339357376099,0.00876639038324356,0.4743587374687195,-6.409039497375488,0.3295862376689911,0.6910572052001953,0.42000001668930054,-0.796981692314148,2.999995470046997,-0.5058656334877014,-3.0000035762786865,-0.10591241717338562,-0.1136959046125412,-0.12026374042034149,-0.12642505764961243,-0.9999052882194519,-0.9994187951087952,-0.9988771677017212,-0.9984704256057739
0.2833333333333333,0.061324652284383774,0.11955243349075317,0.0,0.9140081405639648,0.0,0.0,-0.4056958556175232,-0.4002837538719177,-0.11859913915395737,0.0,0.0,0.0,1.2360239028930664,-0.36820852756500244,0.694232702255249,0.4200000464916229,1.0,3.593504743548692e-06,-2.2625924884778215e-06,-5.655554602412849e-08,0.00026704728952609,0.0002677498559933156,-0.00010416866280138493,-0.0017431487794965506,0.0042141578160226345,-0.00012789281026925892,-0.3963651657104492,0.6959365606307983,0.5181534290313721,0.20463603734970093,-0.09169113636016846,-5.617071151733398,0.3295862376689911,0.6910572052001953,0.42000001668930054,-0.746972918510437,3.0000007152557373,-0.5558949112892151,-3.0000009536743164,-0.12334239482879639,-0.13095387816429138,-0.137393981218338,-0.1434560865163803,-1.0138214826583862,-1.0104464292526245,-1.0078686475753784,-1.0058094263076782
0.3,0.05322989448904991,0.11582057923078537,0.0,0.9091410636901855,0.0,0.0,-0.41648826003074646,-0.5346558690071106,-0.26541295647621155,0.0,0.0,0.0,-2.2797417640686035,-0.36820849776268005,0.6942326426506042,0.4200000464916229,0.9999999403953552,3.7250931654853048e-06,-2.235988176835235e-06,3.8285057257780863e-07,0.0002647978253662586,0.0002667302906047553,-0.00010453863069415092,-0.0017188735073432326,0.00416669063270092,-0.00013016900629736483,-0.38686710596084595,0.6951233744621277,0.4266735911369324,0.9134634733200073,-0.09119567275047302,-5.210911750793457,0.3295862376689911,0.6910572052001953,0.42000001668930054,-0.6969654560089111,3.000000476837158,-0.6059219837188721,-3.0000014305114746,-0.140889972448349,-0.1483064591884613,-0.15459907054901123,-0.16054421663284302,-1.0147783756256104,-1.0112258195877075,-1.0085078477859497,-1.006324052810669
0.31666666666666665,0.04308401048183441,0.10975421965122223,0.0,0.9113046526908875,0.0,0.0,-0.4117327630519867,-0.6480193138122559,-0.40418484807014465,0.0,0.0,0.0,1.5353848934173584,-0.36795780062675476,0.6940633654594421,0.42000022530555725,0.9999818205833435,1.0014556210080627e-05,5.190651336306473e-06,-0.006027380004525185,0.0002033374912571162,0.0006714541814289987,-0.00045929476618766785,-0.016228707507252693,0.01823287457227707,0.005574923940002918,-0.387337327003479,0.6983981728553772,0.42635127902030945,-0.0223831944167614,0.15927152335643768,-0.2481628656387329,0.3295862376689911,0.6910572052001953,0.42000001668930054,-0.6469610333442688,2.999986410140991,-0.6563841700553894,-3.0000014305114746,-0.14797502756118774,-0.155093714594841,-0.16081954538822174,-0.16584351658821106,-0.4770439863204956,-0.43122798204421997,-0.3751327097415924,-0.30324360728263855
0.3333333333333333,0.030804699286818504,0.10130935162305832,0.0,0.9069989919662476,0.0,0.0,-0.4211328327655792,-0.7802298069000244,-0.5474558472633362,0.0,0.0,0.0,-2.1713573932647705,-0.36795923113822937,0.6940639019012451,0.42000001668930054,0.9999817609786987,4.160854132351233e-06,-3.3683411402307684e-06,-0.006027228198945522,0.10279767960309982,0.14357087016105652,-0.00023446534760296345,-0.052584193646907806,0.012371433898806572,-1.7913012504577637,-0.38484036922454834,0.7003411054611206,0.42278099060058594,0.27874118089675903,0.14905467629432678,-0.1893806755542755,0.3295862376689911,0.6910572052001953,0.42000001668930054,-0.5969555974006653,2.9981064796447754,-0.7064473628997803,-2.9996085166931152,-0.15699058771133423,-0.16287033259868622,-0.16717782616615295,-0.1705130636692047,-0.5541297197341919,-0.45964619517326355,-0.3557617962360382,-0.23690766096115112
0.35,0.02123069390654564,0.09011498093605042,0.0,0.9094213247299194,0.0,0.0,-0.41587603092193604,-0.4367590546607971,-0.7291192412376404,0.0,0.0,0.0,1.5915793180465698,-0.36473944783210754,0.6986812949180603,0.4200078547000885,0.9986700415611267,0.0001492243172833696,-1.6914904108489281e-06,-0.05155715346336365,0.2975812256336212,0.4057108759880066,-0.0001486397086409852,0.1767214685678482,-0.13063715398311615,-7.75844669342041,-0.3797324299812317,0.7044270038604736,0.4204351305961609,0.31706929206848145,0.41987887024879456,0.1083763837814331,0.3295862376689911,0.6910572052001953,0.42000001668930054,-0.54695063829422,3.0000014305114746,-0.756481945514679,-2.999852418899536,-0.166946142911911,-0.17058932781219482,-0.17249897122383118,-0.1731978803873062,-0.5582765340805054,-0.4044155776500702,-0.23992988467216492,-0.0606091246008873
0.36666666666666664,0.010795236565172672,0.07721225917339325,0.0,0.9050976634025574,0.0,0.0,-0.42520374059677124,-0.7003524303436279,-0.7982925772666931,0.0,0.0,0.0,-2.2021403312683105,-0.35804933309555054,0.7073833346366882,0.42000025510787964,0.9893728494644165,7.842807826818898e-05,-5.3151434258325025e-05,-0.145400732755661,0.45683375000953674,0.5904250144958496,-0.0018793274648487568,-0.00016710995987523347,0.06846462190151215,-13.456622123718262,-0.369295209646225,0.7132072448730469,0.41939109563827515,0.8017316460609436,0.5955430269241333,0.043307557702064514,0.3295862376689911,0.6910572052001953,0.42000001668930054,-0.49694588780403137,3.007573127746582,-0.8065195083618164,-2.9727113246917725,-0.17831140756607056,-0.17873576283454895,-0.17726708948612213,-0.1743798553943634,-0.6554363369941711,-0.45471394062042236,-0.24382077157497406,-0.020358309149742126
0.3833333333333333,0.0032795630395412445,0.06159762293100357,0.0,0.8875865340232849,0.0,0.0,-0.46064096689224243,-0.3965652287006378,-0.9799084663391113,0.0,0.0,0.0,-5.591350078582764,-0.3462448716163635,0.7210837006568909,0.42065057158470154,0.971505343914032,-0.01590169593691826,0.0034035653807222843,-0.23645924031734467,1.0234689712524414,1.0853602886199951,0.09195607900619507,-4.189610004425049,1.9011645317077637,-6.459934234619141,-0.3525012135505676,0.7255215644836426,0.4212987422943115,1.2787450551986694,0.8948448300361633,0.15221726894378662,0.3295862376689911,0.6910572052001953,0.42000001668930054,-0.44688552618026733,2.999999523162842,-0.8565241098403931,-2.9999711513519287,-0.1867937445640564,-0.18407770991325378,-0.1792033314704895,-0.1726158708333969,-0.43814030289649963,-0.24811559915542603,-0.04061013087630272,0.1853431910276413
0.4,-0.0005971731734462082,0.04296850040555,0.0,0.8556357622146606,0.0,0.0,-0.5175783634185791,-0.15445876121520996,-1.1784896850585938,0.0,0.0,0.0,-8.58549690246582,-0.3124017119407654,0.7438501119613647,0.423780620098114,0.9578737616539001,-0.011291137896478176,-0.022396260872483253,-0.28609228134155273,3.1225194931030273,1.756240963935852,0.13157397508621216,28.19524383544922,-21.42936134338379,1.5902018547058105,-0.3164430856704712,0.7471824288368225,0.4246215224266052,3.086860179901123,1.7660963535308838,0.4416135549545288,0.3295862376689911,0.6910572052001953,0.42000001668930054,-0.40038278698921204,2.0027787685394287,-0.9065467119216919,-3.000000476837158,-0.19530053436756134,-0.18903428316116333,-0.1804080605506897,-0.1698765605688095,-0.5108447670936584,-0.2902194857597351,-0.06270576268434525,0.17036141455173492
0.4166666666666667,-0.004822940565645695,0.029791878536343575,0.0,0.8051826357841492,0.0,0.0,-0.5930269360542297,-0.2672916650772095,-0.6536375880241394,0.0,0.0,0.0,-11.787237167358398,-0.2338537871837616,0.7767244577407837,0.43020933866500854,0.9328905940055847,0.05760279297828674,-0.06793175637722015,-0.3489731252193451,6.268872261047363,1.6267285346984863,0.49688732624053955,9.69783878326416,-14.03874683380127,25.04363250732422,-0.23762616515159607,0.7801614999771118,0.4312498867511749,6.016993522644043,2.368429183959961,0.5265848636627197,0.3295862376689911,0.6910572052001953,0.42000001668930054,-0.379626989364624,1.0213356018066406,-0.8693949580192566,2.997706651687622,-0.21010717749595642,-0.19993948936462402,-0.18635353446006775,-0.1711677759885788,-0.8829983472824097,-0.7313173413276672,-0.44748151302337646,-0.19282053411006927
0.43333333333333335,-0.006847614422440529,0.023009182885289192,0.0,0.7632202506065369,0.0,0.0,-0.6461384296417236,-0.10233388096094131,-0.4659547805786133,0.0,0.0,0.0,-6.7156291007995605,-0.13702933490276337,0.8055548667907715,0.44156941771507263,0.8870692253112793,0.09177025407552719,-0.090355783700943,-0.4433082342147827,5.831422328948975,0.8087141513824463,0.8518686890602112,17.973955154418945,-6.180276393890381,23.73556900024414,-0.1403602808713913,0.8106045722961426,0.44229787588119507,5.763650894165039,1.4774833917617798,0.7674082517623901,0.3295862376689911,0.6910572052001953,0.42000001668930054,-0.363622784614563,0.9360141754150391,-0.8957488536834717,-3.0000033378601074,-0.2228487730026245,-0.2133466750383377,-0.19662334024906158,-0.17732596397399902,-0.4729740023612976,-0.5700129866600037,-0.5021626949310303,-0.33325865864753723
0.45,-0.01052671018987894,0.01909618265926838,0.0,0.7448624968528748,0.0,0.0,-0.6672179698944092,-0.1780608594417572,-0.234521746635437,0.0,0.0,0.0,-1.9585912227630615,-0.04141947627067566,0.8205969929695129,0.4533989131450653,0.8331167101860046,0.09622753411531448,-0.08338379114866257,-0.5382415056228638,5.602653980255127,-0.2832810580730438,0.5801965594291687,0.4171335697174072,-4.778979778289795,17.157062530517578,-0.04489101469516754,0.8257675170898438,0.4537845253944397,5.775273323059082,0.48375704884529114,0.7096440196037292,0.3295862376689911,0.6910572052001953,0.42000001668930054,-0.34722498059272766,0.9414093494415283,-0.9457728266716003,-3.000001907348633,-0.23310787975788116,-0.22376486659049988,-0.20516255497932434,-0.1827290654182434,-0.48089662194252014,-0.478041410446167,-0.3826512098312378,-0.22543105483055115
0.4666666666666667,-0.01592511311173439,0.008540931157767773,0.0,0.7186259627342224,0.0,0.0,-0.6953967809677124,-0.3899266719818115,-0.7734981179237366,0.0,0.0,0.0,-5.642192363739014,0.051894139498472214,0.8186447620391846,0.4604509770870209,0.7802965044975281,0.07883648574352264,-0.06772616505622864,-0.6167132258415222,5.407099723815918,-1.3305957317352295,0.2525395452976227,-3.2217018604278564,-12.37187385559082,20.446992874145508,0.04831790551543236,0.8256736993789673,0.4613800644874573,5.557143211364746,-0.49995318055152893,0.4349226951599121,0.3295862376689911,0.6910572052001953,0.42000001668930054,-0.3321298360824585,0.7520980834960938,-0.9957968592643738,-3.0000033378601074,-0.235185444355011,-0.22587917745113373,-0.20620320737361908,-0.18184229731559753,-0.01108497753739357,0.02195802517235279,0.09472009539604187,0.20385265350341797
0.48333333333333334,-0.01823137328028679,0.0015892068622633815,0.0,0.7030088901519775,0.0,0.0,-0.7111810445785522,-0.03470412269234657,-0.2895658612251282,0.0,0.0,0.0,-1.6659414768218994,0.1398037075996399,0.8019720315933228,0.4638088047504425,0.7054511308670044,0.03536432981491089,-0.08432933688163757,-0.7028346657752991,4.818682670593262,-1.8488296270370483,0.08605799078941345,13.335975646972656,3.701279401779175,2.8122260570526123,0.1352769434452057,0.8102003335952759,0.46662580966949463,5.032733917236328,-1.279606580734253,0.2729145288467407,0.3295862376689911,0.6910572052001953,0.42000001668930054,-0.3191112279891968,0.8447026014328003,-1.0458191633224487,-2.99894380569458,-0.23982353508472443,-0.2286829650402069,-0.20721104741096497,-0.18097655475139618,-0.28203731775283813,-0.16276080906391144,-0.07447109371423721,-4.439030476532935e-08
0.5,-0.01775624416768551,-0.0017541942652314901,0.0,0.6948193907737732,0.0,0.0,-0.7191842794418335,0.07156967371702194,-0.14262154698371887,0.0,0.0,0.0,-1.5621970891952515,0.21234120428562164,0.778559148311615,0.46238669753074646,0.6513756513595581,0.014410806819796562,-0.06846413016319275,-0.7555227279663086,3.5540943145751953,-1.9036908149719238,-0.23088714480400085,-6.600423812866211,0.18280109763145447,16.249746322631836,0.20930416882038116,0.7874987125396729,0.46601682901382446,4.022192001342773,-1.551354169845581,-0.18310241401195526,0.3295862376689911,0.6910572052001953,0.42000001668930054,-0.3082551956176758,0.5393901467323303,-1.0958412885665894,-2.9999027252197266,-0.23946315050125122,-0.2283753752708435,-0.20689396560192108,-0.1808614730834961,0.0941435769200325,0.12226096540689468,0.0788678303360939,0.015149212442338467
0.5166666666666666,-0.015208957716822624,-0.0015559139428660274,0.0,0.6991659998893738,0.0,0.0,-0.7149593830108643,0.20019403100013733,0.07525552064180374,0.0,0.0,0.0,1.826358675956726,0.2673916518688202,0.7532120943069458,0.45531901717185974,0.6085038781166077,-0.011936909519135952,-0.050144094973802567,-0.7918749451637268,2.573453664779663,-1.7215601205825806,-0.5306452512741089,-2.7010083198547363,1.251710057258606,2.029038190841675,0.26518481969833374,0.7614073753356934,0.4595964550971985,2.766700267791748,-1.597614049911499,-0.5072301626205444,0.3295862376689911,0.6910572052001953,0.42000001668930054,-0.29702138900756836,0.7561222314834595,-1.14586341381073,-3.000000476837158,-0.2362476885318756,-0.22533027827739716,-0.20533205568790436,-0.18117810785770416,0.3109956681728363,0.2633867859840393,0.12998300790786743,-0.03072540834546089
0.5333333333333333,-0.009587623178958893,-0.006127632223069668,0.0,0.6935252547264099,0.0,0.0,-0.7204323410987854,0.29354575276374817,-0.2796861529350281,0.0,0.0,0.0,-1.7227140665054321,0.3080342411994934,0.7316461801528931,0.44103842973709106,0.5610617399215698,-0.0395115464925766,-0.03717004135251045,-0.8259944319725037,2.005444288253784,-1.4314137697219849,-1.0189930200576782,-2.026031255722046,-0.825758159160614,-0.9503942728042603,0.3054664134979248,0.7391648888587952,0.4460161328315735,1.9980123043060303,-1.3121223449707031,-0.9680158495903015,0.3295862376689911,0.6910572052001953,0.42000001668930054,-0.28167301416397095,1.055965781211853,-1.1871527433395386,-2.031575918197632,-0.22518910467624664,-0.21624472737312317,-0.19965238869190216,-0.17932093143463135,0.5928035378456116,0.494030237197876,0.3018231689929962,0.07650350779294968
0.55,-0.0022471577394753695,-0.005967524368315935,0.0,0.6995003819465637,0.0,0.0,-0.7146322727203369,0.48960816860198975,-0.0023493380285799503,0.0,0.0,0.0,1.7608627080917358,0.335883766412735,0.7077457904815674,0.4220353662967682,0.5405137538909912,-0.05675628408789635,-0.035272303968667984,-0.838677167892456,1.4264671802520752,-1.5624765157699585,-1.3532872200012207,-7.7855143547058105,0.2801480293273926,-0.8192968368530273,0.3339386582374573,0.7151092290878296,0.42702972888946533,1.48320734500885,-1.4001649618148804,-1.2464238405227661,0.3295862376689911,0.6910572052001953,0.42000001668930054,-0.2629416286945343,1.234258770942688,-1.1812100410461426,2.3585801124572754,-0.21857161819934845,-0.21074919402599335,-0.19690757989883423,-0.17999371886253357,0.5226966738700867,0.4166961908340454,0.2180243879556656,-0.016785796731710434
0.5666666666666667,0.0026445570401847363,-0.008692433126270771,0.0,0.6942206621170044,0.0,0.0,-0.7197622060775757,0.22938823699951172,-0.22786934673786163,0.0,0.0,0.0,-1.7203906774520874,0.3471311926841736,0.6968646049499512,0.42046231031417847,0.5575523972511292,-0.009417971596121788,-0.005877187475562096,-0.83006751537323,0.38683611154556274,-0.5935166478157043,-0.05167338624596596,0.5865177512168884,-1.7117854356765747,8.029995918273926,0.343439519405365,0.702454686164856,0.42422449588775635,0.2603042721748352,-0.6253669261932373,-0.09153548628091812,0.3295862376689911,0.6910572052001953,0.42000001668930054,-0.2672904133796692,-1.2479068040847778,-1.132045865058899,2.999814510345459,-0.21007630228996277,-0.20405595004558563,-0.1933916211128235,-0.18015305697917938,0.4990215301513672,0.39239105582237244,0.20536644756793976,-0.012417781166732311
0.5833333333333334,0.008372284471988678,-0.00841775257140398,0.0,0.7000307440757751,0.0,0.0,-0.7141126990318298,0.3789108991622925,0.03470626473426819,0.0,0.0,0.0,1.723085880279541,0.35002318024635315,0.6881729960441589,0.42000290751457214,0.5762037038803101,0.00010001647751778364,7.945313882373739e-06,-0.8173061013221741,0.06523529440164566,-0.3966851830482483,0.011459150351583958,-0.4924454987049103,-0.665116012096405,2.3115639686584473,0.34449049830436707,0.693613588809967,0.42515960335731506,-0.0549970343708992,-0.36204397678375244,0.12239757925271988,0.3295862376689911,0.6910572052001953,0.42000001668930054,-0.3025055527687073,-2.810467004776001,-1.1541279554367065,-2.99890398979187,-0.20351922512054443,-0.19913607835769653,-0.1913214921951294,-0.18139323592185974,0.5000423789024353,0.3712025582790375,0.1791682243347168,-0.03398304805159569
0.6,0.015818670392036438,-0.00545902457088232,0.0,0.6939233541488647,0.0,0.0,-0.7200489044189453,0.482607364654541,0.23068608343601227,0.0,0.0,0.0,-1.9733656644821167,0.3497679829597473,0.6837878227233887,0.4200001060962677,0.5987042784690857,-1.3157905698335526e-07,-6.680792466795538e-06,-0.8009700775146484,-0.07604492455720901,-0.182017520070076,-0.0001536411145934835,0.007606289349496365,0.005859360098838806,3.7636303901672363,0.3448590636253357,0.6936242580413818,0.4274335205554962,0.021734368056058884,0.17664770781993866,0.1534675806760788,0.3295862376689911,0.6910572052001953,0.42000001668930054,-0.3419155180454254,-1.9507609605789185,-1.2040855884552002,-2.9990785121917725,-0.1936364620923996,-0.19216865301132202,-0.18808510899543762,-0.1820584088563919,0.669114351272583,0.4741632342338562,0.23750613629817963,-0.005278570111840963
0.6166666666666667,0.025797579437494278,-0.007302037440240383,0.0,0.6991075277328491,0.0,0.0,-0.7150165438652039,0.5650225281715393,-0.14579187333583832,0.0,0.0,0.0,1.7399671077728271,0.3481569290161133,0.6821854114532471,0.4200063943862915,0.6123759746551514,9.118538582697511e-05,-0.00016568251885473728,-0.7905665636062622,-0.20806105434894562,0.012830055318772793,0.005391291342675686,-0.06903696060180664,-0.2616865038871765,2.1084842681884766,0.34277892112731934,0.6960760354995728,0.43028801679611206,-0.25805336236953735,0.13377687335014343,0.19625553488731384,0.3295862376689911,0.6910572052001953,0.42000001668930054,-0.39048150181770325,-3.0000007152557373,-1.2540732622146606,-2.9995310306549072,-0.17965728044509888,-0.18125909566879272,-0.1811501532793045,-0.1791916936635971,0.7277951836585999,0.6037229895591736,0.40589192509651184,0.1984410583972931
0.6333333333333333,0.0378219336271286,-0.004960791207849979,0.0,0.7174917459487915,0.0,0.0,-0.6965669989585876,0.7585342526435852,0.1282936930656433,0.0,0.0,0.0,3.6984400749206543,0.34521958231925964,0.6824960112571716,0.4200000464916229,0.6175149083137512,-4.6932288455536764e-07,1.1010824891855009e-06,-0.7865591645240784,-0.15404199063777924,0.015038781799376011,-3.1465315259993076e-05,-0.0005067941383458674,-0.0015531934332102537,0.4937645196914673,0.33954691886901855,0.6981287002563477,0.4334579110145569,-0.13197200000286102,0.2073739469051361,0.2099352777004242,0.3295862376689911,0.6910572052001953,0.42000001668930054,-0.4405134320259094,-2.999495267868042,-1.3040356636047363,-2.9989686012268066,-0.1711978167295456,-0.17425288259983063,-0.17664122581481934,-0.17735087871551514,0.6253451108932495,0.5104975700378418,0.3473283648490906,0.17934125661849976
0.65,0.046982549130916595,-0.005842034239321947,0.0,0.7216525077819824,0.0,0.0,-0.6922554969787598,0.47054219245910645,-0.10916624218225479,0.0,0.0,0.0,-0.2964620590209961,0.34365546703338623,0.6826488375663757,0.4200000464916229,0.6192561388015747,4.169507121787319e-07,2.6863952484745823e-07,-0.7851890325546265,-0.07283584028482437,0.0068177166394889355,-7.867638487368822e-06,-0.00038307637441903353,9.748698357725516e-05,0.18726959824562073,0.337864488363266,0.7017382383346558,0.43707865476608276,-0.09770684689283371,0.18768525123596191,0.23019662499427795,0.3295862376689911,0.6910572052001953,0.42000001668930054,-0.4905471205711365,-2.999998092651367,-1.3540033102035522,-2.999279737472534,-0.16244585812091827,-0.1668591946363449,-0.17127220332622528,-0.17411591112613678,0.4615541100502014,0.4042675793170929,0.3133430480957031,0.2136588841676712
0.6666666666666666,0.056207917630672455,-0.010458930395543575,0.0,0.7333006262779236,0.0,0.0,-0.6799045205116272,0.6019780039787292,-0.3583613336086273,0.0,0.0,0.0,3.0492641925811768,0.34247103333473206,0.6827292442321777,0.42013901472091675,0.6104124784469604,0.002175651490688324,-0.002729830564931035,-0.7920759320259094,-0.10916948318481445,0.007936195470392704,0.026814071461558342,-0.3226885199546814,-1.3047305345535278,-0.7982032299041748,0.335744708776474,0.7026801109313965,0.4435264468193054,-0.12981627881526947,-0.006361506879329681,0.6012442111968994,0.3295862376689911,0.6910572052001953,0.42000001668930054,-0.5405603647232056,-3.000000476837158,-1.4040215015411377,-2.9999992847442627,-0.1576753705739975,-0.16201116144657135,-0.16670119762420654,-0.16991232335567474,0.21061359345912933,0.2520696520805359,0.2830016016960144,0.31207042932510376
0.6833333333333333,0.06821993738412857,-0.01319108810275793,0.0,0.7343262434005737,0.0,0.0,-0.6787967085838318,0.7750306129455566,-0.05091848969459534,0.0,0.0,0.0,-0.8106166124343872,0.3413659930229187,0.6827864646911621,0.42000019550323486,0.6073896884918213,-7.443222216352297e-07,1.046338070409547e-06,-0.7944040298461914,-0.04193953797221184,0.0019215778447687626,-3.371597267687321e-05,-0.0006187224644236267,-0.0016874645370990038,-0.2738770842552185,0.3375629484653473,0.7027400732040405,0.45288679003715515,0.2995309829711914,-0.04006393998861313,0.6697888374328613,0.3295862376689911,0.6910572052001953,0.42000001668930054,-0.5905718207359314,-3.000000238418579,-1.4540398120880127,-3.0,-0.15789368748664856,-0.16081134974956512,-0.1641068011522293,-0.16591334342956543,-0.11121590435504913,4.022398059078114e-08,0.11587721854448318,0.2357264906167984
0.7,0.08189910650253296,-0.01848975196480751,0.0,0.7155737280845642,0.0,0.0,-0.6985371708869934,0.8787034749984741,-0.3796025812625885,0.0,0.0,0.0,-4.027280330657959,0.34132614731788635,0.6827881336212158,0.4200000464916229,0.6073036193847656,2.603550228741369e-06,-4.8097163016791455e-06,-0.7944697737693787,0.0005314354784786701,-0.0003200961509719491,-0.0001977812498807907,0.004581497050821781,0.002847355557605624,-0.0015724088298156857,0.3482850193977356,0.7046645879745483,0.47090789675712585,0.9259247779846191,0.09934639185667038,1.6135801076889038,0.3295862376689911,0.6910572052001953,0.42000001668930054,-0.6405825018882751,-2.9999942779541016,-1.5040581226348877,-3.000000238418579,-0.15930958092212677,-0.1604597270488739,-0.16179870069026947,-0.16154539585113525,-0.2117871344089508,-0.0816553458571434,0.06293649226427078,0.21249862015247345
0.7166666666666667,0.09838920086622238,-0.020937737077474594,0.0,0.6784813404083252,0.0,0.0,-0.7346176505088806,1.0299257040023804,-0.17480675876140594,0.0,0.0,0.0,-7.172776699066162,0.34132644534111023,0.6827881336212158,0.4200000464916229,0.6073033809661865,4.996963980374858e-07,-3.2520606509933714e-06,-0.7944698929786682,0.0001477524929214269,-0.00027752656023949385,-9.668339043855667e-05,0.006079154089093208,-0.0009602115023881197,-0.0006159958429634571,0.37573501467704773,0.7049500942230225,0.500066876411438,2.3653433322906494,-0.012301631271839142,2.0159411430358887,0.3295862376689911,0.6910572052001953,0.42000001668930054,-0.6685056686401367,-0.54221510887146,-1.5540764331817627,-2.999943256378174,-0.16623342037200928,-0.1649588942527771,-0.16366343200206757,-0.1607854962348938,-0.3196174204349518,-0.21166867017745972,-0.0894530639052391,0.032087039202451706
0.7333333333333333,0.11268161982297897,-0.021651741117239,0.0,0.6543956398963928,0.0,0.0,-0.756152331829071,0.7886285185813904,0.012344855815172195,0.0,0.0,0.0,-2.8187172412872314,0.34132644534111023,0.6827881336212158,0.4200000464916229,0.6073033213615417,4.6146271870384226e-07,-3.3920291571121197e-06,-0.7944700717926025,0.00014505302533507347,-0.000279324158327654,-9.58666205406189e-05,0.006139189004898071,-0.0009968794183805585,-0.0006107643130235374,0.4111437201499939,0.7069790363311768,0.5336102843284607,1.8820064067840576,0.24640539288520813,1.9933185577392578,0.3295862376689911,0.6910572052001953,0.42000001668930054,-0.6507257223129272,2.401625394821167,-1.5412529706954956,2.9999985694885254,-0.17070868611335754,-0.16821950674057007,-0.1654951274394989,-0.16124354302883148,-0.175373837351799,-0.14557142555713654,-0.10448125749826431,-0.06848962604999542
0.75,0.12252580374479294,-0.01935589499771595,0.0,0.6549234986305237,0.0,0.0,-0.7556951642036438,0.5142383575439453,0.18606436252593994,0.0,0.0,0.0,0.9952690005302429,0.34132644534111023,0.682788074016571,0.4200000464916229,0.6073035001754761,5.12955637077539e-07,-3.435327244005748e-06,-0.794469952583313,0.00014624140749219805,-0.0002784024109132588,-9.619793854653835e-05,0.006110827904194593,-0.0009783237474039197,-0.0006129188113845885,0.43404167890548706,0.7103489637374878,0.5634478330612183,0.803882360458374,0.17740151286125183,1.5924403667449951,0.3295862376689911,0.6910572052001953,0.42000001668930054,-0.6018562316894531,2.999997138977051,-1.491230845451355,2.999999761581421,-0.17271709442138672,-0.16985592246055603,-0.16657838225364685,-0.1618807315826416,-0.045130655169487,-0.03502839058637619,-0.015630092471837997,-0.00429823063313961
0.7666666666666666,0.12817907333374023,-0.021505480632185936,0.0,0.6770568490028381,0.0,0.0,-0.7359307408332825,0.3322460353374481,-0.2017165869474411,0.0,0.0,0.0,4.2615647315979,0.34132644534111023,0.6827881336212158,0.4200000464916229,0.6073036193847656,4.638745281226875e-07,-3.5366554129723227e-06,-0.7944698333740234,0.00014487904263660312,-0.00027912113000638783,-9.587663225829601e-05,0.006134325172752142,-0.0009998184395954013,-0.0006106356740929186,0.43803903460502625,0.7141528725624084,0.5854177474975586,-0.35676807165145874,0.20179975032806396,1.0608620643615723,0.3295862376689911,0.6910572052001953,0.42000001668930054,-0.5519503355026245,2.9690749645233154,-1.4411743879318237,3.000000238418579,-0.16944505274295807,-0.16686449944972992,-0.16373391449451447,-0.1593250334262848,0.15496179461479187,0.1524410843849182,0.1539279967546463,0.14295418560504913
0.7833333333333333,0.1307750791311264,-0.019172774627804756,0.0,0.6849318146705627,0.0,0.0,-0.728607177734375,0.09135482460260391,0.11339589208364487,0.0,0.0,0.0,0.21027234196662903,0.34132644534111023,0.6827881336212158,0.4200000464916229,0.6073031425476074,4.791476726495603e-07,-3.1460240279557183e-06,-0.7944700717926025,0.00014537152310367674,-0.00027929601492360234,-9.594135917723179e-05,0.006136976648122072,-0.0009926429484039545,-0.0006114261923357844,0.4259631633758545,0.7154120206832886,0.5976537466049194,-0.9191716909408569,0.041399866342544556,0.5353018045425415,0.3295862376689911,0.6910572052001953,0.42000001668930054,-0.5407739281654358,-1.2670286893844604,-1.391121745109558,2.999999761581421,-0.17138677835464478,-0.16799567639827728,-0.16400431096553802,-0.15896765887737274,0.05309029296040535,0.06918253749608994,0.09410570561885834,0.11200886219739914
0.8,0.13003429770469666,-0.015552928671240807,0.0,0.7008002996444702,0.0,0.0,-0.7133575081825256,-0.11124328523874283,0.32835954427719116,0.0,0.0,0.0,3.2899680137634277,0.34132644534111023,0.6827881336212158,0.4200000464916229,0.6073032021522522,5.252467190075549e-07,-3.1876159027888207e-06,-0.7944701910018921,0.00014412921154871583,-0.0002790747967083007,-9.569711983203888e-05,0.006138473283499479,-0.001007555634714663,-0.0006085142958909273,0.4130951762199402,0.7166427373886108,0.6029394865036011,-0.6661077737808228,0.17560651898384094,0.15642021596431732,0.3295862376689911,0.6910572052001953,0.42000001668930054,-0.5377746820449829,1.392030119895935,-1.409393072128296,-3.000000476837158,-0.1693047434091568,-0.16586357355117798,-0.16163353621959686,-0.1564176082611084,0.19008386135101318,0.17439627647399902,0.17225030064582825,0.1700461208820343
0.8166666666666667,0.13003839552402496,-0.013817733153700829,0.0,0.702690064907074,0.0,0.0,-0.7114960551261902,0.04380204156041145,0.02786289155483246,0.0,0.0,0.0,-0.5293198823928833,0.34132644534111023,0.6827881336212158,0.4200000464916229,0.6073032021522522,5.142913437339303e-07,-3.2307823403243674e-06,-0.7944701910018921,0.00014423910761252046,-0.00027905215392820537,-9.572179988026619e-05,0.006137393414974213,-0.0010059741325676441,-0.0006087323417887092,0.39771389961242676,0.7212664484977722,0.6013702154159546,-1.1496589183807373,0.26943641901016235,-0.16016027331352234,0.3295862376689911,0.6910572052001953,0.42000001668930054,-0.5480108857154846,-2.2910571098327637,-1.3709243535995483,2.9999992847442627,-0.16543015837669373,-0.16269661486148834,-0.15898260474205017,-0.15428526699543,0.23174552619457245,0.1816563755273819,0.13890263438224792,0.09355027228593826
0.8333333333333334,0.1328652948141098,-0.01625165343284607,0.0,0.7133799195289612,0.0,0.0,-0.700777530670166,0.22349104285240173,-0.21723684668540955,0.0,0.0,0.0,2.593848943710327,0.34132644534111023,0.6827881336212158,0.4200000464916229,0.607303261756897,4.865935352427186e-07,-3.2525592814636184e-06,-0.7944701313972473,0.00014368775009643286,-0.0002791283477563411,-9.55753494054079e-05,0.0061422353610396385,-0.0010127400746569037,-0.0006075463606975973,0.383577436208725,0.7258121967315674,0.5971106290817261,-0.5749797821044922,0.3175245225429535,-0.2661198079586029,0.3295862376689911,0.6910572052001953,0.42000001668930054,-0.5589083433151245,0.7302331328392029,-1.3874869346618652,-2.999999523162842,-0.16252411901950836,-0.16006629168987274,-0.15649454295635223,-0.15196454524993896,0.1683293581008911,0.16796281933784485,0.17620646953582764,0.1845352202653885
0.85,0.134354367852211,-0.02122672274708748,0.0,0.7122953534126282,0.0,0.0,-0.7018798589706421,0.032359033823013306,-0.33468449115753174,0.0,0.0,0.0,-1.0924155712127686,0.34132644534111023,0.682788074016571,0.4200000464916229,0.6073033809661865,5.063592993792554e-07,-3.476111032796325e-06,-0.7944698929786682,0.00014645361807197332,-0.00027841655537486076,-9.625125676393509e-05,0.006109881680458784,-0.0009760912507772446,-0.0006134204450063407,0.3767034113407135,0.7289702892303467,0.5901756286621094,-0.2688106298446655,0.08123090118169785,-0.374412477016449,0.3295862376689911,0.6910572052001953,0.42000001668930054,-0.5846977233886719,-3.0000007152557373,-1.3490808010101318,3.0,-0.1620706170797348,-0.1591339111328125,-0.15494103729724884,-0.1497795283794403,-0.014892407692968845,0.03008880652487278,0.08309901505708694,0.13719210028648376
0.8666666666666667,0.13778658211231232,-0.02059083804488182,0.0,0.6900720000267029,0.0,0.0,-0.7237406969070435,0.28009387850761414,0.2026524841785431,0.0,0.0,0.0,-4.749081134796143,0.34132644534111023,0.682788074016571,0.4200000464916229,0.6073033809661865,4.792652248397644e-07,-3.144154561596224e-06,-0.7944698929786682,0.00014703103806823492,-0.0002781187940854579,-9.644916281104088e-05,0.006098465528339148,-0.0009698632056824863,-0.0006146538653410971,0.3762294054031372,0.7273803353309631,0.5840730667114258,0.22886565327644348,-0.23418104648590088,-0.1767435073852539,0.3295862376689911,0.6910572052001953,0.42000001668930054,-0.6129752397537231,-0.5790504813194275,-1.3681381940841675,-2.9999988079071045,-0.16889271140098572,-0.16417565941810608,-0.15813688933849335,-0.15118050575256348,-0.5436872243881226,-0.4133493900299072,-0.2808290719985962,-0.15246552228927612
0.8833333333333333,0.1432362198829651,-0.022459087893366814,0.0,0.6810227036476135,0.0,0.0,-0.7322622537612915,0.3210315406322479,-0.27873700857162476,0.0,0.0,0.0,-0.43623197078704834,0.34132644534111023,0.682788074016571,0.4200000464916229,0.6073035001754761,6.243213306333928e-07,-3.3421772513975156e-06,-0.794469952583313,0.00014873921463731676,-0.00027536816196516156,-9.704846888780594e-05,0.0060228933580219746,-0.0009387494646944106,-0.0006167592946439981,0.3754165768623352,0.7270249128341675,0.5842728614807129,-0.27656370401382446,0.1430661678314209,0.14909736812114716,0.3295862376689911,0.6910572052001953,0.42000001668930054,-0.5979407429695129,2.1367223262786865,-1.4181565046310425,-3.0,-0.17209067940711975,-0.16651692986488342,-0.15960104763507843,-0.15180766582489014,0.040138646960258484,0.028911374509334564,0.017204850912094116,0.0036959187127649784
