vladlanda/robotic-transformer/data/env_000_episode_0141.csv
sim_time_s,robot_box_x,robot_box_y,robot_box_z,robot_box_quat_w,robot_box_quat_x,robot_box_quat_y,robot_box_quat_z,robot_box_linvel_x,robot_box_linvel_y,robot_box_linvel_z,robot_box_angvel_x,robot_box_angvel_y,robot_box_angvel_z,cube_world_x,cube_world_y,cube_world_z,cube_quat_w,cube_quat_x,cube_quat_y,cube_quat_z,cube_linvel_x,cube_linvel_y,cube_linvel_z,cube_angvel_x,cube_angvel_y,cube_angvel_z,endpoint_world_x,endpoint_world_y,endpoint_world_z,endpoint_linvel_x,endpoint_linvel_y,endpoint_linvel_z,target_cube_world_x,target_cube_world_y,target_cube_world_z,gripper_actual_pos_rad_gp_leftgearjoint,gripper_actual_vel_rad_s_gp_leftgearjoint,gripper_actual_pos_rad_gp_rotatingjoint,gripper_actual_vel_rad_s_gp_rotatingjoint,motor_angle_rad_joint1,motor_angle_rad_joint2,motor_angle_rad_joint3,motor_angle_rad_joint4,motor_speed_rad_s_joint1,motor_speed_rad_s_joint2,motor_speed_rad_s_joint3,motor_speed_rad_s_joint4
0.0,0.0,0.0,0.0,1.0,0.0,0.0,0.0,0.0,0.0,0.0,0.0,0.0,0.0,-0.3791610598564148,0.744510293006897,0.41999998688697815,1.0,0.0,0.0,0.0,0.0,0.0,0.0,0.0,0.0,0.0,3.42540442943573e-06,-0.005000244826078415,1.313499927520752,0.0,0.0,0.0,0.37477582693099976,0.7141022086143494,0.42000001668930054,-1.5707999467849731,0.0,0.0,0.0,0.0,0.0,0.0,0.0,0.0,0.0,0.0,0.0
0.016666666666666666,0.002879709703847766,0.002178595867007971,0.0,0.9998124241828918,0.0,0.0,0.019367258995771408,0.24092598259449005,0.182331845164299,0.0,0.0,0.0,3.141829490661621,-0.37916117906570435,0.7445099949836731,0.41999998688697815,1.0,3.279964630564791e-06,-8.339746386809566e-07,8.465587342243452e-08,-1.9833529222523794e-05,0.00017983045836444944,-6.132945418357849e-05,0.0009432713268324733,-0.004689474124461412,-0.00031981561915017664,-0.007109742611646652,0.003385221818462014,1.3159382343292236,-0.8141434192657471,0.9870820045471191,0.1809585839509964,0.37477582693099976,0.7141022086143494,0.42000001668930054,-1.5301095247268677,3.000002145767212,-0.045848436653614044,-2.999999523162842,0.0008699657046236098,0.0007966164266690612,0.0007111665327101946,0.0006110169342719018,0.11094236373901367,0.09758064150810242,0.08335842192173004,0.06825308501720428
0.03333333333333333,0.008963359519839287,0.0067988247610628605,0.0,0.999800443649292,0.0,0.0,0.019977709278464317,0.40706828236579895,0.3152450919151306,0.0,0.0,0.0,-0.8690680265426636,-0.3791612982749939,0.7445099353790283,0.4200000464916229,1.0,3.390805204617209e-06,-2.132404688381939e-06,-3.708747797759315e-08,0.0002635775599628687,0.0002693787682801485,-0.0001050964929163456,-0.0017706695944070816,0.004130705259740353,-0.00013547964044846594,-0.027003144845366478,0.026335736736655235,1.3166592121124268,-1.5294959545135498,1.6203131675720215,-0.07738088816404343,0.37477582693099976,0.7141022086143494,0.42000001668930054,-1.4800902605056763,3.00000262260437,-0.09588826447725296,-3.000000476837158,0.002931660506874323,0.0025730335619300604,0.0021766694262623787,0.0017392697045579553,0.15710800886154175,0.13049599528312683,0.10238909721374512,0.0727054625749588
0.05,0.018476566299796104,0.013906091451644897,0.0,0.9999749660491943,0.0,0.0,-0.007075700908899307,0.6363410949707031,0.4724833369255066,0.0,0.0,0.0,-4.072873115539551,-0.3791613280773163,0.7445099949836731,0.4200000464916229,1.0,3.7651225284207612e-06,-2.211832452303497e-06,5.631207500300661e-09,0.0002653110132087022,0.000266915129031986,-0.00010440382175147533,-0.0017243130132555962,0.00417749211192131,-0.00012949398660566658,-0.05512970685958862,0.05793219432234764,1.3123722076416016,-1.8493201732635498,2.095945358276367,-0.4249642789363861,0.37477582693099976,0.7141022086143494,0.42000001668930054,-1.4300719499588013,3.000001907348633,-0.14592695236206055,-3.0000014305114746,0.005740327760577202,0.004830712918192148,0.003848772495985031,0.002790312049910426,0.189549058675766,0.14628653228282928,0.10109934210777283,0.05392074957489967
0.06666666666666667,0.030801745131611824,0.023398881778120995,0.0,0.9998767971992493,0.0,0.0,-0.015695270150899887,0.7727869153022766,0.6163511276245117,0.0,0.0,0.0,-0.03566884621977806,-0.3791613280773163,0.7445099353790283,0.4200000464916229,0.9999999403953552,3.4066986245306907e-06,-2.2855422230350086e-06,4.301130900330463e-07,0.0002670245012268424,0.00026791836717166007,-0.0001043803058564663,-0.0017406563274562359,0.004211660008877516,-0.00012850432540290058,-0.08920817077159882,0.09202544391155243,1.3028843402862549,-2.1062231063842773,2.156931161880493,-0.7040557265281677,0.37477582693099976,0.7141022086143494,0.42000001668930054,-1.380043864250183,3.0000014305114746,-0.13728362321853638,3.0000011920928955,0.00797806866466999,0.006259376183152199,0.00442787678912282,0.0024792556650936604,0.10992181301116943,0.0520223043859005,-0.00804437417536974,-0.07032976299524307
0.08333333333333333,0.036837853491306305,0.03677685931324959,0.0,0.9992175102233887,0.0,0.0,-0.039551883935928345,0.22707310318946838,0.8761088252067566,0.0,0.0,0.0,-3.8072025775909424,-0.3791613280773163,0.7445099353790283,0.4200000464916229,1.0,3.697237389133079e-06,-2.188894086430082e-06,-2.632152131809562e-07,0.000263897207332775,0.0002658645680639893,-0.00010433699935674667,-0.0017081270925700665,0.00415023323148489,-0.0001299154246225953,-0.11863179504871368,0.13197866082191467,1.289414405822754,-1.4605076313018799,2.64443302154541,-0.8401308059692383,0.37477582693099976,0.7141022086143494,0.42000001668930054,-1.3300437927246094,2.9999992847442627,-0.16916516423225403,-3.000000238418579,0.0034742283169180155,0.0009283212129957974,-0.0017848778516054153,-0.004673305433243513,-0.4007450044155121,-0.46411582827568054,-0.5302627682685852,-0.5994161367416382
0.1,0.04670116305351257,0.0517338365316391,0.0,0.9958527088165283,0.0,0.0,-0.09097997844219208,0.7375006079673767,0.9042128920555115,0.0,0.0,0.0,-6.964619159698486,-0.3791613280773163,0.7445099353790283,0.4200000464916229,0.9999999403953552,3.6202645787852816e-06,-2.2652204734185943e-06,1.7464172685777157e-07,0.00026676952256821096,0.00026740870089270175,-0.0001040799543261528,-0.0017386189429089427,0.004209231119602919,-0.0001277522387681529,-0.14434313774108887,0.17797568440437317,1.275496482849121,-1.6229703426361084,2.9058051109313965,-0.8884410858154297,0.37477582693099976,0.7141022086143494,0.42000001668930054,-1.280034065246582,2.999999523162842,-0.19484257698059082,-0.29064640402793884,0.0012315394124016166,-0.002904058899730444,-0.0072106048464775085,-0.011696060188114643,-0.04552688077092171,-0.14839722216129303,-0.2502482235431671,-0.3510085642337799
0.11666666666666667,0.055209193378686905,0.06384412199258804,0.0,0.9924398064613342,0.0,0.0,-0.12273231148719788,0.5398434400558472,0.6849998235702515,0.0,0.0,0.0,-2.5775680541992188,-0.3791613280773163,0.7445099353790283,0.4200000464916229,1.0,3.798244051722577e-06,-2.2627962152910186e-06,-1.50183694813677e-07,0.000263741152593866,0.00026566089945845306,-0.00010428996756672859,-0.0017054296331480145,0.004147564060986042,-0.00012979822349734604,-0.17571306228637695,0.2240993082523346,1.2587404251098633,-1.8631260395050049,2.9823808670043945,-1.0270622968673706,0.37477582693099976,0.7141022086143494,0.42000001668930054,-1.2300264835357666,3.0,-0.17477114498615265,2.442551374435425,-0.0017417219933122396,-0.007466922048479319,-0.013337139040231705,-0.019360080361366272,-0.0888122096657753,-0.20213279128074646,-0.3120957911014557,-0.4185327887535095
0.13333333333333333,0.06114580109715462,0.07651494443416595,0.0,0.9865206480026245,0.0,0.0,-0.16363666951656342,0.29049476981163025,0.8055850863456726,0.0,0.0,0.0,-5.704225540161133,-0.3791613280773163,0.7445099949836731,0.4200000464916229,0.9999999403953552,3.55031761500868e-06,-2.2298022486211266e-06,2.929353684066882e-07,0.0002670320973265916,0.0002677934244275093,-0.00010417005978524685,-0.0017440698575228453,0.004213511943817139,-0.00012799800606444478,-0.20442521572113037,0.2773314118385315,1.240527629852295,-1.5365840196609497,3.509131908416748,-1.1685574054718018,0.37477582693099976,0.7141022086143494,0.42000001668930054,-1.180409550666809,2.926295757293701,-0.20965947210788727,-3.0,-0.004916553385555744,-0.012526069767773151,-0.02021181955933571,-0.027978699654340744,-0.25329577922821045,-0.36291465163230896,-0.4680445194244385,-0.5684959888458252
0.15,0.06381392478942871,0.088101826608181,0.0,0.9826620817184448,0.0,0.0,-0.18540550768375397,0.10923348367214203,0.6134640574455261,0.0,0.0,0.0,-1.4755290746688843,-0.3791612982749939,0.7445099353790283,0.4200000464916229,1.0,3.332025926283677e-06,-2.1019659470766783e-06,1.313283775061791e-07,0.00026730605168268085,0.00026859392528422177,-0.00010459637269377708,-0.0017496388172730803,0.004215574357658625,-0.00012928410433232784,-0.23695290088653564,0.3347775638103485,1.213205099105835,-2.0421056747436523,3.6104297637939453,-2.049415111541748,0.37477582693099976,0.7141022086143494,0.42000001668930054,-1.1537423133850098,0.4662814736366272,-0.17578278481960297,3.000000238418579,-0.009690497070550919,-0.018727585673332214,-0.027758490294218063,-0.036787308752536774,-0.3259539306163788,-0.38625991344451904,-0.4419991075992584,-0.49327459931373596
0.16666666666666666,0.06905604153871536,0.09975982457399368,0.0,0.9756667613983154,0.0,0.0,-0.219258651137352,0.3114214837551117,0.7418380975723267,0.0,0.0,0.0,-5.0080742835998535,-0.3791613280773163,0.7445099353790283,0.4200000464916229,1.0,3.7371282815001905e-06,-2.233031636933447e-06,-1.8763215337003203e-07,0.000264328729826957,0.0002662690822035074,-0.00010445667430758476,-0.0017118192045018077,0.004157449118793011,-0.00013001686602365226,-0.2696923017501831,0.39912524819374084,1.1755518913269043,-1.7950804233551025,4.119287967681885,-2.5361862182617188,0.37477582693099976,0.7141022086143494,0.42000001668930054,-1.113214135169983,3.0000009536743164,-0.20741760730743408,-3.000000238418579,-0.01604616455733776,-0.02583998814225197,-0.03556705638766289,-0.045234810560941696,-0.5677688717842102,-0.5819528698921204,-0.5943096876144409,-0.6051632165908813
0.18333333333333332,0.07207862287759781,0.11126626282930374,0.0,0.9616562724113464,0.0,0.0,-0.27425751090049744,0.1338450163602829,0.6607061624526978,0.0,0.0,0.0,-7.940391540527344,-0.3791613280773163,0.7445099949836731,0.4200000464916229,0.9999999403953552,3.6600679322873475e-06,-2.302136635989882e-06,2.528700520088023e-07,0.00026690925005823374,0.0002676027943380177,-0.0001041253563016653,-0.0017412796150892973,0.0042115445248782635,-0.00012787021114490926,-0.30076441168785095,0.4696148633956909,1.1257216930389404,-1.6353391408920288,4.502386093139648,-3.4343085289001465,0.37477582693099976,0.7141022086143494,0.42000001668930054,-1.0725690126419067,1.935465693473816,-0.2574458420276642,-3.0000011920928955,-0.026681261137127876,-0.036455750465393066,-0.04612887650728226,-0.05571568384766579,-0.6919428110122681,-0.6742219924926758,-0.6548534035682678,-0.6343627572059631
0.2,0.07640919089317322,0.12350267916917801,0.0,0.9501456022262573,0.0,0.0,-0.31180664896965027,0.31059664487838745,0.7882248759269714,0.0,0.0,0.0,-3.665128469467163,-0.3791613280773163,0.7445099353790283,0.4200000464916229,1.0,3.5906386983697303e-06,-2.3002876332611777e-06,1.387365955451969e-07,0.0002665475767571479,0.0002673207491170615,-0.00010424014180898666,-0.0017325275111943483,0.004203495569527149,-0.00012820970732718706,-0.3318978548049927,0.5400069355964661,1.0589556694030762,-1.5764691829681396,4.33328914642334,-4.5135369300842285,0.37477582693099976,0.7141022086143494,0.42000001668930054,-1.0249613523483276,3.000005006790161,-0.30747219920158386,-3.0000007152557373,-0.04112435132265091,-0.0498005710542202,-0.05839064344763756,-0.06692489236593246,-0.9202170372009277,-0.8349283337593079,-0.7515709400177002,-0.6711478233337402
0.21666666666666667,0.07891041040420532,0.13330857455730438,0.0,0.9474868774414062,0.0,0.0,-0.319794625043869,0.08591581881046295,0.49847933650016785,0.0,0.0,0.0,0.34192466735839844,-0.3791613280773163,0.7445099949836731,0.4200000464916229,1.0,3.6067460769118043e-06,-2.260896735606366e-06,1.9630940428783106e-08,0.0002644705818966031,0.0002655840362422168,-0.00010396447032690048,-0.0017087544547393918,0.004164231941103935,-0.00012832245556637645,-0.36004215478897095,0.6034039258956909,0.9777096509933472,-1.4602552652359009,3.5461602210998535,-5.192254066467285,0.37477582693099976,0.7141022086143494,0.42000001668930054,-0.9749516844749451,3.0000007152557373,-0.3574985861778259,-3.000000476837158,-0.057194363325834274,-0.06530457735061646,-0.07230164855718613,-0.0790967270731926,-0.9641177654266357,-0.9520062208175659,-0.8614732623100281,-0.7513428330421448
0.23333333333333334,0.07713868468999863,0.14402006566524506,0.0,0.9412014484405518,0.0,0.0,-0.33784592151641846,-0.1760973334312439,0.6727895140647888,0.0,0.0,0.0,-3.141836166381836,-0.3791612982749939,0.7445099353790283,0.4200000464916229,0.9999999403953552,3.742040007637115e-06,-2.2273377453529974e-06,4.589223294715339e-07,0.00026475079357624054,0.00026671396335586905,-0.0001045342069119215,-0.001718980842269957,0.004165731370449066,-0.00013019278412684798,-0.38080835342407227,0.6600821018218994,0.8853743076324463,-1.0358009338378906,3.1423521041870117,-5.761139869689941,0.37477582693099976,0.7141022086143494,0.42000001668930054,-0.924942135810852,2.9999988079071045,-0.4075278639793396,-3.0,-0.07305121421813965,-0.08124177902936935,-0.0883295089006424,-0.09508153051137924,-0.9883266091346741,-0.9830873012542725,-0.9794543981552124,-0.9763070344924927
0.25,0.07954784482717514,0.14985400438308716,0.0,0.93976229429245,0.0,0.0,-0.3418286442756653,0.14660733938217163,0.26538097858428955,0.0,0.0,0.0,0.5196788311004639,-0.3791613280773163,0.7445099353790283,0.4200000464916229,1.0,3.3941641959245317e-06,-2.2818860543338815e-06,1.336301380661098e-07,0.0002667922817636281,0.0002679384488146752,-0.00010439474135637283,-0.0017417253693565726,0.004206556361168623,-0.00012884114403277636,-0.3989757299423218,0.7041803002357483,0.7860027551651001,-0.9216132760047913,2.1085667610168457,-6.196081638336182,0.37477582693099976,0.7141022086143494,0.42000001668930054,-0.8749314546585083,2.9999938011169434,-0.4575585722923279,-3.000000476837158,-0.08737388253211975,-0.09527864307165146,-0.10211975872516632,-0.10844888538122177,-0.9885408282279968,-0.9805697798728943,-0.9693276286125183,-0.8966398239135742
0.26666666666666666,0.07740433514118195,0.15266074240207672,0.0,0.9336421489715576,0.0,0.0,-0.35820719599723816,-0.2227894514799118,0.12371417880058289,0.0,0.0,0.0,-2.972214460372925,-0.3791613280773163,0.7445099949836731,0.4200000464916229,1.0,3.683193199321977e-06,-2.309913497811067e-06,2.101072880122956e-07,0.0002647913643158972,0.0002662580809555948,-0.00010421057231724262,-0.0017168582417070866,0.0041689565405249596,-0.00012909348879475147,-0.4084796905517578,0.731489896774292,0.6783654689788818,-0.20699423551559448,1.1124675273895264,-6.482287406921387,0.37477582693099976,0.7141022086143494,0.42000001668930054,-0.8249213695526123,3.000000238418579,-0.5075897574424744,-3.0,-0.10469532012939453,-0.11240167170763016,-0.11909674853086472,-0.12531881034374237,-1.0025922060012817,-1.001943826675415,-1.0014513731002808,-1.001059889793396
0.2833333333333333,0.07212960720062256,0.15332536399364471,0.0,0.9337162971496582,0.0,0.0,-0.3580138683319092,-0.297683984041214,-0.03974156826734543,0.0,0.0,0.0,0.8475029468536377,-0.3791613280773163,0.7445099353790283,0.4200000464916229,1.0,3.3066860396502307e-06,-2.2123508642835077e-06,2.6256594765072805e-07,0.00026660787989385426,0.00026745101786218584,-0.00010424572974443436,-0.0017352577997371554,0.004204442724585533,-0.00012828593025915325,-0.4091368317604065,0.740904688835144,0.5753558874130249,0.1574198305606842,0.1880669891834259,-5.906739234924316,0.37477582693099976,0.7141022086143494,0.42000001668930054,-0.7749125361442566,2.9999840259552,-0.5576197504997253,-3.000002145767212,-0.12169197201728821,-0.12929745018482208,-0.13593332469463348,-0.14211924374103546,-0.7847263216972351,-0.830241322517395,-0.8723582625389099,-0.9097787141799927
0.3,0.06529971957206726,0.15110258758068085,0.0,0.9284723401069641,0.0,0.0,-0.3714015781879425,-0.4576047360897064,-0.1769930124282837,0.0,0.0,0.0,-2.576312303543091,-0.3791613280773163,0.7445099353790283,0.4200000464916229,1.0,3.641024932221626e-06,-2.377741111558862e-06,-4.1939159700632445e-07,0.0002661148027982563,0.00026725901989266276,-0.00010423362255096436,-0.0017336049349978566,0.004194726701825857,-0.0001285561011172831,-0.4014228880405426,0.7465323209762573,0.4786733090877533,0.8130162954330444,0.29783177375793457,-5.424801349639893,0.37477582693099976,0.7141022086143494,0.42000001668930054,-0.7249037623405457,3.0,-0.6076484322547913,-3.000002145767212,-0.13895097374916077,-0.1464502066373825,-0.1530064046382904,-0.15912853181362152,-1.0209671258926392,-1.0158504247665405,-1.0119370222091675,-1.0088032484054565
0.31666666666666665,0.05643247067928314,0.14653882384300232,0.0,0.9296008944511414,0.0,0.0,-0.36856767535209656,-0.5696352124214172,-0.3140697181224823,0.0,0.0,0.0,1.2752447128295898,-0.3791613280773163,0.7445099949836731,0.4200000464916229,1.0,3.621596988523379e-06,-2.2888571038492955e-06,1.9691172781222122e-07,0.0002673400449566543,0.0002680283214431256,-0.00010420801118016243,-0.0017466888530179858,0.00421897554770112,-0.00012793613132089376,-0.3948313593864441,0.7493596076965332,0.42939871549606323,0.1403619796037674,-0.07442247867584229,-0.2611062824726105,0.37477582693099976,0.7141022086143494,0.42000001668930054,-0.6748988032341003,2.9999840259552,-0.6580567359924316,-2.999673366546631,-0.15237140655517578,-0.1598878800868988,-0.16638775169849396,-0.1722082495689392,-0.4821082353591919,-0.4948859214782715,-0.49603572487831116,-0.4654175043106079
0.3333333333333333,0.04535602405667305,0.1396767795085907,0.0,0.9249981641769409,0.0,0.0,-0.3799715042114258,-0.7102321982383728,-0.4512051045894623,0.0,0.0,0.0,-2.3854446411132812,-0.3789116144180298,0.7449318766593933,0.4200000464916229,0.9999953508377075,-6.449902230087901e-07,6.152525315883395e-07,-0.003025317331776023,0.01285279355943203,0.022207196801900864,-3.05988360196352e-05,0.0017411564476788044,-0.0003072000399697572,-0.2778853476047516,-0.3933781385421753,0.7508648633956909,0.4265820384025574,0.21076518297195435,0.08499254286289215,-0.18998973071575165,0.37477582693099976,0.7141022086143494,0.42000001668930054,-0.6248924732208252,2.999980926513672,-0.7081525921821594,-2.9999568462371826,-0.16048473119735718,-0.16757608950138092,-0.17339476943016052,-0.1779964417219162,-0.5165095329284668,-0.4511150121688843,-0.37102437019348145,-0.26240092515945435
0.35,0.03215162456035614,0.13052190840244293,0.0,0.9265670776367188,0.0,0.0,-0.3761295676231384,-0.8305816054344177,-0.5889652371406555,0.0,0.0,0.0,1.4309200048446655,-0.3758760988712311,0.7477882504463196,0.4200003445148468,0.9990266561508179,1.2245968719071243e-05,9.338578820461407e-06,-0.044109541922807693,0.18780383467674255,0.11566077917814255,-0.0004976668860763311,-0.013582955114543438,-0.013117624446749687,-8.011281967163086,-0.3888171315193176,0.752246618270874,0.4233916103839874,0.367744505405426,0.12460721284151077,-0.16912870109081268,0.37477582693099976,0.7141022086143494,0.42000001668930054,-0.5748873949050903,3.000001907348633,-0.7581983804702759,-2.999972343444824,-0.1702074408531189,-0.17545247077941895,-0.1792033314704895,-0.1813443899154663,-0.5675631761550903,-0.4356148838996887,-0.2915956377983093,-0.12777794897556305
0.36666666666666664,0.021881751716136932,0.11872296780347824,0.0,0.9224750995635986,0.0,0.0,-0.3860565423965454,-0.5385257005691528,-0.7549957036972046,0.0,0.0,0.0,-2.1776540279388428,-0.37318798899650574,0.7491541504859924,0.4200000464916229,0.9948285818099976,2.5952558644348755e-06,1.6353856153727975e-06,-0.10156744718551636,0.16125205159187317,0.08990965783596039,-2.6314519345760345e-06,0.00011010843445546925,-4.998526492272504e-05,-6.040975570678711,-0.3821994662284851,0.7536017894744873,0.42118313908576965,0.5125622153282166,0.14867939054965973,-0.1147083044052124,0.37477582693099976,0.7141022086143494,0.42000001668930054,-0.5248825550079346,2.9999754428863525,-0.8082552552223206,-2.9999842643737793,-0.18003910779953003,-0.18266421556472778,-0.18356634676456451,-0.18255338072776794,-0.5418764352798462,-0.3761640191078186,-0.1973208338022232,-0.002814464969560504
0.3833333333333333,0.009382214397192001,0.10531853139400482,0.0,0.9062376022338867,0.0,0.0,-0.4227687120437622,-0.7438612580299377,-0.8978450894355774,0.0,0.0,0.0,-5.771191120147705,-0.36697301268577576,0.7548142671585083,0.42011383175849915,0.9737273454666138,0.002770524239167571,-0.00041379992035217583,-0.22769978642463684,0.5494104623794556,0.502946138381958,0.04533062130212784,2.280027151107788,-0.8055406212806702,-21.167362213134766,-0.37121278047561646,0.7589468955993652,0.42060691118240356,0.8411985039710999,0.6661918759346008,0.02397599257528782,0.37477582693099976,0.7141022086143494,0.42000001668930054,-0.4748782515525818,2.999852180480957,-0.8583088517189026,-2.9992780685424805,-0.19032073020935059,-0.18983303010463715,-0.18737657368183136,-0.182760089635849,-0.37019702792167664,-0.23033690452575684,-0.07081811130046844,0.10795437544584274
0.4,0.000444096076535061,0.08856776356697083,0.0,0.875865638256073,0.0,0.0,-0.482555091381073,-0.4896286129951477,-1.0469540357589722,0.0,0.0,0.0,-8.792450904846191,-0.3424513041973114,0.7756743431091309,0.4230254590511322,0.9658401608467102,0.011465470306575298,-0.03587958216667175,-0.256386399269104,3.2356760501861572,1.286725401878357,0.26392725110054016,-7.517486095428467,3.2874577045440674,-6.207038402557373,-0.3456369638442993,0.7776076793670654,0.42272743582725525,2.445209264755249,1.7082574367523193,0.328978955745697,0.37477582693099976,0.7141022086143494,0.42000001668930054,-0.4248746633529663,2.953220844268799,-0.9083461165428162,-2.999999761581421,-0.19745276868343353,-0.19416648149490356,-0.18859346210956573,-0.18059584498405457,-0.5404558777809143,-0.3255102336406708,-0.09574364870786667,0.14278557896614075
0.4166666666666667,-0.005896083544939756,0.0772286206483841,0.0,0.8294640779495239,0.0,0.0,-0.5585600137710571,-0.2992229759693146,-0.6972498893737793,0.0,0.0,0.0,-11.370528221130371,-0.27579566836357117,0.8076775670051575,0.42796263098716736,0.9462385177612305,0.05378628894686699,-0.07284059375524521,-0.3105381727218628,5.268423080444336,2.484797716140747,0.06645973026752472,29.947277069091797,-26.023693084716797,3.5174877643585205,-0.2787550687789917,0.811037540435791,0.4273598790168762,5.0790510177612305,2.4514660835266113,0.4692404568195343,0.37477582693099976,0.7141022086143494,0.42000001668930054,-0.39069053530693054,1.2217025756835938,-0.8708863258361816,2.993886709213257,-0.2116992026567459,-0.20445311069488525,-0.1939571350812912,-0.18123583495616913,-0.5777068734169006,-0.4705072045326233,-0.2356601357460022,-0.013950743712484837
0.43333333333333335,-0.00836189929395914,0.06805674731731415,0.0,0.7909597754478455,0.0,0.0,-0.611868143081665,-0.0950433537364006,-0.4893847405910492,0.0,0.0,0.0,-6.734846115112305,-0.18989510834217072,0.8474013805389404,0.43700557947158813,0.9134842157363892,0.09243144094944,-0.1030636578798294,-0.38259753584861755,5.634956359863281,1.7457849979400635,0.6591116786003113,10.819202423095703,-16.063968658447266,10.290444374084473,-0.19202706217765808,0.8522337675094604,0.43643659353256226,5.357775688171387,2.2213504314422607,0.6406698226928711,0.37477582693099976,0.7141022086143494,0.42000001668930054,-0.3736075162887573,0.8693947196006775,-0.8970015645027161,-3.00000262260437,-0.22143273055553436,-0.21248488128185272,-0.19874830543994904,-0.18315106630325317,-0.5323030352592468,-0.4371718466281891,-0.2764683961868286,-0.14258193969726562
0.45,-0.013932106085121632,0.06347650289535522,0.0,0.7722445726394653,0.0,0.0,-0.6353253722190857,-0.27952635288238525,-0.19191230833530426,0.0,0.0,0.0,-2.1686699390411377,-0.09937189519405365,0.8730862736701965,0.4489404857158661,0.8590508699417114,0.1026834174990654,-0.10819019377231598,-0.48967593908309937,5.387454509735107,0.38095027208328247,0.3910386860370636,-9.582541465759277,-6.881170272827148,26.74700164794922,-0.1016649603843689,0.8783992528915405,0.4475298225879669,5.617749214172363,1.1204639673233032,0.8341832160949707,0.37477582693099976,0.7141022086143494,0.42000001668930054,-0.3576875627040863,0.9314088225364685,-0.9470255970954895,-3.000002384185791,-0.2340061366558075,-0.22209198772907257,-0.2046954184770584,-0.18599732220172882,-0.6546659469604492,-0.48949259519577026,-0.2914932072162628,-0.11893552541732788
0.4666666666666667,-0.01474234089255333,0.054131172597408295,0.0,0.7458717226982117,0.0,0.0,-0.6660895943641663,-0.07276032865047455,-0.5801413655281067,0.0,0.0,0.0,-5.5877861976623535,-0.009324047714471817,0.8814540505409241,0.4569578468799591,0.8115974068641663,0.09501913189888,-0.10423854738473892,-0.5669350028038025,5.264382839202881,-0.887658953666687,0.20259776711463928,-8.711194038391113,-19.713930130004883,20.03997039794922,-0.011193348094820976,0.8878531455993652,0.45560306310653687,5.379176139831543,-0.0431833416223526,0.5628886222839355,0.37477582693099976,0.7141022086143494,0.42000001668930054,-0.3418712019920349,0.8259089589118958,-0.9970496296882629,-3.000004768371582,-0.23939426243305206,-0.22508251667022705,-0.20487846434116364,-0.18365852534770966,-0.4346522092819214,-0.22848501801490784,-0.01132611557841301,0.18673013150691986
0.48333333333333334,-0.018425073474645615,0.0499509796500206,0.0,0.7318388223648071,0.0,0.0,-0.6814777255058289,-0.1897544264793396,-0.18149173259735107,0.0,0.0,0.0,-1.2808853387832642,0.07688456773757935,0.873284637928009,0.4631166160106659,0.7545450925827026,0.060213979333639145,-0.11702338606119156,-0.6429163217544556,4.872709274291992,-1.3011126518249512,0.3869872987270355,-8.824736595153809,5.960320949554443,7.658512115478516,0.0750836655497551,0.8797831535339355,0.46313896775245667,5.180797100067139,-0.751238226890564,0.4338057041168213,0.37477582693099976,0.7141022086143494,0.42000001668930054,-0.32783156633377075,0.7710047364234924,-1.047072410583496,-2.999999523162842,-0.23992714285850525,-0.2329007238149643,-0.20899291336536407,-0.18458516895771027,-0.006433992180973291,-0.35342860221862793,-0.1996942013502121,-0.07569217681884766
0.5,-0.019399965181946754,0.04266520217061043,0.0,0.7106012105941772,0.0,0.0,-0.703594982624054,-0.004623332526534796,-0.4458678960800171,0.0,0.0,0.0,-4.451911926269531,0.15484410524368286,0.8546293377876282,0.46455639600753784,0.7001408338546753,0.020584523677825928,-0.11988934874534607,-0.7035662531852722,3.993288516998291,-2.03910231590271,0.04745553806424141,-1.7787986993789673,-3.9552321434020996,22.45554542541504,0.1531035304069519,0.8625750541687012,0.4660724997520447,4.41831111907959,-1.4542218446731567,0.03585003688931465,0.37477582693099976,0.7141022086143494,0.42000001668930054,-0.3152673840522766,0.6273824572563171,-1.0970945358276367,-3.000002145767212,-0.23776806890964508,-0.2352997064590454,-0.20955301821231842,-0.1837005913257599,0.023418305441737175,-0.13803955912590027,-0.024574190378189087,0.06360078603029251
0.5166666666666666,-0.01755986176431179,0.03916044533252716,0.0,0.7029216289520264,0.0,0.0,-0.7112672924995422,0.14060917496681213,-0.15759044885635376,0.0,0.0,0.0,-0.2601175010204315,0.21993185579776764,0.8278111815452576,0.46156200766563416,0.6671126484870911,-0.012001685798168182,-0.09643875807523727,-0.7385905981063843,3.247620105743408,-2.281989097595215,-0.2912297546863556,-0.17127421498298645,1.0816401243209839,17.3742618560791,0.21914075314998627,0.8348222970962524,0.46318480372428894,3.7014994621276855,-1.833558440208435,-0.3016394078731537,0.37477582693099976,0.7141022086143494,0.42000001668930054,-0.3040870726108551,0.6633786559104919,-1.1471166610717773,-3.000001907348633,-0.2378605753183365,-0.23710618913173676,-0.21014666557312012,-0.18348486721515656,0.09364084154367447,0.017019249498844147,0.03177989274263382,0.02620519883930683
0.5333333333333333,-0.01311340369284153,0.032019149512052536,0.0,0.6860899925231934,0.0,0.0,-0.7275166511535645,0.3034345805644989,-0.4602598249912262,0.0,0.0,0.0,-3.6361141204833984,0.2744828760623932,0.8003537058830261,0.45129862427711487,0.6407005786895752,-0.04526142776012421,-0.07546455413103104,-0.7627314925193787,2.631122589111328,-2.114075183868408,-0.7027596235275269,-1.2556251287460327,0.6002088785171509,17.009769439697266,0.2742912173271179,0.8066756725311279,0.4532281756401062,3.029862403869629,-1.741710901260376,-0.7424012422561646,0.37477582693099976,0.7141022086143494,0.42000001668930054,-0.29081931710243225,0.818525493144989,-1.197138786315918,-3.000002384185791,-0.23173779249191284,-0.232573464512825,-0.2068718522787094,-0.18167182803153992,0.34445199370384216,0.2894538342952728,0.1878640055656433,0.07327329367399216
0.55,-0.00999592337757349,0.028694355860352516,0.0,0.6822693943977356,0.0,0.0,-0.731100857257843,0.09547115862369537,-0.1519094705581665,0.0,0.0,0.0,0.3070736527442932,0.31801339983940125,0.769519567489624,0.4377172589302063,0.5983736515045166,-0.07494103908538818,-0.04510219022631645,-0.7964286208152771,1.9047712087631226,-2.3233118057250977,-0.7702656388282776,4.808727741241455,-0.04412277787923813,18.155466079711914,0.31772375106811523,0.7749578356742859,0.4394108057022095,2.3967790603637695,-1.930656909942627,-0.8969740867614746,0.37477582693099976,0.7141022086143494,0.42000001668930054,-0.27647432684898376,0.7625254392623901,-1.2471609115600586,-3.0000011920928955,-0.2282227724790573,-0.22920387983322144,-0.20534616708755493,-0.1822214126586914,0.2831936478614807,0.27026131749153137,0.11466943472623825,-0.049545254558324814
0.5666666666666667,-0.00656514847651124,0.02460368163883686,0.0,0.668534517288208,0.0,0.0,-0.7436811327934265,0.25347480177879333,-0.24542322754859924,0.0,0.0,0.0,-3.072319269180298,0.3497605323791504,0.7456842064857483,0.42409253120422363,0.57943195104599,-0.0895153060555458,-0.04924382269382477,-0.8085917830467224,0.9602407813072205,-1.3615381717681885,-0.10840073227882385,-0.7913931608200073,-4.728431701660156,20.497730255126953,0.3490373492240906,0.7505835294723511,0.4261455535888672,1.3015778064727783,-1.0248067378997803,-0.11835511773824692,0.37477582693099976,0.7141022086143494,0.42000001668930054,-0.2617550194263458,0.9185994863510132,-1.238579273223877,2.994175434112549,-0.2196154147386551,-0.2217874825000763,-0.20189058780670166,-0.18264371156692505,0.5267138481140137,0.45344796776771545,0.19335608184337616,-0.05484188348054886
0.5833333333333334,-0.000881247513461858,0.023469513282179832,0.0,0.6683950424194336,0.0,0.0,-0.7438064813613892,0.3778640925884247,-0.0013204554561525583,0.0,0.0,0.0,0.8173885345458984,0.36596912145614624,0.7320090532302856,0.42425045371055603,0.5759319067001343,-0.08786583691835403,-0.03021291270852089,-0.8122002482414246,0.5119940042495728,-0.8961209654808044,0.08075238019227982,1.553023099899292,4.11122465133667,8.647485733032227,0.364727258682251,0.7361435890197754,0.4266906678676605,0.7557988166809082,-0.7574129700660706,0.08230297267436981,0.37477582693099976,0.7141022086143494,0.42000001668930054,-0.24617241322994232,0.9923960566520691,-1.259199619293213,-3.0003507137298584,-0.21128202974796295,-0.21464888751506805,-0.19926247000694275,-0.1842317432165146,0.4942406117916107,0.42904192209243774,0.15344904363155365,-0.10290833562612534
0.6,0.006840703543275595,0.0191362164914608,0.0,0.6569632291793823,0.0,0.0,-0.7539226412773132,0.511864185333252,-0.2791784107685089,0.0,0.0,0.0,-2.677957773208618,0.37706583738327026,0.7262185215950012,0.4223402738571167,0.5223612785339355,-0.04747437685728073,-0.03165016695857048,-0.8508132100105286,0.4879985749721527,-0.2415158897638321,-0.06864507496356964,5.331965446472168,-4.169497013092041,-11.65621280670166,0.37149959802627563,0.7289310693740845,0.4250226616859436,0.19322019815444946,-0.30428510904312134,-0.11209593713283539,0.37477582693099976,0.7141022086143494,0.42000001668930054,-0.22968488931655884,1.2549699544906616,-1.2210972309112549,2.999713659286499,-0.19978676736354828,-0.20473700761795044,-0.194461852312088,-0.18413539230823517,0.5727072358131409,0.5147867202758789,0.24139226973056793,-0.01074979081749916
0.6166666666666667,0.012406603433191776,0.017909158021211624,0.0,0.6581528186798096,0.0,0.0,-0.7528843879699707,0.2699793875217438,-0.04571349173784256,0.0,0.0,0.0,1.0276654958724976,0.3791419565677643,0.723339319229126,0.420331209897995,0.5529555082321167,-0.00634307274594903,-0.003761765081435442,-0.8331781029701233,0.14491182565689087,-0.2467544972896576,-0.14595569670200348,7.293854236602783,-2.912816047668457,-1.6520463228225708,0.3746383786201477,0.7222464680671692,0.4258004426956177,0.07950438559055328,-0.318718820810318,0.09468147158622742,0.37477582693099976,0.7141022086143494,0.42000001668930054,-0.2576166093349457,-2.999998092651367,-1.2419722080230713,-2.9999613761901855,-0.193047896027565,-0.19837690889835358,-0.19200840592384338,-0.1852693110704422,0.42243894934654236,0.3941137492656708,0.16120274364948273,-0.051911983639001846
0.6333333333333333,0.018579676747322083,0.019962893798947334,0.0,0.6484150886535645,0.0,0.0,-0.7612869739532471,0.39007607102394104,0.16776223480701447,0.0,0.0,0.0,-2.4518065452575684,0.37995344400405884,0.7213378548622131,0.4200000464916229,0.5621148943901062,-6.134836780802289e-07,2.4604295845165325e-07,-0.8270590901374817,0.033386558294296265,-0.08160580694675446,-3.2350442324968753e-06,-2.2632861146121286e-05,-0.00013352413952816278,1.6432881355285645,0.376257985830307,0.7223501205444336,0.4275575876235962,0.17131303250789642,0.17511767148971558,0.1244896948337555,0.37477582693099976,0.7141022086143494,0.42000001668930054,-0.2901186943054199,-1.0634593963623047,-1.2919282913208008,-2.9988303184509277,-0.18548500537872314,-0.1917579174041748,-0.18943580985069275,-0.18629083037376404,0.5309684872627258,0.4568405747413635,0.21062016487121582,-0.006071852054446936
0.65,0.026465771719813347,0.017657479271292686,0.0,0.6509580612182617,0.0,0.0,-0.7591137290000916,0.45958659052848816,-0.16980205476284027,0.0,0.0,0.0,1.2951579093933105,0.380031019449234,0.7209704518318176,0.4200001060962677,0.5691866874694824,-7.223899956443347e-06,-2.2392510800273158e-05,-0.8222082853317261,-0.026936177164316177,1.841330958995968e-05,-0.0006937697762623429,0.06577996164560318,0.0020770099945366383,3.861166000366211,0.37599945068359375,0.7244703769683838,0.4302035868167877,-0.13328582048416138,0.06590640544891357,0.19066137075424194,0.37477582693099976,0.7141022086143494,0.42000001668930054,-0.33515894412994385,-2.999939441680908,-1.3419169187545776,-2.99920916557312,-0.1745738387107849,-0.1820058971643448,-0.18350878357887268,-0.18374961614608765,0.5466736555099487,0.52012038230896,0.34267571568489075,0.18429754674434662
0.6666666666666666,0.037016719579696655,0.019130490720272064,0.0,0.6732426881790161,0.0,0.0,-0.739421546459198,0.6627724170684814,0.08818982541561127,0.0,0.0,0.0,4.676152229309082,0.37978702783584595,0.7208828926086426,0.4200001657009125,0.5731815695762634,1.3478628716256935e-05,2.1037451460870216e-06,-0.8194283843040466,0.0005717178573831916,0.00017554960504639894,-0.00032580760307610035,0.016739340499043465,-0.0093751922249794,-0.003826279891654849,0.3743693232536316,0.7242749333381653,0.4338749051094055,-0.06250985711812973,0.04418402910232544,0.26246798038482666,0.37477582693099976,0.7141022086143494,0.42000001668930054,-0.38516730070114136,-2.9999895095825195,-1.3918956518173218,-2.9997141361236572,-0.1694476157426834,-0.17633458971977234,-0.17948469519615173,-0.1810532510280609,0.366362065076828,0.399316668510437,0.3214443624019623,0.26686418056488037
0.6833333333333333,0.0488651804625988,0.017594926059246063,0.0,0.6831868290901184,0.0,0.0,-0.7302436232566833,0.7496919631958008,-0.1539773941040039,0.0,0.0,0.0,0.5946617126464844,0.37976688146591187,0.7208794951438904,0.4200000464916229,0.5734701156616211,3.6428223211260047e-06,-2.541761432439671e-06,-0.8192264437675476,0.00040073489071801305,-1.6457986930618063e-05,-0.000143607787322253,-0.002347219968214631,0.0029127795714884996,-0.0012219089549034834,0.3739114999771118,0.7256652116775513,0.4390760064125061,-0.03388694301247597,0.036936186254024506,0.3322022557258606,0.37477582693099976,0.7141022086143494,0.42000001668930054,-0.4351736903190613,-2.999898672103882,-1.441887378692627,-2.9998981952667236,-0.16489239037036896,-0.1705484241247177,-0.1740194857120514,-0.17553570866584778,0.23486807942390442,0.33555519580841064,0.3576841950416565,0.4001030921936035
0.7,0.06243893504142761,0.01253048237413168,0.0,0.6707450747489929,0.0,0.0,-0.7416879534721375,0.845324695110321,-0.3721337616443634,0.0,0.0,0.0,-2.9435741901397705,0.37976711988449097,0.7208796143531799,0.4200000464916229,0.573469877243042,2.5290432859037537e-07,-3.1018300887808437e-06,-0.8192266821861267,9.384013537783176e-05,-0.0002585758047644049,-8.743954822421074e-05,0.006243573967367411,-0.0015554011333733797,-0.000696407281793654,0.3782173991203308,0.727623701095581,0.45081889629364014,0.5151798129081726,0.15107326209545135,1.162976622581482,0.37477582693099976,0.7141022086143494,0.42000001668930054,-0.48518678545951843,-2.9999828338623047,-1.491905689239502,-3.0,-0.16320042312145233,-0.1669575572013855,-0.16960200667381287,-0.16999205946922302,0.036145374178886414,0.1568654328584671,0.225332573056221,0.3091629445552826
0.7166666666666667,0.07915952801704407,0.012053125537931919,0.0,0.636044979095459,0.0,0.0,-0.7716519832611084,0.977146565914154,-0.01306484267115593,0.0,0.0,0.0,-6.351615905761719,0.3797670900821686,0.7208796143531799,0.4200000464916229,0.5734699964523315,3.0199825573618e-07,-2.905069322878262e-06,-0.8192264437675476,8.872362377587706e-05,-0.0002628887596074492,-8.635176345705986e-05,0.00638654176145792,-0.0016331071965396404,-0.0006915389094501734,0.3952791094779968,0.7264618873596191,0.47634226083755493,1.5733599662780762,-0.12994976341724396,1.991917371749878,0.37477582693099976,0.7141022086143494,0.42000001668930054,-0.5351994037628174,-2.999931573867798,-1.541923999786377,-2.999994993209839,-0.16910259425640106,-0.16984239220619202,-0.17019839584827423,-0.16816695034503937,-0.29096221923828125,-0.13464631140232086,-0.008585622534155846,0.1267031729221344
0.7333333333333333,0.09247615933418274,0.013232365250587463,0.0,0.6154083609580994,0.0,0.0,-0.7882084846496582,0.7299825549125671,0.08140525221824646,0.0,0.0,0.0,-2.1033337116241455,0.3797670900821686,0.7208796143531799,0.4200000464916229,0.5734696984291077,2.15217923482669e-07,-3.0190590223355684e-06,-0.8192267417907715,8.905215509003028e-05,-0.00026416906621307135,-8.637900464236736e-05,0.006417206488549709,-0.0016345990588888526,-0.0006939222803339362,0.4209531545639038,0.7281761169433594,0.5115489363670349,1.4604592323303223,0.3081621527671814,2.1953835487365723,0.37477582693099976,0.7141022086143494,0.42000001668930054,-0.5566626787185669,0.16475754976272583,-1.5919404029846191,-3.000000238418579,-0.17208018898963928,-0.17119593918323517,-0.17033270001411438,-0.1670083999633789,-0.04066358879208565,-0.004576173610985279,0.012395622208714485,0.030127085745334625
0.75,0.10113262385129929,0.016215987503528595,0.0,0.620189905166626,0.0,0.0,-0.7844516634941101,0.443060040473938,0.2238013744354248,0.0,0.0,0.0,1.6133184432983398,0.37976711988449097,0.7208796143531799,0.4200000464916229,0.5734696984291077,3.7575750866380986e-07,-2.918559403042309e-06,-0.8192267417907715,9.051068627741188e-05,-0.0002643905463628471,-8.669542148709297e-05,0.006414718925952911,-0.0016186540015041828,-0.0006976808654144406,0.44030657410621643,0.7341978549957275,0.542913556098938,0.8085001707077026,0.40543538331985474,1.6132826805114746,0.37477582693099976,0.7141022086143494,0.42000001668930054,-0.5333491563796997,2.416832685470581,-1.5529496669769287,3.000000476837158,-0.17125752568244934,-0.17001646757125854,-0.169016033411026,-0.1655983328819275,0.11979866027832031,0.1303957998752594,0.13143038749694824,0.12566325068473816
0.7666666666666666,0.10554450005292892,0.015014436095952988,0.0,0.6133617758750916,0.0,0.0,-0.789802074432373,0.2292654812335968,-0.1370013952255249,0.0,0.0,0.0,-1.9590898752212524,0.3797670900821686,0.7208796143531799,0.4200000464916229,0.5734699964523315,2.5754232524377585e-07,-3.068509613513015e-06,-0.8192264437675476,9.160086483461782e-05,-0.0002632334071677178,-8.697411976754665e-05,0.006379164755344391,-0.0016013088170439005,-0.0006985760992392898,0.44667211174964905,0.7409157752990723,0.5628303289413452,-0.07244646549224854,0.3294897675514221,0.9471182823181152,0.37477582693099976,0.7141022086143494,0.42000001668930054,-0.504538893699646,1.1277618408203125,-1.5028932094573975,2.9999992847442627,-0.16750530898571014,-0.16627413034439087,-0.16539405286312103,-0.16227108240127563,0.16510887444019318,0.18308594822883606,0.19431649148464203,0.18885068595409393
0.7833333333333333,0.10669557005167007,0.018915239721536636,0.0,0.6190431714057922,0.0,0.0,-0.7853569388389587,0.01545820850878954,0.3714815676212311,0.0,0.0,0.0,1.7460856437683105,0.3797670900821686,0.7208796143531799,0.4200000464916229,0.5734699964523315,3.172056892708497e-07,-2.787237463053316e-06,-0.8192265629768372,8.764074300415814e-05,-0.00026268366491422057,-8.610053919255733e-05,0.006387501955032349,-0.00164432218298316,-0.0006888688076287508,0.44097399711608887,0.7446695566177368,0.5744047164916992,-0.56053626537323,0.2279445230960846,0.4793591797351837,0.37477582693099976,0.7141022086143494,0.42000001668930054,-0.4715730547904968,2.6679608821868896,-1.4528520107269287,2.999999761581421,-0.17002515494823456,-0.1673598289489746,-0.16523006558418274,-0.16130980849266052,-0.1962018460035324,-0.10454591363668442,-0.0232470091432333,0.02777443267405033
0.8,0.10570952296257019,0.01902034692466259,0.0,0.6128545999526978,0.0,0.0,-0.7901957035064697,-0.0948977917432785,-0.09816340357065201,0.0,0.0,0.0,-1.8638393878936768,0.37976711988449097,0.7208796143531799,0.4200000464916229,0.5734697580337524,3.838947293388628e-07,-2.8680733521468937e-06,-0.8192266821861267,9.02542524272576e-05,-0.0002643459301907569,-8.661625906825066e-05,0.0064150006510317326,-0.0016210459871217608,-0.0006970168906264007,0.42703986167907715,0.746973991394043,0.5760884881019592,-1.1362149715423584,0.03201178461313248,-0.07878046482801437,0.37477582693099976,0.7141022086143494,0.42000001668930054,-0.4628494083881378,-1.2865818738937378,-1.402799367904663,3.000000238418579,-0.17035067081451416,-0.16672588884830475,-0.1637159287929535,-0.15935999155044556,0.037659432739019394,0.08645336329936981,0.1326277107000351,0.1525907665491104
0.8166666666666667,0.10607268661260605,0.022748012095689774,0.0,0.6179405450820923,0.0,0.0,-0.7862247824668884,0.03958941623568535,0.20279915630817413,0.0,0.0,0.0,1.2909663915634155,0.37976711988449097,0.7208796143531799,0.4200000464916229,0.5734697580337524,3.949355402710353e-07,-2.947655275420402e-06,-0.8192267417907715,9.084530756808817e-05,-0.0002642670879140496,-8.681672625243664e-05,0.006409218069165945,-0.0016157467616721988,-0.0006983648054301739,0.4125736951828003,0.7479923963546753,0.5728439092636108,-0.509650707244873,0.2412625253200531,-0.29023516178131104,0.37477582693099976,0.7141022086143494,0.42000001668930054,-0.46303173899650574,1.0643373727798462,-1.4208691120147705,-2.999999761581421,-0.17328043282032013,-0.16846884787082672,-0.16424620151519775,-0.15907953679561615,0.041983284056186676,0.04634689539670944,0.0636105164885521,0.0684337392449379
0.8333333333333334,0.10827627778053284,0.0221252478659153,0.0,0.6096341609954834,0.0,0.0,-0.7926828861236572,0.1661955714225769,-0.059864357113838196,0.0,0.0,0.0,-2.1586906909942627,0.3797670900821686,0.7208796143531799,0.4200000464916229,0.5734699964523315,2.693264775643911e-07,-2.915977574957651e-06,-0.8192265033721924,9.113575652008876e-05,-0.0002634370175655931,-8.685793727636337e-05,0.006386820692569017,-0.0016075121238827705,-0.0006978453602641821,0.40653666853904724,0.7504156231880188,0.5650758743286133,-0.24327892065048218,0.005267543718218803,-0.4615395665168762,0.37477582693099976,0.7141022086143494,0.42000001668930054,-0.48843687772750854,-3.000000238418579,-1.3823646306991577,3.000000238418579,-0.17089906334877014,-0.16635388135910034,-0.1620941460132599,-0.15700046718120575,0.061924874782562256,0.06686791777610779,0.0903729572892189,0.10765068978071213
0.85,0.11257682740688324,0.01944628357887268,0.0,0.6134599447250366,0.0,0.0,-0.7897258400917053,0.2973174750804901,-0.2394288331270218,0.0,0.0,0.0,1.484831690788269,0.3797670900821686,0.7208796143531799,0.4200000464916229,0.5734696984291077,2.423855107736017e-07,-2.8445613224903354e-06,-0.8192268013954163,8.824910764815286e-05,-0.00026428824639879167,-8.618808351457119e-05,0.006424722261726856,-0.0016443136846646667,-0.0006922977627255023,0.4055079519748688,0.7495246529579163,0.560653805732727,0.10627125203609467,-0.09551931172609329,-0.06032250076532364,0.37477582693099976,0.7141022086143494,0.42000001668930054,-0.5380387902259827,-2.920973539352417,-1.4008363485336304,-3.000000238418579,-0.17165981233119965,-0.16651080548763275,-0.16132541000843048,-0.15539517998695374,-0.06031538546085358,-0.01696317084133625,0.04729258269071579,0.1087554395198822
0.8666666666666667,0.1190401017665863,0.013751448132097721,0.0,0.6058275103569031,0.0,0.0,-0.7955960035324097,0.4270913004875183,-0.40105199813842773,0.0,0.0,0.0,-2.0520858764648438,0.3797670900821686,0.7208796143531799,0.4200000464916229,0.5734699368476868,2.5010129434122064e-07,-2.995986051246291e-06,-0.8192265629768372,9.119191963691264e-05,-0.0002633744734339416,-8.683837950229645e-05,0.006385370157659054,-0.0016054633306339383,-0.0006977820885367692,0.41174471378326416,0.744641900062561,0.5541505217552185,0.6332212686538696,-0.4621688723564148,-0.5043483972549438,0.37477582693099976,0.7141022086143494,0.42000001668930054,-0.587976336479187,-2.9999940395355225,-1.4508546590805054,-3.000000238418579,-0.1738210767507553,-0.16751261055469513,-0.16076922416687012,-0.15326818823814392,-0.1203874722123146,-0.03524558246135712,0.0751800388097763,0.18897585570812225
0.8833333333333333,0.1285887211561203,0.011311672627925873,0.0,0.5763093829154968,0.0,0.0,-0.8172315955162048,0.6046938300132751,-0.13085784018039703,0.0,0.0,0.0,-5.176639080047607,0.37976711988449097,0.7208796143531799,0.4200000464916229,0.5734700560569763,3.03986041672033e-07,-2.895865691243671e-06,-0.8192264437675476,8.905007416615263e-05,-0.00026287022046744823,-8.638971485197544e-05,0.006384286563843489,-0.001628440455533564,-0.0006924485205672681,0.42444485425949097,0.734413206577301,0.5478411912918091,0.9188591241836548,-0.6052178144454956,-0.11294376850128174,0.37477582693099976,0.7141022086143494,0.42000001668930054,-0.6254371404647827,-1.5881627798080444,-1.5008729696273804,-3.000000476837158,-0.17740412056446075,-0.17006877064704895,-0.16191944479942322,-0.15296201407909393,-0.07623165845870972,-0.07220090925693512,-0.04519408196210861,-0.011972319334745407
0.9,0.13532300293445587,0.010608461685478687,0.0,0.5626442432403564,0.0,0.0,-0.8266991376876831,0.31931406259536743,0.000555219710804522,0.0,0.0,0.0,-0.9625189900398254,0.3797670900821686,0.7208796143531799,0.4200000464916229,0.5734701156616211,3.011271303421381e-07,-2.82732980849687e-06,-0.8192265033721924,8.803983655525371e-05,-0.0002624918124638498,-8.624047040939331e-05,0.006380009930580854,-0.0016402417095378041,-0.0006895762053318322,0.43661215901374817,0.7292487621307373,0.5472702980041504,0.5101559162139893,-0.14211595058441162,-0.01396920531988144,0.37477582693099976,0.7141022086143494,0.42000001668930054,-0.6239208579063416,1.5010143518447876,-1.5508912801742554,-3.0000007152557373,-0.17607830464839935,-0.16940425336360931,-0.16160011291503906,-0.15287138521671295,0.1735120415687561,0.10410375893115997,0.04824602231383324,-0.0016923458315432072
