vladlanda/robotic-transformer/data/env_000_episode_0233.csv
sim_time_s,robot_box_x,robot_box_y,robot_box_z,robot_box_quat_w,robot_box_quat_x,robot_box_quat_y,robot_box_quat_z,robot_box_linvel_x,robot_box_linvel_y,robot_box_linvel_z,robot_box_angvel_x,robot_box_angvel_y,robot_box_angvel_z,cube_world_x,cube_world_y,cube_world_z,cube_quat_w,cube_quat_x,cube_quat_y,cube_quat_z,cube_linvel_x,cube_linvel_y,cube_linvel_z,cube_angvel_x,cube_angvel_y,cube_angvel_z,endpoint_world_x,endpoint_world_y,endpoint_world_z,endpoint_linvel_x,endpoint_linvel_y,endpoint_linvel_z,target_cube_world_x,target_cube_world_y,target_cube_world_z,gripper_actual_pos_rad_gp_leftgearjoint,gripper_actual_vel_rad_s_gp_leftgearjoint,gripper_actual_pos_rad_gp_rotatingjoint,gripper_actual_vel_rad_s_gp_rotatingjoint,motor_angle_rad_joint1,motor_angle_rad_joint2,motor_angle_rad_joint3,motor_angle_rad_joint4,motor_speed_rad_s_joint1,motor_speed_rad_s_joint2,motor_speed_rad_s_joint3,motor_speed_rad_s_joint4
0.0,0.0,0.0,0.0,1.0,0.0,0.0,0.0,0.0,0.0,0.0,0.0,0.0,0.0,-0.4567185938358307,0.6306097507476807,0.41999998688697815,1.0,0.0,0.0,0.0,0.0,0.0,0.0,0.0,0.0,0.0,3.42540442943573e-06,-0.005000244826078415,1.313499927520752,0.0,0.0,0.0,0.3499419093132019,0.7159589529037476,0.42000001668930054,-1.5707999467849731,0.0,0.0,0.0,0.0,0.0,0.0,0.0,0.0,0.0,0.0,0.0
0.016666666666666666,0.0028778850100934505,0.0021806680597364902,0.0,0.9998081922531128,0.0,0.0,0.019586581736803055,0.24087215960025787,0.18240931630134583,0.0,0.0,0.0,3.1418697834014893,-0.45671871304512024,0.6306094527244568,0.41999998688697815,1.0,3.2799914606584935e-06,-8.339814598912199e-07,8.465387679734704e-08,-1.9833554688375443e-05,0.00017983050202019513,-6.133061833679676e-05,0.0009432226070202887,-0.004689437802881002,-0.0003198152990080416,-0.007110234349966049,0.003379564033821225,1.3159373998641968,-0.8143353462219238,0.9868683815002441,0.18095196783542633,0.3499419093132019,0.7159589529037476,0.42000001668930054,-1.5301095247268677,3.0000011920928955,-0.04584788903594017,-2.9999992847442627,0.0008691533003002405,0.0007963840034790337,0.0007110277656465769,0.0006108740926720202,0.11094217747449875,0.09756709635257721,0.08334315568208694,0.06823883205652237
0.03333333333333333,0.008959378115832806,0.006805527023971081,0.0,0.9997952580451965,0.0,0.0,0.02023552916944027,0.40705573558807373,0.3153156638145447,0.0,0.0,0.0,-0.8701622486114502,-0.4567188322544098,0.630609393119812,0.4200000464916229,1.0,3.390885240150965e-06,-2.1324319732229924e-06,-3.711133800265998e-08,0.00026357753085903823,0.00026937859365716577,-0.00010509602725505829,-0.0017706351354718208,0.004130707122385502,-0.00013548039714805782,-0.027535978704690933,0.02553459256887436,1.316697120666504,-1.5904979705810547,1.5845787525177002,-0.07276497036218643,0.3499419093132019,0.7159589529037476,0.42000001668930054,-1.4800903797149658,3.0000007152557373,-0.09588772058486938,-3.000000238418579,0.002989520551636815,0.0026522658299654722,0.0022769616916775703,0.001860536285676062,0.1642642766237259,0.13981075584888458,0.1138719990849495,0.08635581284761429
0.05,0.017758101224899292,0.013776730746030807,0.0,0.9993735551834106,0.0,0.0,0.03539017215371132,0.5939819812774658,0.4651671051979065,0.0,0.0,0.0,2.646608829498291,-0.4567188620567322,0.6306094527244568,0.4200000464916229,1.0,3.7652134778909385e-06,-2.2118977085483493e-06,5.605784725304375e-09,0.0002653079864103347,0.00026691483799368143,-0.00010440615005791187,-0.0017242918256670237,0.0041773696430027485,-0.00012949654774274677,-0.05965868756175041,0.05266956239938736,1.311998963356018,-2.1876254081726074,1.707139492034912,-0.45270127058029175,0.3499419093132019,0.7159589529037476,0.42000001668930054,-1.4300720691680908,3.0,-0.145926371216774,-3.0000014305114746,0.005713984370231628,0.004921991378068924,0.00405783299356699,0.003117071930319071,0.1929798722267151,0.15608543157577515,0.11731433868408203,0.07657305896282196
0.06666666666666667,0.029075928032398224,0.023071473464369774,0.0,0.9994463920593262,0.0,0.0,0.03327056020498276,0.720511794090271,0.5952615141868591,0.0,0.0,0.0,-1.2126847505569458,-0.4567188620567322,0.630609393119812,0.4200000464916229,0.9999999403953552,3.4068298191414215e-06,-2.28560702453251e-06,4.300801776935259e-07,0.00026702682953327894,0.0002679186000023037,-0.00010437914170324802,-0.0017406968399882317,0.004211870953440666,-0.00012850748316850513,-0.09859389811754227,0.08538936823606491,1.2999287843704224,-2.484537124633789,2.1107637882232666,-0.9672135710716248,0.3499419093132019,0.7159589529037476,0.42000001668930054,-1.3800537586212158,2.999999761581421,-0.19595867395401,-3.000000238418579,0.008370322175323963,0.006909221410751343,0.005337134934961796,0.0036483104340732098,0.15852303802967072,0.10909350961446762,0.05763028562068939,0.004045908804982901
0.08333333333333333,0.04268469288945198,0.03473266214132309,0.0,0.9989208579063416,0.0,0.0,0.046445295214653015,0.8712100982666016,0.7429366707801819,0.0,0.0,0.0,2.534687042236328,-0.4567188620567322,0.630609393119812,0.4200000464916229,1.0,3.6973638088966254e-06,-2.188969347116654e-06,-2.6325207613808743e-07,0.0002638972655404359,0.0002658646844793111,-0.00010433816350996494,-0.0017081599216908216,0.004150238819420338,-0.0001299150026170537,-0.1445561945438385,0.1183028370141983,1.2794773578643799,-2.930821418762207,1.922896385192871,-1.4560117721557617,0.3499419093132019,0.7159589529037476,0.42000001668930054,-1.3300278186798096,2.9999988079071045,-0.20615392923355103,1.3998733758926392,0.010175128467381,0.007922407239675522,0.0055191535502672195,0.0029585009906440973,0.10122691094875336,0.04860549047589302,-0.005982806906104088,-0.06258493661880493
0.1,0.05040092021226883,0.04354805499315262,0.0,0.9990612864494324,0.0,0.0,0.04331868514418602,0.3147841989994049,0.40728652477264404,0.0,0.0,0.0,-1.325899362564087,-0.4567188620567322,0.630609393119812,0.4200000464916229,0.9999999403953552,3.6204753541824175e-06,-2.2652429834124632e-06,1.7459507262174156e-07,0.0002667691733222455,0.0002674090501386672,-0.0001040794886648655,-0.0017386652762070298,0.004209219943732023,-0.000127756706206128,-0.18878062069416046,0.15539918839931488,1.2520334720611572,-2.4848995208740234,2.379800319671631,-1.7530295848846436,0.3499419093132019,0.7159589529037476,0.42000001668930054,-1.2800203561782837,2.9999992847442627,-0.246210977435112,-3.000000238418579,0.005536440294235945,0.0026188851334154606,-0.0004966686246916652,-0.0038212102372199297,-0.4208212196826935,-0.4693100154399872,-0.5202581882476807,-0.5739322900772095
0.11666666666666667,0.06135344132781029,0.055113792419433594,0.0,0.9999562501907349,0.0,0.0,0.009351623244583607,0.706855833530426,0.706598699092865,0.0,0.0,0.0,-4.784055233001709,-0.4567188620567322,0.630609393119812,0.4200000464916229,1.0,3.7984361824783264e-06,-2.2628191800322384e-06,-1.502184687751651e-07,0.0002637402212712914,0.0002656611322890967,-0.00010429113171994686,-0.00170544080901891,0.004147577099502087,-0.00012980044994037598,-0.22916942834854126,0.20135648548603058,1.2171165943145752,-2.4965176582336426,2.8549461364746094,-2.358055353164673,0.3499419093132019,0.7159589529037476,0.42000001668930054,-1.2299939393997192,2.9983928203582764,-0.21660372614860535,3.000000476837158,0.0019006349612027407,-0.0022344314493238926,-0.006570033263415098,-0.01112001296132803,-0.294469952583313,-0.356831431388855,-0.419455885887146,-0.4824582040309906
0.13333333333333333,0.07126094400882721,0.06750582903623581,0.0,0.9999951720237732,0.0,0.0,-0.003103629220277071,0.5205503106117249,0.7630856037139893,0.0,0.0,0.0,-0.38600656390190125,-0.4567188620567322,0.6306094527244568,0.4200000464916229,0.9999999403953552,3.5505424875736935e-06,-2.229828169220127e-06,2.9289728331605147e-07,0.0002670327667146921,0.00026779386098496616,-0.00010417122393846512,-0.0017440201481804252,0.004213609732687473,-0.0001280046271858737,-0.2738867402076721,0.242302805185318,1.1808969974517822,-2.603816270828247,2.4442782402038574,-2.1408348083496094,0.3499419093132019,0.7159589529037476,0.42000001668930054,-1.1799997091293335,2.9999985694885254,-0.24790652096271515,-3.0000007152557373,-0.0011253446573391557,-0.006897792685776949,-0.012827697210013866,-0.018927201628684998,-0.20142298936843872,-0.3091227114200592,-0.41336315870285034,-0.5139908194541931
0.15,0.07714719325304031,0.07737915217876434,0.0,0.999639630317688,0.0,0.0,-0.02684352919459343,0.29246819019317627,0.5300514101982117,0.0,0.0,0.0,-3.650406837463379,-0.4567188620567322,0.630609393119812,0.4200000464916229,0.9999999403953552,3.3381334105797578e-06,-2.2429260297940345e-06,-2.8039233157528543e-08,0.00026674431865103543,0.0002675812866073102,-0.00010427669622004032,-0.0017367323162034154,0.004206859972327948,-0.00012831835192628205,-0.3145226836204529,0.2892640233039856,1.1421191692352295,-2.2567946910858154,3.0798535346984863,-2.5003108978271484,0.3499419093132019,0.7159589529037476,0.42000001668930054,-1.129978895187378,2.9999940395355225,-0.213858962059021,3.000000238418579,-0.006287524942308664,-0.013854078017175198,-0.02150518260896206,-0.029251325875520706,-0.39336836338043213,-0.4941791892051697,-0.5904800891876221,-0.6822118163108826
0.16666666666666666,0.07937833666801453,0.08840683102607727,0.0,0.9970550537109375,0.0,0.0,-0.07668942213058472,0.07420635223388672,0.7155846953392029,0.0,0.0,0.0,-6.8032050132751465,-0.4567188620567322,0.6306094527244568,0.4200000464916229,0.9999999403953552,3.6479050322668627e-06,-2.3073048396327067e-06,3.5250213414883547e-08,0.00026726938085630536,0.00026801350759342313,-0.0001041879877448082,-0.0017471633618697524,0.004217633046209812,-0.00012798757234122604,-0.3505416214466095,0.3465934991836548,1.096827507019043,-1.9515533447265625,3.7247467041015625,-2.9382405281066895,0.3499419093132019,0.7159589529037476,0.42000001668930054,-1.0799903869628906,2.999109983444214,-0.24522431194782257,-3.000000476837158,-0.015425457619130611,-0.024528497830033302,-0.033630549907684326,-0.04274183511734009,-0.6475849151611328,-0.7251371741294861,-0.7977347373962402,-0.8654075264930725
0.18333333333333332,0.0784263014793396,0.10008168965578079,0.0,0.9943792819976807,0.0,0.0,-0.10587630420923233,-0.10756779462099075,0.6841294169425964,0.0,0.0,0.0,-2.432389736175537,-0.4567188620567322,0.630609393119812,0.4200000464916229,0.9999999403953552,3.2906407341215527e-06,-2.19392541112029e-06,-2.7926049028792477e-07,0.00026678023277781904,0.0002677612646948546,-0.0001043418888002634,-0.0017391652800142765,0.004207087680697441,-0.00012845821038354188,-0.38621023297309875,0.4022634029388428,1.040215253829956,-1.9607113599777222,3.3885231018066406,-3.82861328125,0.3499419093132019,0.7159589529037476,0.42000001668930054,-1.0362600088119507,2.275283098220825,-0.29525354504585266,-3.000000476837158,-0.027631167322397232,-0.037415143102407455,-0.047122858464717865,-0.056771181523799896,-0.7871922254562378,-0.7999995946884155,-0.8091168999671936,-0.8151126503944397
0.2,0.08313922584056854,0.11382156610488892,0.0,0.98881995677948,0.0,0.0,-0.14911426603794098,0.4265998899936676,0.8845973014831543,0.0,0.0,0.0,-6.176424503326416,-0.4567188620567322,0.630609393119812,0.4200000464916229,1.0,3.2809034564706963e-06,-2.219204134235042e-06,1.5944489462071942e-07,0.0002662780461832881,0.0002674012794159353,-0.00010425224900245667,-0.0017357412725687027,0.004197692032903433,-0.00012865240569226444,-0.4181496798992157,0.46125829219818115,0.9701361656188965,-1.6681103706359863,3.6290886402130127,-4.534919738769531,0.3499419093132019,0.7159589529037476,0.42000001668930054,-0.9870783090591431,3.000002145767212,-0.3452818691730499,-3.0000011920928955,-0.038780637085437775,-0.04884227365255356,-0.05876368656754494,-0.06857028603553772,-0.6655421853065491,-0.6699464321136475,-0.6712436676025391,-0.6699091792106628
0.21666666666666667,0.08484234660863876,0.12435842305421829,0.0,0.9844499230384827,0.0,0.0,-0.17566540837287903,0.14096584916114807,0.5592986941337585,0.0,0.0,0.0,-2.088202714920044,-0.4567188620567322,0.6306094527244568,0.4200000464916229,1.0,3.613293756643543e-06,-2.270116283398238e-06,2.2098708996054484e-07,0.00026712549151852727,0.0002678165037650615,-0.0001041400246322155,-0.001744507229886949,0.004215178079903126,-0.00012786623847205192,-0.4467112421989441,0.5118818283081055,0.8896366953849792,-1.4212040901184082,2.974055767059326,-5.063270092010498,0.3499419093132019,0.7159589529037476,0.42000001668930054,-0.9370676279067993,2.9999992847442627,-0.39531210064888,-2.9999566078186035,-0.054354168474674225,-0.06404014676809311,-0.0734529197216034,-0.08217811584472656,-0.7717103958129883,-0.8109160661697388,-0.8324541449546814,-0.7715863585472107
0.23333333333333334,0.08517333120107651,0.13075296580791473,0.0,0.9769901037216187,0.0,0.0,-0.2132846564054489,-0.037899669259786606,0.3204491436481476,0.0,0.0,0.0,-5.439012050628662,-0.4567188620567322,0.630609393119812,0.4200000464916229,1.0,3.3819878808571957e-06,-2.290978500241181e-06,2.7277940262138145e-07,0.00026691509992815554,0.00026779965264722705,-0.00010433257557451725,-0.0017395686591044068,0.004209764301776886,-0.0001284358586417511,-0.4685324430465698,0.5599896907806396,0.7995294332504272,-1.006075143814087,2.77618408203125,-5.621859550476074,0.3499419093132019,0.7159589529037476,0.42000001668930054,-0.8870569467544556,3.0000007152557373,-0.44534313678741455,-3.000000476837158,-0.06966361403465271,-0.07954128086566925,-0.08903062343597412,-0.09658432006835938,-0.988815188407898,-0.9887345433235168,-0.9818894863128662,-0.9073073863983154
0.25,0.08138135075569153,0.13588665425777435,0.0,0.973092257976532,0.0,0.0,-0.2304159253835678,-0.3301440477371216,0.29219526052474976,0.0,0.0,0.0,-0.9041512608528137,-0.4567188322544098,0.630609393119812,0.4200000464916229,0.9999999403953552,3.7066545246489113e-06,-2.2230651666177437e-06,-2.2551537881554395e-07,0.0002642491308506578,0.0002665681822691113,-0.00010458100587129593,-0.0017169631319120526,0.004155635833740234,-0.00013063169899396598,-0.48527413606643677,0.594880223274231,0.7038293480873108,-0.6938526034355164,1.6369762420654297,-5.881588935852051,0.3499419093132019,0.7159589529037476,0.42000001668930054,-0.8370464444160461,3.0,-0.4953743517398834,-2.999999523162842,-0.08618342876434326,-0.09601745754480362,-0.10546278953552246,-0.1129615306854248,-0.9958907961845398,-0.9959919452667236,-0.9961225986480713,-0.9962772727012634
0.26666666666666666,0.07930916547775269,0.13758711516857147,0.0,0.9668475985527039,0.0,0.0,-0.255354106426239,-0.0444367416203022,0.03578488901257515,0.0,0.0,0.0,-3.8438596725463867,-0.4567188620567322,0.630609393119812,0.4200000464916229,0.9999999403953552,3.7197896745055914e-06,-2.4035318801907124e-06,-1.8309344795852667e-07,0.000266231712885201,0.0002672916743904352,-0.00010425737127661705,-0.0017326921224594116,0.004196560475975275,-0.00012851195060648024,-0.49193885922431946,0.6158694624900818,0.601026177406311,0.012822479009628296,0.9148569107055664,-6.262691497802734,0.3499419093132019,0.7159589529037476,0.42000001668930054,-0.7870375514030457,2.999998092651367,-0.5454046130180359,-3.000002861022949,-0.10334236919879913,-0.11303030699491501,-0.12236562371253967,-0.1297788918018341,-0.9977381825447083,-0.997428297996521,-0.9972134828567505,-0.9970689415931702
0.2833333333333333,0.07380305230617523,0.13677512109279633,0.0,0.9652031064033508,0.0,0.0,-0.2615014612674713,-0.4093650281429291,-0.07942695915699005,0.0,0.0,0.0,0.21209773421287537,-0.4567188620567322,0.6306094527244568,0.4200000464916229,0.9999999403953552,3.584217893148889e-06,-2.3155771486926824e-06,7.402578461324083e-08,0.0002652194525580853,0.0002645511704031378,-0.00010317121632397175,-0.0017020420636981726,0.004185081925243139,-0.00012500298907980323,-0.48745641112327576,0.6237466335296631,0.5056152939796448,0.60634446144104,0.22466734051704407,-5.268868446350098,0.3499419093132019,0.7159589529037476,0.42000001668930054,-0.7370287775993347,3.000002145767212,-0.5954332947731018,-3.000000476837158,-0.12138937413692474,-0.13075266778469086,-0.1398441195487976,-0.14706654846668243,-1.0140529870986938,-1.0105836391448975,-1.0079365968704224,-1.00582754611969
0.3,0.06624609231948853,0.13352422416210175,0.0,0.9599802494049072,0.0,0.0,-0.2800678014755249,-0.48634955286979675,-0.2485310137271881,0.0,0.0,0.0,-3.1391232013702393,-0.4567188620567322,0.630609393119812,0.4200000464916229,1.0,3.724424232132151e-06,-2.271987113999785e-06,9.634525355295409e-08,0.00026312601403333247,0.000265259004663676,-0.00010437984019517899,-0.0016961186192929745,0.004134838003665209,-0.00013027706881985068,-0.47252416610717773,0.6287051439285278,0.41839200258255005,1.2110655307769775,0.35665804147720337,-5.154476165771484,0.3499419093132019,0.7159589529037476,0.42000001668930054,-0.6870214939117432,2.999995708465576,-0.6454600691795349,-2.9999985694885254,-0.13772134482860565,-0.14712008833885193,-0.15626971423625946,-0.16356027126312256,-1.000540852546692,-1.0003814697265625,-1.000267744064331,-1.0001795291900635
0.31666666666666665,0.056656453758478165,0.1278168261051178,0.0,0.9596469402313232,0.0,0.0,-0.2812075912952423,-0.6129703521728516,-0.38208892941474915,0.0,0.0,0.0,0.7962170243263245,-0.45671871304512024,0.6306095719337463,0.41999995708465576,0.9999999403953552,1.8293550283488003e-06,4.3724034526348987e-07,-2.064903412701824e-07,-0.000102643680293113,-8.108305337373167e-06,-4.013534635305405e-06,0.004395089577883482,-0.006765281315892935,-0.00010904279770329595,-0.4751814305782318,0.6323035955429077,0.4256315231323242,-0.24554425477981567,0.21036429703235626,-0.1660030037164688,0.3499419093132019,0.7159589529037476,0.42000001668930054,-0.6371033191680908,2.999983549118042,-0.695941686630249,-2.9999988079071045,-0.14216603338718414,-0.15158730745315552,-0.16034077107906342,-0.16679398715496063,-0.3724316656589508,-0.3381948471069336,-0.2849356532096863,-0.21573375165462494
0.3333333333333333,0.045029398053884506,0.11985895782709122,0.0,0.9550341367721558,0.0,0.0,-0.2964959442615509,-0.7648733854293823,-0.5194013714790344,0.0,0.0,0.0,-2.798414707183838,-0.4567187428474426,0.6306094527244568,0.41999998688697815,0.9999999403953552,3.3585190521989716e-06,-1.030706471283338e-06,9.855168059402786e-08,-1.9697996322065592e-05,0.00017494689382147044,-5.9511978179216385e-05,0.0010155262425541878,-0.004674094263464212,-0.0003112075792159885,-0.47593969106674194,0.6358877420425415,0.4229534864425659,0.101686991751194,0.2792477607727051,-0.1642211228609085,0.3499419093132019,0.7159589529037476,0.42000001668930054,-0.5870978236198425,2.9999852180480957,-0.7459918260574341,-2.9999794960021973,-0.14919696748256683,-0.15762852132320404,-0.16509199142456055,-0.17006614804267883,-0.4383949339389801,-0.35940390825271606,-0.26472142338752747,-0.16389353573322296
0.35,0.03649884834885597,0.10931596159934998,0.0,0.9553820490837097,0.0,0.0,-0.29537293314933777,-0.4333378076553345,-0.6753169298171997,0.0,0.0,0.0,1.0697673559188843,-0.45427417755126953,0.6353244185447693,0.42000025510787964,0.99840247631073,-5.095144842925947e-06,4.663095296564279e-06,-0.05650201067328453,0.2291603684425354,0.4138539433479309,-0.0003592741850297898,0.01703743077814579,-0.006168522872030735,-10.473662376403809,-0.47304004430770874,0.6422619223594666,0.420507550239563,0.2865101993083954,0.5314996242523193,-0.11415132135152817,0.3499419093132019,0.7159589529037476,0.42000001668930054,-0.5370923280715942,2.999988555908203,-0.7960273027420044,-2.9999988079071045,-0.15773464739322662,-0.16407102346420288,-0.1691792607307434,-0.17174899578094482,-0.5342622995376587,-0.38281676173210144,-0.21617533266544342,-0.04897485673427582
0.36666666666666664,0.025026816874742508,0.09710302948951721,0.0,0.950996458530426,0.0,0.0,-0.309201717376709,-0.7811614871025085,-0.7611048221588135,0.0,0.0,0.0,-2.692901134490967,-0.44914862513542175,0.6437268853187561,0.42022258043289185,0.9915158152580261,-0.005558187607675791,0.00043488212395459414,-0.1298661082983017,0.4919309914112091,0.7242399454116821,0.061747416853904724,-3.0266172885894775,0.6093494892120361,-4.338388442993164,-0.466026246547699,0.6510944366455078,0.42109060287475586,0.5706945657730103,0.6609482765197754,0.07580927014350891,0.3499419093132019,0.7159589529037476,0.42000001668930054,-0.4870368540287018,3.000000476837158,-0.8460320830345154,-2.9999730587005615,-0.16946358978748322,-0.17253486812114716,-0.17412416636943817,-0.17320053279399872,-0.6989075541496277,-0.49343326687812805,-0.272842675447464,-0.054778702557086945
0.3833333333333333,0.01701461710035801,0.08230067789554596,0.0,0.9367377758026123,0.0,0.0,-0.35003185272216797,-0.4510514438152313,-0.932636022567749,0.0,0.0,0.0,-5.940877914428711,-0.4376242458820343,0.6599633693695068,0.4208454489707947,0.9861717820167542,-0.01236569881439209,-0.00842482503503561,-0.1650494486093521,0.8919726610183716,1.2194174528121948,0.05841837078332901,-0.7072024941444397,-3.1312451362609863,-5.123859882354736,-0.4526349902153015,0.6663955450057983,0.42284879088401794,1.0652549266815186,1.1365458965301514,0.1375499963760376,0.3499419093132019,0.7159589529037476,0.42000001668930054,-0.4369787275791168,2.9999959468841553,-0.8960402607917786,-2.9999756813049316,-0.17830651998519897,-0.17816050350666046,-0.17618684470653534,-0.17165325582027435,-0.515188455581665,-0.30706465244293213,-0.07708785682916641,0.15606556832790375
0.4,0.012496907263994217,0.06461171060800552,0.0,0.9104495048522949,0.0,0.0,-0.4136201739311218,-0.1991482526063919,-1.1169428825378418,0.0,0.0,0.0,-9.067791938781738,-0.4059339761734009,0.6873771548271179,0.4239383637905121,0.9771339893341064,0.020154153928160667,-0.048512592911720276,-0.20603269338607788,2.7977356910705566,2.153987169265747,0.3580580949783325,32.279510498046875,-14.000743865966797,12.540413856506348,-0.4208693504333496,0.695149838924408,0.42491328716278076,2.7890493869781494,2.363009452819824,0.3141453266143799,0.3499419093132019,0.7159589529037476,0.42000001668930054,-0.39167481660842896,1.875991702079773,-0.8591893315315247,2.995403528213501,-0.18858638405799866,-0.1843801885843277,-0.17805986106395721,-0.16922292113304138,-0.6427631378173828,-0.3808794617652893,-0.1068062037229538,0.15946044027805328
0.4166666666666667,0.010137554258108139,0.05127575993537903,0.0,0.8681044578552246,0.0,0.0,-0.4963815212249756,-0.10516024380922318,-0.6853880286216736,0.0,0.0,0.0,-11.932215690612793,-0.3346357047557831,0.7336574196815491,0.4297347962856293,0.9552523493766785,0.09312807768583298,-0.09234346449375153,-0.265127569437027,5.9036712646484375,3.2050178050994873,0.4428318440914154,10.5843505859375,-9.234272003173828,9.453222274780273,-0.34884393215179443,0.7426804900169373,0.430176317691803,5.472017288208008,3.348942279815674,0.39962801337242126,0.3499419093132019,0.7159589529037476,0.42000001668930054,-0.3740374445915222,0.7524635791778564,-0.8091470003128052,2.9995455741882324,-0.20430031418800354,-0.19642287492752075,-0.18432141840457916,-0.17019115388393402,-0.8770040273666382,-0.7948576807975769,-0.4624510407447815,-0.16933247447013855
0.43333333333333335,0.008400116115808487,0.042995378375053406,0.0,0.831112802028656,0.0,0.0,-0.5561038255691528,-0.06816878914833069,-0.510027289390564,0.0,0.0,0.0,-7.084547996520996,-0.24341057240962982,0.782406747341156,0.43924298882484436,0.9144728183746338,0.12360041588544846,-0.12267734110355377,-0.36525672674179077,5.805370330810547,2.088165760040283,0.7750089168548584,22.001615524291992,-1.3676879405975342,16.77821922302246,-0.25632214546203613,0.7949499487876892,0.4394424557685852,5.785482406616211,2.8569912910461426,0.5845917463302612,0.3499419093132019,0.7159589529037476,0.42000001668930054,-0.3628694713115692,0.687275230884552,-0.8362205028533936,-3.000000476837158,-0.21667742729187012,-0.2093467116355896,-0.19373947381973267,-0.17537468671798706,-0.5839675664901733,-0.615127444267273,-0.460170179605484,-0.26936623454093933
0.45,0.005171930883079767,0.03825390711426735,0.0,0.8130888938903809,0.0,0.0,-0.5821394920349121,-0.1602410078048706,-0.24727606773376465,0.0,0.0,0.0,-2.344270706176758,-0.14687621593475342,0.8166301250457764,0.4517998695373535,0.8656743168830872,0.1583843231201172,-0.07037243247032166,-0.4696488082408905,5.794764041900635,1.3601411581039429,0.8398392200469971,-4.863966941833496,17.42296600341797,-9.916800498962402,-0.1566804051399231,0.8326648473739624,0.4489644169807434,6.334324836730957,1.7898921966552734,0.6310224533081055,0.3499419093132019,0.7159589529037476,0.42000001668930054,-0.3506646454334259,0.6801950335502625,-0.886244535446167,-2.996450662612915,-0.22925123572349548,-0.22096683084964752,-0.2021549791097641,-0.18027497828006744,-0.622707188129425,-0.5639739632606506,-0.4059469699859619,-0.2339869886636734
0.4666666666666667,0.007464784663170576,0.02744678035378456,0.0,0.7873485088348389,0.0,0.0,-0.6165081858634949,0.2389148622751236,-0.7864333391189575,0.0,0.0,0.0,-6.198822975158691,-0.044339619576931,0.8334051966667175,0.4586186707019806,0.8045559525489807,0.16147878766059875,-0.10251147300004959,-0.5622327327728271,5.857325553894043,-0.2643505334854126,0.45066532492637634,-22.336877822875977,1.6277989149093628,18.044904708862305,-0.052272818982601166,0.8534381985664368,0.4573511779308319,6.521188735961914,0.6266400814056396,0.4849677085876465,0.3499419093132019,0.7159589529037476,0.42000001668930054,-0.33991739153862,0.5159831643104553,-0.9362685680389404,-2.9997482299804688,-0.233876034617424,-0.22453278303146362,-0.2035156935453415,-0.1792295277118683,-0.1726902574300766,-0.07011759281158447,0.07052276283502579,0.216258242726326
0.48333333333333334,0.005687354598194361,0.02083740383386612,0.0,0.7716872096061707,0.0,0.0,-0.636002242565155,-0.08823244273662567,-0.3239310383796692,0.0,0.0,0.0,-1.5548865795135498,0.05419214442372322,0.8322740197181702,0.46685969829559326,0.7212335467338562,0.1564401239156723,-0.11437888443470001,-0.6650308966636658,5.184351921081543,-1.3734601736068726,0.803746223449707,-12.112977027893066,19.873300552368164,25.136083602905273,0.04831160977482796,0.8550166487693787,0.46728238463401794,6.107098579406738,-0.2551233768463135,0.6619805097579956,0.3499419093132019,0.7159589529037476,0.42000001668930054,-0.3323323726654053,0.2537788152694702,-0.9862926006317139,-2.9965522289276123,-0.239961639046669,-0.23094868659973145,-0.2070663720369339,-0.18024566769599915,-0.049958664923906326,-0.36961817741394043,-0.2599351108074188,-0.17492151260375977
0.5,0.006506431847810745,0.017963331192731857,0.0,0.7507451772689819,0.0,0.0,-0.6605919003486633,0.10176213085651398,-0.1111408993601799,0.0,0.0,0.0,-4.754693508148193,0.1427326202392578,0.8197843432426453,0.47230884432792664,0.648664116859436,0.15064121782779694,-0.09481016546487808,-0.7399682402610779,4.9816741943359375,-1.1661041975021362,0.22388045489788055,-3.423515558242798,3.004938840866089,-8.334394454956055,0.13879287242889404,0.8455243110656738,0.4734938144683838,5.042064666748047,-1.0114130973815918,0.20578822493553162,0.3499419093132019,0.7159589529037476,0.42000001668930054,-0.32895851135253906,0.2943960428237915,-1.0363155603408813,-2.999466896057129,-0.23977002501487732,-0.23522116243839264,-0.2101554274559021,-0.18249690532684326,0.06257268041372299,-0.13640040159225464,-0.0925392434000969,-0.06939686089754105
0.5166666666666666,0.010064825415611267,0.01787341944873333,0.0,0.7423699498176575,0.0,0.0,-0.6699901819229126,0.24141541123390198,0.09346571564674377,0.0,0.0,0.0,-0.4413911700248718,0.21737979352474213,0.8013411164283752,0.47099488973617554,0.5989675521850586,0.1369032859802246,-0.07366092503070831,-0.7855376601219177,3.4175150394439697,-2.417464256286621,-0.1963120698928833,-30.954801559448242,3.644033432006836,17.354019165039062,0.21596676111221313,0.8249257206916809,0.4731893837451935,4.364657402038574,-1.5052807331085205,-0.12494776397943497,0.3499419093132019,0.7159589529037476,0.42000001668930054,-0.3295489549636841,-0.41434207558631897,-1.0863378047943115,-2.9999067783355713,-0.23814977705478668,-0.23599614202976227,-0.2107333540916443,-0.18330244719982147,0.09390238672494888,0.0019239092944189906,-0.011238837614655495,-0.05462110787630081
0.5333333333333333,0.013940129429101944,0.01543809100985527,0.0,0.7258501648902893,0.0,0.0,-0.6878528594970703,0.21512724459171295,-0.1893199235200882,0.0,0.0,0.0,-3.6690330505371094,0.27946197986602783,0.778889000415802,0.4629019796848297,0.533542811870575,0.10134905576705933,-0.04231620207428932,-0.8386117815971375,3.2196271419525146,-2.501491069793701,-0.2912825644016266,-6.007813930511475,6.028970718383789,17.901107788085938,0.27804481983184814,0.8006872534751892,0.4648325443267822,3.188699245452881,-1.530127763748169,-0.7235612869262695,0.3499419093132019,0.7159589529037476,0.42000001668930054,-0.3364669680595398,-0.6555654406547546,-1.1363599300384521,-2.9998292922973633,-0.23346896469593048,-0.23280833661556244,-0.20879441499710083,-0.18309125304222107,0.22612746059894562,0.18523772060871124,0.09981846809387207,-0.01903695799410343
0.55,0.01924271695315838,0.016361990943551064,0.0,0.7219185829162598,0.0,0.0,-0.6919780373573303,0.3464217782020569,0.07576243579387665,0.0,0.0,0.0,0.25663501024246216,0.325338751077652,0.7518584132194519,0.44842788577079773,0.49623024463653564,0.06904837489128113,-0.02808326482772827,-0.8649851083755493,2.266634464263916,-2.086430072784424,-0.8447917103767395,-7.936051368713379,5.880046844482422,7.863410949707031,0.32310616970062256,0.7722288370132446,0.45098862051963806,2.2177553176879883,-1.6701045036315918,-0.9881387948989868,0.3499419093132019,0.7159589529037476,0.42000001668930054,-0.3484700322151184,-0.4998183250427246,-1.1863820552825928,-2.9999988079071045,-0.23067496716976166,-0.23020291328430176,-0.20788876712322235,-0.18444371223449707,0.30229735374450684,0.27284348011016846,0.11925511807203293,-0.06188653036952019
0.5666666666666667,0.026783017441630363,0.013743989169597626,0.0,0.7086219787597656,0.0,0.0,-0.7055883407592773,0.49263840913772583,-0.22882124781608582,0.0,0.0,0.0,-3.0627694129943848,0.35735318064689636,0.7289818525314331,0.4265606999397278,0.48552390933036804,0.023231012746691704,-0.01651967130601406,-0.8737584352493286,1.4621461629867554,-1.6471469402313232,-1.4198901653289795,-5.295813083648682,4.629936695098877,5.063068866729736,0.35547107458114624,0.7489303946495056,0.42915549874305725,1.5296727418899536,-1.2679202556610107,-1.4560678005218506,0.3499419093132019,0.7159589529037476,0.42000001668930054,-0.3463171720504761,0.5905534029006958,-1.2364041805267334,-3.0000011920928955,-0.22267574071884155,-0.22319340705871582,-0.20435605943202972,-0.18473459780216217,0.46229347586631775,0.4156150817871094,0.1964041292667389,-0.04285196214914322
0.5833333333333334,0.03198261559009552,0.01407899335026741,0.0,0.7076898217201233,0.0,0.0,-0.7065232396125793,0.25625836849212646,0.04613950103521347,0.0,0.0,0.0,0.7134338617324829,0.37012043595314026,0.7164139747619629,0.4227156341075897,0.495712548494339,-0.02575136348605156,-0.016714906319975853,-0.8679438233375549,0.3121691346168518,-1.2771821022033691,0.2330031841993332,-3.4140737056732178,8.828712463378906,16.375940322875977,0.36849141120910645,0.7361003160476685,0.42751434445381165,0.35028964281082153,-0.5542157888412476,0.09797293692827225,0.3499419093132019,0.7159589529037476,0.42000001668930054,-0.3272446393966675,1.1676775217056274,-1.2862411737442017,-2.999440908432007,-0.21758665144443512,-0.2185254544019699,-0.20310166478157043,-0.18709397315979004,0.36670902371406555,0.3227425217628479,0.09249966591596603,-0.14386528730392456
0.6,0.038273293524980545,0.010734849609434605,0.0,0.6967102885246277,0.0,0.0,-0.7173526287078857,0.39988258481025696,-0.23985303938388824,0.0,0.0,0.0,-2.6450626850128174,0.3742317855358124,0.7121228575706482,0.4202757179737091,0.5363797545433044,-0.003626029472798109,0.0012021547881886363,-0.8439680337905884,-0.016213349997997284,-0.5122817754745483,0.06662216782569885,-0.8156270384788513,2.839188814163208,20.62228012084961,0.3703334331512451,0.7303671836853027,0.425471693277359,-0.27774450182914734,-0.1377073973417282,0.013711456209421158,0.3499419093132019,0.7159589529037476,0.42000001668930054,-0.3315114974975586,-1.391648530960083,-1.2481034994125366,3.0000035762786865,-0.20844389498233795,-0.21065928041934967,-0.19962257146835327,-0.18799495697021484,0.4965536594390869,0.439767450094223,0.19560009241104126,-0.047049809247255325
0.6166666666666667,0.042133133858442307,0.01086089015007019,0.0,0.6979957222938538,0.0,0.0,-0.7161019444465637,0.18664856255054474,0.0248626209795475,0.0,0.0,0.0,1.053157091140747,0.37070485949516296,0.7056130170822144,0.420000284910202,0.5703431963920593,1.1740808076865505e-05,3.951697635784512e-06,-0.8214064836502075,-0.24392396211624146,-0.40128228068351746,-0.0005937155801802874,-0.028302783146500587,0.017383940517902374,1.8513298034667969,0.365062952041626,0.7259719371795654,0.4263923466205597,-0.28179728984832764,-0.18156950175762177,0.12723620235919952,0.3499419093132019,0.7159589529037476,0.42000001668930054,-0.37503641843795776,-2.9999983310699463,-1.2684922218322754,-2.998501777648926,-0.20306096971035004,-0.2056647092103958,-0.19807277619838715,-0.18986324965953827,0.39637112617492676,0.35334083437919617,0.13616843521595,-0.07406631112098694
0.6333333333333333,0.04673134908080101,0.013568075373768806,0.0,0.6891520619392395,0.0,0.0,-0.7246167659759521,0.297697514295578,0.1984328031539917,0.0,0.0,0.0,-2.40952467918396,0.369482159614563,0.704523503780365,0.4210555851459503,0.5736256837844849,-0.01949808932840824,-0.0025933177676051855,-0.8188813328742981,0.012157365679740906,0.1845240741968155,0.1225517988204956,-6.282083511352539,2.0485944747924805,1.5933847427368164,0.3641510605812073,0.728020429611206,0.4286768138408661,0.04554131254553795,0.2945128083229065,0.16376683115959167,0.3499419093132019,0.7159589529037476,0.42000001668930054,-0.40960198640823364,-1.2278873920440674,-1.3184219598770142,-2.9990179538726807,-0.19467124342918396,-0.19872798025608063,-0.1951986700296402,-0.19076760113239288,0.6109259724617004,0.4994601905345917,0.2439093440771103,0.009590033441781998
0.65,0.05334785580635071,0.011489606462419033,0.0,0.6917275190353394,0.0,0.0,-0.7221586108207703,0.4103265404701233,-0.1103508323431015,0.0,0.0,0.0,1.2257122993469238,0.3691844940185547,0.7072881460189819,0.42198848724365234,0.5900293588638306,-0.04210678115487099,-0.030879810452461243,-0.8056915402412415,-0.11628138273954391,0.15543296933174133,0.044574979692697525,-2.401669979095459,0.942826509475708,5.838984489440918,0.36228904128074646,0.7319961786270142,0.4315680265426636,-0.3256537914276123,0.13366317749023438,0.1786126345396042,0.3499419093132019,0.7159589529037476,0.42000001668930054,-0.45499423146247864,-2.9999330043792725,-1.3684159517288208,-2.9998555183410645,-0.1826004683971405,-0.18851584196090698,-0.18910463154315948,-0.18848642706871033,0.45646703243255615,0.41092321276664734,0.23464173078536987,0.0677175298333168
0.6666666666666666,0.06240752711892128,0.013310404494404793,0.0,0.7144696712493896,0.0,0.0,-0.6996663808822632,0.5425680875778198,0.2050981968641281,0.0,0.0,0.0,4.6953864097595215,0.3655419945716858,0.7093111872673035,0.4219232201576233,0.593630313873291,-0.037591781467199326,-0.0303953904658556,-0.8032844066619873,-0.25708481669425964,0.11371689289808273,-0.011101005598902702,1.338001012802124,-1.3530677556991577,-2.4919393062591553,0.3569788336753845,0.732649564743042,0.43521207571029663,-0.27579736709594727,0.09578273445367813,0.2988923192024231,0.3499419093132019,0.7159589529037476,0.42000001668930054,-0.5050203800201416,-2.9999237060546875,-1.4183896780014038,-2.9996163845062256,-0.1787080615758896,-0.18425139784812927,-0.1863350123167038,-0.18700827658176422,0.26282161474227905,0.2952668070793152,0.23604534566402435,0.19590725004673004
0.6833333333333333,0.07332109659910202,0.012317769229412079,0.0,0.724287748336792,0.0,0.0,-0.6894978284835815,0.6801853775978088,-0.10338211804628372,0.0,0.0,0.0,0.6286615133285522,0.361527681350708,0.7109835743904114,0.4205132722854614,0.5809282064437866,-0.010261060670018196,-0.007111350540071726,-0.8138590455055237,-0.23007835447788239,0.09247634559869766,-0.10295791178941727,5.268151760101318,-1.7228143215179443,-1.7244300842285156,0.355152428150177,0.7356656789779663,0.4413678050041199,-0.09354273974895477,0.12190911918878555,0.4188912510871887,0.3499419093132019,0.7159589529037476,0.42000001668930054,-0.5550349950790405,-3.000000476837158,-1.4684022665023804,-2.9999992847442627,-0.17361128330230713,-0.17837977409362793,-0.1809166520833969,-0.18166384100914001,0.20241142809391022,0.2881263792514801,0.3130342662334442,0.359619677066803
0.7,0.08576197922229767,0.007816249504685402,0.0,0.7129442095756531,0.0,0.0,-0.7012208104133606,0.7815731167793274,-0.34814217686653137,0.0,0.0,0.0,-2.8239541053771973,0.359050989151001,0.7116944193840027,0.419999897480011,0.5764467120170593,-1.287547775064013e-06,-3.582218369047041e-06,-0.8171346783638,-0.11340770125389099,0.03195179998874664,-2.5030458346009254e-05,0.002864016918465495,0.0003052681277040392,-0.4557567238807678,0.3590660095214844,0.7399705052375793,0.4552665948867798,0.5265191793441772,0.31461918354034424,1.3295000791549683,0.3499419093132019,0.7159589529037476,0.42000001668930054,-0.6050462126731873,-2.9999783039093018,-1.5184205770492554,-2.999999761581421,-0.17241908609867096,-0.17553970217704773,-0.17724567651748657,-0.176828533411026,0.002394614275544882,0.10916770994663239,0.17667408287525177,0.26199230551719666
0.7166666666666667,0.10073775798082352,0.007030145265161991,0.0,0.681179940700531,0.0,0.0,-0.7321160435676575,0.9073179960250854,-0.01398641150444746,0.0,0.0,0.0,-6.169707775115967,0.3581226170063019,0.7119549512863159,0.42000001668930054,0.5752424597740173,-5.103299827169394e-06,6.447586656577187e-06,-0.8179829716682434,-0.03505919873714447,0.009649837389588356,-0.000293394667096436,-0.004615957383066416,-0.013426454737782478,-0.10547849535942078,0.3768649101257324,0.7427252531051636,0.4825328588485718,1.6154258251190186,0.09129984676837921,2.055467367172241,0.3499419093132019,0.7159589529037476,0.42000001668930054,-0.655056893825531,-2.9997689723968506,-1.5684388875961304,-2.999972343444824,-0.17775334417819977,-0.1782250702381134,-0.17780858278274536,-0.17506377398967743,-0.31878262758255005,-0.16476212441921234,-0.03237257897853851,0.11185266077518463
0.7333333333333333,0.11327406764030457,0.008373434655368328,0.0,0.663277804851532,0.0,0.0,-0.74837327003479,0.6842695474624634,0.1253148913383484,0.0,0.0,0.0,-1.8574209213256836,0.35812219977378845,0.7119553685188293,0.41999998688697815,0.5752426385879517,-3.5000323350686813e-06,-4.1031421460502315e-06,-0.8179828524589539,-0.00010526842379476875,-0.00017049819871317595,-7.88785982877016e-05,0.0009686309495009482,-0.00592665933072567,-0.0004469316336326301,0.4028252959251404,0.746297299861908,0.5182687640190125,1.4287673234939575,0.35759907960891724,2.237935781478882,0.3499419093132019,0.7159589529037476,0.42000001668930054,-0.671800971031189,0.6724033355712891,-1.6184542179107666,-2.999999761581421,-0.1820913851261139,-0.1808023452758789,-0.17893360555171967,-0.17463524639606476,-0.1715836077928543,-0.11447414010763168,-0.07401134818792343,-0.03267756849527359
0.75,0.12133876979351044,0.011380880139768124,0.0,0.6692569255828857,0.0,0.0,-0.7430310249328613,0.4204457700252533,0.29909324645996094,0.0,0.0,0.0,1.8270394802093506,0.35812216997146606,0.7119553685188293,0.41999998688697815,0.575242817401886,-3.2007931167754577e-06,-4.233694653521525e-06,-0.8179826736450195,1.083936331269797e-05,-0.0003469320363365114,-9.648292325437069e-05,0.00864428747445345,-0.0032192766666412354,-0.0006693866453133523,0.4202430248260498,0.7517192363739014,0.5498924255371094,0.6196959614753723,0.300258994102478,1.6195037364959717,0.3499419093132019,0.7159589529037476,0.42000001668930054,-0.6373655796051025,2.999985456466675,-1.5793912410736084,3.0,-0.18319489061832428,-0.18116500973701477,-0.17876498401165009,-0.17398232221603394,-0.03847193345427513,0.0018417631508782506,0.03171643987298012,0.05433948338031769
0.7666666666666666,0.12510226666927338,0.01053539663553238,0.0,0.6639900803565979,0.0,0.0,-0.7477414011955261,0.2153187096118927,-0.0731128603219986,0.0,0.0,0.0,-1.6236761808395386,0.35812216997146606,0.7119553685188293,0.41999998688697815,0.5752426981925964,-3.072259460168425e-06,-4.025511771033052e-06,-0.8179826736450195,9.872004739008844e-06,-0.00034821906592696905,-9.754626080393791e-05,0.008662087842822075,-0.0032322516199201345,-0.0006701000966131687,0.42420321702957153,0.7583445906639099,0.5699129700660706,-0.2140781134366989,0.2554011940956116,0.9097439050674438,0.3499419093132019,0.7159589529037476,0.42000001668930054,-0.6045810580253601,1.0758781433105469,-1.5293347835540771,3.0000009536743164,-0.17874741554260254,-0.1768585592508316,-0.17470240592956543,-0.17028498649597168,0.13978008925914764,0.16600178182125092,0.1835532933473587,0.18564772605895996
0.7833333333333333,0.12596426904201508,0.014262132346630096,0.0,0.6706815361976624,0.0,0.0,-0.7417454123497009,0.01959681510925293,0.27342963218688965,0.0,0.0,0.0,1.8140326738357544,0.35812216997146606,0.7119553685188293,0.41999998688697815,0.5752426981925964,-3.1173383376881247e-06,-4.238147994328756e-06,-0.8179827332496643,1.1724945579771884e-05,-0.00034863530891016126,-9.672646410763264e-05,0.008687003515660763,-0.003221983090043068,-0.0006739723612554371,0.4160851836204529,0.7604809999465942,0.5816076397895813,-0.6518172025680542,0.16971413791179657,0.5314636826515198,0.3499419093132019,0.7159589529037476,0.42000001668930054,-0.5762389898300171,2.204562187194824,-1.479278326034546,3.0,-0.17996515333652496,-0.17695941030979156,-0.17388126254081726,-0.16893281042575836,0.02532467618584633,0.05989089235663414,0.0864371508359909,0.09076698869466782
0.8,0.12435620278120041,0.0143867963925004,0.0,0.6656199097633362,0.0,0.0,-0.746290922164917,-0.15941813588142395,0.005260522942990065,0.0,0.0,0.0,-1.5469826459884644,0.35812216997146606,0.7119553685188293,0.41999998688697815,0.5752426385879517,-3.189529934388702e-06,-4.270621502655558e-06,-0.8179827332496643,1.1396785339456983e-05,-0.0003484860935714096,-9.682215750217438e-05,0.008681590668857098,-0.0032228482887148857,-0.00067309127189219,0.40086138248443604,0.7623872756958008,0.584323525428772,-1.2256098985671997,-0.03397417813539505,-0.05320708826184273,0.3499419093132019,0.7159589529037476,0.42000001668930054,-0.5744457840919495,-1.6564925909042358,-1.4292240142822266,3.0,-0.17751096189022064,-0.17427659034729004,-0.17105871438980103,-0.1663261502981186,0.045295488089323044,0.08150289207696915,0.11135715991258621,0.11651536077260971
0.8166666666666667,0.12440067529678345,0.012510141357779503,0.0,0.6716827750205994,0.0,0.0,-0.740838885307312,0.05744403228163719,-0.1818901151418686,0.0,0.0,0.0,1.7480427026748657,0.35812216997146606,0.7119553685188293,0.41999998688697815,0.5752427577972412,-3.0614078241342213e-06,-4.088205969310366e-06,-0.8179827332496643,8.543122930859681e-06,-0.00034810914075933397,-9.790877811610699e-05,0.008657039143145084,-0.0032417832408100367,-0.0006673216121271253,0.38623878359794617,0.7630175948143005,0.5828744173049927,-0.5597538948059082,0.14186793565750122,-0.05340180546045303,0.3499419093132019,0.7159589529037476,0.42000001668930054,-0.5754960775375366,1.2766859531402588,-1.4412795305252075,-3.0,-0.17755116522312164,-0.17350801825523376,-0.1695014238357544,-0.16433216631412506,0.024730613455176353,0.06673303991556168,0.11260462552309036,0.14192810654640198
0.8333333333333334,0.12703678011894226,0.007791400421410799,0.0,0.6660813689231873,0.0,0.0,-0.745879054069519,0.20253825187683105,-0.34647923707962036,0.0,0.0,0.0,-1.7612183094024658,0.35812216997146606,0.7119553685188293,0.41999998688697815,0.5752426981925964,-3.1122826840146445e-06,-4.29258352596662e-06,-0.8179826736450195,1.188463193102507e-05,-0.0003486527712084353,-9.667081758379936e-05,0.008688043802976608,-0.00322078843601048,-0.0006743023404851556,0.3796220123767853,0.7639420032501221,0.5794326663017273,-0.20392699539661407,-0.044000495225191116,-0.167242631316185,0.3499419093132019,0.7159589529037476,0.42000001668930054,-0.5952185392379761,-2.9999992847442627,-1.4027224779129028,2.999999523162842,-0.17820602655410767,-0.17330791056156158,-0.16828162968158722,-0.1622784435749054,-0.03891070932149887,0.017821259796619415,0.08829882740974426,0.1515764594078064
0.85,0.13311520218849182,0.007706883363425732,0.0,0.6389417052268982,0.0,0.0,-0.7692551612854004,0.33848997950553894,0.014522428624331951,0.0,0.0,0.0,-5.068918704986572,0.35812216997146606,0.7119553685188293,0.41999998688697815,0.5752426385879517,-3.080170245084446e-06,-4.0748409446678124e-06,-0.8179827928543091,1.0125695553142577e-05,-0.00034825559123419225,-9.746546857059002e-05,0.008663800545036793,-0.0032307112123817205,-0.000670666282530874,0.381211519241333,0.7597986459732056,0.576524019241333,0.4562973976135254,-0.2585471570491791,-0.006824325770139694,0.3499419093132019,0.7159589529037476,0.42000001668930054,-0.6189419031143188,-0.07937439531087875,-1.420811653137207,-2.9999990463256836,-0.18364612758159637,-0.17716161906719208,-0.1703309565782547,-0.16265173256397247,-0.19285017251968384,-0.1365489512681961,-0.061275072395801544,0.013944527134299278
0.8666666666666667,0.14098531007766724,0.009537619538605213,0.0,0.6277371644973755,0.0,0.0,-0.7784253358840942,0.5142542123794556,0.15812601149082184,0.0,0.0,0.0,-0.6832973957061768,0.35812216997146606,0.7119553685188293,0.41999998688697815,0.5752427577972412,-3.0848402730043745e-06,-4.310258646000875e-06,-0.8179826140403748,1.047591013048077e-05,-0.0003485411871224642,-9.706639684736729e-05,0.008682780899107456,-0.0032311377581208944,-0.0006713829352520406,0.38666361570358276,0.7581948637962341,0.5777164697647095,0.1754780262708664,0.015534997917711735,0.13110579550266266,0.3499419093132019,0.7159589529037476,0.42000001668930054,-0.596623420715332,2.513226270675659,-1.3946398496627808,2.999999523162842,-0.18489287793636322,-0.17839820683002472,-0.17124003171920776,-0.16319987177848816,0.018012983724474907,-0.02373550646007061,-0.04887343943119049,-0.07217435538768768
0.8833333333333333,0.14559300243854523,0.005765840876847506,0.0,0.6413388252258301,0.0,0.0,-0.767257809638977,0.29769498109817505,-0.26514682173728943,0.0,0.0,0.0,2.75053071975708,0.35812216997146606,0.7119553685188293,0.41999998688697815,0.5752426981925964,-2.9323828130145557e-06,-4.203265689284308e-06,-0.8179827332496643,1.0122281310032122e-05,-0.0003482374013401568,-9.746337309479713e-05,0.008663277141749859,-0.0032304904889315367,-0.0006706266431137919,0.38861986994743347,0.7601191997528076,0.5797474384307861,0.0036003245040774345,-0.009494581259787083,0.025244731456041336,0.3499419093132019,0.7159589529037476,0.42000001668930054,-0.5844667553901672,-0.7787685990333557,-1.3445872068405151,3.0,-0.1785469651222229,-0.17364266514778137,-0.1678362935781479,-0.1611044555902481,0.21927957236766815,0.16116762161254883,0.10916648805141449,0.052202560007572174
0.9,0.14798977971076965,0.006269968114793301,0.0,0.6411362290382385,0.0,0.0,-0.7674270868301392,0.09432119876146317,0.0677664503455162,0.0,0.0,0.0,-0.9098266959190369,0.35812216997146606,0.7119553685188293,0.41999998688697815,0.5752426981925964,-3.1102877073863056e-06,-4.220801656629192e-06,-0.8179827928543091,1.1711869774444494e-05,-0.0003485729394014925,-9.671831503510475e-05,0.008685226552188396,-0.003220791695639491,-0.0006738028023391962,0.3893781006336212,0.7588661909103394,0.5717200636863708,0.1507764458656311,-0.030558042228221893,-0.7916320562362671,0.3499419093132019,0.7159589529037476,0.42000001668930054,-0.5827251076698303,0.8464798927307129,-1.2945383787155151,3.0,-0.1782791018486023,-0.17376768589019775,-0.16830739378929138,-0.16204965114593506,0.08520767837762833,0.047603726387023926,0.01323662232607603,-0.0268364567309618
