vladlanda/robotic-transformer/data/env_000_episode_0223.csv
sim_time_s,robot_box_x,robot_box_y,robot_box_z,robot_box_quat_w,robot_box_quat_x,robot_box_quat_y,robot_box_quat_z,robot_box_linvel_x,robot_box_linvel_y,robot_box_linvel_z,robot_box_angvel_x,robot_box_angvel_y,robot_box_angvel_z,cube_world_x,cube_world_y,cube_world_z,cube_quat_w,cube_quat_x,cube_quat_y,cube_quat_z,cube_linvel_x,cube_linvel_y,cube_linvel_z,cube_angvel_x,cube_angvel_y,cube_angvel_z,endpoint_world_x,endpoint_world_y,endpoint_world_z,endpoint_linvel_x,endpoint_linvel_y,endpoint_linvel_z,target_cube_world_x,target_cube_world_y,target_cube_world_z,gripper_actual_pos_rad_gp_leftgearjoint,gripper_actual_vel_rad_s_gp_leftgearjoint,gripper_actual_pos_rad_gp_rotatingjoint,gripper_actual_vel_rad_s_gp_rotatingjoint,motor_angle_rad_joint1,motor_angle_rad_joint2,motor_angle_rad_joint3,motor_angle_rad_joint4,motor_speed_rad_s_joint1,motor_speed_rad_s_joint2,motor_speed_rad_s_joint3,motor_speed_rad_s_joint4
0.0,0.0,0.0,0.0,1.0,0.0,0.0,0.0,0.0,0.0,0.0,0.0,0.0,0.0,-0.3445136845111847,0.6975468397140503,0.41999998688697815,1.0,0.0,0.0,0.0,0.0,0.0,0.0,0.0,0.0,0.0,3.42540442943573e-06,-0.005000244826078415,1.313499927520752,0.0,0.0,0.0,0.4743921160697937,0.7763722538948059,0.42000001668930054,-1.5707999467849731,0.0,0.0,0.0,0.0,0.0,0.0,0.0,0.0,0.0,0.0,0.0
0.016666666666666666,0.0028812093660235405,0.0021396034862846136,0.0,0.9998483657836914,0.0,0.0,-0.01741405576467514,0.2394750416278839,0.17974109947681427,0.0,0.0,0.0,-3.145685911178589,-0.34451380372047424,0.6975465416908264,0.41999998688697815,1.0,3.2799914606584935e-06,-8.339814598912199e-07,8.465387679734704e-08,-1.9833554688375443e-05,0.00017983050202019513,-6.133061833679676e-05,0.0009432226070202887,-0.004689437802881002,-0.0003198152990080416,-0.006988320499658585,0.004078268073499203,1.3159303665161133,-0.7944930791854858,1.0441837310791016,0.17931656539440155,0.4743921160697937,0.7763722538948059,0.42000001668930054,-1.5301094055175781,3.000001907348633,-0.045868169516325,-3.000000476837158,0.0008686974761076272,0.0007950288709253073,0.0007091314764693379,0.0006097559235058725,0.11045253276824951,0.09701705724000931,0.08272229880094528,0.06751088798046112
0.03333333333333333,0.008887410163879395,0.006714167073369026,0.0,0.9998350739479065,0.0,0.0,-0.018160004168748856,0.4028901159763336,0.31362298130989075,0.0,0.0,0.0,0.8629478812217712,-0.3445139229297638,0.6975464820861816,0.4200000464916229,1.0,3.39090593115543e-06,-2.1324372028175276e-06,-3.7106541839193596e-08,0.0002635782293509692,0.0002693790593184531,-0.00010509486310184002,-0.0017707175575196743,0.004130743443965912,-0.00013547750131692737,-0.026434505358338356,0.02622774988412857,1.3167130947113037,-1.4702460765838623,1.6365430355072021,-0.06489451974630356,0.4743921160697937,0.7763722538948059,0.42000001668930054,-1.4800901412963867,3.0000030994415283,-0.09590793401002884,-3.000000476837158,0.0029257023707032204,0.002582297194749117,0.002201077528297901,0.0017792865401133895,0.15898263454437256,0.13430924713611603,0.10815136134624481,0.08039524406194687
0.05,0.0175465177744627,0.013508177362382412,0.0,0.9994474649429321,0.0,0.0,-0.03323736786842346,0.5819731950759888,0.4502560496330261,0.0,0.0,0.0,-2.6405956745147705,-0.3445139527320862,0.6975465416908264,0.4200000464916229,1.0,3.765230758290272e-06,-2.211922264905297e-06,5.6083799826467384e-09,0.0002653090050444007,0.00026691501261666417,-0.00010440615005791187,-0.00172435212880373,0.0041774665005505085,-0.0001294955873163417,-0.05286233127117157,0.05876103416085243,1.3122241497039795,-1.6787750720977783,2.2287049293518066,-0.4400162994861603,0.4743921160697937,0.7763722538948059,0.42000001668930054,-1.4300718307495117,3.0000016689300537,-0.14594662189483643,-3.0000011920928955,0.005272526293992996,0.004366762936115265,0.0033891405910253525,0.002335232449695468,0.15352822840213776,0.10632027685642242,0.05725095421075821,0.006218159105628729
0.06666666666666667,0.02973310835659504,0.02277967520058155,0.0,0.997194766998291,0.0,0.0,-0.07485028356313705,0.7910661697387695,0.6012445092201233,0.0,0.0,0.0,-5.864166736602783,-0.3445139527320862,0.6975464820861816,0.4200000464916229,0.9999999403953552,3.406835730856983e-06,-2.2856456780573353e-06,4.3008122929677484e-07,0.0002670265967026353,0.0002679176104720682,-0.0001043803058564663,-0.0017406701808795333,0.004211854189634323,-0.0001285061298403889,-0.08192749321460724,0.09965837001800537,1.3019896745681763,-1.7934119701385498,2.6407594680786133,-0.782930850982666,0.4743921160697937,0.7763722538948059,0.42000001668930054,-1.3800468444824219,3.0000007152557373,-0.12524741888046265,3.000004529953003,0.00748792476952076,0.005735535640269518,0.0038721661549061537,0.0018930904334411025,0.13047584891319275,0.0727560743689537,0.01298251748085022,-0.048912178725004196
0.08333333333333333,0.04434681683778763,0.034598201513290405,0.0,0.9952576160430908,0.0,0.0,-0.09727396816015244,0.9469242095947266,0.7503609657287598,0.0,0.0,0.0,-1.62897789478302,-0.3445139527320862,0.6975464820861816,0.4200000464916229,1.0,3.6973383430449758e-06,-2.188984808526584e-06,-2.6323331780986337e-07,0.0002638960722833872,0.0002658652374520898,-0.00010433932766318321,-0.0017081378027796745,0.00415008282288909,-0.0001299151626881212,-0.11442739516496658,0.14020106196403503,1.2884527444839478,-1.9032506942749023,2.507096290588379,-0.8354527950286865,0.4743921160697937,0.7763722538948059,0.42000001668930054,-1.3300446271896362,3.0000014305114746,-0.15715664625167847,-3.0000011920928955,0.00806228257715702,0.005270964466035366,0.002327193506062031,-0.0007728441851213574,7.500057108700275e-08,-0.0717293992638588,-0.14621540904045105,-0.2227800339460373
0.1,0.05369388312101364,0.04453667998313904,0.0,0.9910253882408142,0.0,0.0,-0.1336737871170044,0.432029664516449,0.521537184715271,0.0,0.0,0.0,-5.315540313720703,-0.3445139527320862,0.6975464820861816,0.4200000464916229,0.9999999403953552,3.6204280604579253e-06,-2.265225475639454e-06,1.7461863421885937e-07,0.00026676725246943533,0.0002674070419743657,-0.00010408065281808376,-0.0017385295359417796,0.004209065344184637,-0.00012775739014614373,-0.14315971732139587,0.18568657338619232,1.2721948623657227,-1.5098350048065186,3.013359308242798,-1.056067705154419,0.4743921160697937,0.7763722538948059,0.42000001668930054,-1.2800205945968628,2.999995470046997,-0.12358520925045013,2.999999761581421,0.0022658775560557842,-0.0014159815618768334,-0.005309465806931257,-0.00941174291074276,-0.470518559217453,-0.5271569490432739,-0.5867419838905334,-0.6489970684051514
0.11666666666666667,0.05882256105542183,0.05793615058064461,0.0,0.9818001389503479,0.0,0.0,-0.18991711735725403,0.38593772053718567,0.7341892719268799,0.0,0.0,0.0,-7.255316257476807,-0.3445139527320862,0.6975464820861816,0.4200000464916229,1.0,3.7983741094649304e-06,-2.2627561975241406e-06,-1.5019411137018324e-07,0.00026374030858278275,0.00026566023007035255,-0.00010428880341351032,-0.001705368747934699,0.004147524479776621,-0.00012980001338291913,-0.17002615332603455,0.23788052797317505,1.251049280166626,-1.6559410095214844,3.3466386795043945,-1.2628166675567627,0.4743921160697937,0.7763722538948059,0.42000001668930054,-1.2300312519073486,3.0000016689300537,-0.1555478870868683,-3.0000009536743164,-0.006011298857629299,-0.010719114914536476,-0.01565256342291832,-0.020806236192584038,-0.2027842104434967,-0.30756327509880066,-0.40907758474349976,-0.5069517493247986
0.13333333333333333,0.071085624396801,0.07020013779401779,0.0,0.9743765592575073,0.0,0.0,-0.22492291033267975,0.8539944887161255,0.7418472170829773,0.0,0.0,0.0,-3.287755250930786,-0.3445139527320862,0.6975465416908264,0.4200000464916229,0.9999999403953552,3.550490419002017e-06,-2.2297924715530826e-06,2.9292351655385573e-07,0.0002670329122338444,0.0002677924057934433,-0.00010416773147881031,-0.001743975793942809,0.004213578533381224,-0.0001280030410271138,-0.20331215858459473,0.2915208339691162,1.2249295711517334,-1.970123052597046,3.445589542388916,-1.827538251876831,0.4743921160697937,0.7763722538948059,0.42000001668930054,-1.1800262928009033,2.999998092651367,-0.18785344064235687,-1.0255199670791626,-0.006563964299857616,-0.013160468079149723,-0.019906023517251015,-0.02678968571126461,-0.014601577073335648,-0.12122758477926254,-0.22293807566165924,-0.3195519745349884
0.15,0.08120159804821014,0.07948753982782364,0.0,0.962269127368927,0.0,0.0,-0.27209943532943726,0.5025197863578796,0.5463972687721252,0.0,0.0,0.0,-6.364608287811279,-0.3445139527320862,0.6975464820861816,0.4200000464916229,0.9999999403953552,3.3380592867615633e-06,-2.2428412194130942e-06,-2.8008338759377693e-08,0.00026674458058550954,0.00026758271269500256,-0.00010427972301840782,-0.0017367512919008732,0.004206824116408825,-0.0001283210440305993,-0.233475923538208,0.3514789342880249,1.190904140472412,-1.5753583908081055,3.9327683448791504,-2.2076778411865234,0.4743921160697937,0.7763722538948059,0.42000001668930054,-1.1300263404846191,2.999999523162842,-0.2340051382780075,-2.999999523162842,-0.010339900851249695,-0.01834792271256447,-0.026438290253281593,-0.03460099920630455,-0.40895581245422363,-0.4754093587398529,-0.5385503768920898,-0.5983738899230957
0.16666666666666666,0.0862576887011528,0.09038767963647842,0.0,0.9552501440048218,0.0,0.0,-0.295799195766449,0.22050976753234863,0.7052488923072815,0.0,0.0,0.0,-1.8863033056259155,-0.3445139527320862,0.6975465416908264,0.4200000464916229,0.9999999403953552,3.647774974524509e-06,-2.3072600470186444e-06,3.529923020550996e-08,0.00026726865326054394,0.0002680135366972536,-0.00010418612509965897,-0.001747232861816883,0.0042175790295004845,-0.00012798202806152403,-0.2643687427043915,0.4149935245513916,1.1462571620941162,-1.706604242324829,3.9970383644104004,-3.1084423065185547,0.4743921160697937,0.7763722538948059,0.42000001668930054,-1.084962248802185,2.421693801879883,-0.284016877412796,-2.999999523162842,-0.018986906856298447,-0.027709664776921272,-0.03645030036568642,-0.045202214270830154,-0.5826451778411865,-0.6055262088775635,-0.6246919631958008,-0.6404908895492554
0.18333333333333332,0.09522609412670135,0.09778254479169846,0.0,0.9435033798217773,0.0,0.0,-0.33136290311813354,0.578289806842804,0.358898788690567,0.0,0.0,0.0,-5.093198776245117,-0.3445139527320862,0.6975464820861816,0.4200000464916229,0.9999999403953552,3.2904902127484092e-06,-2.1938533336651744e-06,-2.7920296474803763e-07,0.0002667788357939571,0.0002677598677109927,-0.00010434072464704514,-0.0017390816938132048,0.004206937272101641,-0.00012845655146520585,-0.29070550203323364,0.4841892719268799,1.0871549844741821,-1.3612595796585083,4.280930519104004,-3.9801483154296875,0.4743921160697937,0.7763722538948059,0.42000001668930054,-1.0355958938598633,3.00000262260437,-0.33404290676116943,-2.999999761581421,-0.026935281231999397,-0.03592606633901596,-0.044880516827106476,-0.05379938334226608,-0.6335387825965881,-0.6161325573921204,-0.59727942943573,-0.577501654624939
0.2,0.09878652542829514,0.10855013877153397,0.0,0.937438428401947,0.0,0.0,-0.34815114736557007,0.19892320036888123,0.6115431785583496,0.0,0.0,0.0,-1.0587587356567383,-0.3445139527320862,0.6975464820861816,0.4200000464916229,1.0,3.2807631669129478e-06,-2.219166617578594e-06,1.5949673581872048e-07,0.0002662794722709805,0.0002674015995580703,-0.0001042510848492384,-0.00173571624327451,0.0041978564113378525,-0.00012865439930465072,-0.3140559792518616,0.5465008020401001,1.010835886001587,-1.203896403312683,3.597233533859253,-4.916535377502441,0.4743921160697937,0.7763722538948059,0.42000001668930054,-0.985586404800415,2.9999990463256836,-0.38406822085380554,-2.999999761581421,-0.041971683502197266,-0.0509750135242939,-0.05944031849503517,-0.06786585599184036,-0.5972996950149536,-0.6585817933082581,-0.7130637764930725,-0.7616857886314392
0.21666666666666667,0.10702943801879883,0.11416443437337875,0.0,0.9261079430580139,0.0,0.0,-0.37725862860679626,0.5410912036895752,0.24449379742145538,0.0,0.0,0.0,-4.267481327056885,-0.3445139527320862,0.6975465416908264,0.4200000464916229,1.0,3.6130975331616355e-06,-2.2699948658555513e-06,2.2104775609932403e-07,0.00026712531689554453,0.0002678169694263488,-0.00010414118878543377,-0.0017444599652662873,0.004215109162032604,-0.0001278673007618636,-0.33159753680229187,0.6047882437705994,0.9224281311035156,-0.8104906678199768,3.2619848251342773,-5.655747890472412,0.4743921160697937,0.7763722538948059,0.42000001668930054,-0.9355772137641907,2.9999992847442627,-0.4340965449810028,-3.000000476837158,-0.05091843008995056,-0.0606149397790432,-0.06971004605293274,-0.07869867980480194,-0.7618146538734436,-0.7544090747833252,-0.7469621896743774,-0.7384408712387085
0.23333333333333334,0.11034561693668365,0.12328988313674927,0.0,0.9218228459358215,0.0,0.0,-0.3876115083694458,0.16943137347698212,0.5189348459243774,0.0,0.0,0.0,-0.3430551290512085,-0.3445139527320862,0.6975464820861816,0.4200000464916229,1.0,3.3817855182860512e-06,-2.2908213850314496e-06,2.728465915424749e-07,0.0002669155946932733,0.0002678002056200057,-0.00010433141142129898,-0.0017395844915881753,0.0042098211124539375,-0.00012844095181208104,-0.3447597324848175,0.6450557112693787,0.8241367936134338,-0.5958334803581238,1.8795809745788574,-5.991280555725098,0.4743921160697937,0.7763722538948059,0.42000001668930054,-0.8855665326118469,2.9999985694885254,-0.4841265380382538,-2.9999990463256836,-0.0669168159365654,-0.07663595676422119,-0.08575940132141113,-0.09476044774055481,-0.6968826651573181,-0.7466051578521729,-0.7945889234542847,-0.8382079601287842
0.25,0.11190781742334366,0.12708954513072968,0.0,0.9121575951576233,0.0,0.0,-0.4098396599292755,0.057798828929662704,0.12883488833904266,0.0,0.0,0.0,-3.846837282180786,-0.3445139229297638,0.6975464820861816,0.4200000464916229,0.9999999403953552,3.7064864955027588e-06,-2.2228989564609947e-06,-2.2546814193447062e-07,0.0002642463950905949,0.00026656698901206255,-0.00010457634925842285,-0.0017169405473396182,0.00415548961609602,-0.00013063351798336953,-0.35307663679122925,0.6737995147705078,0.7217656373977661,-0.29977449774742126,1.3838486671447754,-6.180371284484863,0.4743921160697937,0.7763722538948059,0.42000001668930054,-0.8355563282966614,2.999997138977051,-0.5341566205024719,-3.000001907348633,-0.0787333995103836,-0.08908030390739441,-0.09882097691297531,-0.10837512463331223,-0.7643631100654602,-0.7856400609016418,-0.8077418804168701,-0.8269477486610413
0.26666666666666666,0.10973794758319855,0.13396239280700684,0.0,0.9095447659492493,0.0,0.0,-0.41560596227645874,-0.187700092792511,0.5074913501739502,0.0,0.0,0.0,0.1922639161348343,-0.3445139527320862,0.6975464820861816,0.4200000464916229,0.9999999403953552,3.719608457686263e-06,-2.4033261070144363e-06,-1.8304078253095213e-07,0.00026623241137713194,0.0002672903356142342,-0.00010425737127661705,-0.001732598408125341,0.004196526482701302,-0.0001285126927541569,-0.3592040538787842,0.6897218823432922,0.6232438087463379,-0.2080198973417282,0.427778035402298,-5.592527389526367,0.4743921160697937,0.7763722538948059,0.42000001668930054,-0.7855474948883057,3.000000476837158,-0.5841863751411438,-3.00000262260437,-0.09595876187086105,-0.10614358633756638,-0.11576030403375626,-0.12520281970500946,-1.0122202634811401,-1.009198784828186,-1.0069036483764648,-1.0050804615020752
0.2833333333333333,0.11077269166707993,0.13667075335979462,0.0,0.9154615998268127,0.0,0.0,-0.402405321598053,0.07422241568565369,0.12246578186750412,0.0,0.0,0.0,2.443250894546509,-0.3445139527320862,0.6975465416908264,0.4200000464916229,0.9999999403953552,3.5840300824929727e-06,-2.3153043002821505e-06,7.407601998465907e-08,0.00026522009284235537,0.00026455309125594795,-0.00010317424312233925,-0.0017022202955558896,0.00418515969067812,-0.000124995582154952,-0.36651891469955444,0.6929707527160645,0.5315021276473999,-0.3501802980899811,-0.23556514084339142,-5.451638221740723,0.4743921160697937,0.7763722538948059,0.42000001668930054,-0.7355387210845947,2.9999961853027344,-0.6342141628265381,-3.0000016689300537,-0.11108673363924026,-0.1212019994854927,-0.13078278303146362,-0.14020827412605286,-0.9980369806289673,-0.9983565211296082,-0.9986501336097717,-0.9989178776741028
0.3,0.10828949511051178,0.1371251791715622,0.0,0.913608193397522,0.0,0.0,-0.4065956473350525,-0.2286180555820465,-0.003591265296563506,0.0,0.0,0.0,-1.4449100494384766,-0.3445139527320862,0.6975464820861816,0.4200000464916229,1.0,3.7242095913825324e-06,-2.271762923555798e-06,9.639254727744628e-08,0.00026312656700611115,0.00026525757857598364,-0.00010438100434839725,-0.00169602339155972,0.004134845454245806,-0.00013027741806581616,-0.3624526858329773,0.6912004947662354,0.44229617714881897,0.682300329208374,-0.004886774346232414,-5.086215496063232,0.4743921160697937,0.7763722538948059,0.42000001668930054,-0.6855315566062927,2.9999988079071045,-0.6842406392097473,-3.00000262260437,-0.129116490483284,-0.1389232873916626,-0.14827145636081696,-0.1575125753879547,-1.015806794166565,-1.0120021104812622,-1.0090961456298828,-1.006760835647583
0.31666666666666665,0.10305988043546677,0.13519395887851715,0.0,0.9177998304367065,0.0,0.0,-0.39704346656799316,-0.3243350386619568,-0.18060997128486633,0.0,0.0,0.0,2.058889150619507,-0.3449622392654419,0.6889674663543701,0.41999998688697815,0.9989739656448364,2.456323954902473e-06,1.1420927421568194e-06,0.04528634250164032,-0.025264397263526917,-0.5355880260467529,-3.399117849767208e-05,-0.0023016505874693394,0.003799363737925887,5.48219633102417,-0.35683947801589966,0.6957458853721619,0.417410671710968,0.432140052318573,0.5855312943458557,-0.02675255574285984,0.4743921160697937,0.7763722538948059,0.42000001668930054,-0.6357066035270691,2.980708360671997,-0.7346112728118896,-2.745359182357788,-0.13684533536434174,-0.14743570983409882,-0.15733763575553894,-0.16678981482982635,-0.028439480811357498,-0.12941287457942963,-0.2034098356962204,-0.2381114512681961
0.3333333333333333,0.09611375629901886,0.13052892684936523,0.0,0.9153084754943848,0.0,0.0,-0.4027535319328308,-0.46095579862594604,-0.3197188079357147,0.0,0.0,0.0,-1.6596438884735107,-0.3376336991786957,0.6941620111465454,0.42517992854118347,0.9917849898338318,0.07929306477308273,0.05817139148712158,-0.08180009573698044,0.5125221014022827,0.36104628443717957,0.2251466065645218,10.47299861907959,1.2256542444229126,-14.538554191589355,-0.3519853949546814,0.7031404376029968,0.42175233364105225,0.4841758906841278,0.5337056517601013,-0.1385865956544876,0.4743921160697937,0.7763722538948059,0.42000001668930054,-0.5856905579566956,2.9999873638153076,-0.7846569418907166,-2.9999983310699463,-0.13832706212997437,-0.14988970756530762,-0.16032564640045166,-0.1696934998035431,-0.24577808380126953,-0.2512046694755554,-0.23578989505767822,-0.19054391980171204
0.35,0.08696804195642471,0.1235962063074112,0.0,0.9191559553146362,0.0,0.0,-0.3938937485218048,-0.5898283123970032,-0.4547711908817291,0.0,0.0,0.0,2.060908079147339,-0.3286994993686676,0.7064146399497986,0.42689746618270874,0.9836603999137878,0.13365763425827026,0.0534568652510643,-0.10812049359083176,0.6044889092445374,0.9248433709144592,0.10305380821228027,4.8645453453063965,0.7381401658058167,-3.933345079421997,-0.34224987030029297,0.7151788473129272,0.4203186631202698,0.6807575225830078,0.860315203666687,0.02646103873848915,0.4743921160697937,0.7763722538948059,0.42000001668930054,-0.5356681942939758,3.000002861022949,-0.8346743583679199,-2.9999802112579346,-0.14428307116031647,-0.1550746113061905,-0.16440843045711517,-0.17222456634044647,-0.3993251919746399,-0.3201165497303009,-0.22198660671710968,-0.0991227924823761
0.36666666666666664,0.08069266378879547,0.11408662796020508,0.0,0.9167160391807556,0.0,0.0,-0.39953941106796265,-0.2965046167373657,-0.6169565916061401,0.0,0.0,0.0,-1.6392991542816162,-0.3176155388355255,0.721912682056427,0.4274804890155792,0.9804270267486572,0.12289158999919891,0.04678035527467728,-0.14653320610523224,0.8881580829620361,0.9538666009902954,0.08088240772485733,-12.420660972595215,0.23584286868572235,-8.14401626586914,-0.32815808057785034,0.7287068367004395,0.42124515771865845,1.0232981443405151,0.8799322843551636,0.05906069651246071,0.4743921160697937,0.7763722538948059,0.42000001668930054,-0.48562726378440857,2.999606132507324,-0.8846852779388428,-2.999887704849243,-0.15241064131259918,-0.16117416322231293,-0.168156236410141,-0.17323105037212372,-0.5045865178108215,-0.3570992946624756,-0.191549614071846,-0.005339405033737421
0.3833333333333333,0.07222563028335571,0.1030183956027031,0.0,0.9017388820648193,0.0,0.0,-0.4322811961174011,-0.5818642973899841,-0.6901753544807434,0.0,0.0,0.0,-5.252690315246582,-0.29946169257164,0.7406042218208313,0.42789313197135925,0.9758739471435547,0.0724998265504837,0.0007209837203845382,-0.20594492554664612,1.9659613370895386,1.1910805702209473,0.31046754121780396,-12.928228378295898,3.707594633102417,-7.9661383628845215,-0.3059433102607727,0.7470293045043945,0.4226074814796448,1.5382492542266846,1.2952643632888794,0.10864506661891937,0.4743921160697937,0.7763722538948059,0.42000001668930054,-0.43557795882225037,2.97989821434021,-0.9346961379051208,-2.9989380836486816,-0.1632908582687378,-0.16885682940483093,-0.17233681678771973,-0.17359423637390137,-0.6609688401222229,-0.4520992934703827,-0.2249206006526947,0.020052891224622726
0.4,0.06679286062717438,0.08892610669136047,0.0,0.8724071383476257,0.0,0.0,-0.4887799322605133,-0.275300532579422,-0.8961251974105835,0.0,0.0,0.0,-8.411112785339355,-0.26254284381866455,0.769147515296936,0.43177855014801025,0.9476178288459778,-0.03114062175154686,0.12010853737592697,-0.2943205237388611,2.9616646766662598,1.7648097276687622,0.058675795793533325,24.625267028808594,-15.825810432434082,7.74279260635376,-0.26933443546295166,0.7742915749549866,0.4251939058303833,2.808932304382324,1.9232244491577148,0.46725142002105713,0.4743921160697937,0.7763722538948059,0.42000001668930054,-0.3900139331817627,2.0418615341186523,-0.9847182035446167,-3.000002384185791,-0.17360761761665344,-0.17559847235679626,-0.1752171367406845,-0.1723564863204956,-0.6736979484558105,-0.43550240993499756,-0.1832968145608902,0.0796014592051506
0.4166666666666667,0.06389860808849335,0.07843223959207535,0.0,0.8259021043777466,0.0,0.0,-0.5638135671615601,-0.10251109302043915,-0.6309956908226013,0.0,0.0,0.0,-11.33624267578125,-0.19008584320545197,0.8049395680427551,0.4388647973537445,0.9272645711898804,0.05365617200732231,0.0817895159125328,-0.36140263080596924,5.5915985107421875,2.387578248977661,0.07950540632009506,35.787437438964844,-30.351961135864258,4.393430233001709,-0.19617962837219238,0.812218427658081,0.4310363531112671,5.485684394836426,2.736800193786621,0.565467357635498,0.4743921160697937,0.7763722538948059,0.42000001668930054,-0.36727869510650635,0.6834205985069275,-0.9473809003829956,2.9913294315338135,-0.1875416785478592,-0.18754185736179352,-0.18207073211669922,-0.17418307065963745,-0.5616421103477478,-0.6259501576423645,-0.37679508328437805,-0.1297910362482071
0.43333333333333335,0.06448099762201309,0.0705236941576004,0.0,0.7876917719841003,0.0,0.0,-0.616069495677948,0.08663708716630936,-0.4124378561973572,0.0,0.0,0.0,-6.588375568389893,-0.09825079888105392,0.84581059217453,0.44844120740890503,0.881706714630127,0.10569992661476135,0.05575735121965408,-0.4564119279384613,5.898352146148682,1.8662323951721191,0.5387938618659973,12.4704008102417,-4.270588397979736,-1.3995860815048218,-0.10372744500637054,0.8550729751586914,0.44026923179626465,5.6885833740234375,2.2143611907958984,0.6352313756942749,0.4743921160697937,0.7763722538948059,0.42000001668930054,-0.3579556345939636,0.4817010760307312,-0.9727026224136353,-2.995509624481201,-0.19801980257034302,-0.1982121467590332,-0.18896757066249847,-0.17752675712108612,-0.6140764951705933,-0.5894591212272644,-0.38534337282180786,-0.20092624425888062
0.45,0.0627124011516571,0.06758562475442886,0.0,0.7707969546318054,0.0,0.0,-0.6370808482170105,-0.10884838551282883,-0.12694206833839417,0.0,0.0,0.0,-1.926695704460144,-0.003299962729215622,0.8739818930625916,0.45806166529655457,0.8273031711578369,0.12998118996620178,0.05013857036828995,-0.5442061424255371,5.825734615325928,0.24512797594070435,0.41052475571632385,6.605210781097412,-17.546979904174805,25.9730224609375,-0.006748940795660019,0.8839714527130127,0.4499543309211731,6.050163269042969,1.3656151294708252,0.74100261926651,0.4743921160697937,0.7763722538948059,0.42000001668930054,-0.3486752510070801,0.42623069882392883,-1.022724986076355,-3.0000040531158447,-0.21132710576057434,-0.20987431704998016,-0.1968790888786316,-0.18212857842445374,-0.7579582333564758,-0.6407215595245361,-0.4395645558834076,-0.2650127112865448
0.4666666666666667,0.06441564112901688,0.05943881347775459,0.0,0.745919942855835,0.0,0.0,-0.6660355925559998,0.08465135097503662,-0.5182685852050781,0.0,0.0,0.0,-5.341350555419922,0.09399814903736115,0.8854109644889832,0.46538013219833374,0.7562913298606873,0.1633211076259613,0.046559982001781464,-0.631808340549469,5.523155689239502,-0.8970740437507629,0.4038478434085846,-4.922569751739502,6.108695983886719,17.161287307739258,0.091178297996521,0.8971829414367676,0.45707669854164124,5.97038459777832,0.16828420758247375,0.4874402582645416,0.4743921160697937,0.7763722538948059,0.42000001668930054,-0.34173622727394104,0.3284454345703125,-1.0727471113204956,-3.0000033378601074,-0.21924841403961182,-0.2157953381538391,-0.19992591440677643,-0.1826179176568985,-0.6159337162971497,-0.41446453332901,-0.1935638189315796,0.005999056622385979
0.48333333333333334,0.0675332173705101,0.05620362609624863,0.0,0.7333135008811951,0.0,0.0,-0.6798906326293945,0.21710699796676636,-0.14341196417808533,0.0,0.0,0.0,-1.137877345085144,0.18578287959098816,0.8798461556434631,0.47152596712112427,0.6832464337348938,0.17825844883918762,0.040090933442115784,-0.7069588899612427,4.884787082672119,-1.2173912525177002,0.2530297040939331,-4.283257007598877,2.198396682739258,16.47818946838379,0.18440139293670654,0.8923478126525879,0.4634796679019928,5.536111831665039,-0.6256802082061768,0.43964987993240356,0.4743921160697937,0.7763722538948059,0.42000001668930054,-0.33453401923179626,0.45221447944641113,-1.1227692365646362,-3.000002384185791,-0.2327064871788025,-0.22521036863327026,-0.20555153489112854,-0.18499508500099182,-0.6853083372116089,-0.474631130695343,-0.3008652925491333,-0.15950697660446167
0.5,0.06951058655977249,0.05579628795385361,0.0,0.7145844101905823,0.0,0.0,-0.6995492577552795,0.06731784343719482,0.04284040257334709,0.0,0.0,0.0,-4.104433059692383,0.2668256163597107,0.8662378787994385,0.4716780483722687,0.635501503944397,0.17795071005821228,0.04190265014767647,-0.7501437067985535,4.265792369842529,-1.30087149143219,-0.1809520721435547,7.869994640350342,6.136175632476807,3.497429847717285,0.2668258547782898,0.8781998157501221,0.46440553665161133,4.559009075164795,-1.1921124458312988,-0.09972453117370605,0.4743921160697937,0.7763722538948059,0.42000001668930054,-0.325329065322876,0.5826810002326965,-1.1727913618087769,-2.9990413188934326,-0.2400098741054535,-0.23144309222698212,-0.20984503626823425,-0.18771250545978546,-0.011007112450897694,-0.34992602467536926,-0.25823962688446045,-0.18532109260559082
0.5166666666666666,0.0730317234992981,0.0527329295873642,0.0,0.7078965902328491,0.0,0.0,-0.7063160538673401,0.1972469687461853,-0.2230152189731598,0.0,0.0,0.0,-0.2036304920911789,0.33569633960723877,0.8475449681282043,0.465760737657547,0.5424931049346924,0.1509079784154892,0.04498844966292381,-0.825169026851654,3.551380157470703,-1.0914971828460693,-0.3630269169807434,6.038127899169922,8.76569938659668,-7.163144111633301,0.3334811329841614,0.8570247888565063,0.4588469862937927,3.540072202682495,-1.4700636863708496,-0.517868161201477,0.4743921160697937,0.7763722538948059,0.42000001668930054,-0.3103346824645996,1.35659921169281,-1.2228134870529175,-2.9999992847442627,-0.23702658712863922,-0.23336826264858246,-0.2111947238445282,-0.188783198595047,0.16707797348499298,-0.05783845856785774,-0.04643252491950989,-0.05574463680386543
0.5333333333333333,0.07859756797552109,0.05261271446943283,0.0,0.6922020316123962,0.0,0.0,-0.7217037677764893,0.39458155632019043,0.022680962458252907,0.0,0.0,0.0,-3.4456212520599365,0.3902489244937897,0.8292223215103149,0.4570434093475342,0.47818925976753235,0.07986076176166534,0.1412428319454193,-0.8631382584571838,2.971667766571045,-1.0949127674102783,-0.5915923714637756,8.146637916564941,19.89640235900879,-6.691872596740723,0.3875359892845154,0.8361320495605469,0.44551897048950195,3.0132131576538086,-1.1654911041259766,-0.9597036838531494,0.4743921160697937,0.7763722538948059,0.42000001668930054,-0.2802630364894867,2.157494068145752,-1.272835612297058,-2.999999523162842,-0.23415234684944153,-0.23395976424217224,-0.2125968039035797,-0.19122880697250366,0.29813048243522644,0.08997712284326553,-0.025189658626914024,-0.14717507362365723
0.55,0.0863812267780304,0.0500960499048233,0.0,0.6895736455917358,0.0,0.0,-0.724215567111969,0.4995955526828766,-0.20042350888252258,0.0,0.0,0.0,0.5020384788513184,0.4324025511741638,0.8076922297477722,0.4405002295970917,0.4458012878894806,0.05774683132767677,0.14624564349651337,-0.8812143206596375,1.9717999696731567,-1.9752073287963867,-1.4526970386505127,-1.781726360321045,-6.901872158050537,9.410666465759277,0.43028146028518677,0.8143105506896973,0.4289442300796509,2.1423072814941406,-1.3191242218017578,-0.9151433706283569,0.4743921160697937,0.7763722538948059,0.42000001668930054,-0.2513176202774048,0.7887303233146667,-1.322855830192566,-2.999671459197998,-0.231069877743721,-0.2329762578010559,-0.21328546106815338,-0.1937815546989441,0.14889481663703918,0.07012450695037842,-0.03783714026212692,-0.1579061597585678
0.5666666666666667,0.09203793853521347,0.050459712743759155,0.0,0.6771451830863953,0.0,0.0,-0.7358494400978088,0.2961762547492981,0.05946078151464462,0.0,0.0,0.0,-2.930403470993042,0.45759400725364685,0.7941935062408447,0.4345270097255707,0.4516195058822632,0.06210056319832802,0.15084531903266907,-0.877170979976654,0.9867358803749084,-0.6274548172950745,-0.11547567695379257,-1.0715488195419312,-2.70704984664917,3.9767348766326904,0.4541811943054199,0.800507664680481,0.42272377014160156,1.0437148809432983,-0.5251086354255676,0.010326890274882317,0.4743921160697937,0.7763722538948059,0.42000001668930054,-0.2464614361524582,0.20145167410373688,-1.3319792747497559,1.592747449874878,-0.228656604886055,-0.23179583251476288,-0.21437537670135498,-0.1971360445022583,0.23825350403785706,0.1615576148033142,-0.007228218950331211,-0.16712833940982819
0.5833333333333334,0.09780699759721756,0.05284181609749794,0.0,0.677416980266571,0.0,0.0,-0.7355992197990417,0.3885524868965149,0.23526757955551147,0.0,0.0,0.0,0.9490333795547485,0.469860315322876,0.7856751680374146,0.4326836168766022,0.46102961897850037,0.04971202835440636,0.16341917216777802,-0.8707895874977112,0.37494829297065735,-0.39618369936943054,0.008950472809374332,-1.1082518100738525,-1.5239201784133911,3.2862932682037354,0.465507447719574,0.7920374274253845,0.42210087180137634,0.35547468066215515,-0.3689993619918823,0.11618783324956894,0.4743921160697937,0.7763722538948059,0.42000001668930054,-0.25160616636276245,-0.6741617918014526,-1.3638298511505127,-2.99880051612854,-0.22415125370025635,-0.22833660244941711,-0.2138894945383072,-0.19938111305236816,0.2828484773635864,0.23400066792964935,0.04969146102666855,-0.11656596511602402
0.6,0.10568877309560776,0.051801200956106186,0.0,0.6666273474693298,0.0,0.0,-0.7453911900520325,0.5068418979644775,-0.07220550626516342,0.0,0.0,0.0,-2.6253466606140137,0.4748011827468872,0.7812882661819458,0.43132683634757996,0.5027636289596558,0.05574944242835045,0.16447950899600983,-0.8467981219291687,0.2626812756061554,-0.20728321373462677,-0.10700252652168274,2.1599888801574707,-1.6101551055908203,8.139507293701172,0.46989959478378296,0.7908535003662109,0.4215424954891205,0.1032031774520874,-0.04250346124172211,-0.05887230113148689,0.4743921160697937,0.7763722538948059,0.42000001668930054,-0.2919240891933441,-2.9999468326568604,-1.336957573890686,2.9998466968536377,-0.21423688530921936,-0.21998001635074615,-0.2095293551683426,-0.19859625399112701,0.5254003405570984,0.46897077560424805,0.25245583057403564,0.05770113319158554
0.6166666666666667,0.11592842638492584,0.05470877140760422,0.0,0.668103814125061,0.0,0.0,-0.7440680861473083,0.6307868957519531,0.18693305552005768,0.0,0.0,0.0,1.1460113525390625,0.47746798396110535,0.7798967957496643,0.42847347259521484,0.5137550830841064,0.06063440814614296,0.12614282965660095,-0.846443772315979,0.16616487503051758,-0.06662503629922867,-0.22072720527648926,-2.7317559719085693,-2.7675416469573975,1.92532217502594,0.4700016379356384,0.7897832989692688,0.422905832529068,0.013546392321586609,0.029977817088365555,0.15670843422412872,0.4743921160697937,0.7763722538948059,0.42000001668930054,-0.34192901849746704,-2.9999914169311523,-1.3558954000473022,-2.999988079071045,-0.20802566409111023,-0.21426068246364594,-0.2070782631635666,-0.1990804672241211,0.4754582941532135,0.4194575846195221,0.1966288685798645,-0.0030088904313743114
0.6333333333333333,0.12318829447031021,0.05338498204946518,0.0,0.6720098257064819,0.0,0.0,-0.7405422329902649,0.34026825428009033,-0.11436953395605087,0.0,0.0,0.0,0.37076830863952637,0.47773367166519165,0.7800367474555969,0.42479443550109863,0.5497676134109497,0.0636129081249237,0.0805043876171112,-0.8289920687675476,0.023050107061862946,0.025884568691253662,-0.1916581690311432,-7.372992992401123,-4.332666397094727,2.216050148010254,0.47007882595062256,0.7908904552459717,0.4260150194168091,-0.0549585223197937,0.037847694009542465,0.2155165672302246,0.4743921160697937,0.7763722538948059,0.42000001668930054,-0.3919363021850586,-3.000455141067505,-1.4058583974838257,-2.997812509536743,-0.19823244214057922,-0.2052631974220276,-0.20159175992012024,-0.19670160114765167,0.4893970191478729,0.48728305101394653,0.32391881942749023,0.1803353726863861
0.65,0.13096587359905243,0.05618156120181084,0.0,0.6818845868110657,0.0,0.0,-0.7314597964286804,0.4872075319290161,0.15694022178649902,0.0,0.0,0.0,2.1489670276641846,0.47779691219329834,0.781084418296814,0.4210885763168335,0.5636653900146484,0.021005049347877502,0.014526702463626862,-0.8256082534790039,-0.005541808903217316,0.0935012698173523,-0.19015255570411682,-10.423930168151855,4.154456615447998,0.7727658152580261,0.4687998294830322,0.7905234694480896,0.4296625852584839,-0.006768900901079178,0.0309956893324852,0.2539699971675873,0.4743921160697937,0.7763722538948059,0.42000001668930054,-0.4419454038143158,-2.999891519546509,-1.4558688402175903,-2.999910831451416,-0.1936933398246765,-0.20000812411308289,-0.1981557309627533,-0.19477179646492004,0.36196795105934143,0.3867778778076172,0.27336931228637695,0.1837809532880783
0.6666666666666666,0.14031687378883362,0.054646484553813934,0.0,0.6781110167503357,0.0,0.0,-0.7349594831466675,0.5822899341583252,-0.11827953904867172,0.0,0.0,0.0,-1.5655313730239868,0.4781254529953003,0.782093346118927,0.4199998676776886,0.5652720928192139,-1.0292070328432601e-05,-8.723882274352945e-06,-0.8249045014381409,-0.003979548346251249,-0.0006379804690368474,-0.0002779357600957155,0.007982083596289158,-0.0010354163823649287,0.14058060944080353,0.47064340114593506,0.7933018803596497,0.434704065322876,0.1439119279384613,0.10209321975708008,0.37631264328956604,0.4743921160697937,0.7763722538948059,0.42000001668930054,-0.49195796251296997,-2.9999680519104004,-1.5058867931365967,-3.0000007152557373,-0.18645285069942474,-0.1922762393951416,-0.19197314977645874,-0.18968147039413452,0.288788765668869,0.3670276999473572,0.3334304690361023,0.32432690262794495
0.6833333333333333,0.15137003362178802,0.04961507394909859,0.0,0.654101550579071,0.0,0.0,-0.7564067244529724,0.7054315209388733,-0.3717011511325836,0.0,0.0,0.0,-4.7391228675842285,0.4781251549720764,0.7820931077003479,0.41999998688697815,0.5652723908424377,-1.985255948966369e-06,-3.885806108883116e-06,-0.824904203414917,3.860741708194837e-05,-0.0003214293101336807,-7.560662925243378e-05,0.008263379335403442,-0.0028385405894368887,-0.0007496769540011883,0.4753991365432739,0.7966144680976868,0.44820964336395264,0.44851964712142944,0.23952633142471313,1.3437016010284424,0.4743921160697937,0.7763722538948059,0.42000001668930054,-0.5419706106185913,-2.9999661445617676,-1.5559051036834717,-2.9999985694885254,-0.18405088782310486,-0.18821527063846588,-0.18793950974941254,-0.18532781302928925,0.05696970224380493,0.1698748618364334,0.19113418459892273,0.22954842448234558
0.7,0.1661364883184433,0.04953170567750931,0.0,0.6426515579223633,0.0,0.0,-0.7661585807800293,0.8333138227462769,0.036466486752033234,0.0,0.0,0.0,-0.7968548536300659,0.4781251847743988,0.7820931673049927,0.41999998688697815,0.5652724504470825,-2.920904762504506e-06,-4.325264853832778e-06,-0.824904203414917,-6.520935130538419e-06,-0.00034167253761552274,-9.60114412009716e-05,0.008666040375828743,-0.003362263087183237,-0.0007066155085340142,0.482403039932251,0.7996474504470825,0.4781343340873718,0.4812043309211731,0.3620990514755249,2.2142086029052734,0.4743921160697937,0.7763722538948059,0.42000001668930054,-0.5919755697250366,-3.000000238418579,-1.6059226989746094,-3.000000476837158,-0.18906523287296295,-0.19052298367023468,-0.18893499672412872,-0.1848483830690384,-0.16814465820789337,-0.06113922968506813,-0.021380746737122536,0.033165328204631805
0.7166666666666667,0.17679159343242645,0.051325876265764236,0.0,0.6548017859458923,0.0,0.0,-0.7558006644248962,0.5747110247612,0.11697058379650116,0.0,0.0,0.0,2.7603816986083984,0.4781252145767212,0.7820931673049927,0.41999998688697815,0.5652725100517273,-2.9630439257744e-06,-4.016183993371669e-06,-0.8249041438102722,-8.988732588477433e-06,-0.00034131063148379326,-9.66368243098259e-05,0.008653474040329456,-0.0033782399259507656,-0.000700982054695487,0.4950302839279175,0.8032368421554565,0.5107136368751526,0.9267325401306152,0.14133886992931366,1.78938627243042,0.4743921160697937,0.7763722538948059,0.42000001668930054,-0.6268618702888489,-1.3081486225128174,-1.6559371948242188,-3.000000238418579,-0.1901693493127823,-0.1900392472743988,-0.1877334713935852,-0.1826573759317398,0.04112491384148598,0.12590987980365753,0.16969922184944153,0.22920925915241241
0.7333333333333333,0.18299125134944916,0.04829705134034157,0.0,0.6547580361366272,0.0,0.0,-0.7558385729789734,0.329365611076355,-0.20996452867984772,0.0,0.0,0.0,-0.9502915740013123,0.4781252145767212,0.7820931673049927,0.41999998688697815,0.5652725100517273,-2.9598149922094308e-06,-4.214366981614148e-06,-0.824904203414917,-7.623808414791711e-06,-0.000341553968610242,-9.624147787690163e-05,0.008663338609039783,-0.0033709651324898005,-0.000704244535882026,0.5101826190948486,0.8049967288970947,0.5342873930931091,0.8376364707946777,-0.10205714404582977,1.163646936416626,0.4743921160697937,0.7763722538948059,0.42000001668930054,-0.6651012301445007,-2.999999523162842,-1.6462208032608032,2.9999992847442627,-0.18606294691562653,-0.1849903017282486,-0.1823795735836029,-0.17686697840690613,0.1532360315322876,0.23660504817962646,0.2802627682685852,0.3193691074848175
0.75,0.1912902593612671,0.05023586004972458,0.0,0.6660381555557251,0.0,0.0,-0.7459176182746887,0.45163974165916443,0.14351266622543335,0.0,0.0,0.0,2.6451311111450195,0.4781252145767212,0.7820931673049927,0.41999998688697815,0.565272331237793,-2.9702550818910822e-06,-4.107756012672326e-06,-0.8249043226242065,-8.037163752305787e-06,-0.0003414380189497024,-9.63693019002676e-05,0.008658653125166893,-0.003371666418388486,-0.0007032056455500424,0.5227117538452148,0.8013916611671448,0.554618775844574,0.7350349426269531,-0.09435472637414932,1.2935035228729248,0.4743921160697937,0.7763722538948059,0.42000001668930054,-0.6857834458351135,0.2498476356267929,-1.6590628623962402,-2.9999992847442627,-0.18742920458316803,-0.18441152572631836,-0.180508092045784,-0.17394590377807617,0.06740881502628326,0.13471756875514984,0.17147111892700195,0.19491466879844666
0.7666666666666666,0.1955937296152115,0.04830877110362053,0.0,0.6650731563568115,0.0,0.0,-0.7467781901359558,0.18686528503894806,-0.15673945844173431,0.0,0.0,0.0,-1.0453649759292603,0.4781252145767212,0.7820931673049927,0.41999998688697815,0.5652724504470825,-2.938813850050792e-06,-4.204971446597483e-06,-0.824904203414917,-8.144555977196433e-06,-0.00034140743082389235,-9.63935162872076e-05,0.008657664991915226,-0.0033717858605086803,-0.0007031914428807795,0.5345523953437805,0.7987951636314392,0.5706241130828857,0.6400905847549438,-0.34361034631729126,0.7656259536743164,0.4743921160697937,0.7763722538948059,0.42000001668930054,-0.7058861255645752,-2.413163900375366,-1.6198869943618774,3.0,-0.1848498433828354,-0.18084026873111725,-0.17636443674564362,-0.16948853433132172,0.07208060473203659,0.15432365238666534,0.21353133022785187,0.25204935669898987
0.7833333333333333,0.2008071094751358,0.04974336177110672,0.0,0.6747109293937683,0.0,0.0,-0.7380821108818054,0.3468853533267975,0.09596624970436096,0.0,0.0,0.0,2.3362247943878174,0.4781252145767212,0.7820931673049927,0.41999998688697815,0.5652722716331482,-2.9488733161997516e-06,-4.100987098354381e-06,-0.8249043226242065,-8.135651114571374e-06,-0.0003414226812310517,-9.63930506259203e-05,0.00865807943046093,-0.003371709957718849,-0.0007029546541161835,0.5457085967063904,0.7916470766067505,0.5828968286514282,0.7622522711753845,-0.3814586400985718,0.7624523639678955,0.4743921160697937,0.7763722538948059,0.42000001668930054,-0.7125969529151917,1.2908252477645874,-1.6333398818969727,-3.000000238418579,-0.18517594039440155,-0.17970772087574005,-0.1740553379058838,-0.16634899377822876,0.10851987451314926,0.15812963247299194,0.19950374960899353,0.22477158904075623
0.8,0.20350676774978638,0.047047533094882965,0.0,0.6724501848220825,0.0,0.0,-0.7401423454284668,0.10181822627782822,-0.19744987785816193,0.0,0.0,0.0,-1.1726256608963013,0.4781252145767212,0.7820931673049927,0.41999998688697815,0.5652721524238586,-2.900207618949935e-06,-4.045478362968424e-06,-0.8249043822288513,-5.9362682804930955e-06,-0.0003415418032091111,-9.543402120471e-05,0.008674334734678268,-0.003358049551025033,-0.0007067720289342105,0.5572555065155029,0.786574125289917,0.5940639972686768,0.5724231004714966,-0.35615044832229614,0.6801261901855469,0.4743921160697937,0.7763722538948059,0.42000001668930054,-0.7164006233215332,-1.5005156993865967,-1.5942426919937134,2.999999761581421,-0.18156027793884277,-0.17576348781585693,-0.16986045241355896,-0.16216334700584412,0.1506434977054596,0.17589853703975677,0.1965712606906891,0.19861510396003723
0.8166666666666667,0.20745915174484253,0.04842974245548248,0.0,0.6817706227302551,0.0,0.0,-0.7315660119056702,0.27505284547805786,0.08098278939723969,0.0,0.0,0.0,2.223463296890259,0.4781251847743988,0.7820931673049927,0.41999998688697815,0.5652723908424377,-2.900139406847302e-06,-4.159599029662786e-06,-0.824904203414917,-3.848418600682635e-06,-0.00034184809192083776,-9.482842870056629e-05,0.008687438443303108,-0.00334747601300478,-0.0007116319611668587,0.5664695501327515,0.7784405946731567,0.6037554740905762,0.6420955657958984,-0.4329677224159241,0.5411181449890137,0.4743921160697937,0.7763722538948059,0.42000001668930054,-0.7100114226341248,1.9599732160568237,-1.6083033084869385,-2.999999523162842,-0.18137194216251373,-0.17480222880840302,-0.16816851496696472,-0.1600671261548996,0.1670205444097519,0.17190635204315186,0.18170295655727386,0.17835402488708496
0.8333333333333334,0.2091371715068817,0.045815158635377884,0.0,0.6786723136901855,0.0,0.0,-0.7344411611557007,0.04330934211611748,-0.19352999329566956,0.0,0.0,0.0,-1.3033561706542969,0.4781252145767212,0.7820931673049927,0.41999998688697815,0.5652725100517273,-2.894393446695176e-06,-4.204131982987747e-06,-0.8249042630195618,-7.214085599116515e-06,-0.0003412766964174807,-9.613065049052238e-05,0.008654086850583553,-0.003360327798873186,-0.0007045770762488246,0.5753458738327026,0.7741501331329346,0.6118834614753723,0.3564470708370209,-0.23295852541923523,0.5289266109466553,0.4743921160697937,0.7763722538948059,0.42000001668930054,-0.6976991891860962,-0.2956477403640747,-1.5692774057388306,3.000000476837158,-0.1766463667154312,-0.17060692608356476,-0.16439001262187958,-0.15689274668693542,0.1976851373910904,0.17280496656894684,0.15275874733924866,0.11892523616552353
0.85,0.2079821527004242,0.0469432957470417,0.0,0.6865639090538025,0.0,0.0,-0.7270694375038147,-0.12021899223327637,0.08533480763435364,0.0,0.0,0.0,1.993862509727478,0.4781252145767212,0.7820931673049927,0.41999998688697815,0.5652724504470825,-2.9221916975075146e-06,-4.427066869538976e-06,-0.824904203414917,-4.6195441427698825e-06,-0.0003417965490370989,-9.537604637444019e-05,0.00867519248276949,-0.0033511582296341658,-0.0007109217112883925,0.5801201462745667,0.7667562961578369,0.6187665462493896,0.3216450810432434,-0.41906991600990295,0.36548855900764465,0.4743921160697937,0.7763722538948059,0.42000001668930054,-0.6752489805221558,2.7071943283081055,-1.5839052200317383,-3.000000476837158,-0.17576812207698822,-0.16966384649276733,-0.1633121520280838,-0.15593361854553223,0.17133525013923645,0.14525187015533447,0.12784363329410553,0.10042575746774673
0.8666666666666667,0.20492446422576904,0.05010971799492836,0.0,0.6823392510414124,0.0,0.0,-0.7310356497764587,-0.26267778873443604,0.2717244625091553,0.0,0.0,0.0,-1.5271739959716797,0.4781251847743988,0.7820931673049927,0.41999998688697815,0.5652724504470825,-2.902297183027258e-06,-4.2447022678970825e-06,-0.824904203414917,-6.153442882350646e-06,-0.0003416184044908732,-9.589619003236294e-05,0.008664934895932674,-0.0033585617784410715,-0.0007073856540955603,0.5834321975708008,0.7653383016586304,0.6245346069335938,0.031980402767658234,0.06557111442089081,0.4372405409812927,0.4743921160697937,0.7763722538948059,0.42000001668930054,-0.6341298222541809,2.236412763595581,-1.5449492931365967,3.000000238418579,-0.1716306209564209,-0.16690552234649658,-0.1616952270269394,-0.15550494194030762,0.25156745314598083,0.1499665230512619,0.06282868981361389,-0.02548651397228241
0.8833333333333333,0.19867126643657684,0.04959045350551605,0.0,0.6894114017486572,0.0,0.0,-0.724370002746582,-0.41844257712364197,-0.009371588937938213,0.0,0.0,0.0,1.8063771724700928,0.4781252145767212,0.7820931673049927,0.41999998688697815,0.5652724504470825,-3.1412328098667786e-06,-4.281096607883228e-06,-0.8249041438102722,-7.831724360585213e-06,-0.0003410907811485231,-9.633507579565048e-05,0.008646393194794655,-0.0033625802025198936,-0.0007030973210930824,0.5805014371871948,0.7648505568504333,0.6333622932434082,-0.40527090430259705,-0.07940133661031723,0.6331377029418945,0.4743921160697937,0.7763722538948059,0.42000001668930054,-0.6024441123008728,1.5939255952835083,-1.5201656818389893,0.1951167732477188,-0.16525408625602722,-0.16226083040237427,-0.1585729718208313,-0.15393109619617462,0.18398143351078033,0.12055949866771698,0.06531979143619537,0.0045623076148331165
