vladlanda/robotic-transformer/data/env_000_episode_0103.csv
sim_time_s,robot_box_x,robot_box_y,robot_box_z,robot_box_quat_w,robot_box_quat_x,robot_box_quat_y,robot_box_quat_z,robot_box_linvel_x,robot_box_linvel_y,robot_box_linvel_z,robot_box_angvel_x,robot_box_angvel_y,robot_box_angvel_z,cube_world_x,cube_world_y,cube_world_z,cube_quat_w,cube_quat_x,cube_quat_y,cube_quat_z,cube_linvel_x,cube_linvel_y,cube_linvel_z,cube_angvel_x,cube_angvel_y,cube_angvel_z,endpoint_world_x,endpoint_world_y,endpoint_world_z,endpoint_linvel_x,endpoint_linvel_y,endpoint_linvel_z,target_cube_world_x,target_cube_world_y,target_cube_world_z,gripper_actual_pos_rad_gp_leftgearjoint,gripper_actual_vel_rad_s_gp_leftgearjoint,gripper_actual_pos_rad_gp_rotatingjoint,gripper_actual_vel_rad_s_gp_rotatingjoint,motor_angle_rad_joint1,motor_angle_rad_joint2,motor_angle_rad_joint3,motor_angle_rad_joint4,motor_speed_rad_s_joint1,motor_speed_rad_s_joint2,motor_speed_rad_s_joint3,motor_speed_rad_s_joint4
0.0,0.0,0.0,0.0,1.0,0.0,0.0,0.0,0.0,0.0,0.0,0.0,0.0,0.0,-0.4536641538143158,0.7183923721313477,0.41999998688697815,1.0,0.0,0.0,0.0,0.0,0.0,0.0,0.0,0.0,0.0,3.42540442943573e-06,-0.005000244826078415,1.313499927520752,0.0,0.0,0.0,0.3906487226486206,0.6271237730979919,0.42000001668930054,-1.5707999467849731,0.0,0.0,0.0,0.0,0.0,0.0,0.0,0.0,0.0,0.0,0.0
0.016666666666666666,0.0028778850100934505,0.0021806680597364902,0.0,0.9998081922531128,0.0,0.0,0.019586581736803055,0.24087215960025787,0.18240931630134583,0.0,0.0,0.0,3.1418697834014893,-0.45366427302360535,0.7183920741081238,0.41999998688697815,1.0,3.2799914606584935e-06,-8.339814598912199e-07,8.465387679734704e-08,-1.9833554688375443e-05,0.00017983050202019513,-6.133061833679676e-05,0.0009432226070202887,-0.004689437802881002,-0.0003198152990080416,-0.007110234349966049,0.003379564033821225,1.3159373998641968,-0.8143353462219238,0.9868683815002441,0.18095196783542633,0.3906487226486206,0.6271237730979919,0.42000001668930054,-1.5301095247268677,3.0000011920928955,-0.04584788903594017,-2.9999992847442627,0.0008691533003002405,0.0007963840034790337,0.0007110277656465769,0.0006108740926720202,0.11094217747449875,0.09756709635257721,0.08334315568208694,0.06823883205652237
0.03333333333333333,0.008960973471403122,0.006801911164075136,0.0,0.9997960329055786,0.0,0.0,0.020196842029690742,0.4070208966732025,0.3153086006641388,0.0,0.0,0.0,-0.8691297769546509,-0.4536643922328949,0.718392014503479,0.4200000464916229,1.0,3.390885240150965e-06,-2.1324319732229924e-06,-3.711133800265998e-08,0.00026357753085903823,0.00026937859365716577,-0.00010509602725505829,-0.0017706351354718208,0.004130707122385502,-0.00013548039714805782,-0.027548663318157196,0.02602018415927887,1.3166236877441406,-1.591510534286499,1.614469051361084,-0.08186929672956467,0.3906487226486206,0.6271237730979919,0.42000001668930054,-1.4800903797149658,3.0000016689300537,-0.09588772058486938,-3.0000009536743164,0.0029901491943746805,0.0026527768932282925,0.00227736565284431,0.0018608378013595939,0.16422241926193237,0.13976719975471497,0.11382755637168884,0.08631093055009842
0.05,0.017741134390234947,0.01377004012465477,0.0,0.9993796348571777,0.0,0.0,0.035219140350818634,0.5936664938926697,0.4650002717971802,0.0,0.0,0.0,2.6496613025665283,-0.4536644220352173,0.7183920741081238,0.4200000464916229,1.0,3.7652134778909385e-06,-2.2118977085483493e-06,5.605784725304375e-09,0.0002653079864103347,0.00026691483799368143,-0.00010440615005791187,-0.0017242918256670237,0.0041773696430027485,-0.00012949654774274677,-0.059671565890312195,0.05359002202749252,1.3117420673370361,-2.1873507499694824,1.728783130645752,-0.4652305245399475,0.3906487226486206,0.6271237730979919,0.42000001668930054,-1.4300720691680908,2.99999737739563,-0.1459263563156128,-3.0000011920928955,0.005705828778445721,0.0049139768816530704,0.004049998242408037,0.003109439043328166,0.1927635818719864,0.15586374700069427,0.11708903312683105,0.07634592801332474
0.06666666666666667,0.029054109007120132,0.023062488064169884,0.0,0.999451220035553,0.0,0.0,0.03312443569302559,0.720228910446167,0.5951518416404724,0.0,0.0,0.0,-1.2096247673034668,-0.4536644220352173,0.718392014503479,0.4200000464916229,0.9999999403953552,3.4068298191414215e-06,-2.28560702453251e-06,4.300801776935259e-07,0.00026702682953327894,0.0002679186000023037,-0.00010437914170324802,-0.0017406968399882317,0.004211870953440666,-0.00012850748316850513,-0.09746924787759781,0.08763811737298965,1.2996110916137695,-2.369112730026245,2.2404818534851074,-0.9652312994003296,0.3906487226486206,0.6271237730979919,0.42000001668930054,-1.3800537586212158,3.0000030994415283,-0.1959608644247055,-3.000000476837158,0.008202736265957355,0.006693594623357058,0.00507341930642724,0.0033365541603416204,0.14133599400520325,0.08745132386684418,0.03152291104197502,-0.02652699686586857
0.08333333333333333,0.034425824880599976,0.035697296261787415,0.0,0.9999999403953552,0.0,0.0,0.0003742771514225751,0.19015856087207794,0.8244049549102783,0.0,0.0,0.0,-4.9337029457092285,-0.4536644220352173,0.718392014503479,0.4200000464916229,1.0,3.6973638088966254e-06,-2.188969347116654e-06,-2.6325207613808743e-07,0.0002638972655404359,0.0002658646844793111,-0.00010433816350996494,-0.0017081599216908216,0.004150238819420338,-0.0001299150026170537,-0.1350802332162857,0.1292790174484253,1.2790971994400024,-2.1821131706237793,2.6280317306518555,-1.3967411518096924,0.3906487226486206,0.6271237730979919,0.42000001668930054,-1.3300268650054932,2.9999992847442627,-0.16570669412612915,2.9999983310699463,0.0049635241739451885,0.0028396223206073046,0.0005537456017918885,-0.0019039774779230356,-0.2894230782985687,-0.3328225910663605,-0.3787836730480194,-0.4275892972946167
0.1,0.04399901628494263,0.049655914306640625,0.0,0.9999002814292908,0.0,0.0,-0.01412050612270832,0.6753502488136292,0.8504817485809326,0.0,0.0,0.0,-0.7012065052986145,-0.4536644220352173,0.718392014503479,0.4200000464916229,0.9999999403953552,3.6204753541824175e-06,-2.2652429834124632e-06,1.7459507262174156e-07,0.0002667691733222455,0.0002674090501386672,-0.0001040794886648655,-0.0017386652762070298,0.004209219943732023,-0.000127756706206128,-0.17348328232765198,0.16900423169136047,1.2575616836547852,-2.272214412689209,2.428689479827881,-1.2823114395141602,0.3906487226486206,0.6271237730979919,0.42000001668930054,-1.280029535293579,3.000002861022949,-0.19736596941947937,-2.999999523162842,0.005078529007732868,0.0014096577651798725,-0.0024183255154639482,-0.0064156209118664265,0.032194554805755615,-0.0734640508890152,-0.17823851108551025,-0.28207385540008545
0.11666666666666667,0.05168759450316429,0.06451469659805298,0.0,0.9991529583930969,0.0,0.0,-0.04115031659603119,0.4608047306537628,0.9506542086601257,0.0,0.0,0.0,-3.911804437637329,-0.4536644220352173,0.718392014503479,0.4200000464916229,1.0,3.7984361824783264e-06,-2.2628191800322384e-06,-1.502184687751651e-07,0.0002637402212712914,0.0002656611322890967,-0.00010429113171994686,-0.00170544080901891,0.004147577099502087,-0.00012980044994037598,-0.20786404609680176,0.21551360189914703,1.2359527349472046,-1.8690389394760132,3.1379659175872803,-1.2723002433776855,0.3906487226486206,0.6271237730979919,0.42000001668930054,-1.2300050258636475,2.9999916553497314,-0.16358588635921478,3.0,0.003613496432080865,-0.0019801233429461718,-0.007704362738877535,-0.013568053022027016,-0.04847908765077591,-0.18413971364498138,-0.3167021870613098,-0.44594353437423706
0.13333333333333333,0.05690835043787956,0.07801496982574463,0.0,0.9956583380699158,0.0,0.0,-0.09308330714702606,0.2544843852519989,0.7379217743873596,0.0,0.0,0.0,-7.106687545776367,-0.4536644220352173,0.7183920741081238,0.4200000464916229,0.9999999403953552,3.5505424875736935e-06,-2.229828169220127e-06,2.9289728331605147e-07,0.0002670327667146921,0.00026779386098496616,-0.00010417122393846512,-0.0017440201481804252,0.004213609732687473,-0.0001280046271858737,-0.23894929885864258,0.2695845365524292,1.2135679721832275,-1.8404672145843506,3.364394187927246,-1.4534684419631958,0.3906487226486206,0.6271237730979919,0.42000001668930054,-1.1935310363769531,1.477274775505066,-0.19530868530273438,-3.0000009536743164,0.0017428736900910735,-0.006046059541404247,-0.013899138197302818,-0.021821439266204834,-0.18356625735759735,-0.30224916338920593,-0.41681742668151855,-0.5270935297012329
0.15,0.058419741690158844,0.09195010364055634,0.0,0.9922742247581482,0.0,0.0,-0.12406381219625473,0.02121765911579132,0.8731242418289185,0.0,0.0,0.0,-2.659512758255005,-0.4536644220352173,0.718392014503479,0.4200000464916229,0.9999999403953552,3.3381334105797578e-06,-2.2429260297940345e-06,-2.8039233157528543e-08,0.00026674431865103543,0.0002675812866073102,-0.00010427669622004032,-0.0017367323162034154,0.004206859972327948,-0.00012831835192628205,-0.2777370512485504,0.32289111614227295,1.18339204788208,-2.3890929222106934,3.393765449523926,-2.151113510131836,0.3906487226486206,0.6271237730979919,0.42000001668930054,-1.149282693862915,2.999995231628418,-0.1632048338651657,2.999999523162842,-0.0026371388230472803,-0.012032821774482727,-0.021413881331682205,-0.03078371472656727,-0.33100804686546326,-0.40414056181907654,-0.47272858023643494,-0.5367880463600159
0.16666666666666666,0.05675419047474861,0.10533541440963745,0.0,0.9859548211097717,0.0,0.0,-0.16701222956180573,-0.14789243042469025,0.7566318511962891,0.0,0.0,0.0,-6.089817523956299,-0.4536644220352173,0.7183920741081238,0.4200000464916229,0.9999999403953552,3.6479050322668627e-06,-2.3073048396327067e-06,3.5250213414883547e-08,0.00026726938085630536,0.00026801350759342313,-0.0001041879877448082,-0.0017471633618697524,0.004217633046209812,-0.00012798757234122604,-0.3143661916255951,0.3829881548881531,1.1458570957183838,-1.9170655012130737,3.878261089324951,-2.3701977729797363,0.3906487226486206,0.6271237730979919,0.42000001668930054,-1.1001824140548706,2.864332675933838,-0.19491951167583466,-3.0,-0.009589568711817265,-0.02021528221666813,-0.030743872746825218,-0.041179195046424866,-0.4959135055541992,-0.5619267225265503,-0.6233488917350769,-0.6802336573600769
0.18333333333333332,0.060093145817518234,0.1194508969783783,0.0,0.9812988638877869,0.0,0.0,-0.19249048829078674,0.3164466619491577,0.8810822367668152,0.0,0.0,0.0,-2.102699041366577,-0.4536644220352173,0.718392014503479,0.4200000464916229,0.9999999403953552,3.2906407341215527e-06,-2.19392541112029e-06,-2.7926049028792477e-07,0.00026678023277781904,0.0002677612646948546,-0.0001043418888002634,-0.0017391652800142765,0.004207087680697441,-0.00012845821038354188,-0.35005858540534973,0.4444347620010376,1.098823070526123,-2.017320394515991,3.789666175842285,-3.24575138092041,0.3906487226486206,0.6271237730979919,0.42000001668930054,-1.0667635202407837,1.257503867149353,-0.24494816362857819,-2.9999988079071045,-0.015579263679683208,-0.027069322764873505,-0.03838331997394562,-0.049529824405908585,-0.37005263566970825,-0.39691218733787537,-0.41997045278549194,-0.4396718740463257
0.2,0.05965128540992737,0.1305188089609146,0.0,0.9728736281394958,0.0,0.0,-0.2313372641801834,-0.0741347223520279,0.6391087770462036,0.0,0.0,0.0,-5.4394636154174805,-0.4536644220352173,0.718392014503479,0.4200000464916229,1.0,3.2809034564706963e-06,-2.219204134235042e-06,1.5944489462071942e-07,0.0002662780461832881,0.0002674012794159353,-0.00010425224900245667,-0.0017357412725687027,0.004197692032903433,-0.00012865240569226444,-0.38294094800949097,0.5087544918060303,1.0372631549835205,-1.7322027683258057,4.008416175842285,-4.068456649780273,0.3906487226486206,0.6271237730979919,0.42000001668930054,-1.0217199325561523,2.999998092651367,-0.29497459530830383,-3.000001907348633,-0.027839185670018196,-0.03911207988858223,-0.050221413373947144,-0.06091868132352829,-0.7596426010131836,-0.7726193070411682,-0.7975330352783203,-0.771694004535675
0.21666666666666667,0.055721163749694824,0.1425609141588211,0.0,0.9683928489685059,0.0,0.0,-0.2494298368692398,-0.3000129163265228,0.7526058554649353,0.0,0.0,0.0,-1.1970597505569458,-0.4536644220352173,0.7183920741081238,0.4200000464916229,1.0,3.613293756643543e-06,-2.270116283398238e-06,2.2098708996054484e-07,0.00026712549151852727,0.0002678165037650615,-0.0001041400246322155,-0.001744507229886949,0.004215178079903126,-0.00012786623847205192,-0.4141460955142975,0.5682529211044312,0.96284019947052,-1.6762604713439941,3.4146251678466797,-4.80474853515625,0.3906487226486206,0.6271237730979919,0.42000001668930054,-0.9717179536819458,3.0000016689300537,-0.3450027108192444,-2.9999985694885254,-0.04250304028391838,-0.05338854715228081,-0.06428106129169464,-0.07407783716917038,-0.9303919076919556,-0.8854802250862122,-0.8493568301200867,-0.780813455581665
0.23333333333333334,0.054296575486660004,0.155752032995224,0.0,0.9598861932754517,0.0,0.0,-0.2803899049758911,-0.08768495917320251,0.8996244668960571,0.0,0.0,0.0,-4.709739685058594,-0.4536644220352173,0.718392014503479,0.4200000464916229,1.0,3.3819878808571957e-06,-2.290978500241181e-06,2.7277940262138145e-07,0.00026691509992815554,0.00026779965264722705,-0.00010433257557451725,-0.0017395686591044068,0.004209764301776886,-0.0001284358586417511,-0.4407725930213928,0.6235228776931763,0.8764129877090454,-1.3353526592254639,3.102900981903076,-5.486507892608643,0.3906487226486206,0.6271237730979919,0.42000001668930054,-0.9217090606689453,3.000000238418579,-0.39503294229507446,-3.0000016689300537,-0.058044519275426865,-0.0686277523636818,-0.07917355746030807,-0.08783209323883057,-0.9914994239807129,-0.991578221321106,-0.9917901754379272,-0.9762024283409119
0.25,0.05088957026600838,0.16727299988269806,0.0,0.9559817314147949,0.0,0.0,-0.29342615604400635,-0.2536260485649109,0.6103126406669617,0.0,0.0,0.0,-0.619377613067627,-0.4536643922328949,0.718392014503479,0.4200000464916229,0.9999999403953552,3.7066545246489113e-06,-2.2230651666177437e-06,-2.2551537881554395e-07,0.0002642491308506578,0.0002665681822691113,-0.00010458100587129593,-0.0017169631319120526,0.004155635833740234,-0.00013063169899396598,-0.46250849962234497,0.6651207208633423,0.7812071442604065,-1.050048589706421,2.1184606552124023,-5.891355514526367,0.3906487226486206,0.6271237730979919,0.42000001668930054,-0.8716983795166016,2.99999737739563,-0.44506412744522095,-3.00000262260437,-0.07380243390798569,-0.0843537300825119,-0.09485650062561035,-0.10331521928310394,-0.9783712029457092,-0.9685171842575073,-0.9562665820121765,-0.9204467535018921
0.26666666666666666,0.05028963461518288,0.17368283867835999,0.0,0.948695957660675,0.0,0.0,-0.31618979573249817,0.03344167768955231,0.30415597558021545,0.0,0.0,0.0,-3.6154139041900635,-0.4536644220352173,0.718392014503479,0.4200000464916229,0.9999999403953552,3.7197896745055914e-06,-2.4035318801907124e-06,-1.8309344795852667e-07,0.000266231712885201,0.0002672916743904352,-0.00010425737127661705,-0.0017326921224594116,0.004196560475975275,-0.00012851195060648024,-0.4763053357601166,0.6960609555244446,0.6766608953475952,-0.5038036704063416,1.4903260469436646,-6.445646286010742,0.3906487226486206,0.6271237730979919,0.42000001668930054,-0.8216885328292847,2.9999969005584717,-0.495095431804657,-2.9999990463256836,-0.09041387587785721,-0.10091184079647064,-0.11137927323579788,-0.11979132145643234,-0.9939937591552734,-0.994620144367218,-0.9951274394989014,-0.995388925075531
0.2833333333333333,0.04666110873222351,0.17687349021434784,0.0,0.9472946524620056,0.0,0.0,-0.3203635513782501,-0.2829965651035309,0.14542359113693237,0.0,0.0,0.0,0.4374028444290161,-0.4536644220352173,0.7183920741081238,0.4200000464916229,0.9999999403953552,3.584217893148889e-06,-2.3155771486926824e-06,7.402578461324083e-08,0.0002652194525580853,0.0002645511704031378,-0.00010317121632397175,-0.0017020420636981726,0.004185081925243139,-0.00012500298907980323,-0.4812754988670349,0.7100794315338135,0.5741956830024719,0.026958666741847992,0.3629298508167267,-5.852409362792969,0.3906487226486206,0.6271237730979919,0.42000001668930054,-0.7716797590255737,2.999999523162842,-0.5451252460479736,-3.000002145767212,-0.10806302726268768,-0.11830849200487137,-0.1285887509584427,-0.13685669004917145,-1.00921630859375,-1.0069336891174316,-1.0051963329315186,-1.003814458847046
0.3,0.03845439478754997,0.1778225153684616,0.0,0.9414862990379333,0.0,0.0,-0.33705124258995056,-0.43458351492881775,-0.020714953541755676,0.0,0.0,0.0,-2.8948256969451904,-0.4536644220352173,0.718392014503479,0.4200000464916229,1.0,3.724424232132151e-06,-2.271987113999785e-06,9.634525355295409e-08,0.00026312601403333247,0.000265259004663676,-0.00010437984019517899,-0.0016961186192929745,0.004134838003665209,-0.00013027706881985068,-0.4738297760486603,0.7126678228378296,0.4805164337158203,0.8005478978157043,0.08807571232318878,-5.361259460449219,0.3906487226486206,0.6271237730979919,0.42000001668930054,-0.7216712236404419,2.9999961853027344,-0.5951539278030396,-2.999997854232788,-0.1252981573343277,-0.13538217544555664,-0.14556479454040527,-0.15377177298069,-0.7699997425079346,-0.8171449899673462,-0.8602398037910461,-0.8999210596084595
0.31666666666666665,0.02975969761610031,0.17576149106025696,0.0,0.9416388273239136,0.0,0.0,-0.33662497997283936,-0.5579105019569397,-0.1666683703660965,0.0,0.0,0.0,0.9662187099456787,-0.45350587368011475,0.7149503827095032,0.41998761892318726,0.9992395639419556,0.00032989634200930595,-0.00023920800595078617,-0.03898865729570389,0.027484996244311333,-0.3968980312347412,-0.004005406051874161,-1.2695382833480835,0.2073853760957718,-9.899958610534668,-0.46778368949890137,0.7166013717651367,0.4281519651412964,0.13286146521568298,0.034906789660453796,-0.2946924865245819,0.3906487226486206,0.6271237730979919,0.42000001668930054,-0.6716684103012085,3.0000011920928955,-0.6455071568489075,-3.000600576400757,-0.1374134123325348,-0.1477714329957962,-0.15808601677417755,-0.16630400717258453,-0.2568017542362213,-0.32257279753685,-0.36841076612472534,-0.3942478597164154
0.3333333333333333,0.018793340772390366,0.17127498984336853,0.0,0.9367157220840454,0.0,0.0,-0.35009098052978516,-0.7074501514434814,-0.31140053272247314,0.0,0.0,0.0,-2.5982682704925537,-0.4520150423049927,0.7106875777244568,0.42030131816864014,0.9936347007751465,0.007216955069452524,-8.288632670883089e-05,-0.1124182939529419,0.20642638206481934,-0.04324466735124588,0.03732733428478241,2.4198057651519775,-1.046824336051941,-12.6851167678833,-0.4663122892379761,0.7204900979995728,0.42470839619636536,0.18221093714237213,0.21055763959884644,-0.231227308511734,0.3906487226486206,0.6271237730979919,0.42000001668930054,-0.6216626167297363,3.0000007152557373,-0.6955972909927368,-3.0000007152557373,-0.1424461007118225,-0.15324300527572632,-0.16363294422626495,-0.17164283990859985,-0.369900107383728,-0.35712048411369324,-0.3246862590312958,-0.28155550360679626
0.35,0.005676039960235357,0.16437233984470367,0.0,0.9375903010368347,0.0,0.0,-0.3477419912815094,-0.8245581388473511,-0.455412894487381,0.0,0.0,0.0,1.23406982421875,-0.4485776424407959,0.7165235877037048,0.42000019550323486,0.9940148591995239,-3.8481633964693174e-05,-9.92688273981912e-06,-0.10924497246742249,0.23003309965133667,0.40466204285621643,-0.0014486870495602489,0.08631022274494171,-0.034571051597595215,-2.0791237354278564,-0.46213769912719727,0.7249586582183838,0.4207087457180023,0.3520060181617737,0.35311025381088257,-0.21589946746826172,0.3906487226486206,0.6271237730979919,0.42000001668930054,-0.5716574788093567,2.9999840259552,-0.7456390261650085,-3.000000238418579,-0.15021063387393951,-0.1599416881799698,-0.1689554750919342,-0.17549243569374084,-0.49368786811828613,-0.3987356424331665,-0.2861851155757904,-0.17149202525615692
0.36666666666666664,-0.009063108824193478,0.15517424046993256,0.0,0.9330320358276367,0.0,0.0,-0.35979336500167847,-0.9599438309669495,-0.5972663760185242,0.0,0.0,0.0,-2.465952157974243,-0.444454163312912,0.7240801453590393,0.42006465792655945,0.9943045377731323,-0.0015936422860249877,0.0001785580097930506,-0.10656419396400452,0.30042752623558044,0.5846318006515503,0.031081445515155792,-1.5465670824050903,0.4042143225669861,5.7245917320251465,-0.45662206411361694,0.7318570613861084,0.42329415678977966,0.49830248951911926,0.5966154932975769,0.08954499661922455,0.3906487226486206,0.6271237730979919,0.42000001668930054,-0.5216525197029114,2.999981641769409,-0.7956632375717163,-2.9999985694885254,-0.1589532345533371,-0.16650493443012238,-0.17301808297634125,-0.1770285665988922,-0.48488059639930725,-0.3469622731208801,-0.18992242217063904,-0.03261921554803848
0.3833333333333333,-0.022232789546251297,0.14317335188388824,0.0,0.918988823890686,0.0,0.0,-0.39428359270095825,-0.7409845590591431,-0.7718431949615479,0.0,0.0,0.0,-5.46198844909668,-0.4350869655609131,0.7387341856956482,0.42028018832206726,0.9884954690933228,-0.006978171877563,0.0011301967315375805,-0.15108467638492584,0.7519901990890503,1.0824350118637085,-0.025386640802025795,1.2508761882781982,-0.33098214864730835,-3.9813778400421143,-0.4446907043457031,0.7439848184585571,0.4213126301765442,0.9913698434829712,0.9196168780326843,-0.2918155789375305,0.3906487226486206,0.6271237730979919,0.42000001668930054,-0.47164812684059143,2.9999892711639404,-0.8456872701644897,-3.0000016689300537,-0.16824805736541748,-0.17283712327480316,-0.17602917551994324,-0.1767023652791977,-0.5632394552230835,-0.3649124801158905,-0.1444210559129715,0.07694068551063538
0.4,-0.03165970370173454,0.12799113988876343,0.0,0.891704261302948,0.0,0.0,-0.45261844992637634,-0.4983980059623718,-0.9678590297698975,0.0,0.0,0.0,-8.54269027709961,-0.41607287526130676,0.7614588141441345,0.4214591681957245,0.9801009297370911,-0.02879597619175911,-0.003895109286531806,-0.19636094570159912,2.482693910598755,1.509281873703003,0.3733166754245758,-5.077414512634277,-19.829126358032227,-8.258861541748047,-0.4226025938987732,0.7644385695457458,0.4220326542854309,1.8970108032226562,1.7010555267333984,0.13926154375076294,0.3906487226486206,0.6271237730979919,0.42000001668930054,-0.4215632379055023,2.979147434234619,-0.8956872224807739,-3.0001158714294434,-0.17741785943508148,-0.17844277620315552,-0.17764605581760406,-0.1742696762084961,-0.5605044960975647,-0.32118621468544006,-0.05797341465950012,0.20691567659378052
0.4166666666666667,-0.037128932774066925,0.10983006656169891,0.0,0.84909987449646,0.0,0.0,-0.5282323360443115,-0.263923704624176,-1.1420514583587646,0.0,0.0,0.0,-11.154406547546387,-0.3594956696033478,0.7978331446647644,0.4240055978298187,0.9671618938446045,0.009045861661434174,-0.043737635016441345,-0.2502061128616333,4.725607395172119,2.7841286659240723,0.07310431450605392,33.27355194091797,-18.20537567138672,7.484292507171631,-0.36594682931900024,0.8023408651351929,0.4240954518318176,4.525763034820557,2.784921646118164,0.2737583816051483,0.3906487226486206,0.6271237730979919,0.42000001668930054,-0.38798055052757263,1.075441598892212,-0.8584880232810974,2.9945666790008545,-0.18947112560272217,-0.18549896776676178,-0.17952287197113037,-0.17116786539554596,-0.7336175441741943,-0.42786139249801636,-0.1196337342262268,0.16882644593715668
0.43333333333333335,-0.04692455008625984,0.09806391596794128,0.0,0.7857426404953003,0.0,0.0,-0.6185535192489624,-0.6906399130821228,-0.5511974692344666,0.0,0.0,0.0,-14.175124168395996,-0.25899776816368103,0.8414478898048401,0.43089812994003296,0.9445108771324158,0.08566229045391083,-0.08556439727544785,-0.30535200238227844,7.5861101150512695,2.2476396560668945,0.534583568572998,6.023613929748535,-12.229803085327148,12.521270751953125,-0.2651643753051758,0.8475154042243958,0.43095022439956665,7.270693778991699,2.7604012489318848,0.5989348292350769,0.3906487226486206,0.6271237730979919,0.42000001668930054,-0.3721330165863037,0.7494679689407349,-0.808458685874939,2.9992449283599854,-0.20556043088436127,-0.20020294189453125,-0.18924959003925323,-0.17473013699054718,-0.9037407636642456,-0.8963446617126465,-0.7340991497039795,-0.38009628653526306
0.45,-0.05320565775036812,0.0838339626789093,0.0,0.7274550795555115,0.0,0.0,-0.6861553192138672,-0.32736966013908386,-0.8502901196479797,0.0,0.0,0.0,-9.307958602905273,-0.138934925198555,0.8709568381309509,0.44180652499198914,0.9052437543869019,0.10653028637170792,-0.09940687566995621,-0.3991279602050781,7.508193016052246,0.35557910799980164,0.6917862296104431,6.338251113891602,-8.704975128173828,14.811988830566406,-0.14450791478157043,0.8803828954696655,0.4415844678878784,7.340238571166992,1.062333345413208,0.7838386297225952,0.3906487226486206,0.6271237730979919,0.42000001668930054,-0.35883110761642456,0.7936597466468811,-0.8354175090789795,-3.0000007152557373,-0.21976177394390106,-0.21385498344898224,-0.19882071018218994,-0.17796343564987183,-0.9912816286087036,-0.9576030969619751,-0.6489329934120178,-0.24162420630455017
0.4666666666666667,-0.06075453385710716,0.07523961365222931,0.0,0.6910783648490906,0.0,0.0,-0.7227798700332642,-0.3904360830783844,-0.537372887134552,0.0,0.0,0.0,-4.883133411407471,-0.017378978431224823,0.8721902370452881,0.4504847228527069,0.8278422355651855,0.04025513306260109,-0.22434894740581512,-0.512566328048706,7.335500717163086,-0.9583197236061096,0.24151133000850677,-17.30295753479004,-28.150232315063477,-0.23939216136932373,-0.02491001784801483,0.8850769996643066,0.4557100236415863,7.065457344055176,-0.4092130959033966,0.9108105897903442,0.3906487226486206,0.6271237730979919,0.42000001668930054,-0.34513750672340393,0.7404612302780151,-0.8854416012763977,-3.0000030994415283,-0.23494784533977509,-0.22893141210079193,-0.21372750401496887,-0.1861010193824768,-0.6032575368881226,-0.6430531144142151,-0.6869148015975952,-0.41683006286621094
0.48333333333333334,-0.06512103229761124,0.0615648590028286,0.0,0.6804505586624146,0.0,0.0,-0.7327939867973328,-0.22802677750587463,-0.8090945482254028,0.0,0.0,0.0,-0.7399073243141174,0.08853888511657715,0.8547397255897522,0.4601045846939087,0.7565844058990479,-0.010173705406486988,-0.22578078508377075,-0.6135955452919006,5.484403133392334,-2.6956377029418945,0.72513347864151,-7.816961765289307,-3.802746295928955,34.05167770385742,0.08250317722558975,0.8714667558670044,0.46724361181259155,5.836817741394043,-1.4931453466415405,0.6651577949523926,0.3906487226486206,0.6271237730979919,0.42000001668930054,-0.3353493809700012,0.33373382687568665,-0.9354656338691711,-2.9996304512023926,-0.24005481600761414,-0.23691700398921967,-0.22163328528404236,-0.18999728560447693,-0.051607660949230194,-0.5443154573440552,-0.4628243148326874,-0.2190222293138504
0.5,-0.0661725103855133,0.05175796151161194,0.0,0.661987841129303,0.0,0.0,-0.7495145797729492,0.0043028658255934715,-0.5228836536407471,0.0,0.0,0.0,-3.836618185043335,0.1728622317314148,0.8249517679214478,0.466766357421875,0.7385135889053345,-0.008699698373675346,-0.19418223202228546,-0.6456122398376465,4.355849266052246,-3.218374490737915,0.3812461495399475,-15.202115058898926,16.662960052490234,19.98249053955078,0.1706547737121582,0.8414908647537231,0.47385871410369873,4.970719814300537,-2.2203850746154785,0.26292848587036133,0.3906487226486206,0.6271237730979919,0.42000001668930054,-0.331224650144577,0.06371255964040756,-0.9854896068572998,-2.995986223220825,-0.23996944725513458,-0.23990625143051147,-0.22863131761550903,-0.19414515793323517,-0.01836400479078293,0.02035958506166935,-0.3080621659755707,-0.19483965635299683
0.5166666666666666,-0.06395380198955536,0.04644119739532471,0.0,0.6580726504325867,0.0,0.0,-0.7529544234275818,0.16400831937789917,-0.2375846803188324,0.0,0.0,0.0,0.2935243248939514,0.24473434686660767,0.7857903242111206,0.46680718660354614,0.6714388132095337,-0.07237405329942703,-0.17971771955490112,-0.7152854204177856,3.2456560134887695,-3.0784623622894287,0.17304018139839172,1.7899385690689087,7.683959007263184,41.32563018798828,0.2434910386800766,0.802143931388855,0.4754125773906708,4.030924320220947,-2.567507028579712,-0.10827308148145676,0.3906487226486206,0.6271237730979919,0.42000001668930054,-0.33111897110939026,-0.13631370663642883,-1.0355123281478882,-2.9986469745635986,-0.23964504897594452,-0.23883599042892456,-0.23217423260211945,-0.19703398644924164,0.060736481100320816,0.12798665463924408,-0.1036285012960434,-0.13153666257858276
0.5333333333333333,-0.05868048965930939,0.03649253770709038,0.0,0.6427403688430786,0.0,0.0,-0.7660840749740601,0.3818430006504059,-0.7659149765968323,0.0,0.0,0.0,-3.4612691402435303,0.30171999335289,0.7472593784332275,0.4608885645866394,0.6365190744400024,-0.09543213248252869,-0.14399351179599762,-0.7516660690307617,2.681095600128174,-2.629258155822754,-0.45605987310409546,-0.9968594312667847,8.305123329162598,11.43459701538086,0.3016332685947418,0.7628108263015747,0.46950072050094604,3.1420679092407227,-2.3467259407043457,-0.5291496515274048,0.3906487226486206,0.6271237730979919,0.42000001668930054,-0.3293796181678772,0.3311612904071808,-1.0855344533920288,-2.9986183643341064,-0.23141714930534363,-0.23076093196868896,-0.2284727543592453,-0.19580602645874023,0.6716135740280151,0.6442826390266418,0.3972979784011841,0.18040597438812256
0.55,-0.05177502706646919,0.02948775514960289,0.0,0.6396676301956177,0.0,0.0,-0.7686516046524048,0.43545934557914734,-0.2909465432167053,0.0,0.0,0.0,0.44180840253829956,0.3433679938316345,0.7103785872459412,0.45089980959892273,0.6116248369216919,-0.10677964240312576,-0.0862550288438797,-0.779149055480957,1.8036670684814453,-2.443594217300415,-0.5437369346618652,7.3707275390625,7.210422515869141,5.620654106140137,0.3445604145526886,0.7243577837944031,0.4581741690635681,2.1552257537841797,-2.2706704139709473,-0.7978160381317139,0.3906487226486206,0.6271237730979919,0.42000001668930054,-0.3180168569087982,0.8214588165283203,-1.1355565786361694,-2.9993698596954346,-0.22306622564792633,-0.22227375209331512,-0.22298607230186462,-0.19411425292491913,0.46761852502822876,0.48331934213638306,0.3401753008365631,0.08657276630401611
0.5666666666666667,-0.04303627088665962,0.027511993423104286,0.0,0.6271037459373474,0.0,0.0,-0.7789357304573059,0.5961846113204956,-0.11698358505964279,0.0,0.0,0.0,-2.727405071258545,0.3736509382724762,0.6791862845420837,0.43374669551849365,0.5678906440734863,-0.13141441345214844,-0.04349988326430321,-0.8113803863525391,1.587903618812561,-1.7101657390594482,-1.1855300664901733,1.2223312854766846,2.025303602218628,-9.3455228805542,0.37412625551223755,0.6915355920791626,0.4407397508621216,1.4344494342803955,-1.7766560316085815,-1.189060091972351,0.3906487226486206,0.6271237730979919,0.42000001668930054,-0.3023805022239685,1.078571081161499,-1.1855634450912476,-2.99999737739563,-0.21388420462608337,-0.21374256908893585,-0.21710696816444397,-0.19337813556194305,0.6553809642791748,0.574999988079071,0.4059132933616638,0.0539202056825161
0.5833333333333334,-0.03686950355768204,0.02034319005906582,0.0,0.62796550989151,0.0,0.0,-0.7782411575317383,0.3544620871543884,-0.3971065282821655,0.0,0.0,0.0,1.0045911073684692,0.39329656958580017,0.658622145652771,0.4229895770549774,0.5220975875854492,-0.03757927194237709,0.02345094084739685,-0.8517346382141113,0.5014687180519104,-1.3698681592941284,-0.09374778717756271,0.510592520236969,-3.5706498622894287,12.036236763000488,0.39065420627593994,0.6671896576881409,0.42621487379074097,0.4344315230846405,-1.0940122604370117,-0.1565026491880417,0.3906487226486206,0.6271237730979919,0.42000001668930054,-0.2762218117713928,1.8702183961868286,-1.1476666927337646,2.992241382598877,-0.20088855922222137,-0.20138922333717346,-0.20743818581104279,-0.19002899527549744,0.44907811284065247,0.5305294394493103,0.4482695460319519,0.11302702128887177
0.6,-0.028746262192726135,0.018440159037709236,0.0,0.6178462505340576,0.0,0.0,-0.786298930644989,0.49482330679893494,-0.10190209746360779,0.0,0.0,0.0,-2.303402900695801,0.3983868658542633,0.6459134221076965,0.4229485094547272,0.5418108701705933,-0.045481886714696884,0.050159137696027756,-0.8377686738967896,0.16947732865810394,-1.4088374376296997,0.03339624032378197,-9.471823692321777,-2.1877329349517822,25.119871139526367,0.3957170844078064,0.6538122892379761,0.42652666568756104,0.12981313467025757,-0.48205143213272095,0.09339049458503723,0.3906487226486206,0.6271237730979919,0.42000001668930054,-0.26256608963012695,-0.47938069701194763,-1.1693943738937378,-3.0005548000335693,-0.19529829919338226,-0.1949179321527481,-0.20203658938407898,-0.1899881213903427,0.44367167353630066,0.440304160118103,0.3619972765445709,0.02821080945432186
0.6166666666666667,-0.023733975365757942,0.014376811683177948,0.0,0.6208606362342834,0.0,0.0,-0.78392094373703,0.2582918405532837,-0.29378393292427063,0.0,0.0,0.0,1.259814977645874,0.4016777276992798,0.6397906541824341,0.423552930355072,0.5673657059669495,-0.05721348896622658,0.06898237019777298,-0.8185744881629944,0.1554211527109146,-0.1857888102531433,0.032365456223487854,2.705216407775879,2.876427173614502,-0.8750906586647034,0.39649420976638794,0.6454892158508301,0.42842474579811096,-0.08188430964946747,-0.4323638081550598,0.12828829884529114,0.3906487226486206,0.6271237730979919,0.42000001668930054,-0.30330178141593933,-2.9996449947357178,-1.2193644046783447,-2.997652053833008,-0.18701602518558502,-0.18680952489376068,-0.19480574131011963,-0.18786171078681946,0.4109826982021332,0.41399744153022766,0.40115052461624146,0.13721628487110138
0.6333333333333333,-0.017784124240279198,0.013562582433223724,0.0,0.6131088733673096,0.0,0.0,-0.7899984121322632,0.3826059401035309,-0.0017598328413441777,0.0,0.0,0.0,-2.133638858795166,0.4017614722251892,0.6370294094085693,0.4237503409385681,0.572914719581604,-0.06074167415499687,0.08619686961174011,-0.812803328037262,-0.01108955591917038,-0.1500316858291626,0.007104113232344389,0.1589459478855133,0.42985451221466064,1.335740089416504,0.3970778286457062,0.6435787677764893,0.4304753541946411,0.1815062165260315,0.06698237359523773,0.13315729796886444,0.3906487226486206,0.6271237730979919,0.42000001668930054,-0.33340540528297424,-0.7858583927154541,-1.2693066596984863,-2.998497486114502,-0.18067340552806854,-0.18094369769096375,-0.18916970491409302,-0.186348095536232,0.4808814823627472,0.4122081398963928,0.3821452856063843,0.13504843413829803
0.65,-0.010036913678050041,0.009902026504278183,0.0,0.617720365524292,0.0,0.0,-0.7863978743553162,0.5042348504066467,-0.2305043488740921,0.0,0.0,0.0,1.5728343725204468,0.4014264941215515,0.6351454257965088,0.4231066107749939,0.5808568000793457,-0.04957234859466553,0.0689987763762474,-0.8095598220825195,-0.025141442194581032,-0.10076658427715302,-0.05294860899448395,-1.1063776016235352,-3.192626714706421,0.904597282409668,0.39620673656463623,0.6440644264221191,0.4307209849357605,-0.23060759902000427,-0.019205695018172264,-0.02612781897187233,0.3906487226486206,0.6271237730979919,0.42000001668930054,-0.376682311296463,-2.9998323917388916,-1.2485911846160889,2.999688148498535,-0.17257361114025116,-0.1738034039735794,-0.18214552104473114,-0.18287530541419983,0.3320522904396057,0.3101743757724762,0.3468439280986786,0.18693862855434418
0.6666666666666666,0.0003604672383517027,0.009106059558689594,0.0,0.6430465579032898,0.0,0.0,-0.7658270597457886,0.6647335886955261,0.0003619595372583717,0.0,0.0,0.0,4.746360778808594,0.3999744653701782,0.6346598863601685,0.4215770661830902,0.5917234420776367,-0.02233867160975933,0.024880556389689445,-0.8054472804069519,-0.1688378006219864,0.04629116877913475,-0.09171169251203537,-3.64310884475708,-7.6518073081970215,0.33699825406074524,0.3937581777572632,0.6453739404678345,0.43305647373199463,-0.1233978271484375,0.14379289746284485,0.23335912823677063,0.3906487226486206,0.6271237730979919,0.42000001668930054,-0.42667627334594727,-2.9970223903656006,-1.2687873840332031,-2.999943733215332,-0.16832765936851501,-0.16986684501171112,-0.17728924751281738,-0.17998170852661133,0.2899205982685089,0.26142701506614685,0.3163131773471832,0.218738853931427
0.6833333333333333,0.011856680735945702,0.004982951562851667,0.0,0.654553234577179,0.0,0.0,-0.7560158967971802,0.7413020133972168,-0.25432515144348145,0.0,0.0,0.0,0.7338647842407227,0.3979698717594147,0.6350212693214417,0.420000821352005,0.5907632112503052,5.815842087031342e-06,1.6440695617347956e-05,-0.80684494972229,-0.05620913580060005,0.0018640512134879827,-0.000776922213844955,-0.03383181616663933,-0.004504905082285404,-0.4564565420150757,0.3932574987411499,0.6481937170028687,0.43855518102645874,-0.0854409709572792,0.11869985610246658,0.36836808919906616,0.3906487226486206,0.6271237730979919,0.42000001668930054,-0.4766719341278076,-2.9984514713287354,-1.31876540184021,-2.999980926513672,-0.16157446801662445,-0.16340385377407074,-0.169559046626091,-0.17310859262943268,0.27724432945251465,0.3108193278312683,0.4416026771068573,0.4628419280052185
0.7,0.02538204751908779,-0.0014441419625654817,0.0,0.642501175403595,0.0,0.0,-0.766284704208374,0.842243492603302,-0.45009860396385193,0.0,0.0,0.0,-2.825967788696289,0.3978111743927002,0.6350257992744446,0.4200001060962677,0.5903059840202332,1.3205090908741113e-05,-1.0118497812072746e-05,-0.8071795701980591,0.0014442811952903867,-0.00025288088363595307,-0.0006386528257280588,-0.004689275752753019,0.007418069057166576,-0.0040934160351753235,0.3975711762905121,0.6502355337142944,0.4504135251045227,0.5680493116378784,0.10002942383289337,1.1557226181030273,0.3906487226486206,0.6271237730979919,0.42000001668930054,-0.526684582233429,-2.9999825954437256,-1.368783712387085,-2.999999761581421,-0.15945886075496674,-0.16045978665351868,-0.1641632616519928,-0.1667831838130951,0.05595356598496437,0.11470001190900803,0.2691601812839508,0.34836894273757935
0.7166666666666667,0.041664570569992065,-0.0042764595709741116,0.0,0.6081954836845398,0.0,0.0,-0.7937873005867004,0.999146044254303,-0.18247267603874207,0.0,0.0,0.0,-6.077785491943359,0.3978128731250763,0.6350256204605103,0.4200000464916229,0.5903045535087585,2.4808286980260164e-07,-3.0134062853903743e-06,-0.8071805238723755,0.00012074117694282904,-0.00026590368361212313,-9.156251326203346e-05,0.006126448977738619,-0.0012444336898624897,-0.0006591168930754066,0.4164658188819885,0.6474676728248596,0.47547203302383423,1.7427630424499512,-0.330502450466156,1.9756735563278198,0.3906487226486206,0.6271237730979919,0.42000001668930054,-0.5766962766647339,-2.999999761581421,-1.41880202293396,-2.999999761581421,-0.16353154182434082,-0.1628108024597168,-0.1632753610610962,-0.16368484497070312,-0.19572502374649048,-0.11089298874139786,0.06350710242986679,0.19325806200504303
0.7333333333333333,0.05503665655851364,-0.005581353325396776,0.0,0.5885979533195496,0.0,0.0,-0.8084259033203125,0.7211569547653198,-0.030469946563243866,0.0,0.0,0.0,-1.9118685722351074,0.3978128731250763,0.635025680065155,0.4200000464916229,0.5903047323226929,4.301612364088214e-07,-3.1379065603687195e-06,-0.8071804642677307,0.0001194593496620655,-0.0002709976979531348,-9.20614693313837e-05,0.006257099565118551,-0.0013058942276984453,-0.0006635212921537459,0.4463270306587219,0.6469775438308716,0.5103705525398254,1.765596866607666,0.19924207031726837,2.1915011405944824,0.3906487226486206,0.6271237730979919,0.42000001668930054,-0.5965943336486816,0.3382100462913513,-1.468820333480835,-2.999999761581421,-0.16511458158493042,-0.16392090916633606,-0.16259947419166565,-0.1618136465549469,0.0028408521320670843,-0.019493982195854187,0.026175979524850845,0.044255197048187256
0.75,0.06340793520212173,-0.00442152377218008,0.0,0.5946460962295532,0.0,0.0,-0.8039875626564026,0.42411527037620544,0.11517675966024399,0.0,0.0,0.0,1.7733070850372314,0.3978128731250763,0.635025680065155,0.4200000464916229,0.5903047323226929,4.1984608856182604e-07,-3.0345963750733063e-06,-0.8071804642677307,0.00011880110105266795,-0.00027149933157488704,-9.187567047774792e-05,0.006274092942476273,-0.0013147740392014384,-0.000662500795442611,0.47079700231552124,0.6519404649734497,0.5423174500465393,1.126619815826416,0.3928445875644684,1.6892573833465576,0.3906487226486206,0.6271237730979919,0.42000001668930054,-0.5693705081939697,2.700860023498535,-1.4301815032958984,3.0000007152557373,-0.16351927816867828,-0.16284684836864471,-0.16106541454792023,-0.16014768183231354,0.16065804660320282,0.12427870184183121,0.1367751508951187,0.13528326153755188
0.7666666666666666,0.06764525175094604,-0.0070717292837798595,0.0,0.5884596109390259,0.0,0.0,-0.8085266351699829,0.19953642785549164,-0.24348604679107666,0.0,0.0,0.0,-1.8602467775344849,0.3978128433227539,0.635025680065155,0.4200000464916229,0.5903047323226929,4.3479855094119557e-07,-3.289758979008184e-06,-0.8071804642677307,0.00011681592150125653,-0.00027126746135763824,-9.142863564193249e-05,0.006279544439166784,-0.0013369485968723893,-0.0006576824234798551,0.4824405014514923,0.6585013270378113,0.5635256767272949,0.23944540321826935,0.4097230136394501,1.0707602500915527,0.3906487226486206,0.6271237730979919,0.42000001668930054,-0.5311179161071777,1.9232410192489624,-1.3801288604736328,3.000000238418579,-0.16055609285831451,-0.160396546125412,-0.15848702192306519,-0.1576039046049118,0.17239205539226532,0.15225669741630554,0.15995310246944427,0.16024191677570343
0.7833333333333333,0.06852774322032928,-0.004723282065242529,0.0,0.5947782397270203,0.0,0.0,-0.803889811038971,0.004842791706323624,0.27698463201522827,0.0,0.0,0.0,1.813096523284912,0.3978128433227539,0.635025680065155,0.4200000464916229,0.5903047323226929,4.902954060526099e-07,-3.196751322320779e-06,-0.8071804642677307,0.00011665009515127167,-0.00027084664907306433,-9.140907786786556e-05,0.006270242854952812,-0.0013369758380576968,-0.000656914955470711,0.47886183857917786,0.6643401384353638,0.5775219798088074,-0.5798301696777344,0.3704315423965454,0.6476710438728333,0.3906487226486206,0.6271237730979919,0.42000001668930054,-0.48618048429489136,3.000000476837158,-1.330118179321289,2.999999761581421,-0.163193941116333,-0.16204620897769928,-0.15893155336380005,-0.15704020857810974,-0.21297681331634521,-0.13833540678024292,-0.05923592671751976,0.009577114135026932
0.8,0.06716854870319366,-0.0053280675783753395,0.0,0.5891918540000916,0.0,0.0,-0.8079931735992432,-0.1512613445520401,-0.055430084466934204,0.0,0.0,0.0,-1.5674850940704346,0.3978128731250763,0.635025680065155,0.4200000464916229,0.5903048515319824,4.795861627826525e-07,-3.0950507152738282e-06,-0.8071803450584412,0.0001176614678115584,-0.0002710200205910951,-9.160046465694904e-05,0.0062689525075256824,-0.0013250668998807669,-0.0006594302831217647,0.4639359712600708,0.6699100136756897,0.5820512771606445,-1.2812711000442505,0.28964468836784363,0.09438615292310715,0.3906487226486206,0.6271237730979919,0.42000001668930054,-0.46633410453796387,-0.3478326201438904,-1.2800731658935547,2.999999523162842,-0.1645473837852478,-0.16252398490905762,-0.15849776566028595,-0.15574505925178528,-0.12818613648414612,-0.0618613138794899,0.0016974007012322545,0.06474132835865021
0.8166666666666667,0.06787721067667007,-0.0012995785800740123,0.0,0.5966452360153198,0.0,0.0,-0.8025050759315491,0.05064217373728752,0.1900736391544342,0.0,0.0,0.0,1.5122554302215576,0.3978128731250763,0.635025680065155,0.4200000464916229,0.5903047323226929,4.820460048904351e-07,-3.132196297883638e-06,-0.8071804642677307,0.00011788489064201713,-0.0002712277928367257,-9.170849807560444e-05,0.006272371392697096,-0.0013251841301098466,-0.0006600958295166492,0.44425395131111145,0.6745125651359558,0.5831496715545654,-0.9350529909133911,0.43901902437210083,0.03473026677966118,0.3906487226486206,0.6271237730979919,0.42000001668930054,-0.4534197151660919,1.7126507759094238,-1.3002889156341553,-3.000000238418579,-0.16932284832000732,-0.16587547957897186,-0.16050651669502258,-0.15635666251182556,0.01350878644734621,0.015585414133965969,0.02167680114507675,0.046373095363378525
0.8333333333333334,0.0699886754155159,-0.0026877906639128923,0.0,0.6021509766578674,0.0,0.0,-0.7983822226524353,0.13488700985908508,-0.10997451096773148,0.0,0.0,0.0,0.5345645546913147,0.3978128731250763,0.635025680065155,0.4200000464916229,0.5903047323226929,4.3858895537596254e-07,-3.026840431630262e-06,-0.8071804642677307,0.00011878595978487283,-0.00027149892412126064,-9.186938405036926e-05,0.006274170707911253,-0.0013148303842172027,-0.0006624619709327817,0.4302145540714264,0.6813912987709045,0.5819646716117859,-0.8126490116119385,0.3207475244998932,-0.0653747022151947,0.3906487226486206,0.6271237730979919,0.42000001668930054,-0.4714091718196869,-2.999998092651367,-1.26212477684021,3.0,-0.166038379073143,-0.16305115818977356,-0.15804754197597504,-0.15384548902511597,0.1520976722240448,0.1417308747768402,0.13424403965473175,0.1520128697156906
0.85,0.07442190498113632,-0.006827078759670258,0.0,0.6192278265953064,0.0,0.0,-0.7852113842964172,0.3266931474208832,-0.3033880293369293,0.0,0.0,0.0,3.7079529762268066,0.3978128731250763,0.635025680065155,0.4200000464916229,0.5903047323226929,4.195267990780849e-07,-3.281476892880164e-06,-0.8071804642677307,0.00011687316873576492,-0.00027131091337651014,-9.144376963376999e-05,0.006280226167291403,-0.0013366066850721836,-0.0006578646716661751,0.42202919721603394,0.6849409341812134,0.5801281332969666,-0.21164342761039734,0.12629511952400208,-0.05343621224164963,0.3906487226486206,0.6271237730979919,0.42000001668930054,-0.5214048027992249,-3.000000238418579,-1.2826179265975952,-3.000000238418579,-0.16556844115257263,-0.16192707419395447,-0.15622776746749878,-0.15090057253837585,-1.816079020500183e-08,0.066728375852108,0.13462340831756592,0.22922106087207794
0.8666666666666667,0.08141845464706421,-0.01374893356114626,0.0,0.623576283454895,0.0,0.0,-0.7817624807357788,0.45777106285095215,-0.45018085837364197,0.0,0.0,0.0,-0.3422318696975708,0.3978128731250763,0.635025680065155,0.4200000464916229,0.5903047323226929,4.3043087316618767e-07,-3.1848865091888e-06,-0.8071804642677307,0.00011932749475818127,-0.0002714445872697979,-9.199627675116062e-05,0.006269840057939291,-0.0013082277728244662,-0.0006636117468588054,0.4213290214538574,0.6836084723472595,0.5739762783050537,0.0879194363951683,-0.27812930941581726,-0.4624260663986206,0.3906487226486206,0.6271237730979919,0.42000001668930054,-0.5714097619056702,-3.0,-1.3326362371444702,-3.000000476837158,-0.16701409220695496,-0.16173066198825836,-0.1543523669242859,-0.1468934714794159,-0.09388194978237152,0.025362906977534294,0.1464056372642517,0.29401805996894836
0.8833333333333333,0.09051931649446487,-0.023328464478254318,0.0,0.6054907441139221,0.0,0.0,-0.7958523631095886,0.5865837335586548,-0.6333807706832886,0.0,0.0,0.0,-3.648263931274414,0.3978128731250763,0.635025680065155,0.4200000464916229,0.5903047323226929,4.3823905571116484e-07,-3.0841883926768787e-06,-0.8071804642677307,0.00011891372560057789,-0.0002714770380407572,-9.190011769533157e-05,0.00627283938229084,-0.0013133954489603639,-0.0006627299590036273,0.42736560106277466,0.6753817796707153,0.5690110921859741,0.5959089994430542,-0.6580870151519775,0.02459746226668358,0.3906487226486206,0.6271237730979919,0.42000001668930054,-0.6214109063148499,-2.9999427795410156,-1.3826545476913452,-2.9999988079071045,-0.16997714340686798,-0.1626841425895691,-0.15329863131046295,-0.1434338539838791,-0.17065632343292236,-0.06000158563256264,0.04869062080979347,0.1789727509021759
0.9,0.1042800322175026,-0.027516186237335205,0.0,0.5979985594749451,0.0,0.0,-0.8014971613883972,0.7135373950004578,-0.20048488676548004,0.0,0.0,0.0,0.2601894438266754,0.3978128731250763,0.635025680065155,0.4200000464916229,0.5903047323226929,4.0901005604609963e-07,-3.3428527785872575e-06,-0.8071804642677307,0.00011711842671502382,-0.0002712564601097256,-9.149848483502865e-05,0.006277516484260559,-0.00133341527543962,-0.0006583500653505325,0.43799662590026855,0.6670074462890625,0.5743741989135742,0.7199437618255615,-0.17236585915088654,0.6142674088478088,0.3906487226486206,0.6271237730979919,0.42000001668930054,-0.6395692229270935,0.5272433161735535,-1.4326728582382202,-2.999999761581421,-0.17636364698410034,-0.1673475205898285,-0.15644735097885132,-0.14489427208900452,-0.08684717118740082,-0.08976592123508453,-0.10249432921409607,-0.10165770351886749
