vladlanda/robotic-transformer/data/env_000_episode_0000.csv
sim_time_s,robot_box_x,robot_box_y,robot_box_z,robot_box_quat_w,robot_box_quat_x,robot_box_quat_y,robot_box_quat_z,robot_box_linvel_x,robot_box_linvel_y,robot_box_linvel_z,robot_box_angvel_x,robot_box_angvel_y,robot_box_angvel_z,cube_world_x,cube_world_y,cube_world_z,cube_quat_w,cube_quat_x,cube_quat_y,cube_quat_z,cube_linvel_x,cube_linvel_y,cube_linvel_z,cube_angvel_x,cube_angvel_y,cube_angvel_z,endpoint_world_x,endpoint_world_y,endpoint_world_z,endpoint_linvel_x,endpoint_linvel_y,endpoint_linvel_z,target_cube_world_x,target_cube_world_y,target_cube_world_z,gripper_actual_pos_rad_gp_leftgearjoint,gripper_actual_vel_rad_s_gp_leftgearjoint,gripper_actual_pos_rad_gp_rotatingjoint,gripper_actual_vel_rad_s_gp_rotatingjoint,motor_angle_rad_joint1,motor_angle_rad_joint2,motor_angle_rad_joint3,motor_angle_rad_joint4,motor_speed_rad_s_joint1,motor_speed_rad_s_joint2,motor_speed_rad_s_joint3,motor_speed_rad_s_joint4
0.0,0.0,0.0,0.0,1.0,0.0,0.0,0.0,0.0,0.0,0.0,0.0,0.0,0.0,-0.4469185173511505,0.7248204946517944,0.41999998688697815,1.0,0.0,0.0,0.0,0.0,0.0,0.0,0.0,0.0,0.0,3.42540442943573e-06,-0.005000244826078415,1.313499927520752,0.0,0.0,0.0,0.42285674810409546,0.6811832785606384,0.42000001668930054,-1.5707999467849731,0.0,0.0,0.0,0.0,0.0,0.0,0.0,0.0,0.0,0.0,0.0
0.016666666666666666,0.0028778996784240007,0.0021806657314300537,0.0,0.9998081922531128,0.0,0.0,0.01958659663796425,0.24087196588516235,0.18240928649902344,0.0,0.0,0.0,3.1418702602386475,-0.446586936712265,0.7246451377868652,0.4200000464916229,0.9999999403953552,5.409160053204687e-07,2.860947006411152e-06,-2.5690194433991564e-06,3.456864214967936e-05,4.9961722652369644e-06,-6.636185571551323e-05,-0.0014784603845328093,-0.002752073109149933,0.0015685718972235918,-0.007110314443707466,0.003379518399015069,1.3159373998641968,-0.8143353462219238,0.9868683815002441,0.180951789021492,0.42285674810409546,0.6811832785606384,0.42000001668930054,-1.5301095247268677,3.0000007152557373,-0.04584789648652077,-3.0,0.000869175826665014,0.0007964047254063189,0.00071104452945292,0.0006108891102485359,0.11094168573617935,0.09756674617528915,0.08334282785654068,0.06823860108852386
0.03333333333333333,0.008960950188338757,0.006801961921155453,0.0,0.9997960329055786,0.0,0.0,0.020196877419948578,0.40702196955680847,0.3153080940246582,0.0,0.0,0.0,-0.8691310286521912,-0.44658735394477844,0.7246447801589966,0.4200000464916229,1.0,3.443720288487384e-06,-2.5465546968916897e-06,-2.6391833216621308e-06,0.0002947794273495674,0.0002651950635481626,-0.00010481546632945538,-0.0015304284170269966,0.004807584453374147,-9.153686551144347e-05,-0.02755245566368103,0.026169147342443466,1.3166007995605469,-1.5914359092712402,1.6158816814422607,-0.08442921191453934,0.42285674810409546,0.6811832785606384,0.42000001668930054,-1.4800902605056763,3.0000014305114746,-0.09588772803544998,-3.0000007152557373,0.002990070963278413,0.002652691211551428,0.0022772676311433315,0.001860732096247375,0.16421787440776825,0.13976183533668518,0.11382085084915161,0.08630315214395523
0.05,0.017724744975566864,0.013767862692475319,0.0,0.9993841648101807,0.0,0.0,0.035089652985334396,0.593323290348053,0.4649108052253723,0.0,0.0,0.0,2.6519463062286377,-0.44658732414245605,0.7246448397636414,0.4200000464916229,0.9999999403953552,3.4114991649403237e-06,-1.976382691282197e-06,-2.5929468847607495e-06,0.0002636300923768431,0.00026374688604846597,-0.00010341266170144081,-0.0016844213241711259,0.004152666311711073,-0.00012645836977753788,-0.0596754290163517,0.054199881851673126,1.31156325340271,-2.18742036819458,1.7778071165084839,-0.4819999039173126,0.42285674810409546,0.6811832785606384,0.42000001668930054,-1.4300719499588013,3.0000038146972656,-0.14592638611793518,-3.0,0.005698850378394127,0.004907253198325634,0.004043534863740206,0.0031029880046844482,0.19257205724716187,0.15566536784172058,0.1168859601020813,0.07614745944738388
0.06666666666666667,0.02903241664171219,0.02305891551077366,0.0,0.999454915523529,0.0,0.0,0.03301318362355232,0.7199068069458008,0.5950719118118286,0.0,0.0,0.0,-1.207414984703064,-0.44658732414245605,0.7246448397636414,0.4200000464916229,1.0,3.6890035062242532e-06,-2.3033207980915904e-06,-2.726700586208608e-06,0.00026499683735892177,0.00026625400641933084,-0.00010418565943837166,-0.001716268714517355,0.004173197317868471,-0.00012880578287877142,-0.09707137197256088,0.08906912803649902,1.2991917133331299,-2.324159622192383,2.290048122406006,-0.975460410118103,0.42285674810409546,0.6811832785606384,0.42000001668930054,-1.3800536394119263,3.0000011920928955,-0.19596372544765472,-2.999999523162842,0.008155100047588348,0.006631925236433744,0.004997722804546356,0.003246716922149062,0.13670137524604797,0.08133752644062042,0.023926343768835068,-0.035600077360868454
0.08333333333333333,0.03439986705780029,0.035695161670446396,0.0,1.0,0.0,0.0,-0.00013192091137170792,0.18983907997608185,0.8246011137962341,0.0,0.0,0.0,-4.930929183959961,-0.44658732414245605,0.7246448397636414,0.4200000464916229,0.9999999403953552,3.6652984363172436e-06,-2.325379682588391e-06,-2.6739310214907164e-06,0.00026535894721746445,0.00026673253159970045,-0.00010429439134895802,-0.00172269600443542,0.004179272800683975,-0.00012907061318401247,-0.13370609283447266,0.13157840073108673,1.278643250465393,-2.12037992477417,2.6794381141662598,-1.3950425386428833,0.42285674810409546,0.6811832785606384,0.42000001668930054,-1.3300262689590454,2.9999985694885254,-0.1721658706665039,3.0000009536743164,0.004829229321330786,0.0026686994824558496,0.00034608753048814833,-0.0021484424360096455,-0.29548412561416626,-0.33997389674186707,-0.3870312571525574,-0.4369311034679413
0.1,0.044035427272319794,0.04964499548077583,0.0,0.9998893141746521,0.0,0.0,-0.014880008064210415,0.6746863126754761,0.8507464528083801,0.0,0.0,0.0,-0.695419192314148,-0.44658732414245605,0.7246448397636414,0.4200000464916229,1.0,3.663734105430194e-06,-2.327379206690239e-06,-2.6205525500699878e-06,0.00026536319637671113,0.0002667332882992923,-0.00010429602116346359,-0.0017226911149919033,0.004179443698376417,-0.0001290645741391927,-0.17114794254302979,0.1723201870918274,1.2572364807128906,-2.2173752784729004,2.4902658462524414,-1.2716528177261353,0.42285674810409546,0.6811832785606384,0.42000001668930054,-1.280029535293579,2.999999761581421,-0.20378082990646362,-2.999999523162842,0.004866815637797117,0.0011451869504526258,-0.0027351579628884792,-0.006784619763493538,0.023995257914066315,-0.08189723640680313,-0.18691754341125488,-0.29099518060684204
0.11666666666666667,0.051628269255161285,0.0655708760023117,0.0,0.9991201758384705,0.0,0.0,-0.04193926975131035,0.4572034180164337,1.0247447490692139,0.0,0.0,0.0,-3.926504135131836,-0.44658732414245605,0.7246448397636414,0.4200000464916229,0.9999999403953552,3.6621502204070566e-06,-2.329348262719577e-06,-2.5671783987490926e-06,0.00026536392397247255,0.00026673314278014004,-0.00010429485701024532,-0.001722788787446916,0.004179478622972965,-0.00012906355550512671,-0.2049759328365326,0.2192823588848114,1.235942006111145,-1.849274754524231,3.145437717437744,-1.2582130432128906,0.42285674810409546,0.6811832785606384,0.42000001668930054,-1.2300060987472534,2.9999890327453613,-0.16996882855892181,2.9999992847442627,0.003227239241823554,-0.00239940220490098,-0.008156899362802505,-0.014054098166525364,-0.05354367196559906,-0.18775412440299988,-0.3188493251800537,-0.44659703969955444
0.13333333333333333,0.05683623254299164,0.08018442988395691,0.0,0.9955379366874695,0.0,0.0,-0.09436194598674774,0.2542163133621216,0.8097056150436401,0.0,0.0,0.0,-7.133428573608398,-0.44658732414245605,0.7246448397636414,0.4200000464916229,1.0,3.6606261346605606e-06,-2.33133755500603e-06,-2.5138192540907767e-06,0.00026536351651884615,0.00026673293905332685,-0.00010429602116346359,-0.0017227653879672289,0.00417941203340888,-0.0001290632353629917,-0.23560622334480286,0.27332836389541626,1.2144556045532227,-1.8143212795257568,3.351210117340088,-1.365898847579956,0.42285674810409546,0.6811832785606384,0.42000001668930054,-1.1940762996673584,1.4175182580947876,-0.20164720714092255,-2.999999523162842,0.0013396021677181125,-0.006485364865511656,-0.01437420304864645,-0.022331666201353073,-0.1839808225631714,-0.3038816750049591,-0.41963455080986023,-0.5310335755348206
0.15,0.05835992097854614,0.09520874172449112,0.0,0.9920645356178284,0.0,0.0,-0.12572957575321198,0.020774247124791145,0.940966010093689,0.0,0.0,0.0,-2.7142059803009033,-0.44658732414245605,0.7246448397636414,0.4200000464916229,0.9999999403953552,3.6590809031622484e-06,-2.3333232093136758e-06,-2.460463747411268e-06,0.0002653638075571507,0.00026673130923882127,-0.00010429369285702705,-0.001722758519463241,0.004179457668215036,-0.0001290581130888313,-0.27402180433273315,0.326741486787796,1.1859688758850098,-2.377600908279419,3.415961503982544,-2.040660858154297,0.42285674810409546,0.6811832785606384,0.42000001668930054,-1.1503504514694214,2.99999737739563,-0.18368931114673615,3.0000007152557373,-0.003043587552383542,-0.012499089352786541,-0.021939042955636978,-0.03136597201228142,-0.3325299918651581,-0.40716347098350525,-0.4772126078605652,-0.5426574945449829
0.16666666666666666,0.06421468406915665,0.10783975571393967,0.0,0.9853524565696716,0.0,0.0,-0.1705300360918045,0.4569430351257324,0.7165740132331848,0.0,0.0,0.0,-6.140921592712402,-0.44658732414245605,0.7246448397636414,0.4200000464916229,1.0,3.5218467928643804e-06,-2.1593937162833754e-06,-2.6028230877273018e-06,0.0002640539896674454,0.00026451938902027905,-0.00010360637679696083,-0.0016947657568380237,0.004158590920269489,-0.00012710747250821441,-0.31019389629364014,0.38745129108428955,1.1501585245132446,-1.904427170753479,3.9514803886413574,-2.329946994781494,0.42285674810409546,0.6811832785606384,0.42000001668930054,-1.1035571098327637,2.6069180965423584,-0.21526393294334412,-3.0000009536743164,-0.007025330793112516,-0.017873238772153854,-0.02862527221441269,-0.03928368538618088,-0.3840859830379486,-0.4445628225803375,-0.501764178276062,-0.5556703805923462
0.18333333333333332,0.06524968147277832,0.12180066108703613,0.0,0.9806809425354004,0.0,0.0,-0.1956140249967575,0.04117646440863609,0.8313840627670288,0.0,0.0,0.0,-1.936087965965271,-0.44658732414245605,0.7246448397636414,0.4200000464916229,1.0,3.7651457205356564e-06,-2.4047099032031838e-06,-2.5155018192890566e-06,0.0002653184928931296,0.0002667016233317554,-0.00010431534610688686,-0.0017217874992638826,0.004178584553301334,-0.00012911665544379503,-0.3461434841156006,0.4485081136226654,1.1014256477355957,-2.0645129680633545,3.823420524597168,-3.3264636993408203,0.42285674810409546,0.6811832785606384,0.42000001668930054,-1.066864252090454,1.8323405981063843,-0.26529237627983093,-2.9999992847442627,-0.02073522098362446,-0.03131845220923424,-0.041797250509262085,-0.05218525230884552,-0.7772618532180786,-0.7577763199806213,-0.7367054224014282,-0.7146207094192505
0.2,0.06316446512937546,0.13720868527889252,0.0,0.9726664423942566,0.0,0.0,-0.23220683634281158,-0.19274723529815674,0.9667746424674988,0.0,0.0,0.0,-5.37288236618042,-0.44658732414245605,0.7246448397636414,0.4200000464916229,0.9999999403953552,3.7642100778612075e-06,-2.4054006644291803e-06,-2.4616290374979144e-06,0.0002651760296430439,0.0002665011852513999,-0.00010423548519611359,-0.0017198622226715088,0.004176212474703789,-0.00012893548409920186,-0.38036710023880005,0.5138673186302185,1.040136456489563,-1.8452973365783691,4.012027263641357,-4.015111923217773,0.42285674810409546,0.6811832785606384,0.42000001668930054,-1.0190502405166626,2.999999523162842,-0.3153187930583954,-2.9999992847442627,-0.03556572645902634,-0.045642219483852386,-0.05558142438530922,-0.06540774554014206,-0.950900137424469,-0.9087231755256653,-0.8649196028709412,-0.8201406598091125
0.21666666666666667,0.06645037978887558,0.14817307889461517,0.0,0.9677306413650513,0.0,0.0,-0.2519869804382324,0.2524756193161011,0.6413735747337341,0.0,0.0,0.0,-1.3380212783813477,-0.44658732414245605,0.7246448397636414,0.4200000464916229,1.0,3.6786561850021826e-06,-2.1769506020064e-06,-2.6012517082563136e-06,0.00026562102721072733,0.00026712147518992424,-0.00010441849008202553,-0.001727412804029882,0.004183503799140453,-0.00012937485007569194,-0.4131971597671509,0.5747873783111572,0.9672477841377258,-1.664046287536621,3.566692352294922,-4.826972007751465,0.42285674810409546,0.6811832785606384,0.42000001668930054,-0.9690471887588501,2.9999983310699463,-0.36534619331359863,-2.9999935626983643,-0.04718480259180069,-0.05654764175415039,-0.06575794517993927,-0.07485219091176987,-0.8976712226867676,-0.8072125315666199,-0.718972384929657,-0.6339554786682129
0.23333333333333334,0.06459265947341919,0.162758931517601,0.0,0.9585169553756714,0.0,0.0,-0.2850355803966522,-0.12830808758735657,0.820639431476593,0.0,0.0,0.0,-4.855071067810059,-0.44658732414245605,0.7246448397636414,0.4200000464916229,0.9999999403953552,3.677823769976385e-06,-2.1808284600410843e-06,-2.5486249342066003e-06,0.0002656225406099111,0.00026710875681601465,-0.0001044140662997961,-0.0017272632103413343,0.004183706361800432,-0.00012935524864587933,-0.4371141195297241,0.6292752623558044,0.8803386688232422,-1.191292643547058,3.1195170879364014,-5.354557514190674,0.42285674810409546,0.6811832785606384,0.42000001668930054,-0.9190368056297302,3.000000476837158,-0.4153757393360138,-2.9999990463256836,-0.06287486106157303,-0.0723155066370964,-0.08157992362976074,-0.09066741168498993,-0.6778173446655273,-0.7285560369491577,-0.7781249284744263,-0.8238508701324463
0.25,0.06716731190681458,0.17162838578224182,0.0,0.9541997909545898,0.0,0.0,-0.2991701066493988,0.17552809417247772,0.438556045293808,0.0,0.0,0.0,-0.6459012627601624,-0.44658732414245605,0.7246448397636414,0.4200000464916229,0.9999999403953552,3.5227353691880126e-06,-2.0346274141047616e-06,-2.7010560188500676e-06,0.0002638907462824136,0.00026429284480400383,-0.00010356400161981583,-0.0016914249863475561,0.0041558267548680305,-0.0001269852218683809,-0.4580511450767517,0.6721695065498352,0.7873588800430298,-0.9914196729660034,2.2120041847229004,-5.83513879776001,0.42285674810409546,0.6811832785606384,0.42000001668930054,-0.869026243686676,2.999997615814209,-0.46540653705596924,-3.0000009536743164,-0.07508358359336853,-0.08445948362350464,-0.0936954990029335,-0.1027628481388092,-0.9566491842269897,-0.8976349234580994,-0.8434576392173767,-0.7932698130607605
0.26666666666666666,0.06511124223470688,0.17707332968711853,0.0,0.9456572532653809,0.0,0.0,-0.32516515254974365,-0.22770917415618896,0.283869206905365,0.0,0.0,0.0,-4.174449443817139,-0.44658732414245605,0.7246447801589966,0.4200000464916229,0.9999999403953552,3.6877524962619646e-06,-2.1955636384518584e-06,-2.4813607524265535e-06,0.00026297755539417267,0.0002637602447066456,-0.00010364362969994545,-0.0016808215295895934,0.004137223586440086,-0.00012767125735990703,-0.4694197475910187,0.7016310691833496,0.6860650181770325,-0.27400335669517517,1.3270542621612549,-6.099578857421875,0.42285674810409546,0.6811832785606384,0.42000001668930054,-0.8190164566040039,2.999999761581421,-0.5154377818107605,-3.0000007152557373,-0.0923665389418602,-0.10156159102916718,-0.11066867411136627,-0.11960307508707047,-1.0040488243103027,-1.003035545349121,-1.0022668838500977,-1.001658320426941
0.2833333333333333,0.059488724917173386,0.17963647842407227,0.0,0.9429261088371277,0.0,0.0,-0.3330020308494568,-0.3004094064235687,0.08099052309989929,0.0,0.0,0.0,0.003514370182529092,-0.44658732414245605,0.7246448397636414,0.4200000464916229,1.0,3.5852597193297697e-06,-2.0186769233987434e-06,-2.607768919915543e-06,0.00026327543309889734,0.00026389057165943086,-0.00010349974036216736,-0.0016869970131665468,0.004144425969570875,-0.00012719760707113892,-0.47196415066719055,0.7141748666763306,0.5878435373306274,0.036622460931539536,0.4010230600833893,-5.783181190490723,0.42285674810409546,0.6811832785606384,0.42000001668930054,-0.769007682800293,2.9999964237213135,-0.5654675364494324,-2.999997615814209,-0.10904139280319214,-0.11806689202785492,-0.12703366577625275,-0.135846808552742,-0.9736115336418152,-0.9605255126953125,-0.9471500515937805,-0.9337760210037231
0.3,0.05240565910935402,0.17920836806297302,0.0,0.9357841610908508,0.0,0.0,-0.35257336497306824,-0.47320568561553955,-0.07041265070438385,0.0,0.0,0.0,-3.3584046363830566,-0.44658732414245605,0.7246448397636414,0.4200000464916229,0.9999999403953552,3.7723984860349447e-06,-2.4151017896656413e-06,-2.7387434329284588e-06,0.0002652441617101431,0.00026660069124773145,-0.0001042606309056282,-0.0017210833029821515,0.0041772592812776566,-0.00012900758883915842,-0.4664025902748108,0.7221633195877075,0.4915779232978821,0.6850266456604004,0.4114895462989807,-5.521670341491699,0.42285674810409546,0.6811832785606384,0.42000001668930054,-0.7189990878105164,3.000001907348633,-0.6154962778091431,-3.000002145767212,-0.12623964250087738,-0.13514888286590576,-0.1440313458442688,-0.1527813971042633,-1.014569878578186,-1.0110207796096802,-1.008316993713379,-1.006154179573059
0.31666666666666665,0.04311805218458176,0.1763140857219696,0.0,0.9349268078804016,0.0,0.0,-0.35484060645103455,-0.5926500558853149,-0.21609951555728912,0.0,0.0,0.0,0.6429718732833862,-0.44658732414245605,0.7246448397636414,0.4200000464916229,0.9999999403953552,3.6456217458180618e-06,-2.1821560949319974e-06,-2.7117994250147603e-06,0.0002638921432662755,0.0002642746549099684,-0.00010355515405535698,-0.0016909502446651459,0.004155699163675308,-0.00012694683391600847,-0.4529452323913574,0.7249302268028259,0.4013527035713196,1.046343445777893,-0.15123994648456573,-5.363683700561523,0.42285674810409546,0.6811832785606384,0.42000001668930054,-0.6689921617507935,2.999985933303833,-0.6655230522155762,-3.00000262260437,-0.1431989222764969,-0.15200792253017426,-0.16081787645816803,-0.1695132553577423,-0.999960720539093,-0.999949038028717,-0.9998358488082886,-0.9997547268867493
0.3333333333333333,0.0316045768558979,0.17095455527305603,0.0,0.9430747032165527,0.0,0.0,-0.3325809836387634,-0.7382829189300537,-0.36593207716941833,0.0,0.0,0.0,3.9704272747039795,-0.4463961124420166,0.7257630228996277,0.4206255376338959,0.9993965029716492,-1.0808459592226427e-05,0.015603827312588692,-0.03103259764611721,0.009738558903336525,0.1064867153763771,0.043237365782260895,0.05339830368757248,2.2151122093200684,-5.743299961090088,-0.4577633738517761,0.7288312315940857,0.42577505111694336,-0.46399399638175964,0.21107891201972961,-0.12375567853450775,0.42285674810409546,0.6811832785606384,0.42000001668930054,-0.6190921664237976,3.000000476837158,-0.7159532308578491,-2.9940834045410156,-0.13991336524486542,-0.15084108710289001,-0.16128629446029663,-0.17099805176258087,0.0498046837747097,-0.062174197286367416,-0.14970433712005615,-0.20536641776561737
0.35,0.024464240297675133,0.1626179814338684,0.0,0.9456789493560791,0.0,0.0,-0.3251020014286041,-0.4321165978908539,-0.5391527414321899,0.0,0.0,0.0,-0.023320067673921585,-0.4464869499206543,0.7271226048469543,0.4202263057231903,0.9980442523956299,-0.00015304316184483469,0.005576261784881353,-0.06226184964179993,-0.1587076187133789,-0.2144201099872589,-0.07969307154417038,0.2406526654958725,-3.527524709701538,-8.723245620727539,-0.46242573857307434,0.7288803458213806,0.4232228994369507,-0.1313348412513733,-0.25119706988334656,-0.1673535853624344,0.42285674810409546,0.6811832785606384,0.42000001668930054,-0.5690870881080627,2.996154308319092,-0.7659822702407837,-2.9972639083862305,-0.1397218108177185,-0.1514570116996765,-0.16229361295700073,-0.17189136147499084,-0.3070007860660553,-0.24787026643753052,-0.1670011729001999,-0.06241152808070183
0.36666666666666664,0.01313376147300005,0.15297923982143402,0.0,0.9380335807800293,0.0,0.0,-0.34654441475868225,-0.7745822072029114,-0.6057400107383728,0.0,0.0,0.0,-3.6675913333892822,-0.44824498891830444,0.7246800661087036,0.4200000464916229,0.9947189092636108,-1.128737608269148e-06,-1.7292827578785364e-06,-0.10263661295175552,-0.0881730318069458,-0.12728385627269745,-1.4669494703412056e-06,6.572354322997853e-05,-3.1140043574851006e-06,-3.9305636882781982,-0.4600253701210022,0.7300674319267273,0.42124664783477783,0.35372185707092285,0.3777768909931183,-0.06191956251859665,0.42285674810409546,0.6811832785606384,0.42000001668930054,-0.5190821886062622,2.999985456466675,-0.816021740436554,-2.9999985694885254,-0.1492581069469452,-0.15881679952144623,-0.16711124777793884,-0.17380370199680328,-0.6350277662277222,-0.47333234548568726,-0.2892987132072449,-0.08420062065124512
0.3833333333333333,0.004981750622391701,0.1403682827949524,0.0,0.9192438721656799,0.0,0.0,-0.3936886191368103,-0.4596838653087616,-0.8054863214492798,0.0,0.0,0.0,-6.822756767272949,-0.4416402578353882,0.732984185218811,0.4205053448677063,0.988118588924408,-0.0031404721084982157,-0.006896338425576687,-0.15350598096847534,0.704561710357666,0.7720721364021301,0.059161461889743805,-3.214664936065674,-1.1356844902038574,-2.935258626937866,-0.4510893225669861,0.7378149032592773,0.4212304651737213,0.7787567973136902,0.6450613737106323,0.11602450907230377,0.42285674810409546,0.6811832785606384,0.42000001668930054,-0.46906253695487976,2.9997565746307373,-0.8660491108894348,-2.9732513427734375,-0.1582850068807602,-0.16491079330444336,-0.16985513269901276,-0.172817662358284,-0.5818954706192017,-0.37171322107315063,-0.13708055019378662,0.11829815059900284
0.4,-0.006254491396248341,0.12603527307510376,0.0,0.8861454129219055,0.0,0.0,-0.4634072780609131,-0.7424001693725586,-0.8809993267059326,0.0,0.0,0.0,-10.07552433013916,-0.41154739260673523,0.7583966851234436,0.4224098324775696,0.9799731373786926,-0.016596101224422455,-0.030178960412740707,-0.196128249168396,3.8498685359954834,1.9606635570526123,0.4114377498626709,27.051179885864258,-0.9007611274719238,20.21831512451172,-0.4188346862792969,0.7617742419242859,0.42350900173187256,2.8994836807250977,2.2143168449401855,0.18848711252212524,0.42285674810409546,0.6811832785606384,0.42000001668930054,-0.4191684126853943,2.8797097206115723,-0.9160515069961548,-2.9995076656341553,-0.17266130447387695,-0.1744786947965622,-0.1743641346693039,-0.17212694883346558,-0.9615543484687805,-0.6417643427848816,-0.3141174912452698,0.013356111012399197
0.4166666666666667,-0.014334180392324924,0.10894779860973358,0.0,0.8351303935050964,0.0,0.0,-0.5500520467758179,-0.4272029399871826,-1.0715922117233276,0.0,0.0,0.0,-12.700387954711914,-0.3381544351577759,0.803072988986969,0.42677563428878784,0.9634729623794556,0.037506312131881714,-0.061814527958631516,-0.25786060094833374,5.81606912612915,3.275367259979248,0.2854589521884918,23.632539749145508,-13.732477188110352,6.029895305633545,-0.34512677788734436,0.8085340261459351,0.427517831325531,5.48975944519043,3.159480094909668,0.4385462701320648,0.42285674810409546,0.6811832785606384,0.42000001668930054,-0.3871653378009796,1.040908694267273,-0.8790377974510193,2.9968740940093994,-0.18833157420158386,-0.18625394999980927,-0.18013045191764832,-0.17206372320652008,-0.9127565026283264,-0.7209883332252502,-0.3677281439304352,-0.031027663499116898
0.43333333333333335,-0.019238991662859917,0.09716509282588959,0.0,0.7884354591369629,0.0,0.0,-0.6151174902915955,-0.23383767902851105,-0.7711790204048157,0.0,0.0,0.0,-7.87382173538208,-0.2439473569393158,0.8482375741004944,0.43549618124961853,0.9345006942749023,0.11739545315504074,-0.1059659868478775,-0.31890106201171875,6.153317451477051,2.0658035278320312,0.6310003399848938,12.787927627563477,-15.811086654663086,20.25878143310547,-0.25044670701026917,0.8559991121292114,0.43611258268356323,5.845959186553955,2.5715718269348145,0.5964124798774719,0.42285674810409546,0.6811832785606384,0.42000001668930054,-0.374225914478302,0.4866250157356262,-0.8289967775344849,2.9964683055877686,-0.20337803661823273,-0.20144887268543243,-0.1921420693397522,-0.17782534658908844,-0.5002504587173462,-0.5894446969032288,-0.6025545597076416,-0.3159651458263397
0.45,-0.02089172974228859,0.0871673971414566,0.0,0.7644575238227844,0.0,0.0,-0.6446740627288818,-0.046029992401599884,-0.5351157188415527,0.0,0.0,0.0,-3.4360768795013428,-0.14447294175624847,0.8807677626609802,0.4470009505748749,0.8786436319351196,0.09549432247877121,-0.144175186753273,-0.44506147503852844,5.880596160888672,0.8417186737060547,0.719053328037262,-19.945077896118164,9.190936088562012,12.508726119995117,-0.15170444548130035,0.8896254301071167,0.44689980149269104,6.1785430908203125,1.4332761764526367,0.817716121673584,0.42285674810409546,0.6811832785606384,0.42000001668930054,-0.3625136613845825,0.8376638293266296,-0.8551356196403503,-2.999650716781616,-0.21442246437072754,-0.21224930882453918,-0.201909139752388,-0.18263912200927734,-0.6938620805740356,-0.6156036257743835,-0.5131247043609619,-0.23008868098258972
0.4666666666666667,-0.02335471287369728,0.07398409396409988,0.0,0.7317536473274231,0.0,0.0,-0.6815692186355591,-0.13844986259937286,-0.8342939615249634,0.0,0.0,0.0,-6.662659645080566,-0.04458076134324074,0.8911156058311462,0.45673391222953796,0.8291959762573242,0.09015387296676636,-0.13892868161201477,-0.533858597278595,6.068715572357178,-1.0497982501983643,0.4479113221168518,-11.919880867004395,-10.750079154968262,28.229999542236328,-0.05036603659391403,0.9020769596099854,0.4572520852088928,6.250126361846924,0.09172297269105911,0.6649940013885498,0.42285674810409546,0.6811832785606384,0.42000001668930054,-0.35048046708106995,0.552805483341217,-0.9051598906517029,-3.0000030994415283,-0.2248764932155609,-0.22029021382331848,-0.20741629600524902,-0.1834186166524887,-0.7340739369392395,-0.5038533210754395,-0.2831230163574219,0.02296530082821846
0.48333333333333334,-0.028586450964212418,0.06497881561517715,0.0,0.7118517160415649,0.0,0.0,-0.7023297548294067,-0.3465876281261444,-0.49819064140319824,0.0,0.0,0.0,-2.2168161869049072,0.05313536152243614,0.8815395832061768,0.4652555584907532,0.7603541016578674,0.07273665815591812,-0.12953877449035645,-0.6322899460792542,5.325700759887695,-1.8515651226043701,0.34332793951034546,-12.500556945800781,-3.696624279022217,27.9803524017334,0.04738450422883034,0.8944278955459595,0.46621400117874146,5.786993026733398,-0.8257349729537964,0.5611312389373779,0.42285674810409546,0.6811832785606384,0.42000001668930054,-0.3419637382030487,0.3720243275165558,-0.9551839232444763,-3.000002145767212,-0.23861947655677795,-0.23040911555290222,-0.21352817118167877,-0.1849546879529953,-0.6696931719779968,-0.4755094051361084,-0.2785283327102661,-0.08116763830184937
0.5,-0.03186758607625961,0.054968345910310745,0.0,0.6838662028312683,0.0,0.0,-0.7296074032783508,-0.140131875872612,-0.6316023468971252,0.0,0.0,0.0,-5.559813499450684,0.14162981510162354,0.8584076166152954,0.46864113211631775,0.7017073035240173,0.04709029942750931,-0.11033664643764496,-0.7022926807403564,4.764937877655029,-2.5376229286193848,0.06164536625146866,-7.702414035797119,-3.0532748699188232,20.805328369140625,0.13676753640174866,0.8724695444107056,0.4704902768135071,5.215882778167725,-1.843261957168579,0.17250032722949982,0.42285674810409546,0.6811832785606384,0.42000001668930054,-0.3354566693305969,0.370869904756546,-1.0052077770233154,-2.999851703643799,-0.24004022777080536,-0.23790958523750305,-0.21751748025417328,-0.18587815761566162,-0.033624231815338135,-0.4190422594547272,-0.18813715875148773,-0.00942375510931015
0.5166666666666666,-0.03155515342950821,0.04789665713906288,0.0,0.6707897782325745,0.0,0.0,-0.7416475415229797,0.08150959014892578,-0.3408270478248596,0.0,0.0,0.0,-1.0075455904006958,0.22136855125427246,0.8229443430900574,0.46627089381217957,0.6066967248916626,-0.004735201597213745,-0.1599859595298767,-0.7786533832550049,4.4709320068359375,-2.272134780883789,-0.44561243057250977,-10.0503568649292,7.710437774658203,-22.353275299072266,0.2158503532409668,0.8385518789291382,0.46955668926239014,4.362794876098633,-2.286057472229004,-0.16653622686862946,0.42285674810409546,0.6811832785606384,0.42000001668930054,-0.32265403866767883,1.0783698558807373,-1.055229902267456,-2.999950408935547,-0.23991204798221588,-0.23986902832984924,-0.22093255817890167,-0.18729300796985626,0.03163117915391922,0.058987583965063095,-0.09956434369087219,-0.05418315902352333
0.5333333333333333,-0.02804519422352314,0.04406993091106415,0.0,0.6499883532524109,0.0,0.0,-0.7599441409111023,0.2606653869152069,-0.1095149889588356,0.0,0.0,0.0,-4.150763988494873,0.2868753969669342,0.7846405506134033,0.45716872811317444,0.5666586756706238,-0.049840979278087616,-0.12800562381744385,-0.8124212026596069,3.847447633743286,-2.784522771835327,-0.505985677242279,-11.10311508178711,5.762575626373291,17.9243221282959,0.2842104434967041,0.8009424805641174,0.46131134033203125,3.6292033195495605,-2.3098950386047363,-0.6918978095054626,0.42285674810409546,0.6811832785606384,0.42000001668930054,-0.30972984433174133,0.4123329222202301,-1.1052520275115967,-3.0000009536743164,-0.23762111365795135,-0.2373667061328888,-0.22143463790416718,-0.1884543001651764,0.1982521265745163,0.20796529948711395,0.01853143237531185,-0.08758556097745895
0.55,-0.021754547953605652,0.040699221193790436,0.0,0.6428372859954834,0.0,0.0,-0.7660027742385864,0.4185976982116699,-0.24076853692531586,0.0,0.0,0.0,-0.17679357528686523,0.3406839668750763,0.7459377646446228,0.44378575682640076,0.5225690603256226,-0.09361084550619125,-0.10256457328796387,-0.8412127494812012,2.745535135269165,-2.7506349086761475,-0.8127812147140503,-3.4361603260040283,8.150670051574707,-0.5862115025520325,0.3392444849014282,0.7620232105255127,0.4480692744255066,2.810001850128174,-2.2994871139526367,-0.8736312985420227,0.42285674810409546,0.6811832785606384,0.42000001668930054,-0.3058978319168091,0.18247608840465546,-1.1552741527557373,-2.9995779991149902,-0.23182806372642517,-0.23147527873516083,-0.2187976837158203,-0.18855778872966766,0.4470067322254181,0.44815707206726074,0.2485029697418213,0.035089462995529175
0.5666666666666667,-0.013060536235570908,0.039551232010126114,0.0,0.6265644431114197,0.0,0.0,-0.779369592666626,0.5718428492546082,-0.007921386510133743,0.0,0.0,0.0,-3.425123691558838,0.3826465904712677,0.7113158106803894,0.4245770573616028,0.4923652410507202,-0.13890589773654938,-0.08351576328277588,-0.8551647663116455,2.1588001251220703,-2.191986560821533,-1.2203010320663452,-4.414614200592041,6.824958324432373,1.4844074249267578,0.38225603103637695,0.7270497679710388,0.4289183020591736,2.274515151977539,-1.9383294582366943,-1.2610259056091309,0.42285674810409546,0.6811832785606384,0.42000001668930054,-0.29897642135620117,0.6140461564064026,-1.205296277999878,-3.000000476837158,-0.2232590764760971,-0.22363272309303284,-0.21480636298656464,-0.1891331821680069,0.5618948340415955,0.49775949120521545,0.2550528943538666,-0.05909603089094162
0.5833333333333334,-0.0028326192405074835,0.034007418900728226,0.0,0.6230975985527039,0.0,0.0,-0.7821440696716309,0.6705933213233948,-0.49069786071777344,0.0,0.0,0.0,0.41098612546920776,0.40772438049316406,0.6932485699653625,0.4243830740451813,0.49852463603019714,-0.10527220368385315,-0.054016485810279846,-0.8587625622749329,1.132914423942566,-1.355602741241455,-0.015543758869171143,-3.3148398399353027,-3.076537847518921,8.57555103302002,0.40654581785202026,0.7076883912086487,0.42819395661354065,1.1540765762329102,-0.9094541072845459,0.016548823565244675,0.42285674810409546,0.6811832785606384,0.42000001668930054,-0.2827858328819275,0.9520912766456604,-1.1829249858856201,2.9961295127868652,-0.20878933370113373,-0.21110397577285767,-0.20688050985336304,-0.18724267184734344,0.9622151851654053,0.831039547920227,0.5494805574417114,0.16183315217494965
0.6,0.004893893841654062,0.03040241077542305,0.0,0.6089121103286743,0.0,0.0,-0.7932376861572266,0.4252263009548187,-0.08852699398994446,0.0,0.0,0.0,-2.683063268661499,0.42282772064208984,0.6826032996177673,0.4234319031238556,0.5191108584403992,-0.0806550681591034,-0.04851393401622772,-0.8495087623596191,0.640568733215332,-1.0757696628570557,0.051641836762428284,-6.9788994789123535,0.3221275508403778,17.314773559570312,0.4205356240272522,0.6956872940063477,0.42789652943611145,0.47888433933258057,-0.5892381072044373,0.03331977501511574,0.42285674810409546,0.6811832785606384,0.42000001668930054,-0.27356866002082825,0.35659390687942505,-1.1328990459442139,2.994093894958496,-0.1950303465127945,-0.19925302267074585,-0.1992289274930954,-0.1858043372631073,0.5464917421340942,0.48120954632759094,0.289943128824234,-0.0356600247323513
0.6166666666666667,0.008819018490612507,0.031129661947488785,0.0,0.6103120446205139,0.0,0.0,-0.7921611070632935,0.16275733709335327,0.09481949359178543,0.0,0.0,0.0,1.0500520467758179,0.4276474118232727,0.6739891171455383,0.4238783121109009,0.5336347818374634,-0.0802304595708847,-0.022247688844799995,-0.8416067957878113,0.005569008644670248,-0.4859783351421356,0.2338632345199585,3.4682650566101074,10.668560981750488,3.5270626544952393,0.42495012283325195,0.6867717504501343,0.42884308099746704,-0.009271820075809956,-0.3294405937194824,0.1798839420080185,0.42285674810409546,0.6811832785606384,0.42000001668930054,-0.27799782156944275,-0.7925750613212585,-1.1552525758743286,-2.9948222637176514,-0.18688486516475677,-0.19195950031280518,-0.1946191042661667,-0.18618297576904297,0.47330373525619507,0.42847251892089844,0.2879689931869507,0.007604728452861309
0.6333333333333333,0.01299299206584692,0.029945414513349533,0.0,0.6007122993469238,0.0,0.0,-0.7994652390480042,0.28553080558776855,-0.13082396984100342,0.0,0.0,0.0,-2.365405321121216,0.42721056938171387,0.6713665723800659,0.422140508890152,0.5620012879371643,-0.035804711282253265,0.011126977391541004,-0.8262861371040344,-0.01601405255496502,-0.005578714422881603,-0.11186597496271133,2.9015467166900635,-3.675184965133667,0.9202291369438171,0.4231107831001282,0.6837482452392578,0.4246741533279419,-0.04284460097551346,-0.0203285813331604,-0.12411613017320633,0.42285674810409546,0.6811832785606384,0.42000001668930054,-0.2957134544849396,-1.3062241077423096,-1.137360692024231,2.9999208450317383,-0.17930710315704346,-0.1851181834936142,-0.18988071382045746,-0.1858529895544052,0.4283590018749237,0.39341965317726135,0.2898370623588562,0.0516292005777359
0.65,0.019545502960681915,0.031491443514823914,0.0,0.6040384769439697,0.0,0.0,-0.7969551682472229,0.4143397808074951,0.13608190417289734,0.0,0.0,0.0,1.3884146213531494,0.42637309432029724,0.6713253259658813,0.4200148284435272,0.5654905438423157,0.0006009499193169177,-0.00037772281211800873,-0.8247543573379517,0.04283943399786949,-0.013883190229535103,-0.008978229947388172,1.2628395557403564,0.12615442276000977,0.7782185673713684,0.4226421117782593,0.6836750507354736,0.4257889688014984,-0.047511275857686996,0.06392870843410492,0.15051409602165222,0.42285674810409546,0.6811832785606384,0.42000001668930054,-0.34202584624290466,-2.999997138977051,-1.1593035459518433,-2.9995298385620117,-0.1741909384727478,-0.18041948974132538,-0.18650126457214355,-0.18591102957725525,0.3602790832519531,0.3153873682022095,0.2290126234292984,0.024428222328424454
0.6666666666666666,0.027906149625778198,0.029397407546639442,0.0,0.6299976110458374,0.0,0.0,-0.7765970826148987,0.5296415090560913,-0.1500231921672821,0.0,0.0,0.0,4.876761436462402,0.4264318645000458,0.6713186502456665,0.42000001668930054,0.565643310546875,-1.7608816733627464e-06,-3.3469161735411035e-06,-0.8246500492095947,1.1130330676678568e-05,-0.00015681071090511978,-6.54994510114193e-05,0.0016799529548734426,-0.002706292551010847,-0.0005558393895626068,0.42088043689727783,0.686286985874176,0.42879611253738403,-0.15839695930480957,0.17898429930210114,0.2221481204032898,0.42285674810409546,0.6811832785606384,0.42000001668930054,-0.39202964305877686,-2.999279022216797,-1.209272861480713,-2.998945713043213,-0.1662086695432663,-0.17318813502788544,-0.18048840761184692,-0.18288953602313995,0.403683602809906,0.39292216300964355,0.362568199634552,0.23298603296279907
0.6833333333333333,0.038141779601573944,0.024533767253160477,0.0,0.6412349343299866,0.0,0.0,-0.7673446536064148,0.6533769965171814,-0.3332379460334778,0.0,0.0,0.0,0.6837076544761658,0.42594558000564575,0.6715937852859497,0.42025864124298096,0.5629334449768066,0.003667400684207678,-0.005365954712033272,-0.8264766931533813,-0.11077968031167984,0.059279512614011765,0.07193633913993835,-1.2967528104782104,-3.3566954135894775,-0.4055967926979065,0.41958123445510864,0.6893373727798462,0.43389570713043213,-0.11158862709999084,0.16528134047985077,0.35088616609573364,0.42285674810409546,0.6811832785606384,0.42000001668930054,-0.4420467019081116,-2.997668981552124,-1.2592403888702393,-2.9999256134033203,-0.1614607870578766,-0.16771259903907776,-0.17436258494853973,-0.1775149405002594,0.20404857397079468,0.2922933101654053,0.3865506649017334,0.40869903564453125
0.7,0.05029873549938202,0.01697167567908764,0.0,0.6288251876831055,0.0,0.0,-0.7775467038154602,0.7623624205589294,-0.5151750445365906,0.0,0.0,0.0,-2.8449437618255615,0.4246078431606293,0.6722906827926636,0.42058905959129333,0.5614243745803833,0.008394398726522923,-0.012370094656944275,-0.8273929953575134,-0.06961651146411896,0.036192648112773895,0.0030406885780394077,-0.0576339066028595,-0.14558041095733643,-0.17566725611686707,0.421258807182312,0.6926154494285583,0.44646990299224854,0.31243661046028137,0.19599495828151703,1.2549753189086914,0.42285674810409546,0.6811832785606384,0.42000001668930054,-0.4920598268508911,-2.999983072280884,-1.3092586994171143,-2.9999992847442627,-0.1606704741716385,-0.165165513753891,-0.16986140608787537,-0.17210441827774048,-0.029667126014828682,0.08476914465427399,0.21527548134326935,0.29151007533073425
0.7166666666666667,0.06565450876951218,0.013919200748205185,0.0,0.5936312079429626,0.0,0.0,-0.8047372102737427,0.8958223462104797,-0.14462657272815704,0.0,0.0,0.0,-6.192422389984131,0.424081027507782,0.6725889444351196,0.4200025796890259,0.5607997179031372,-5.333772423909977e-05,7.534980250056833e-05,-0.8279514312744141,0.001019005198031664,0.0017546707531437278,-0.0032501504756510258,-0.05838151276111603,-0.14635533094406128,-0.03847133368253708,0.4359910190105438,0.6898391842842102,0.47327250242233276,1.4897608757019043,-0.36040061712265015,2.0547244548797607,0.42285674810409546,0.6811832785606384,0.42000001668930054,-0.5420724153518677,-2.999783754348755,-1.3592770099639893,-2.999971389770508,-0.1675851196050644,-0.16908007860183716,-0.17049483954906464,-0.17028959095478058,-0.3891584575176239,-0.22136864066123962,-0.03173340857028961,0.11840595304965973
0.7333333333333333,0.07749821245670319,0.011571311391890049,0.0,0.5742362141609192,0.0,0.0,-0.8186896443367004,0.6296774744987488,-0.09519702941179276,0.0,0.0,0.0,-1.831814169883728,0.4240773022174835,0.6725906133651733,0.4199999272823334,0.5608000755310059,-2.238325805592467e-06,-6.356829544529319e-06,-0.8279512524604797,6.180863420013338e-05,-0.000426735874498263,-8.181645534932613e-05,0.011000564321875572,-0.0036411976907402277,-0.0010348169598728418,0.4632355570793152,0.6881508231163025,0.5079941153526306,1.6099183559417725,0.09549865871667862,2.121983289718628,0.42285674810409546,0.6811832785606384,0.42000001668930054,-0.5630612373352051,0.20692385733127594,-1.4092953205108643,-2.9999992847442627,-0.17061516642570496,-0.17058995366096497,-0.1701199859380722,-0.1685619354248047,-0.0785910114645958,-0.035824891179800034,0.025342926383018494,0.058026399463415146
0.75,0.08431544899940491,0.011723768897354603,0.0,0.5807647705078125,0.0,0.0,-0.8140714168548584,0.33317163586616516,0.056188490241765976,0.0,0.0,0.0,1.8152786493301392,0.4240773320198059,0.6725905537605286,0.41999995708465576,0.5608002543449402,-1.6414780930062989e-06,-5.949228125246009e-06,-0.8279511332511902,7.806008943589404e-05,-0.0003867823688779026,-7.448461838066578e-05,0.009966406039893627,-0.00314549938775599,-0.0009846710599958897,0.48709040880203247,0.6913573145866394,0.537937581539154,1.1602694988250732,0.2651260495185852,1.525547742843628,0.42285674810409546,0.6811832785606384,0.42000001668930054,-0.5389091372489929,2.4735372066497803,-1.4573527574539185,-2.74965763092041,-0.17012326419353485,-0.16964684426784515,-0.16843757033348083,-0.166534423828125,0.10287012904882431,0.12120096385478973,0.1537509262561798,0.16534732282161713
0.7666666666666666,0.08722720295190811,0.008870997466146946,0.0,0.5747974514961243,0.0,0.0,-0.8182957172393799,0.11691571772098541,-0.31435757875442505,0.0,0.0,0.0,-1.7936276197433472,0.4240773320198059,0.6725906133651733,0.41999995708465576,0.5608000159263611,-1.6420018482676824e-06,-5.922552645643009e-06,-0.8279512524604797,7.878400356275961e-05,-0.0003871331864502281,-7.454492151737213e-05,0.009976274333894253,-0.0031510302796959877,-0.0009871537331491709,0.49779224395751953,0.6956892013549805,0.5560917258262634,0.16596248745918274,0.3023158609867096,0.8637709617614746,0.42285674810409546,0.6811832785606384,0.42000001668930054,-0.5033705234527588,1.817030906677246,-1.4177541732788086,3.000000238418579,-0.16843296587467194,-0.1675446778535843,-0.1657561957836151,-0.1636035144329071,0.17260336875915527,0.19105494022369385,0.21565936505794525,0.22197343409061432
0.7833333333333333,0.08699025213718414,0.010289724916219711,0.0,0.5814945101737976,0.0,0.0,-0.8135503530502319,-0.058050014078617096,0.21925418078899384,0.0,0.0,0.0,1.854413390159607,0.4240773320198059,0.6725906133651733,0.41999995708465576,0.5608000159263611,-1.6421696500401595e-06,-5.858275017089909e-06,-0.8279513120651245,7.79785550548695e-05,-0.0003869068459607661,-7.452978752553463e-05,0.009968923404812813,-0.0031497988384217024,-0.0009846776956692338,0.49628710746765137,0.6998140811920166,0.56845623254776,-0.2824522852897644,0.27945420145988464,0.6460679769515991,0.42285674810409546,0.6811832785606384,0.42000001668930054,-0.4599273204803467,3.000000476837158,-1.3820712566375732,1.3914268016815186,-0.17112594842910767,-0.16881105303764343,-0.1656426340341568,-0.16250728070735931,-0.21179229021072388,-0.12267379462718964,-0.03962711989879608,0.02075214311480522
0.8,0.08480717241764069,0.008957241661846638,0.0,0.5756078362464905,0.0,0.0,-0.8177258968353271,-0.173792764544487,-0.17892631888389587,0.0,0.0,0.0,-1.7997453212738037,0.4240773320198059,0.6725906133651733,0.41999995708465576,0.5608001351356506,-1.6234777149293222e-06,-5.9660801525751594e-06,-0.8279512524604797,7.941330841276795e-05,-0.0003869558568112552,-7.451302371919155e-05,0.009972422383725643,-0.0031496568117290735,-0.0009883217280730605,0.48550453782081604,0.703490138053894,0.5729691982269287,-1.007465124130249,0.15576371550559998,0.09403066337108612,0.42285674810409546,0.6811832785606384,0.42000001668930054,-0.442521870136261,-0.6130757331848145,-1.332633137702942,3.000000238418579,-0.17221376299858093,-0.16879971325397491,-0.16459298133850098,-0.1606815606355667,-0.00537536945194006,0.056858278810977936,0.11527983099222183,0.1615694910287857
0.8166666666666667,0.08515540510416031,0.012325575575232506,0.0,0.5825496912002563,0.0,0.0,-0.812795102596283,-0.06212006136775017,0.24880537390708923,0.0,0.0,0.0,1.664771318435669,0.4240773022174835,0.6725906133651733,0.41999995708465576,0.5608001351356506,-1.5995542526070494e-06,-5.7011802709894255e-06,-0.8279510736465454,8.111818169709295e-05,-0.0003871305088978261,-7.45072029531002e-05,0.009979874826967716,-0.0031519951298832893,-0.0009929189691320062,0.4706718325614929,0.7049742341041565,0.5744366645812988,-0.6968722343444824,0.2557399868965149,0.1203923225402832,0.42285674810409546,0.6811832785606384,0.42000001668930054,-0.4354921579360962,1.2868232727050781,-1.351963996887207,-2.999999523162842,-0.1775725930929184,-0.17232996225357056,-0.1663888394832611,-0.16094385087490082,-0.10971072316169739,-0.06522934883832932,-0.017484428361058235,0.030855249613523483
0.8333333333333334,0.08600571006536484,0.011025485582649708,0.0,0.5773158669471741,0.0,0.0,-0.8165208697319031,0.1057857796549797,-0.09992724657058716,0.0,0.0,0.0,-1.5878627300262451,0.4240773320198059,0.6725906133651733,0.41999995708465576,0.5608000159263611,-1.6429512470494956e-06,-5.981561116641387e-06,-0.827951192855835,7.897695468273014e-05,-0.0003867141203954816,-7.447879761457443e-05,0.009964976459741592,-0.003144180867820978,-0.0009866398759186268,0.46220630407333374,0.707757830619812,0.5735525488853455,-0.42333078384399414,-0.014676307328045368,-0.05523868277668953,0.42285674810409546,0.6811832785606384,0.42000001668930054,-0.4590199589729309,-3.000000476837158,-1.3136531114578247,3.0,-0.17547987401485443,-0.17028562724590302,-0.16418273746967316,-0.15836036205291748,0.019390227273106575,0.04641176015138626,0.08651605248451233,0.14119459688663483
0.85,0.0893828496336937,0.007793231401592493,0.0,0.5819973945617676,0.0,0.0,-0.8131906390190125,0.24926787614822388,-0.26045122742652893,0.0,0.0,0.0,1.9930410385131836,0.4240773320198059,0.6725906133651733,0.41999995708465576,0.5608001351356506,-1.6402270830440102e-06,-5.901436452404596e-06,-0.8279511332511902,7.920381904114038e-05,-0.0003868763451464474,-7.451185956597328e-05,0.009969573467969894,-0.003148440970107913,-0.0009876731783151627,0.45906689763069153,0.7063920497894287,0.5763133764266968,0.008009381592273712,-0.13776366412639618,0.4406134784221649,0.42285674810409546,0.6811832785606384,0.42000001668930054,-0.5090212225914001,-3.000000476837158,-1.333321213722229,-2.999999761581421,-0.17616122961044312,-0.17022748291492462,-0.16314959526062012,-0.1560741662979126,-0.044098466634750366,0.007372865919023752,0.07323363423347473,0.1572735607624054
0.8666666666666667,0.09504421055316925,0.001801002537831664,0.0,0.5771056413650513,0.0,0.0,-0.8166694641113281,0.38192400336265564,-0.4086132049560547,0.0,0.0,0.0,-1.6416748762130737,0.4240773320198059,0.6725905537605286,0.41999995708465576,0.5608001351356506,-1.572399469296215e-06,-5.758029146818444e-06,-0.8279512524604797,7.922294753370807e-05,-0.00038709689397364855,-7.450650446116924e-05,0.009976829402148724,-0.0031495383009314537,-0.0009879883145913482,0.4636997580528259,0.7011722326278687,0.5783017873764038,0.523091733455658,-0.4974396824836731,0.006586633622646332,0.42285674810409546,0.6811832785606384,0.42000001668930054,-0.5590229630470276,-2.9999966621398926,-1.383339524269104,-3.0,-0.17743368446826935,-0.17036442458629608,-0.16187168657779694,-0.15303431451320648,-0.06441478431224823,0.0193256177008152,0.11977166682481766,0.24135100841522217
0.8833333333333333,0.10340509563684464,-0.0019028614042326808,0.0,0.5512121319770813,0.0,0.0,-0.8343651294708252,0.5555171966552734,-0.15052694082260132,0.0,0.0,0.0,-4.663381099700928,0.4240773320198059,0.6725905537605286,0.41999995708465576,0.5608001351356506,-1.6225829995164531e-06,-5.9179637901252136e-06,-0.8279511332511902,7.90544509072788e-05,-0.0003872054221574217,-7.453840225934982e-05,0.009979169815778732,-0.003152102930471301,-0.0009882093872874975,0.47494691610336304,0.6920949220657349,0.5796418786048889,0.803801417350769,-0.5865733623504639,0.3053627610206604,0.42285674810409546,0.6811832785606384,0.42000001668930054,-0.5884250402450562,-0.703702449798584,-1.433357834815979,-2.999999761581421,-0.1781204640865326,-0.17050136625766754,-0.16117605566978455,-0.15113133192062378,0.0023116059601306915,0.003286871127784252,0.01740451157093048,0.05165664851665497
0.9,0.10907869786024094,-0.003003578633069992,0.0,0.5406909584999084,0.0,0.0,-0.8412213325500488,0.2504323720932007,-0.023353952914476395,0.0,0.0,0.0,-0.4938696026802063,0.4240773320198059,0.6725906133651733,0.41999995708465576,0.5608001947402954,-1.645151883167273e-06,-5.884301572223194e-06,-0.8279510736465454,7.882335194153711e-05,-0.00038714351831004024,-7.453770376741886e-05,0.009976960718631744,-0.0031509471591562033,-0.000987519626505673,0.48685526847839355,0.6865639686584473,0.5862524509429932,0.5743415355682373,-0.164370596408844,0.4392507076263428,0.42285674810409546,0.6811832785606384,0.42000001668930054,-0.5759666562080383,1.957085132598877,-1.438178539276123,1.991942286491394,-0.17504973709583282,-0.1682128757238388,-0.15951324999332428,-0.14979998767375946,0.28884634375572205,0.20975710451602936,0.13493673503398895,0.07378510385751724
