vladlanda/robotic-transformer/data/env_000_episode_0216.csv
sim_time_s,robot_box_x,robot_box_y,robot_box_z,robot_box_quat_w,robot_box_quat_x,robot_box_quat_y,robot_box_quat_z,robot_box_linvel_x,robot_box_linvel_y,robot_box_linvel_z,robot_box_angvel_x,robot_box_angvel_y,robot_box_angvel_z,cube_world_x,cube_world_y,cube_world_z,cube_quat_w,cube_quat_x,cube_quat_y,cube_quat_z,cube_linvel_x,cube_linvel_y,cube_linvel_z,cube_angvel_x,cube_angvel_y,cube_angvel_z,endpoint_world_x,endpoint_world_y,endpoint_world_z,endpoint_linvel_x,endpoint_linvel_y,endpoint_linvel_z,target_cube_world_x,target_cube_world_y,target_cube_world_z,gripper_actual_pos_rad_gp_leftgearjoint,gripper_actual_vel_rad_s_gp_leftgearjoint,gripper_actual_pos_rad_gp_rotatingjoint,gripper_actual_vel_rad_s_gp_rotatingjoint,motor_angle_rad_joint1,motor_angle_rad_joint2,motor_angle_rad_joint3,motor_angle_rad_joint4,motor_speed_rad_s_joint1,motor_speed_rad_s_joint2,motor_speed_rad_s_joint3,motor_speed_rad_s_joint4
0.0,0.0,0.0,0.0,1.0,0.0,0.0,0.0,0.0,0.0,0.0,0.0,0.0,0.0,-0.41714945435523987,0.7655060291290283,0.41999998688697815,1.0,0.0,0.0,0.0,0.0,0.0,0.0,0.0,0.0,0.0,3.42540442943573e-06,-0.005000244826078415,1.313499927520752,0.0,0.0,0.0,0.38769495487213135,0.6836607456207275,0.42000001668930054,-1.5707999467849731,0.0,0.0,0.0,0.0,0.0,0.0,0.0,0.0,0.0,0.0,0.0
0.016666666666666666,0.0028778850100934505,0.0021806680597364902,0.0,0.9998081922531128,0.0,0.0,0.019586581736803055,0.24087215960025787,0.18240931630134583,0.0,0.0,0.0,3.1418697834014893,-0.4171495735645294,0.7655057311058044,0.41999998688697815,1.0,3.2799914606584935e-06,-8.339814598912199e-07,8.465387679734704e-08,-1.9833554688375443e-05,0.00017983050202019513,-6.133061833679676e-05,0.0009432226070202887,-0.004689437802881002,-0.0003198152990080416,-0.007110234349966049,0.003379564033821225,1.3159373998641968,-0.8143353462219238,0.9868683815002441,0.18095196783542633,0.38769495487213135,0.6836607456207275,0.42000001668930054,-1.5301095247268677,3.0000011920928955,-0.04584788903594017,-2.9999992847442627,0.0008691533003002405,0.0007963840034790337,0.0007110277656465769,0.0006108740926720202,0.11094217747449875,0.09756709635257721,0.08334315568208694,0.06823883205652237
0.03333333333333333,0.008960997685790062,0.006802021060138941,0.0,0.9997960329055786,0.0,0.0,0.02019684948027134,0.4070223271846771,0.31530770659446716,0.0,0.0,0.0,-0.8691332936286926,-0.41714969277381897,0.7655056715011597,0.4200000464916229,1.0,3.3908074783539632e-06,-2.1324644876585808e-06,-3.709624607495243e-08,0.0002635783748701215,0.0002693790302146226,-0.00010509486310184002,-0.0017706957878544927,0.004130749497562647,-0.0001354783307760954,-0.02755616419017315,0.026292167603969574,1.3165814876556396,-1.5913053750991821,1.6163147687911987,-0.08691219240427017,0.38769495487213135,0.6836607456207275,0.42000001668930054,-1.4800904989242554,3.0000011920928955,-0.09588772058486938,-3.000000238418579,0.002990094246342778,0.0026526926085352898,0.0022772527299821377,0.0018606988014653325,0.16421255469322205,0.1397554576396942,0.11381372809410095,0.08629518747329712
0.05,0.018239477649331093,0.013709873892366886,0.0,0.9999993443489075,0.0,0.0,0.001162111759185791,0.6293884515762329,0.4611930549144745,0.0,0.0,0.0,-3.0451087951660156,-0.41714972257614136,0.7655057311058044,0.4200000464916229,1.0,3.7651545881089987e-06,-2.2119120330899023e-06,5.611795916848905e-09,0.00026530781178735197,0.00026691469247452915,-0.00010440615005791187,-0.001724383095279336,0.004177459981292486,-0.00012949582014698535,-0.05740543082356453,0.05709800124168396,1.311790108680725,-1.9532968997955322,2.0528812408447266,-0.4625334143638611,0.38769495487213135,0.6836607456207275,0.42000001668930054,-1.4300721883773804,2.999997854232788,-0.14592641592025757,-2.9999990463256836,0.005881777498871088,0.0050407471135258675,0.004127359017729759,0.003137363353744149,0.20131191611289978,0.16034197807312012,0.11746849864721298,0.07261093705892563
0.06666666666666667,0.03009195253252983,0.023059608414769173,0.0,1.0,0.0,0.0,5.5191765568451956e-05,0.7483680248260498,0.6069884300231934,0.0,0.0,0.0,0.8594616055488586,-0.41714972257614136,0.7655056715011597,0.4200000464916229,0.9999999403953552,3.4067159049300244e-06,-2.2855938368593343e-06,4.3009254113712814e-07,0.0002670247631613165,0.00026791825075633824,-0.00010437914170324802,-0.0017406323458999395,0.004211686551570892,-0.0001285075704799965,-0.09251204133033752,0.09015736728906631,1.3015823364257812,-2.128016471862793,2.0911471843719482,-0.7421990633010864,0.38769495487213135,0.6836607456207275,0.42000001668930054,-1.3800538778305054,3.0000016689300537,-0.19594307243824005,-2.999999761581421,0.008142306469380856,0.0064945463091135025,0.0047338916920125484,0.0028569167479872704,0.11111713200807571,0.05085524916648865,-0.011530456133186817,-0.07612967491149902
0.08333333333333333,0.03576302528381348,0.03611825406551361,0.0,0.9998636841773987,0.0,0.0,-0.016510333865880966,0.207352414727211,0.8518422245979309,0.0,0.0,0.0,-2.9273695945739746,-0.41714972257614136,0.7655056715011597,0.4200000464916229,1.0,3.697289685078431e-06,-2.188937742175767e-06,-2.6324386226406205e-07,0.00026389604317955673,0.0002658649464137852,-0.00010434049181640148,-0.001708196708932519,0.0041501703672111034,-0.00012991030234843493,-0.1243794709444046,0.13063353300094604,1.2858736515045166,-1.7106235027313232,2.7019999027252197,-1.0579806566238403,0.38769495487213135,0.6836607456207275,0.42000001668930054,-1.3300279378890991,2.9999918937683105,-0.16248710453510284,3.0000009536743164,0.003911028616130352,0.0014670121017843485,-0.0011428920552134514,-0.003926423843950033,-0.3718230426311493,-0.43012961745262146,-0.49110642075538635,-0.5550311803817749
0.1,0.04569229483604431,0.05056656524538994,0.0,0.9981538653373718,0.0,0.0,-0.060736119747161865,0.730531632900238,0.882346510887146,0.0,0.0,0.0,-6.105049133300781,-0.41714972257614136,0.7655056715011597,0.4200000464916229,0.9999999403953552,3.620398047132767e-06,-2.265205921503366e-06,1.7460170909089356e-07,0.000266769144218415,0.0002674092538654804,-0.00010408065281808376,-0.001738645602017641,0.004209234844893217,-0.00012775602226611227,-0.15075546503067017,0.17757025361061096,1.2702617645263672,-1.5229816436767578,2.929438352584839,-0.9096059203147888,0.38769495487213135,0.6836607456207275,0.42000001668930054,-1.2800360918045044,3.0000011920928955,-0.19422547519207,-2.999999761581421,0.002441016724333167,-0.0017106093000620604,-0.006027701310813427,-0.010518123395740986,-0.036979421973228455,-0.15035408735275269,-0.26272645592689514,-0.37401673197746277
0.11666666666666667,0.05337774381041527,0.06703230738639832,0.0,0.996347188949585,0.0,0.0,-0.08539509773254395,0.45805928111076355,1.033743143081665,0.0,0.0,0.0,-1.7874218225479126,-0.41714972257614136,0.7655056715011597,0.4200000464916229,1.0,3.798361603912781e-06,-2.2628253191214753e-06,-1.5022170885004016e-07,0.000263741152593866,0.0002656599972397089,-0.00010429229587316513,-0.0017054708441719413,0.004147648345679045,-0.00012979858729522675,-0.18219396471977234,0.2231401801109314,1.2537999153137207,-1.9577547311782837,2.883761167526245,-0.9864412546157837,0.38769495487213135,0.6836607456207275,0.42000001668930054,-1.2300200462341309,2.999985456466675,-0.1604301631450653,2.999999523162842,-0.000952489732299,-0.006760301999747753,-0.012709389440715313,-0.01880720444023609,-0.12242353707551956,-0.23637917637825012,-0.3470470905303955,-0.45424842834472656
0.13333333333333333,0.058757949620485306,0.08151429891586304,0.0,0.9926607608795166,0.0,0.0,-0.12093234807252884,0.27050942182540894,0.803941011428833,0.0,0.0,0.0,-5.121593475341797,-0.41714972257614136,0.7655057311058044,0.4200000464916229,0.9999999403953552,3.5505204323271755e-06,-2.229785422969144e-06,2.9288165137586475e-07,0.00026703279581852257,0.00026779391919262707,-0.00010417005978524685,-0.0017440415685996413,0.004213592037558556,-0.00012800541298929602,-0.21075013279914856,0.27530163526535034,1.23713219165802,-1.4774320125579834,3.4277381896972656,-1.0476878881454468,0.38769495487213135,0.6836607456207275,0.42000001668930054,-1.182266116142273,2.7139484882354736,-0.19216673076152802,-3.000000476837158,-0.003837290219962597,-0.011684410274028778,-0.019601739943027496,-0.027593210339546204,-0.24698123335838318,-0.36594676971435547,-0.4805029034614563,-0.5904490947723389
0.15,0.06054575741291046,0.09656631946563721,0.0,0.9876810312271118,0.0,0.0,-0.15648074448108673,0.03989095613360405,0.942024827003479,0.0,0.0,0.0,-3.940805435180664,-0.41714972257614136,0.7655056715011597,0.4200000464916229,0.9999999403953552,3.3380674722138792e-06,-2.242838490928989e-06,-2.8060037848831598e-08,0.0002667458902578801,0.00026757988962344825,-0.00010427623055875301,-0.0017367381369695067,0.004206942860037088,-0.0001283128949580714,-0.24135616421699524,0.33278536796569824,1.213465929031372,-1.95669424533844,3.627129077911377,-1.7748961448669434,0.38769495487213135,0.6836607456207275,0.42000001668930054,-1.157047152519226,0.48513054847717285,-0.15840187668800354,2.9999983310699463,-0.009154591709375381,-0.018581505864858627,-0.027994608506560326,-0.037395816296339035,-0.37980908155441284,-0.44797199964523315,-0.5113323926925659,-0.569888710975647
0.16666666666666666,0.06709641218185425,0.11268629878759384,0.0,0.9773873090744019,0.0,0.0,-0.2114570289850235,0.37075379490852356,0.9569360017776489,0.0,0.0,0.0,-7.517397880554199,-0.41714972257614136,0.7655057311058044,0.4200000464916229,0.9999999403953552,3.6478047604759922e-06,-2.307233671672293e-06,3.5235295570146263e-08,0.0002672690898180008,0.0002680139150470495,-0.00010418728925287724,-0.001747197238728404,0.004217608831822872,-0.00012798573879990727,-0.27405810356140137,0.3972961902618408,1.1813859939575195,-1.895749568939209,4.117851257324219,-2.1353485584259033,0.38769495487213135,0.6836607456207275,0.42000001668930054,-1.1164536476135254,3.0000009536743164,-0.19015797972679138,-3.0,-0.013130309991538525,-0.023805150762200356,-0.03437800705432892,-0.044851310551166534,-0.4516369104385376,-0.48841825127601624,-0.5220588445663452,-0.5526697039604187
0.18333333333333332,0.06954831629991531,0.125713512301445,0.0,0.9690448045730591,0.0,0.0,-0.2468850016593933,0.11468920856714249,0.7343935966491699,0.0,0.0,0.0,-3.1781527996063232,-0.41714972257614136,0.7655056715011597,0.4200000464916229,0.9999999403953552,3.2905488751566736e-06,-2.193873569922289e-06,-2.792829718600842e-07,0.0002667795342858881,0.00026776042068377137,-0.00010433956049382687,-0.0017391042783856392,0.004207027144730091,-0.0001284590980503708,-0.30995234847068787,0.4634420871734619,1.1361451148986816,-1.9690461158752441,4.248865604400635,-3.183366298675537,0.38769495487213135,0.6836607456207275,0.42000001668930054,-1.078506588935852,1.640907883644104,-0.24018682539463043,-3.0000009536743164,-0.024304289370775223,-0.03475445881485939,-0.04508147016167641,-0.05529731139540672,-0.722416341304779,-0.6904338002204895,-0.6575753092765808,-0.6244431138038635
0.2,0.06809212267398834,0.1404620110988617,0.0,0.9562399983406067,0.0,0.0,-0.2925833463668823,-0.15060971677303314,0.8999550938606262,0.0,0.0,0.0,-6.5018696784973145,-0.41714972257614136,0.7655056715011597,0.4200000464916229,1.0,3.28078749589622e-06,-2.2191734387888573e-06,1.5941357389692712e-07,0.00026627929764799774,0.000267399795120582,-0.00010425224900245667,-0.0017356870230287313,0.004197803791612387,-0.00012865019380114973,-0.3423812985420227,0.5355138778686523,1.076052188873291,-1.729892373085022,4.477991104125977,-3.96763014793396,0.38769495487213135,0.6836607456207275,0.42000001668930054,-1.031490445137024,3.000001907348633,-0.29021331667900085,-2.999997854232788,-0.03911038860678673,-0.04868868365883827,-0.058133695274591446,-0.06747086346149445,-0.8990246057510376,-0.8440466523170471,-0.7881256341934204,-0.73197340965271
0.21666666666666667,0.07087087631225586,0.15210466086864471,0.0,0.9472634196281433,0.0,0.0,-0.32045599818229675,0.17007921636104584,0.603818416595459,0.0,0.0,0.0,-2.2454607486724854,-0.41714972257614136,0.7655057311058044,0.4200000464916229,1.0,3.6131975775788305e-06,-2.270054665132193e-06,2.2095007068401173e-07,0.0002671261318027973,0.0002678181044757366,-0.00010414118878543377,-0.0017445804551243782,0.004215228371322155,-0.00012786441948264837,-0.3729100227355957,0.6049254536628723,1.0017610788345337,-1.5455619096755981,4.120235919952393,-4.961577415466309,0.38769495487213135,0.6836607456207275,0.42000001668930054,-0.9814881086349487,3.0000011920928955,-0.3402388095855713,-3.0000011920928955,-0.05201807990670204,-0.06045382469892502,-0.06874114274978638,-0.07694750279188156,-0.9594634771347046,-0.8605771660804749,-0.7522043585777283,-0.6482301354408264
0.23333333333333334,0.06832290440797806,0.16616664826869965,0.0,0.9333967566490173,0.0,0.0,-0.3588460087776184,-0.18457138538360596,0.8556146621704102,0.0,0.0,0.0,-5.606899261474609,-0.41714972257614136,0.7655056715011597,0.4200000464916229,1.0,3.3819201235019136e-06,-2.290869360876968e-06,2.727421417603182e-07,0.00026691355742514133,0.0002678000892046839,-0.00010433257557451725,-0.001739609520882368,0.00420966325327754,-0.00012843690637964755,-0.395744264125824,0.6674455404281616,0.9107756614685059,-1.0983511209487915,3.5969839096069336,-5.729898452758789,0.38769495487213135,0.6836607456207275,0.42000001668930054,-0.931479275226593,3.000001907348633,-0.3902672529220581,-3.000000238418579,-0.0675261989235878,-0.07607786357402802,-0.08448570221662521,-0.09269724786281586,-0.8040361404418945,-0.8329817056655884,-0.859356701374054,-0.8824184536933899
0.25,0.07054434716701508,0.1750580072402954,0.0,0.9256065487861633,0.0,0.0,-0.37848713994026184,0.14472728967666626,0.4526536166667938,0.0,0.0,0.0,-1.293080449104309,-0.41714969277381897,0.7655056715011597,0.4200000464916229,0.9999999403953552,3.7066345157654723e-06,-2.222945795438136e-06,-2.2556247358807013e-07,0.0002642473264131695,0.0002665669599082321,-0.00010457937605679035,-0.0017170740757137537,0.004155685659497976,-0.00013062926882412285,-0.4152316451072693,0.7183335423469543,0.8111812472343445,-0.8728373050689697,2.6389031410217285,-6.283265590667725,0.38769495487213135,0.6836607456207275,0.42000001668930054,-0.8814705014228821,2.999998092651367,-0.44029781222343445,-3.0,-0.07996124029159546,-0.08834919333457947,-0.09660480916500092,-0.10467436909675598,-0.9768695831298828,-0.9099189043045044,-0.846923291683197,-0.7885565757751465
0.26666666666666666,0.06712929904460907,0.18811795115470886,0.0,0.930039644241333,0.0,0.0,-0.367459237575531,-0.18286819756031036,0.7372390031814575,0.0,0.0,0.0,2.3485283851623535,-0.41714972257614136,0.7655056715011597,0.4200000464916229,0.9999999403953552,3.719743290275801e-06,-2.4033963654801482e-06,-1.8313593841412512e-07,0.00026623267331160605,0.0002672910050023347,-0.00010425737127661705,-0.0017326035303995013,0.004196490161120892,-0.00012851072824560106,-0.4301140308380127,0.7450298070907593,0.7054354548454285,-0.8159886002540588,0.9170430302619934,-6.313058853149414,0.38769495487213135,0.6836607456207275,0.42000001668930054,-0.8314604759216309,2.999995708465576,-0.49032947421073914,-3.0000011920928955,-0.09700634330511093,-0.10523687303066254,-0.11338978260755539,-0.12137708067893982,-0.6415924429893494,-0.7141321301460266,-0.7800618410110474,-0.8382024765014648
0.2833333333333333,0.06879065930843353,0.19498305022716522,0.0,0.9290952682495117,0.0,0.0,-0.36984050273895264,0.11383087933063507,0.3343660533428192,0.0,0.0,0.0,-1.0039982795715332,-0.41714972257614136,0.7655057311058044,0.4200000464916229,0.9999999403953552,3.5841740100295283e-06,-2.315398432983784e-06,7.398276835601791e-08,0.0002652210823725909,0.0002645523054525256,-0.00010317191481590271,-0.0017021427629515529,0.004185129422694445,-0.00012499491276685148,-0.4404871463775635,0.7603893876075745,0.5997963547706604,-0.3527039885520935,0.6406359076499939,-6.239297389984131,0.38769495487213135,0.6836607456207275,0.42000001668930054,-0.7814516425132751,2.999994993209839,-0.5403600335121155,-3.00000262260437,-0.10825296491384506,-0.11728321760892868,-0.12617182731628418,-0.1348194181919098,-0.9504442811012268,-0.9460137486457825,-0.9410473108291626,-0.935749888420105
0.3,0.06662783771753311,0.198630228638649,0.0,0.934033215045929,0.0,0.0,-0.3571862280368805,-0.22125068306922913,0.18448124825954437,0.0,0.0,0.0,2.4588325023651123,-0.41714972257614136,0.7655056715011597,0.4200000464916229,1.0,3.7243778479023604e-06,-2.2718340915162116e-06,9.629111730191653e-08,0.00026312560657970607,0.0002652584225870669,-0.00010438216850161552,-0.0016960793873295188,0.004134789574891329,-0.00013027508975937963,-0.44091886281967163,0.7676205039024353,0.4999324679374695,0.32106393575668335,0.17600402235984802,-5.664419651031494,0.38769495487213135,0.6836607456207275,0.42000001668930054,-0.7314428687095642,3.0000009536743164,-0.5903889536857605,-2.9999990463256836,-0.1259286105632782,-0.13471394777297974,-0.14342260360717773,-0.15193194150924683,-1.0131473541259766,-1.0099447965621948,-1.007506012916565,-1.0055538415908813
0.31666666666666665,0.060336511582136154,0.2000361829996109,0.0,0.9328629970550537,0.0,0.0,-0.36023133993148804,-0.44414231181144714,0.05386390537023544,0.0,0.0,0.0,-1.3188281059265137,-0.41714972257614136,0.7655056715011597,0.4200000464916229,1.0,3.666371867439011e-06,-2.3924892502691364e-06,1.6792405688192957e-07,0.00026602050638757646,0.0002670706599019468,-0.00010418635793030262,-0.001731188502162695,0.004193520173430443,-0.0001284972531720996,-0.42834341526031494,0.767021656036377,0.4072045683860779,1.1757726669311523,-0.25368332862854004,-5.369358062744141,0.38769495487213135,0.6836607456207275,0.42000001668930054,-0.6814358234405518,3.0000011920928955,-0.6404158473014832,-3.000002145767212,-0.14365103840827942,-0.15217211842536926,-0.16068045794963837,-0.16903096437454224,-1.003462553024292,-1.0026307106018066,-1.001994013786316,-1.0014820098876953
0.3333333333333333,0.053275320678949356,0.19840732216835022,0.0,0.9369138479232788,0.0,0.0,-0.349560409784317,-0.46043166518211365,-0.1445702761411667,0.0,0.0,0.0,2.1966094970703125,-0.416169136762619,0.7680627107620239,0.42187386751174927,0.9973647594451904,0.00011630003427853808,0.04673846438527107,-0.05548758804798126,0.14482977986335754,0.2695256173610687,0.15457956492900848,0.6648656129837036,7.064109802246094,-8.996075630187988,-0.42923587560653687,0.7715332508087158,0.42837733030319214,0.21112826466560364,0.42227303981781006,-0.1888764500617981,0.38769495487213135,0.6836607456207275,0.42000001668930054,-0.6317498087882996,2.999999523162842,-0.691024661064148,-2.9978206157684326,-0.14203472435474396,-0.15226875245571136,-0.1619396209716797,-0.1707880198955536,-0.1418251097202301,-0.1733185201883316,-0.18288220465183258,-0.1663193553686142
0.35,0.04405081644654274,0.19428347051143646,0.0,0.9350830912590027,0.0,0.0,-0.3544285297393799,-0.5979692339897156,-0.28809043765068054,0.0,0.0,0.0,-1.5359452962875366,-0.4138972759246826,0.7722476124763489,0.4231357276439667,0.9888249635696411,0.010044092312455177,0.08523660153150558,-0.12189681082963943,0.1312592625617981,0.24133853614330292,0.05865306407213211,0.6262027025222778,3.4014413356781006,-7.528111457824707,-0.4240771532058716,0.777822732925415,0.42529016733169556,0.4224473536014557,0.41845834255218506,-0.18386147916316986,0.38769495487213135,0.6836607456207275,0.42000001668930054,-0.5817446112632751,2.9999842643737793,-0.7410712242126465,-2.999990940093994,-0.14621751010417938,-0.1564159244298935,-0.16574408113956451,-0.17389993369579315,-0.3159301280975342,-0.2869925796985626,-0.24415460228919983,-0.1861245334148407
0.36666666666666664,0.03266571834683418,0.1877945065498352,0.0,0.9387519359588623,0.0,0.0,-0.34459376335144043,-0.7252288460731506,-0.42917823791503906,0.0,0.0,0.0,2.144996166229248,-0.40927034616470337,0.7791222929954529,0.42358142137527466,0.9823899865150452,0.03182113543152809,0.07248473912477493,-0.1692427396774292,0.3937002420425415,0.529679000377655,0.03979793190956116,2.884315252304077,-3.1978375911712646,-2.641291379928589,-0.4153905510902405,0.7851911783218384,0.4222472906112671,0.5990570783615112,0.46542441844940186,-0.16347667574882507,0.38769495487213135,0.6836607456207275,0.42000001668930054,-0.5317397117614746,2.9999771118164062,-0.7911148071289062,-2.9999985694885254,-0.15316513180732727,-0.1620800793170929,-0.1699073314666748,-0.17635342478752136,-0.4375154376029968,-0.334766149520874,-0.21987955272197723,-0.0943935215473175
0.3833333333333333,0.019056027755141258,0.17901408672332764,0.0,0.9367386698722839,0.0,0.0,-0.35002952814102173,-0.8580946922302246,-0.5667921900749207,0.0,0.0,0.0,-1.6440160274505615,-0.40156447887420654,0.7890405058860779,0.42312100529670715,0.9797815680503845,0.04303887113928795,0.03914201632142067,-0.19142533838748932,0.5734249353408813,0.7027424573898315,-0.028745388612151146,0.5504264831542969,-4.427659034729004,-3.225883960723877,-0.4035823941230774,0.7927218675613403,0.42010408639907837,0.8379695415496826,0.4900922179222107,-0.11918703466653824,0.38769495487213135,0.6836607456207275,0.42000001668930054,-0.48173534870147705,2.9999821186065674,-0.8411650061607361,-2.999999761581421,-0.16100069880485535,-0.16781385242938995,-0.1733018010854721,-0.1772143542766571,-0.45570802688598633,-0.31528469920158386,-0.16063407063484192,0.004958288744091988
0.4,0.005698790308088064,0.16777551174163818,0.0,0.9244844317436218,0.0,0.0,-0.38121986389160156,-0.7594898343086243,-0.7210237383842468,0.0,0.0,0.0,-4.790185451507568,-0.39003732800483704,0.8025634288787842,0.4216597080230713,0.9749064445495605,0.03910902142524719,-0.005108110141009092,-0.21909278631210327,1.11504328250885,0.7333986163139343,0.22443008422851562,-8.87685775756836,-3.626214027404785,-9.665587425231934,-0.38851046562194824,0.8034452199935913,0.4203932285308838,0.9907441735267639,0.8127954602241516,0.10528820753097534,0.38769495487213135,0.6836607456207275,0.42000001668930054,-0.4316677451133728,2.974639892578125,-0.8911654353141785,-2.994753122329712,-0.16924819350242615,-0.1733817309141159,-0.17589400708675385,-0.1766074001789093,-0.4843968152999878,-0.3125991225242615,-0.12199363112449646,0.08243760466575623
0.4166666666666667,-0.00393002200871706,0.15352490544319153,0.0,0.9004806280136108,0.0,0.0,-0.4348961114883423,-0.5016828179359436,-0.9114784002304077,0.0,0.0,0.0,-7.86041784286499,-0.36672186851501465,0.8227139115333557,0.42427313327789307,0.9631019234657288,0.014244899153709412,-0.026681631803512573,-0.26743167638778687,1.9598658084869385,1.062951922416687,-0.3013083040714264,39.69272232055664,-20.93970489501953,14.0191650390625,-0.3651469945907593,0.8233879804611206,0.422571063041687,1.9290385246276855,1.5859954357147217,0.30119651556015015,0.38769495487213135,0.6836607456207275,0.42000001668930054,-0.3943372964859009,0.9274574518203735,-0.9411817193031311,-3.0000007152557373,-0.1770200878381729,-0.17820602655410767,-0.17740723490715027,-0.17454108595848083,-0.46956613659858704,-0.2786892056465149,-0.06709212809801102,0.15888090431690216
0.43333333333333335,-0.009440291672945023,0.13608376681804657,0.0,0.8613786101341248,0.0,0.0,-0.5079634785652161,-0.2605980634689331,-1.0940874814987183,0.0,0.0,0.0,-10.644946098327637,-0.3124232292175293,0.8549439907073975,0.42671430110931396,0.9466561079025269,0.0547419972717762,-0.06821751594543457,-0.3101480007171631,4.377240180969238,1.9339430332183838,0.09274392575025558,18.41275978088379,-15.639023780822754,7.521016597747803,-0.3108934760093689,0.8550560474395752,0.42531728744506836,4.3667473793029785,2.3741376399993896,0.3261258602142334,0.38769495487213135,0.6836607456207275,0.42000001668930054,-0.3817724585533142,0.8689637184143066,-0.906181275844574,3.0006985664367676,-0.18842452764511108,-0.18513630330562592,-0.17978179454803467,-0.1724260300397873,-0.7284731268882751,-0.44078272581100464,-0.15914158523082733,0.107066310942173
0.45,-0.019213292747735977,0.12472598999738693,0.0,0.8016268014907837,0.0,0.0,-0.5978248119354248,-0.6883262991905212,-0.5380471348762512,0.0,0.0,0.0,-13.956706047058105,-0.21581466495990753,0.8906156420707703,0.4344988763332367,0.9203962087631226,0.08079294860363007,-0.0866566076874733,-0.3726040720939636,6.935898303985596,1.9379373788833618,0.5107535719871521,7.763499736785889,-7.233902454376221,-0.13627301156520844,-0.21525761485099792,0.8914042711257935,0.43325477838516235,6.925436019897461,2.220118284225464,0.7261568307876587,0.38769495487213135,0.6836607456207275,0.42000001668930054,-0.36132797598838806,1.5390771627426147,-0.9317861795425415,-3.000002145767212,-0.20467466115951538,-0.2000010907649994,-0.19024141132831573,-0.1768537312746048,-0.9054268598556519,-0.9039821624755859,-0.7888947129249573,-0.43582215905189514
0.4666666666666667,-0.025375444442033768,0.11045341193675995,0.0,0.7454674243927002,0.0,0.0,-0.6665420532226562,-0.3238716721534729,-0.8526251316070557,0.0,0.0,0.0,-9.254151344299316,-0.10042598843574524,0.9139541983604431,0.4463491439819336,0.8708629608154297,0.10551290214061737,-0.11480195075273514,-0.46613866090774536,6.792356491088867,0.2841166853904724,0.5709877610206604,8.02938175201416,-14.943379402160645,8.638773918151855,-0.10106893628835678,0.9178262948989868,0.4455413520336151,6.972259998321533,0.8107419013977051,0.8521316051483154,0.38769495487213135,0.6836607456207275,0.42000001668930054,-0.3332948088645935,1.7584115266799927,-0.938385546207428,1.7507609128952026,-0.21907183527946472,-0.21384793519973755,-0.20082326233386993,-0.18117955327033997,-0.9852348566055298,-0.948828399181366,-0.6930668354034424,-0.29568010568618774
0.48333333333333334,-0.03248395398259163,0.09933770447969437,0.0,0.7125945687294006,0.0,0.0,-0.7015760540962219,-0.46277177333831787,-0.6308302283287048,0.0,0.0,0.0,-4.512820243835449,0.011724606156349182,0.9150058627128601,0.45964983105659485,0.8083348870277405,0.1254855841398239,-0.10204979032278061,-0.566068708896637,6.414694786071777,-1.35216224193573,0.2846846878528595,-6.022818088531494,-24.25839614868164,12.740630149841309,0.01035253144800663,0.9202475547790527,0.4578626751899719,6.574289798736572,-0.4940863251686096,0.9051478505134583,0.38769495487213135,0.6836607456207275,0.42000001668930054,-0.310450941324234,0.8736212849617004,-0.9724639058113098,-3.0000052452087402,-0.23239901661872864,-0.2271510511636734,-0.21403400599956512,-0.1875462383031845,-0.7513938546180725,-0.6948705911636353,-0.6484089493751526,-0.27649155259132385
0.5,-0.03732789307832718,0.08798255026340485,0.0,0.7037615180015564,0.0,0.0,-0.7104362845420837,-0.23027576506137848,-0.6788680553436279,0.0,0.0,0.0,-0.5501710772514343,0.10996923595666885,0.8977823853492737,0.47040170431137085,0.7456809878349304,0.10594245791435242,-0.07603999227285385,-0.6534170508384705,4.894010543823242,-2.4962680339813232,0.3027604818344116,-12.663297653198242,-18.9321346282959,27.080299377441406,0.1084105521440506,0.904326319694519,0.46825873851776123,5.411609649658203,-1.473335862159729,0.6729731559753418,0.38769495487213135,0.6836607456207275,0.42000001668930054,-0.30338966846466064,-0.10611958801746368,-1.0224870443344116,-3.000002861022949,-0.24004504084587097,-0.2365565001964569,-0.22211790084838867,-0.19026772677898407,-0.043197013437747955,-0.4941696226596832,-0.38590380549430847,-0.10685933381319046
0.5166666666666666,-0.038730438798666,0.08039700239896774,0.0,0.6867635250091553,0.0,0.0,-0.7268809080123901,-0.02009246125817299,-0.3856663703918457,0.0,0.0,0.0,-3.6732540130615234,0.18888844549655914,0.8696894645690918,0.47507646679878235,0.6987402439117432,0.08374261111021042,-0.057429030537605286,-0.7081320285797119,4.117394924163818,-2.2411725521087646,0.026428397744894028,-7.48194694519043,-4.175006866455078,5.261368751525879,0.1870376169681549,0.876862645149231,0.47317129373550415,4.356151580810547,-1.977304458618164,0.15464921295642853,0.38769495487213135,0.6836607456207275,0.42000001668930054,-0.30547910928726196,-0.012118070386350155,-1.0725090503692627,-3.0000011920928955,-0.23993876576423645,-0.23978915810585022,-0.22738797962665558,-0.19243328273296356,0.025813860818743706,0.0730569064617157,-0.196949303150177,-0.08604589849710464
0.5333333333333333,-0.0368025079369545,0.0720720961689949,0.0,0.6826294660568237,0.0,0.0,-0.730764627456665,0.14163319766521454,-0.4961245656013489,0.0,0.0,0.0,0.25859013199806213,0.25273454189300537,0.83555006980896,0.47382935881614685,0.6595994234085083,0.044460225850343704,-0.041956037282943726,-0.7491270899772644,3.279513120651245,-2.2878592014312744,-0.16880320012569427,1.5308406352996826,2.6369240283966064,-5.262357711791992,0.2513042688369751,0.8423943519592285,0.4724266827106476,3.3644402027130127,-2.2726871967315674,-0.1779434233903885,0.38769495487213135,0.6836607456207275,0.42000001668930054,-0.2975521683692932,0.8511781692504883,-1.1225311756134033,-3.000000238418579,-0.23734427988529205,-0.23611971735954285,-0.22755587100982666,-0.19206653535366058,0.157880961894989,0.2521703839302063,0.07209578156471252,0.04892975836992264
0.55,-0.03269389271736145,0.0665927603840828,0.0,0.6697528958320618,0.0,0.0,-0.7425839900970459,0.2936061918735504,-0.25845468044281006,0.0,0.0,0.0,-2.95037579536438,0.30207350850105286,0.8012056946754456,0.46510282158851624,0.6303865313529968,-0.002485185395926237,-0.019815314561128616,-0.7760244607925415,2.4585909843444824,-2.279071807861328,-0.6128242611885071,-2.8820786476135254,1.9596855640411377,4.5152692794799805,0.30113428831100464,0.8071934580802917,0.46450066566467285,2.6062686443328857,-2.0854482650756836,-0.6666351556777954,0.38769495487213135,0.6836607456207275,0.42000001668930054,-0.28105786442756653,0.9233677387237549,-1.172553300857544,-3.0000014305114746,-0.23275871574878693,-0.2307211011648178,-0.2252952605485916,-0.1916494071483612,0.3637561500072479,0.3920184373855591,0.21179801225662231,0.03587386757135391
0.5666666666666667,-0.026254111900925636,0.05930975079536438,0.0,0.6694046854972839,0.0,0.0,-0.7428979277610779,0.43801814317703247,-0.46063560247421265,0.0,0.0,0.0,0.8563144207000732,0.338737815618515,0.7678432464599609,0.4521072804927826,0.585719108581543,-0.041019439697265625,0.016970137134194374,-0.8092974424362183,1.8001145124435425,-2.05780029296875,-0.8514619469642639,3.282219409942627,-4.016047954559326,-8.409384727478027,0.3367852568626404,0.7723534107208252,0.45117610692977905,1.6464011669158936,-2.0733556747436523,-0.8959226608276367,0.38769495487213135,0.6836607456207275,0.42000001668930054,-0.2667117118835449,0.7967138886451721,-1.2225754261016846,-3.0000009536743164,-0.22542911767959595,-0.2228715866804123,-0.219986692070961,-0.18994273245334625,0.4225091338157654,0.45874854922294617,0.33467844128608704,0.09076669067144394
0.5833333333333334,-0.021807994693517685,0.05488539859652519,0.0,0.659134566783905,0.0,0.0,-0.7520250082015991,0.20797774195671082,-0.2107430100440979,0.0,0.0,0.0,-2.5208282470703125,0.3651440441608429,0.736576497554779,0.4325762391090393,0.5366051197052002,-0.04985222592949867,0.027778685092926025,-0.8419013619422913,1.1137889623641968,-2.4836225509643555,-1.4241759777069092,-8.274141311645508,-12.560701370239258,9.178742408752441,0.3615867495536804,0.7401489615440369,0.43106624484062195,1.27681565284729,-1.7772290706634521,-1.2922074794769287,0.38769495487213135,0.6836607456207275,0.42000001668930054,-0.24741366505622864,1.1308135986328125,-1.2027485370635986,2.996338367462158,-0.21796086430549622,-0.2154587209224701,-0.2147626280784607,-0.18949565291404724,0.4907884895801544,0.4642660915851593,0.33530914783477783,0.020158866420388222
0.6,-0.016584016382694244,0.04806923121213913,0.0,0.6610652804374695,0.0,0.0,-0.7503284215927124,0.35548728704452515,-0.4127850830554962,0.0,0.0,0.0,1.1684650182724,0.3758178949356079,0.7159045934677124,0.42842283844947815,0.5420498251914978,-0.06302390247583389,0.04771532118320465,-0.836620032787323,0.1819397360086441,-1.5844050645828247,0.13431836664676666,3.5805203914642334,-10.968798637390137,15.470194816589355,0.3722582161426544,0.7193381190299988,0.4274279475212097,0.23856621980667114,-0.9847919344902039,0.06704021990299225,0.38769495487213135,0.6836607456207275,0.42000001668930054,-0.23556020855903625,0.0678599402308464,-1.2229405641555786,-2.9995181560516357,-0.2086053341627121,-0.20694908499717712,-0.20833879709243774,-0.18855732679367065,0.46533167362213135,0.4190470576286316,0.316503643989563,-0.009427669458091259
0.6166666666666667,-0.013043251819908619,0.04450102522969246,0.0,0.6524973511695862,0.0,0.0,-0.7577909827232361,0.12248793244361877,-0.16264258325099945,0.0,0.0,0.0,-2.238863945007324,0.3791859745979309,0.7029451131820679,0.42685598134994507,0.5649272203445435,-0.045807551592588425,0.044041313230991364,-0.8226901888847351,0.06946040689945221,-0.6615647673606873,-0.07348257303237915,1.4317777156829834,-2.6742169857025146,4.519653797149658,0.3748447895050049,0.7059268355369568,0.4260003864765167,0.07825736701488495,-0.6201035380363464,-0.10799205303192139,0.38769495487213135,0.6836607456207275,0.42000001668930054,-0.23460881412029266,0.33267197012901306,-1.1849015951156616,3.0000922679901123,-0.20040558278560638,-0.2000845968723297,-0.20330850780010223,-0.1890951246023178,0.5335166454315186,0.43920302391052246,0.33347395062446594,0.0019979209173470736
0.6333333333333333,-0.00920065212994814,0.03852952644228935,0.0,0.655967652797699,0.0,0.0,-0.7547889947891235,0.2764618396759033,-0.3718164563179016,0.0,0.0,0.0,1.3567278385162354,0.3779146373271942,0.6949000358581543,0.4256437122821808,0.5838333964347839,-0.029932327568531036,0.03503696992993355,-0.8105645775794983,-0.221511110663414,-0.4024004340171814,-0.09340608865022659,-0.8333134651184082,-5.370903015136719,3.6539247035980225,0.37369903922080994,0.698462188243866,0.42656409740448,-0.20230251550674438,-0.34734559059143066,0.08232332766056061,0.38769495487213135,0.6836607456207275,0.42000001668930054,-0.24222955107688904,-1.115232229232788,-1.2062005996704102,-2.9995484352111816,-0.19107304513454437,-0.19221095740795135,-0.19686198234558105,-0.1878204196691513,0.4419509172439575,0.3823387622833252,0.3333835303783417,0.06040247902274132
0.65,-0.0031765957828611135,0.03586176410317421,0.0,0.6485446691513062,0.0,0.0,-0.761176586151123,0.40072908997535706,-0.10001397132873535,0.0,0.0,0.0,-2.0271668434143066,0.37737640738487244,0.6920769214630127,0.4229580760002136,0.6024762988090515,-0.04620824009180069,0.03246788680553436,-0.7961362600326538,-0.22380179166793823,-0.382948637008667,-0.24605412781238556,-1.7083871364593506,-4.579461574554443,2.010601043701172,0.37344056367874146,0.6966226100921631,0.4277176260948181,0.069529227912426,0.012499927543103695,0.07916611433029175,0.38769495487213135,0.6836607456207275,0.42000001668930054,-0.27225786447525024,-2.166712999343872,-1.2342604398727417,-0.5928930640220642,-0.18350917100906372,-0.18609216809272766,-0.19171905517578125,-0.18709011375904083,0.5245509147644043,0.41990482807159424,0.3535116910934448,0.09451663494110107
0.6666666666666666,0.004761747550219297,0.03666529804468155,0.0,0.6535427570343018,0.0,0.0,-0.7568895816802979,0.5093415975570679,0.13628235459327698,0.0,0.0,0.0,1.639866590499878,0.37582069635391235,0.6891909241676331,0.4212244153022766,0.6065281629562378,-0.02126469649374485,0.0046602943912148476,-0.7947639226913452,-0.0629345029592514,-0.1360078603029251,-0.060646362602710724,-1.4838913679122925,-3.2359554767608643,1.0274041891098022,0.37262338399887085,0.6974710822105408,0.43055054545402527,-0.05815383791923523,0.08028655499219894,0.18939289450645447,0.38769495487213135,0.6836607456207275,0.42000001668930054,-0.3213919997215271,-2.980349540710449,-1.2794092893600464,-3.000040054321289,-0.17587123811244965,-0.18009383976459503,-0.18661324679851532,-0.18584567308425903,0.40910789370536804,0.32146087288856506,0.2806336581707001,0.07335958629846573
0.6833333333333333,0.01554182916879654,0.03248915821313858,0.0,0.651114821434021,0.0,0.0,-0.7589792609214783,0.702008843421936,-0.3805629312992096,0.0,0.0,0.0,-1.4810041189193726,0.3750242292881012,0.6876307129859924,0.42000138759613037,0.6095837950706482,-1.0144386806132388e-06,-1.1806677321146708e-05,-0.7927215099334717,-0.025073956698179245,-0.0382772833108902,-0.0002054071519523859,0.026435336098074913,0.007082424126565456,0.16212427616119385,0.37358224391937256,0.7009873986244202,0.4346514344215393,0.11796242743730545,0.22898682951927185,0.2963024377822876,0.38769495487213135,0.6836607456207275,0.42000001668930054,-0.37133777141571045,-2.998446464538574,-1.3293856382369995,-2.9997105598449707,-0.16341626644134521,-0.16975946724414825,-0.17747601866722107,-0.1802779734134674,0.8217712640762329,0.7082669734954834,0.6521362662315369,0.4697914719581604
0.7,0.02739562839269638,0.0324602834880352,0.0,0.6594510078430176,0.0,0.0,-0.7517475485801697,0.7328671216964722,0.10824168473482132,0.0,0.0,0.0,2.241133213043213,0.3749871253967285,0.6875746250152588,0.42000001668930054,0.6096814870834351,5.084688837087015e-06,-2.0228337689331966e-06,-0.7926464080810547,0.00041853360016830266,0.00014467997243627906,-0.00015016458928585052,-0.008374590426683426,0.002509741811081767,-0.0010716719552874565,0.3759613633155823,0.7054358720779419,0.4441753625869751,0.2585204839706421,0.3387001156806946,0.8791885375976562,0.38769495487213135,0.6836607456207275,0.42000001668930054,-0.42135077714920044,-3.0,-1.3794041872024536,-2.999999761581421,-0.15608790516853333,-0.1631949096918106,-0.17075254023075104,-0.17528267204761505,0.323081910610199,0.29786255955696106,0.3268887400627136,0.25758886337280273
0.7166666666666667,0.03689909726381302,0.0298623014241457,0.0,0.6560276746749878,0.0,0.0,-0.7547368407249451,0.47968846559524536,-0.1740698367357254,0.0,0.0,0.0,-1.4986323118209839,0.3749873638153076,0.6875748634338379,0.4200000464916229,0.6096814870834351,5.596563710241753e-07,-3.352720341354143e-06,-0.7926464676856995,0.00015284739492926747,-0.00027374684577807784,-9.743706323206425e-05,0.0059243119321763515,-0.0008747284882701933,-0.0006083376356400549,0.38468503952026367,0.7082279920578003,0.455875426530838,0.6471734046936035,-0.0920562893152237,0.6911513805389404,0.38769495487213135,0.6836607456207275,0.42000001668930054,-0.4713641107082367,-2.999979019165039,-1.4294224977493286,-2.999999761581421,-0.15123261511325836,-0.15796531736850739,-0.16423997282981873,-0.16884231567382812,0.05757938697934151,0.15811787545681,0.310139000415802,0.39255985617637634
0.7333333333333333,0.04643479734659195,0.02414008416235447,0.0,0.6321216225624084,0.0,0.0,-0.7748691439628601,0.614966630935669,-0.41121789813041687,0.0,0.0,0.0,-4.629306316375732,0.3749873638153076,0.6875748038291931,0.4200000464916229,0.6096811294555664,4.4442089119911543e-07,-3.397753289391403e-06,-0.7926467061042786,0.0001537886419100687,-0.00027779408264905214,-9.777629747986794e-05,0.00602817814797163,-0.0008781278738752007,-0.0006125400541350245,0.39963585138320923,0.7068072557449341,0.47448182106018066,1.1645631790161133,-0.10283844918012619,1.6729140281677246,0.38769495487213135,0.6836607456207275,0.42000001668930054,-0.5213766694068909,-2.9999775886535645,-1.4794408082962036,-3.0,-0.1527438759803772,-0.1574842631816864,-0.16098232567310333,-0.16376164555549622,-0.1622648984193802,-0.032029006630182266,0.14032411575317383,0.26617637276649475
0.75,0.05895550176501274,0.02232772298157215,0.0,0.6215560436248779,0.0,0.0,-0.7833696603775024,0.7541707158088684,-0.09575843811035156,0.0,0.0,0.0,-0.5672282576560974,0.3749873638153076,0.6875748634338379,0.4200000464916229,0.6096814274787903,4.837713163396984e-07,-3.374289690327714e-06,-0.7926464676856995,0.0001505002292105928,-0.00027807397418655455,-9.70431137830019e-05,0.0060512530617415905,-0.0009217361803166568,-0.0006056653801351786,0.41973555088043213,0.7084310054779053,0.5071257948875427,1.3306663036346436,0.321937620639801,2.217824935913086,0.38769495487213135,0.6836607456207275,0.42000001668930054,-0.5509041547775269,-0.7154309749603271,-1.5294591188430786,-2.9999990463256836,-0.1580447107553482,-0.16078293323516846,-0.16173510253429413,-0.1626414805650711,-0.15553592145442963,-0.10436870157718658,-0.023763177916407585,0.028636464849114418
0.7666666666666666,0.06823407858610153,0.022655963897705078,0.0,0.6352654099464417,0.0,0.0,-0.7722939252853394,0.48629704117774963,0.06535171717405319,0.0,0.0,0.0,2.954317331314087,0.3749873638153076,0.6875748634338379,0.4200000464916229,0.6096814274787903,3.412531839330768e-07,-3.46504839399131e-06,-0.7926465272903442,0.00014687248039990664,-0.00028082518838346004,-9.593833237886429e-05,0.00613832613453269,-0.0009740454261191189,-0.0005990489153191447,0.4407866895198822,0.7122948169708252,0.5374305248260498,1.1481455564498901,0.19744569063186646,1.5148506164550781,0.38769495487213135,0.6836607456207275,0.42000001668930054,-0.5398878455162048,1.8077478408813477,-1.49180269241333,3.000000476837158,-0.15958206355571747,-0.16148748993873596,-0.16122838854789734,-0.1612907350063324,-0.02847188711166382,0.019367285072803497,0.08240655064582825,0.12781500816345215
0.7833333333333333,0.07284416258335114,0.018779529258608818,0.0,0.6363086700439453,0.0,0.0,-0.7714345455169678,0.23946130275726318,-0.2499748170375824,0.0,0.0,0.0,-0.8012422323226929,0.3749873638153076,0.6875748634338379,0.4200000464916229,0.6096813678741455,3.1627149610358174e-07,-3.376069116711733e-06,-0.7926464676856995,0.0001472749572712928,-0.0002808665740303695,-9.603984653949738e-05,0.006137247662991285,-0.0009693574393168092,-0.0005999672575853765,0.4525586664676666,0.7170152068138123,0.5571742057800293,0.2174074798822403,0.2095266729593277,1.0006598234176636,0.38769495487213135,0.6836607456207275,0.42000001668930054,-0.5201199650764465,0.6494336724281311,-1.4417500495910645,2.9999992847442627,-0.15693601965904236,-0.15845969319343567,-0.15767289698123932,-0.15741732716560364,0.025917181745171547,0.08118865638971329,0.13569222390651703,0.17674969136714935
0.8,0.07454878091812134,0.019728323444724083,0.0,0.6478798985481262,0.0,0.0,-0.7617425322532654,0.066069595515728,0.08382781594991684,0.0,0.0,0.0,2.5622472763061523,0.3749873638153076,0.6875748038291931,0.4200000464916229,0.6096810698509216,4.4564859535967116e-07,-3.409057399039739e-06,-0.7926467657089233,0.00014801973884459585,-0.0002794591127894819,-9.630946442484856e-05,0.006099552381783724,-0.0009547081426717341,-0.0006006273906677961,0.4516673684120178,0.7186528444290161,0.5708476305007935,-0.20301082730293274,0.11929549276828766,0.6713122129440308,0.38769495487213135,0.6836607456207275,0.42000001668930054,-0.4978346824645996,1.8993860483169556,-1.4590637683868408,-2.9999990463256836,-0.16004109382629395,-0.15990330278873444,-0.15759730339050293,-0.15605652332305908,-0.08664621412754059,-0.011159708723425865,0.054318249225616455,0.11174635589122772
0.8166666666666667,0.07348471134901047,0.017138229683041573,0.0,0.6461517214775085,0.0,0.0,-0.7632089853286743,-0.1207253560423851,-0.16211041808128357,0.0,0.0,0.0,-1.0540366172790527,0.3749873638153076,0.6875748634338379,0.4200000464916229,0.6096815466880798,4.2160743873864703e-07,-3.3777382668631617e-06,-0.7926464080810547,0.00015184233780018985,-0.0002784209209494293,-9.730691090226173e-05,0.00605245865881443,-0.0009060049196705222,-0.0006088446825742722,0.4412330389022827,0.7222896218299866,0.5763887763023376,-1.0868237018585205,0.2429969608783722,0.15731975436210632,0.38769495487213135,0.6836607456207275,0.42000001668930054,-0.48543334007263184,-0.23808279633522034,-1.420451283454895,2.999999761581421,-0.15954647958278656,-0.15854020416736603,-0.1555527001619339,-0.15337812900543213,-0.05594542995095253,0.011966472491621971,0.06495434790849686,0.11577540636062622
0.8333333333333334,0.07406806200742722,0.018810732290148735,0.0,0.6555371880531311,0.0,0.0,-0.7551628947257996,0.0778491273522377,0.10938083380460739,0.0,0.0,0.0,2.1031880378723145,0.3749873638153076,0.6875748634338379,0.4200000464916229,0.6096813678741455,3.1923690357871237e-07,-3.4639244859135943e-06,-0.7926464676856995,0.00014680436288472265,-0.0002808105491567403,-9.591015987098217e-05,0.006138378754258156,-0.0009744459530338645,-0.000598867132794112,0.42537882924079895,0.7257214784622192,0.5796542167663574,-0.7496414184570312,0.28487226366996765,0.2638810873031616,0.38769495487213135,0.6836607456207275,0.42000001668930054,-0.47225695848464966,1.646283745765686,-1.438196063041687,-2.999999523162842,-0.161977156996727,-0.1598382145166397,-0.15591971576213837,-0.15274643898010254,-0.002364963525906205,0.021835455670952797,0.03992035239934921,0.07157681882381439
0.85,0.0768715962767601,0.016319192945957184,0.0,0.6515985131263733,0.0,0.0,-0.7585640549659729,0.1975831389427185,-0.17585207521915436,0.0,0.0,0.0,-1.5239500999450684,0.3749873638153076,0.6875748634338379,0.4200000464916229,0.6096813678741455,3.285431375843473e-07,-3.375459755261545e-06,-0.7926465272903442,0.00014727856614626944,-0.00028086992097087204,-9.603938087821007e-05,0.006137371528893709,-0.0009692509775049984,-0.0005999738350510597,0.4131664037704468,0.7308430671691895,0.5810414552688599,-0.7752652168273926,0.22453618049621582,0.06996272504329681,0.38769495487213135,0.6836607456207275,0.42000001668930054,-0.4905436635017395,-3.000000476837158,-1.3996437788009644,2.999999523162842,-0.15964247286319733,-0.15756477415561676,-0.15375898778438568,-0.15037888288497925,0.06816568970680237,0.0841190293431282,0.09545115381479263,0.12549346685409546
0.8666666666666667,0.0823286697268486,0.01462083961814642,0.0,0.6584755778312683,0.0,0.0,-0.7526021003723145,0.3668573200702667,-0.12730129063129425,0.0,0.0,0.0,1.909233808517456,0.3749873638153076,0.6875748038291931,0.4200000464916229,0.6096810698509216,4.237568873577402e-07,-3.4078384487656876e-06,-0.7926468253135681,0.0001480583450756967,-0.0002795046893879771,-9.631691500544548e-05,0.00610051304101944,-0.0009543763007968664,-0.0006007390329614282,0.40485870838165283,0.732467770576477,0.583656907081604,-0.2010512799024582,0.06882841140031815,0.2801330089569092,0.38769495487213135,0.6836607456207275,0.42000001668930054,-0.5196945071220398,-0.6749411225318909,-1.4177849292755127,-2.9999990463256836,-0.16065949201583862,-0.15771561861038208,-0.15310481190681458,-0.14859870076179504,-0.011268417350947857,0.03592390939593315,0.08302870392799377,0.1531832367181778
0.8833333333333333,0.0896553248167038,0.01035833079367876,0.0,0.6534287333488464,0.0,0.0,-0.756987988948822,0.47465476393699646,-0.3193811774253845,0.0,0.0,0.0,-1.69973623752594,0.3749873638153076,0.6875748634338379,0.4200000464916229,0.6096813678741455,4.658159582504595e-07,-3.3789360713853966e-06,-0.792646586894989,0.0001505043765064329,-0.0002781399816740304,-9.703589603304863e-05,0.006052775774151087,-0.0009219478815793991,-0.0006057030986994505,0.40319526195526123,0.7312523126602173,0.584526538848877,0.009816281497478485,-0.22870665788650513,0.025366149842739105,0.38769495487213135,0.6836607456207275,0.42000001668930054,-0.5544543266296387,-3.000000476837158,-1.379290223121643,3.000000476837158,-0.1620112806558609,-0.1579517275094986,-0.152206689119339,-0.1461774855852127,-0.08694237470626831,-0.004942694213241339,0.07816311717033386,0.18346326053142548
0.9,0.09954079240560532,0.0084272101521492,0.0,0.6278330087661743,0.0,0.0,-0.7783480882644653,0.6382465362548828,-0.06341947615146637,0.0,0.0,0.0,-4.856383323669434,0.3749873638153076,0.6875748634338379,0.4200000464916229,0.6096814870834351,3.3077282068916247e-07,-3.291737584731891e-06,-0.7926464080810547,0.0001459206105209887,-0.0002805340336635709,-9.575742296874523e-05,0.0061363885179162025,-0.0009850828209891915,-0.0005968952318653464,0.40921550989151,0.7278517484664917,0.5858089923858643,0.6689359545707703,-0.18239903450012207,0.2899785041809082,0.38769495487213135,0.6836607456207275,0.42000001668930054,-0.5749877691268921,0.26901257038116455,-1.3978288173675537,-2.999999523162842,-0.16400031745433807,-0.15912695229053497,-0.15251807868480682,-0.1452372819185257,-0.0710449367761612,-0.051092036068439484,-0.028299685567617416,0.01696786656975746
0.9166666666666666,0.10708778351545334,0.009164976887404919,0.0,0.6167147755622864,0.0,0.0,-0.7871866822242737,0.3733426034450531,0.09095381200313568,0.0,0.0,0.0,-0.6952869892120361,0.3749873638153076,0.6875748634338379,0.4200000464916229,0.6096813678741455,3.466986129296856e-07,-3.367350927874213e-06,-0.792646586894989,0.0001464889501221478,-0.00028082384960725904,-9.583029896020889e-05,0.006140510551631451,-0.0009781348053365946,-0.0005981634021736681,0.4183879494667053,0.7281272411346436,0.5931360125541687,0.4320080280303955,0.18362614512443542,0.5327682495117188,0.38769495487213135,0.6836607456207275,0.42000001668930054,-0.5495089292526245,2.5673611164093018,-1.359390139579773,3.000000476837158,-0.16324497759342194,-0.15871641039848328,-0.15245474874973297,-0.145206019282341,0.13270698487758636,0.07651102542877197,0.016918739303946495,-0.027764972299337387
