vladlanda/robotic-transformer/data/env_000_episode_0024.csv
sim_time_s,robot_box_x,robot_box_y,robot_box_z,robot_box_quat_w,robot_box_quat_x,robot_box_quat_y,robot_box_quat_z,robot_box_linvel_x,robot_box_linvel_y,robot_box_linvel_z,robot_box_angvel_x,robot_box_angvel_y,robot_box_angvel_z,cube_world_x,cube_world_y,cube_world_z,cube_quat_w,cube_quat_x,cube_quat_y,cube_quat_z,cube_linvel_x,cube_linvel_y,cube_linvel_z,cube_angvel_x,cube_angvel_y,cube_angvel_z,endpoint_world_x,endpoint_world_y,endpoint_world_z,endpoint_linvel_x,endpoint_linvel_y,endpoint_linvel_z,target_cube_world_x,target_cube_world_y,target_cube_world_z,gripper_actual_pos_rad_gp_leftgearjoint,gripper_actual_vel_rad_s_gp_leftgearjoint,gripper_actual_pos_rad_gp_rotatingjoint,gripper_actual_vel_rad_s_gp_rotatingjoint,motor_angle_rad_joint1,motor_angle_rad_joint2,motor_angle_rad_joint3,motor_angle_rad_joint4,motor_speed_rad_s_joint1,motor_speed_rad_s_joint2,motor_speed_rad_s_joint3,motor_speed_rad_s_joint4
0.0,0.0,0.0,0.0,1.0,0.0,0.0,0.0,0.0,0.0,0.0,0.0,0.0,0.0,-0.37401193380355835,0.6658516526222229,0.41999998688697815,1.0,0.0,0.0,0.0,0.0,0.0,0.0,0.0,0.0,0.0,3.42540442943573e-06,-0.005000244826078415,1.313499927520752,0.0,0.0,0.0,0.4155096411705017,0.7246966361999512,0.42000001668930054,-1.5707999467849731,0.0,0.0,0.0,0.0,0.0,0.0,0.0,0.0,0.0,0.0,0.0
0.016666666666666666,0.0028802466113120317,0.0021779616363346577,0.0,0.9998136758804321,0.0,0.0,0.01930464804172516,0.24094133079051971,0.18230986595153809,0.0,0.0,0.0,3.1418161392211914,-0.3740120530128479,0.665851354598999,0.41999998688697815,1.0,3.279964630564791e-06,-8.339746386809566e-07,8.465587342243452e-08,-1.9833529222523794e-05,0.00017983045836444944,-6.132945418357849e-05,0.0009432713268324733,-0.004689474124461412,-0.00031981561915017664,-0.007109364494681358,0.0033868823666125536,1.3159379959106445,-0.8140885829925537,0.9871424436569214,0.18096069991588593,0.4155096411705017,0.7246966361999512,0.42000001668930054,-1.5301095247268677,3.0000014305114746,-0.04584859684109688,-3.0000007152557373,0.0008700340404175222,0.0007966859848238528,0.0007112462189979851,0.000611098192166537,0.11094573140144348,0.0975838154554367,0.08336108922958374,0.0682557225227356
0.03333333333333333,0.008963837288320065,0.0067977034486830235,0.0,0.9998016953468323,0.0,0.0,0.019914837554097176,0.4070511758327484,0.315216600894928,0.0,0.0,0.0,-0.8690834641456604,-0.37401217222213745,0.6658512949943542,0.4200000464916229,1.0,3.3908354453160428e-06,-2.1324485715012997e-06,-3.710144014235084e-08,0.00026357831666246057,0.00026937946677207947,-0.00010509486310184002,-0.0017707672668620944,0.004130808170884848,-0.000135478752781637,-0.0275404192507267,0.026186726987361908,1.316601037979126,-1.5906118154525757,1.6168506145477295,-0.08441802114248276,0.4155096411705017,0.7246966361999512,0.42000001668930054,-1.4800901412963867,3.0000007152557373,-0.09588843584060669,-3.000000476837158,0.0029904290568083525,0.0026527117006480694,0.0022772655356675386,0.0018607552628964186,0.16417965292930603,0.13973724842071533,0.11380027234554291,0.08628381788730621
0.05,0.018471837043762207,0.013894012197852135,0.0,0.9999765753746033,0.0,0.0,-0.006843307986855507,0.6362040638923645,0.472129225730896,0.0,0.0,0.0,-4.074615001678467,-0.37401220202445984,0.665851354598999,0.4200000464916229,1.0,3.7651125239790417e-06,-2.211879063906963e-06,5.622505128144439e-09,0.000265308452071622,0.0002669153327587992,-0.00010440615005791187,-0.001724260626360774,0.004177352879196405,-0.00012949221127200872,-0.05719529464840889,0.0572141632437706,1.3119676113128662,-1.9528419971466064,2.0367298126220703,-0.4525202810764313,0.4155096411705017,0.7246966361999512,0.42000001668930054,-1.4300718307495117,3.000000476837158,-0.14592711627483368,-3.0,0.006011948920786381,0.005172916688024998,0.004261571913957596,0.003273571142926812,0.20711550116539001,0.16678400337696075,0.12452816963195801,0.08027193695306778
0.06666666666666667,0.0307777002453804,0.023378141224384308,0.0,0.9998829960823059,0.0,0.0,-0.015298370271921158,0.7724103927612305,0.6159231662750244,0.0,0.0,0.0,-0.0399826318025589,-0.37401220202445984,0.6658512949943542,0.4200000464916229,0.9999999403953552,3.4066883927152958e-06,-2.285532218593289e-06,4.300976286231162e-07,0.0002670241810847074,0.00026791772688739,-0.00010438147000968456,-0.00174069800414145,0.00421178387477994,-0.00012850729399360716,-0.09451454132795334,0.0901295393705368,1.3011207580566406,-2.381028652191162,2.0873982906341553,-0.8394546508789062,0.4155096411705017,0.7246966361999512,0.42000001668930054,-1.3800454139709473,2.9999988079071045,-0.1479998081922531,2.2901382446289062,0.008734198287129402,0.007184263318777084,0.005521800369024277,0.003742148634046316,0.15144546329975128,0.10142643004655838,0.049270059913396835,-0.005103191360831261
0.08333333333333333,0.04551210254430771,0.03408592566847801,0.0,0.9992790222167969,0.0,0.0,-0.03796626627445221,0.9423004388809204,0.6979345083236694,0.0,0.0,0.0,-3.5707790851593018,-0.37401220202445984,0.6658512949943542,0.4200000464916229,0.9999999403953552,3.626031229941873e-06,-2.3352447442448465e-06,3.032197639640799e-07,0.0002661392209120095,0.0002668500819709152,-0.00010405294597148895,-0.0017282416811212897,0.00419628107920289,-0.00012790791515726596,-0.1292271614074707,0.12897369265556335,1.286963939666748,-1.8232195377349854,2.561290979385376,-0.8534652590751648,0.4155096411705017,0.7246966361999512,0.42000001668930054,-1.3300367593765259,2.999998092651367,-0.18384721875190735,-2.999999761581421,0.009752187877893448,0.0070724100805819035,0.004236625041812658,0.0012409810442477465,0.004879553336650133,-0.08085662126541138,-0.16888085007667542,-0.25915417075157166
0.1,0.05485105141997337,0.04653599113225937,0.0,0.9958906769752502,0.0,0.0,-0.09056378901004791,0.4321494400501251,0.791627049446106,0.0,0.0,0.0,-7.431503772735596,-0.37401220202445984,0.6658512949943542,0.4200000464916229,1.0,3.4220790894323727e-06,-2.3084901386027923e-06,1.7962952369998675e-07,0.00026681559393182397,0.0002680041070561856,-0.00010440824553370476,-0.001743067754432559,0.004207110498100519,-0.0001289140636799857,-0.1603112369775772,0.1743924617767334,1.2689032554626465,-1.8702175617218018,2.894362449645996,-1.2444790601730347,0.4155096411705017,0.7246966361999512,0.42000001668930054,-1.2800188064575195,2.999992609024048,-0.15014579892158508,3.000000476837158,0.00427293824031949,0.0006366880261339247,-0.003202384803444147,-0.007251564413309097,-0.435093492269516,-0.48688772320747375,-0.5408034920692444,-0.5971221923828125
0.11666666666666667,0.058585409075021744,0.06152909994125366,0.0,0.9921324849128723,0.0,0.0,-0.1251925528049469,0.42233484983444214,0.8645992279052734,0.0,0.0,0.0,-2.568959951400757,-0.37401220202445984,0.665851354598999,0.4200000464916229,1.0,3.7115073610038962e-06,-2.3326228983933106e-06,2.57426904681779e-07,0.00026485775015316904,0.0002663534542080015,-0.00010423525236546993,-0.0017181745497509837,0.004170077387243509,-0.0001291574299102649,-0.19746939837932587,0.21715956926345825,1.2455379962921143,-2.313102960586548,2.7207655906677246,-1.3659827709197998,0.4155096411705017,0.7246966361999512,0.42000001668930054,-1.2300277948379517,3.0000007152557373,-0.1819082796573639,-3.0,-0.004017540253698826,-0.008597868494689465,-0.013386722654104233,-0.018396086990833282,-0.09258947521448135,-0.20970605313777924,-0.3224445581436157,-0.43067628145217896
0.13333333333333333,0.06669215857982635,0.0728730633854866,0.0,0.9858500361442566,0.0,0.0,-0.1676296442747116,0.44413498044013977,0.6243618130683899,0.0,0.0,0.0,-6.018718719482422,-0.37401220202445984,0.6658512949943542,0.4200000464916229,0.9999999403953552,3.4247434541612165e-06,-2.301918129887781e-06,1.559943285656118e-07,0.00026707028155215085,0.0002681135665625334,-0.00010444503277540207,-0.0017433665925636888,0.0042120604775846004,-0.00012877194967586547,-0.2331668585538864,0.2682981491088867,1.2201124429702759,-1.9242901802062988,3.455946922302246,-1.7062404155731201,0.4155096411705017,0.7246966361999512,0.42000001668930054,-1.1800103187561035,2.999995708465576,-0.14820177853107452,3.000001907348633,-0.004446812905371189,-0.011202546767890453,-0.01807381585240364,-0.025069907307624817,-0.10069850832223892,-0.22303947806358337,-0.339947909116745,-0.4512995183467865
0.15,0.07199441641569138,0.08033229410648346,0.0,0.9817050099372864,0.0,0.0,-0.19040828943252563,0.2621920108795166,0.37467432022094727,0.0,0.0,0.0,-1.6424150466918945,-0.37401220202445984,0.6658512949943542,0.4200000464916229,1.0,3.713894102475024e-06,-2.207782927143853e-06,-1.690906259455005e-07,0.000263532972894609,0.0002653604024089873,-0.00010421779006719589,-0.0017012703465297818,0.004144108854234219,-0.00012960596359334886,-0.2697213590145111,0.32258033752441406,1.1852009296417236,-2.129940986633301,3.4333040714263916,-2.4665188789367676,0.4155096411705017,0.7246966361999512,0.42000001668930054,-1.1410549879074097,1.7521419525146484,-0.17997288703918457,-2.9999990463256836,-0.006903407163918018,-0.015364255756139755,-0.023845568299293518,-0.03235676884651184,-0.20656761527061462,-0.28701475262641907,-0.3621837794780731,-0.4321904182434082
0.16666666666666666,0.07913347333669662,0.08924058824777603,0.0,0.9744778275489807,0.0,0.0,-0.22448383271694183,0.40743932127952576,0.5687662363052368,0.0,0.0,0.0,-4.8962273597717285,-0.37401220202445984,0.6658512949943542,0.4200000464916229,0.9999999403953552,3.638363523350563e-06,-2.2787546640756773e-06,2.7007297376258066e-07,0.00026682831230573356,0.0002675004070624709,-0.00010410277172923088,-0.0017399663338437676,0.004210250452160835,-0.00012781910481862724,-0.30445313453674316,0.3843177855014801,1.1356801986694336,-1.9605340957641602,3.9159693717956543,-3.3830349445343018,0.4155096411705017,0.7246966361999512,0.42000001668930054,-1.093651294708252,2.999999523162842,-0.14627961814403534,2.9999990463256836,-0.013341658748686314,-0.022497382014989853,-0.03161698952317238,-0.040715523064136505,-0.5780594348907471,-0.584260106086731,-0.5887390971183777,-0.5919137597084045
0.18333333333333332,0.08239772170782089,0.09681018441915512,0.0,0.9594002366065979,0.0,0.0,-0.2820482552051544,0.20833806693553925,0.3770984411239624,0.0,0.0,0.0,-8.218880653381348,-0.37401220202445984,0.6658512949943542,0.4200000464916229,1.0,3.386441903785453e-06,-2.3001909994491143e-06,1.4392985292488447e-07,0.00026674664695747197,0.00026787363458424807,-0.00010437029413878918,-0.0017413290916010737,0.004206034820526838,-0.00012878714187536389,-0.3325952887535095,0.45308032631874084,1.0710216760635376,-1.2743839025497437,4.414887428283691,-4.207489967346191,0.4155096411705017,0.7246966361999512,0.42000001668930054,-1.043645977973938,2.999999761581421,-0.17809903621673584,-2.9999992847442627,-0.026708567515015602,-0.03593432530760765,-0.04464127495884895,-0.05331773683428764,-0.7469982504844666,-0.7816455364227295,-0.7627162337303162,-0.7415937185287476
0.2,0.08849840611219406,0.10484417527914047,0.0,0.9469754099845886,0.0,0.0,-0.32130610942840576,0.4060182571411133,0.5170260667800903,0.0,0.0,0.0,-3.7682878971099854,-0.37401220202445984,0.665851354598999,0.4200000464916229,1.0,3.67552570423868e-06,-2.326474941583001e-06,2.211330638601794e-07,0.0002648457884788513,0.0002663124760147184,-0.00010421779006719589,-0.0017177596455439925,0.004169980529695749,-0.00012909664656035602,-0.3567301332950592,0.5186583995819092,0.9936625361442566,-1.117454171180725,3.864469051361084,-5.050848484039307,0.4155096411705017,0.7246966361999512,0.42000001668930054,-0.9936426877975464,3.00000262260437,-0.22812677919864655,-2.9999983310699463,-0.04154076799750328,-0.05073447898030281,-0.05850037932395935,-0.06624457240104675,-0.9704747200012207,-0.9535656571388245,-0.8775066137313843,-0.803334653377533
0.21666666666666667,0.09182723611593246,0.11467834562063217,0.0,0.9450635313987732,0.0,0.0,-0.32688674330711365,0.10671915858983994,0.6631911396980286,0.0,0.0,0.0,0.282932847738266,-0.37401220202445984,0.6658512949943542,0.4200000464916229,1.0,3.3223188893316546e-06,-2.207966417699936e-06,2.742777382991335e-07,0.0002666293876245618,0.0002674947609193623,-0.00010426202788949013,-0.0017357135657221079,0.004204758442938328,-0.00012833744403906167,-0.3797706961631775,0.5712108612060547,0.9058427810668945,-1.1978563070297241,2.78385066986084,-5.515203475952148,0.4155096411705017,0.7246966361999512,0.42000001668930054,-0.9436329007148743,2.999995708465576,-0.2781570851802826,-3.000000238418579,-0.057938817888498306,-0.0670773908495903,-0.07475101202726364,-0.081361323595047,-0.986638605594635,-0.9878005385398865,-0.9879422783851624,-0.9585064053535461
0.23333333333333334,0.09252157062292099,0.12103548645973206,0.0,0.9383553862571716,0.0,0.0,-0.3456721305847168,-0.005884927697479725,0.2936903238296509,0.0,0.0,0.0,-3.270421028137207,-0.37401220202445984,0.6658512949943542,0.4200000464916229,1.0,3.656558874354232e-06,-2.373421239099116e-06,-4.07681653769032e-07,0.0002661168109625578,0.00026725910720415413,-0.00010423432104289532,-0.0017335852608084679,0.004194697830826044,-0.00012854808301199228,-0.39663082361221313,0.6161327958106995,0.8084282279014587,-0.7596349716186523,2.392948627471924,-6.055654525756836,0.4155096411705017,0.7246966361999512,0.42000001668930054,-0.8936222195625305,2.9999947547912598,-0.32818910479545593,-2.9999983310699463,-0.07382775843143463,-0.08302058279514313,-0.09063338488340378,-0.09669874608516693,-0.9785292744636536,-0.9715384840965271,-0.9521971940994263,-0.9119474291801453
0.25,0.09044664353132248,0.12429319322109222,0.0,0.937724232673645,0.0,0.0,-0.34738051891326904,-0.20535331964492798,0.10672184079885483,0.0,0.0,0.0,0.627997100353241,-0.37401220202445984,0.665851354598999,0.4200000464916229,1.0,3.6305639241618337e-06,-2.242603613922256e-06,1.1206775951677628e-08,0.00026679999427869916,0.0002670604735612869,-0.00010390859097242355,-0.0017342414939776063,0.0042106076143682,-0.00012702932872343808,-0.4084572196006775,0.6451672315597534,0.7064143419265747,-0.53142249584198,1.1738793849945068,-6.135654926300049,0.4155096411705017,0.7246966361999512,0.42000001668930054,-0.843612015247345,2.9999852180480957,-0.3782216012477875,-2.99999737739563,-0.09054439514875412,-0.09967242181301117,-0.10723550617694855,-0.11318536847829819,-0.9849302172660828,-0.9855819940567017,-0.986592173576355,-0.9880203604698181
0.26666666666666666,0.09264141321182251,0.12307055294513702,0.0,0.9321246147155762,0.0,0.0,-0.36213764548301697,0.09556702524423599,-0.12917348742485046,0.0,0.0,0.0,-2.4912967681884766,-0.37401217222213745,0.6658512949943542,0.4200000464916229,0.9999999403953552,3.740145530173322e-06,-2.2362976324075134e-06,4.499700310134358e-07,0.0002647962246555835,0.00026673031970858574,-0.00010454049333930016,-0.0017189658246934414,0.004166740458458662,-0.00013016746379435062,-0.41182947158813477,0.6629688739776611,0.5984604358673096,0.16709960997104645,0.5458495020866394,-6.518889427185059,0.4155096411705017,0.7246966361999512,0.42000001668930054,-0.7936031818389893,3.0000009536743164,-0.4282529950141907,-3.0,-0.10686609894037247,-0.11586853861808777,-0.12331030517816544,-0.1291925460100174,-1.0542534589767456,-1.0408061742782593,-1.030545949935913,-1.022390365600586
0.2833333333333333,0.08998110145330429,0.12103728204965591,0.0,0.9338675737380981,0.0,0.0,-0.3576190173625946,-0.22792987525463104,-0.1782529354095459,0.0,0.0,0.0,1.4527342319488525,-0.37401220202445984,0.6658512949943542,0.4200000464916229,1.0,3.3916744541784283e-06,-2.291099690410192e-06,1.245939671434826e-07,0.0002667730441316962,0.00026789261028170586,-0.0001043747179210186,-0.001741221291013062,0.00420632166787982,-0.00012878607958555222,-0.4065225124359131,0.6670788526535034,0.5032854080200195,0.566744327545166,0.012494627386331558,-5.262109756469727,0.4155096411705017,0.7246966361999512,0.42000001668930054,-0.7436258792877197,3.0000007152557373,-0.4782826602458954,-3.000002145767212,-0.12483608722686768,-0.13353551924228668,-0.14075087010860443,-0.14645642042160034,-1.0128847360610962,-1.0097334384918213,-1.0073232650756836,-1.005397915840149
0.3,0.08298349380493164,0.11702462285757065,0.0,0.9298080801963806,0.0,0.0,-0.36804476380348206,-0.48925840854644775,-0.27083081007003784,0.0,0.0,0.0,-2.2612287998199463,-0.37401220202445984,0.665851354598999,0.4200000464916229,1.0,3.680724148580339e-06,-2.319047325727297e-06,2.0107752618514496e-07,0.0002647917135618627,0.00026625802274793386,-0.00010421290062367916,-0.0017169015482068062,0.0041690124198794365,-0.00012909753422718495,-0.39031901955604553,0.6647160053253174,0.41764122247695923,1.3556731939315796,-0.287975013256073,-4.906710624694824,0.4155096411705017,0.7246966361999512,0.42000001668930054,-0.6936187148094177,3.0000014305114746,-0.5283107757568359,-2.9999990463256836,-0.1426917016506195,-0.15110285580158234,-0.15809781849384308,-0.16362766921520233,-1.0052204132080078,-1.0039616823196411,-1.0029938220977783,-1.0022157430648804
0.31666666666666665,0.07546210289001465,0.11037389189004898,0.0,0.9317283630371094,0.0,0.0,-0.3631560206413269,-0.4542316198348999,-0.4506017863750458,0.0,0.0,0.0,1.5477735996246338,-0.37388888001441956,0.6648619174957275,0.4204171299934387,0.999882161617279,0.010503960773348808,-7.849764369893819e-05,-0.011187638156116009,0.009807242080569267,-0.08074374496936798,0.027043066918849945,1.3654674291610718,-0.011546259745955467,-1.6527966260910034,-0.3904508352279663,0.667279839515686,0.4266010522842407,-0.08304191380739212,0.15457308292388916,-0.17711970210075378,0.4155096411705017,0.7246966361999512,0.42000001668930054,-0.6436571478843689,2.9999840259552,-0.5787583589553833,-3.0000016689300537,-0.14797593653202057,-0.15712445974349976,-0.16340066492557526,-0.1677911877632141,-0.3442029058933258,-0.3640059232711792,-0.3137952983379364,-0.24697768688201904
0.3333333333333333,0.06623896956443787,0.10136386752128601,0.0,0.927905797958374,0.0,0.0,-0.37281477451324463,-0.5978996157646179,-0.5787803530693054,0.0,0.0,0.0,-2.1811652183532715,-0.37374141812324524,0.664076030254364,0.4200018346309662,0.9998262524604797,0.0002409359731245786,-6.327614391921088e-05,-0.018636640161275864,0.007616793271154165,-0.018879855051636696,-0.007821647450327873,-0.4020195007324219,0.12518450617790222,-0.4528939723968506,-0.3886764645576477,0.6689069271087646,0.4238417148590088,0.25906693935394287,0.15543198585510254,-0.1537526249885559,0.4155096411705017,0.7246966361999512,0.42000001668930054,-0.5936518907546997,2.999983549118042,-0.6288184523582458,-2.99959397315979,-0.15467987954616547,-0.1635138988494873,-0.16854612529277802,-0.17147785425186157,-0.43487048149108887,-0.381070077419281,-0.28587326407432556,-0.1827191710472107
0.35,0.05481001362204552,0.09018918871879578,0.0,0.9300296306610107,0.0,0.0,-0.36748459935188293,-0.7433127760887146,-0.7067877650260925,0.0,0.0,0.0,1.5624979734420776,-0.37172919511795044,0.6677765846252441,0.419999897480011,0.996855616569519,2.079425030387938e-05,-2.134479018423008e-06,-0.07923845201730728,0.1854633241891861,0.3379410207271576,-0.00026575865922495723,-0.013618343509733677,0.008043547160923481,-11.212149620056152,-0.38322073221206665,0.6739773750305176,0.4215346574783325,0.39783403277397156,0.40709197521209717,-0.11182479560375214,0.4155096411705017,0.7246966361999512,0.42000001668930054,-0.5436469316482544,2.9999945163726807,-0.6788622736930847,-2.999983310699463,-0.16251574456691742,-0.1698397547006607,-0.1728421002626419,-0.173640176653862,-0.47238171100616455,-0.3623020052909851,-0.22899463772773743,-0.08975331485271454
0.36666666666666664,0.046428803354501724,0.07640010863542557,0.0,0.9263044595718384,0.0,0.0,-0.3767758011817932,-0.41761529445648193,-0.8740869760513306,0.0,0.0,0.0,-2.11336088180542,-0.3681181073188782,0.6738792657852173,0.4200003147125244,0.9853864908218384,3.2694981655367883e-07,7.280994395841844e-06,-0.1703329235315323,0.25138357281684875,0.4035595953464508,-0.00030998457805253565,-0.0010174427879974246,-0.005473177880048752,-12.606086730957031,-0.37438830733299255,0.6794610023498535,0.42037224769592285,0.707300066947937,0.37954720854759216,-0.05329231545329094,0.4155096411705017,0.7246966361999512,0.42000001668930054,-0.4936424791812897,2.999882459640503,-0.7289161086082458,-2.999894618988037,-0.17038755118846893,-0.17530429363250732,-0.17559374868869781,-0.17355717718601227,-0.4403807520866394,-0.27248790860176086,-0.09284137189388275,0.09324518591165543
0.3833333333333333,0.03565431013703346,0.06110645458102226,0.0,0.9104223847389221,0.0,0.0,-0.4136798679828644,-0.7265805602073669,-0.9455304741859436,0.0,0.0,0.0,-5.762280464172363,-0.3567957878112793,0.6875192523002625,0.42054805159568787,0.9787229895591736,0.005337306298315525,-0.007839285768568516,-0.2049664407968521,0.9905223846435547,1.1162796020507812,0.06731817871332169,-1.899019718170166,-3.245480537414551,-5.481671333312988,-0.3596533536911011,0.6896265745162964,0.4212840795516968,1.121264100074768,0.9465475082397461,0.14241066575050354,0.4155096411705017,0.7246966361999512,0.42000001668930054,-0.4436383545398712,2.9999992847442627,-0.7789728045463562,-3.0000035762786865,-0.17920537292957306,-0.18101336061954498,-0.17808431386947632,-0.1727290004491806,-0.4724511206150055,-0.2942410111427307,-0.11394519358873367,0.07256872206926346
0.4,0.028090139850974083,0.042921148240566254,0.0,0.880200207233429,0.0,0.0,-0.4746025800704956,-0.4089199900627136,-1.1330866813659668,0.0,0.0,0.0,-8.907597541809082,-0.32339194416999817,0.7117747068405151,0.42507219314575195,0.964531660079956,-0.0060721104964613914,-0.041133441030979156,-0.26067158579826355,3.0067567825317383,1.6093629598617554,0.15273188054561615,32.9894905090332,-16.61386489868164,6.058837413787842,-0.3261200785636902,0.713806688785553,0.42489516735076904,2.960665702819824,2.0028319358825684,0.49577122926712036,0.4155096411705017,0.7246966361999512,0.42000001668930054,-0.397370845079422,2.0039548873901367,-0.8289991021156311,-3.0000011920928955,-0.18743263185024261,-0.18579214811325073,-0.17947711050510406,-0.17068926990032196,-0.5899528861045837,-0.3440123498439789,-0.10872295498847961,0.12402692437171936
0.4166666666666667,0.022910229861736298,0.029361048713326454,0.0,0.8329474925994873,0.0,0.0,-0.5533520579338074,-0.2267797440290451,-0.8355715870857239,0.0,0.0,0.0,-11.680900573730469,-0.2477879822254181,0.7492180466651917,0.4309103786945343,0.9417638182640076,0.06085825711488724,-0.08657818287611008,-0.31918853521347046,5.936367988586426,2.138916254043579,0.42667725682258606,14.427116394042969,-14.226402282714844,14.972768783569336,-0.25020337104797363,0.7516404390335083,0.43109387159347534,5.645279407501221,2.779223918914795,0.44485169649124146,0.4155096411705017,0.7246966361999512,0.42000001668930054,-0.37825900316238403,0.9043283462524414,-0.7921570539474487,2.997040271759033,-0.20190180838108063,-0.1967262625694275,-0.1853884607553482,-0.1719643920660019,-0.5531999468803406,-0.5289679765701294,-0.2933107018470764,-0.08302158862352371
0.43333333333333335,0.021631905809044838,0.018094675615429878,0.0,0.7938030362129211,0.0,0.0,-0.6081748604774475,-0.022568469867110252,-0.6150838136672974,0.0,0.0,0.0,-6.930551528930664,-0.15322065353393555,0.7906548380851746,0.4405653476715088,0.8940319418907166,0.09806546568870544,-0.11588900536298752,-0.4214969873428345,5.945611953735352,1.6969600915908813,0.6540023684501648,14.709033966064453,-8.173039436340332,14.533918380737305,-0.15621954202651978,0.7944201231002808,0.44018107652664185,5.810691833496094,2.195695161819458,0.6085400581359863,0.4155096411705017,0.7246966361999512,0.42000001668930054,-0.36354002356529236,0.9158658385276794,-0.8192005157470703,-3.0000030994415283,-0.21131815016269684,-0.20538367331027985,-0.19073399901390076,-0.17452089488506317,-0.5341417789459229,-0.46996819972991943,-0.29768064618110657,-0.16003422439098358
0.45,0.023063043132424355,0.010712618008255959,0.0,0.7752705812454224,0.0,0.0,-0.631629228591919,0.14827026426792145,-0.380654513835907,0.0,0.0,0.0,-2.4641244411468506,-0.05642849951982498,0.8186404705047607,0.45100346207618713,0.8304698467254639,0.11412914097309113,-0.12766771018505096,-0.5300899147987366,5.740954875946045,0.5239074230194092,0.4653136730194092,-2.448956251144409,-8.611660957336426,18.061948776245117,-0.05996255949139595,0.8234562873840332,0.4497995674610138,5.945979595184326,1.324989676475525,0.7557289600372314,0.4155096411705017,0.7246966361999512,0.42000001668930054,-0.34614768624305725,1.0331592559814453,-0.869224488735199,-3.0000033378601074,-0.22108067572116852,-0.21348336338996887,-0.19604013860225677,-0.1776452660560608,-0.5575771331787109,-0.4442143738269806,-0.29620635509490967,-0.18457888066768646
0.4666666666666667,0.022497225552797318,0.008111492730677128,0.0,0.7493649125099182,0.0,0.0,-0.6621572375297546,-0.028028592467308044,-0.12540403008460999,0.0,0.0,0.0,-5.525069713592529,0.03784656524658203,0.8295021653175354,0.45953887701034546,0.7710692882537842,0.11996804177761078,-0.12767095863819122,-0.6121764183044434,5.36785888671875,-0.5273312330245972,0.3525661826133728,-9.575017929077148,-13.913999557495117,21.49928092956543,0.034587010741233826,0.8354148864746094,0.45824992656707764,5.732212066650391,0.28083303570747375,0.5659586191177368,0.4155096411705017,0.7246966361999512,0.42000001668930054,-0.329484224319458,0.8919676542282104,-0.9192500710487366,-3.0000016689300537,-0.23155750334262848,-0.22172731161117554,-0.201838880777359,-0.18149179220199585,-0.5376855731010437,-0.40921908617019653,-0.284689337015152,-0.18123555183410645
0.48333333333333334,0.024756668135523796,0.004407119937241077,0.0,0.7359325289726257,0.0,0.0,-0.6770548820495605,0.19027495384216309,-0.24247430264949799,0.0,0.0,0.0,-1.362439513206482,0.12584933638572693,0.8270866870880127,0.4639647305011749,0.7251458168029785,0.1071878969669342,-0.12256023287773132,-0.6690688729286194,4.816257953643799,-1.2495487928390503,0.04700768366456032,-8.934039115905762,-6.076765537261963,16.983997344970703,0.12388578802347183,0.8330201506614685,0.463144451379776,5.198761940002441,-0.5584715604782104,0.2535756528377533,0.4155096411705017,0.7246966361999512,0.42000001668930054,-0.3155915439128876,0.7122072577476501,-0.9692743420600891,-3.00000262260437,-0.23747169971466064,-0.22567395865917206,-0.20425233244895935,-0.1827082335948944,-0.26762527227401733,-0.14823345839977264,-0.07417340576648712,-0.020497608929872513
0.5,0.02515004761517048,0.00379778235219419,0.0,0.7148321270942688,0.0,0.0,-0.6992960572242737,-0.016368135809898376,0.02313057705760002,0.0,0.0,0.0,-4.4967732429504395,0.20574849843978882,0.8135520219802856,0.46237099170684814,0.6591919660568237,0.08816123008728027,-0.11972512304782867,-0.7371291518211365,4.174160003662109,-1.4336912631988525,-0.3091241419315338,-10.543150901794434,-4.383024215698242,16.287565231323242,0.20304301381111145,0.820612370967865,0.4621138870716095,4.600537300109863,-0.976385235786438,-0.14365863800048828,0.4155096411705017,0.7246966361999512,0.42000001668930054,-0.3027397096157074,0.7264949083328247,-1.0192975997924805,-3.000001907348633,-0.24000023305416107,-0.2282315343618393,-0.20623940229415894,-0.18437567353248596,-0.02548874542117119,-0.09621484577655792,-0.09827468544244766,-0.11179974675178528
0.5166666666666666,0.02748119831085205,3.7188776332186535e-05,0.0,0.7058663964271545,0.0,0.0,-0.7083449959754944,0.11388983577489853,-0.19032807648181915,0.0,0.0,0.0,-0.5847975611686707,0.2749860882759094,0.7935604453086853,0.45269834995269775,0.5818856954574585,0.0074402340687811375,-0.15887568891048431,-0.7975664138793945,3.5709221363067627,-1.5317578315734863,-0.482025682926178,-2.616232395172119,11.716716766357422,-2.177487373352051,0.27111321687698364,0.8018866181373596,0.45579105615615845,3.651923656463623,-1.4299273490905762,-0.5950216054916382,0.4155096411705017,0.7246966361999512,0.42000001668930054,-0.28919366002082825,0.833890974521637,-1.069319725036621,-2.9991657733917236,-0.2364276796579361,-0.22601988911628723,-0.20481881499290466,-0.18390360474586487,0.07968106865882874,0.05547032132744789,0.028956854715943336,-0.014196435920894146
0.5333333333333333,0.03148780018091202,0.0003598735493142158,0.0,0.6880861520767212,0.0,0.0,-0.7256290316581726,0.3154810667037964,0.0422256775200367,0.0,0.0,0.0,-3.7659595012664795,0.3295038342475891,0.7718438506126404,0.4378317594528198,0.5550154447555542,-0.022472135722637177,-0.14515142142772675,-0.8187698125839233,2.8325655460357666,-1.30234956741333,-1.1422910690307617,-8.509374618530273,-3.2736613750457764,5.562386512756348,0.32645389437675476,0.7805612087249756,0.44124269485473633,3.103821277618408,-1.2482811212539673,-1.026422381401062,0.4155096411705017,0.7246966361999512,0.42000001668930054,-0.2739526033401489,1.0899999141693115,-1.1193418502807617,-3.000000238418579,-0.2342449575662613,-0.22480645775794983,-0.20492669939994812,-0.18547439575195312,0.27647486329078674,0.1786653697490692,0.043935831636190414,-0.09186650812625885
0.55,0.038176342844963074,0.0002910497132688761,0.0,0.6836519837379456,0.0,0.0,-0.7298081517219543,0.4353991150856018,-0.026488441973924637,0.0,0.0,0.0,0.22537419199943542,0.3694681227207184,0.7538183331489563,0.425454705953598,0.517591655254364,-0.04450370743870735,-0.0940755307674408,-0.8492749333381653,1.688236951828003,-0.80253005027771,0.2907717525959015,-8.27573299407959,-30.31955909729004,22.444442749023438,0.3666723370552063,0.7606541514396667,0.4280511736869812,1.5881211757659912,-0.9660921096801758,-0.1824876219034195,0.4155096411705017,0.7246966361999512,0.42000001668930054,-0.25873151421546936,0.7046205401420593,-1.169371485710144,-3.0021448135375977,-0.2305288016796112,-0.2223261147737503,-0.20459137856960297,-0.18729037046432495,0.26033851504325867,0.18388903141021729,0.04228797182440758,-0.09497138112783432
0.5666666666666667,0.042473021894693375,0.0018995024729520082,0.0,0.6700146794319153,0.0,0.0,-0.7423478364944458,0.198045551776886,0.15574482083320618,0.0,0.0,0.0,-3.1137030124664307,0.3914526104927063,0.7431715726852417,0.42304548621177673,0.523760199546814,-0.05785563960671425,-0.044095057994127274,-0.8487541675567627,1.0711511373519897,-0.4939126670360565,-0.05216030031442642,0.8886222243309021,-4.933210372924805,8.943886756896973,0.3889485001564026,0.7492682337760925,0.4254245162010193,0.9573535919189453,-0.48227035999298096,-0.004046879708766937,0.4155096411705017,0.7246966361999512,0.42000001668930054,-0.24791711568832397,0.6027941107749939,-1.2193931341171265,-3.0000085830688477,-0.22456178069114685,-0.21820802986621857,-0.20342642068862915,-0.18884827196598053,0.44187772274017334,0.31473931670188904,0.11781411617994308,-0.06062012538313866
0.5833333333333334,0.04716753587126732,0.0011170640354976058,0.0,0.6695078015327454,0.0,0.0,-0.742805004119873,0.31184977293014526,-0.10345647484064102,0.0,0.0,0.0,0.8292372822761536,0.40300047397613525,0.7347594499588013,0.42301636934280396,0.5257719159126282,-0.054806679487228394,0.009794047102332115,-0.8488016128540039,0.07695841044187546,-0.8909558653831482,0.07469220459461212,-15.437085151672363,-1.5834028720855713,14.194786071777344,0.3994983434677124,0.7407124042510986,0.4243784248828888,0.2421186864376068,-0.297936350107193,0.3871006369590759,0.4155096411705017,0.7246966361999512,0.42000001668930054,-0.2342190444469452,0.6335726976394653,-1.269396185874939,-2.998274326324463,-0.21774102747440338,-0.21297340095043182,-0.2010606825351715,-0.1891041249036789,0.3798564076423645,0.3058832287788391,0.15262514352798462,0.013972354121506214
0.6,0.0541706457734108,0.0032666546758264303,0.0,0.6584131717681885,0.0,0.0,-0.7526566982269287,0.44743746519088745,0.14858348667621613,0.0,0.0,0.0,-2.662564754486084,0.4060954749584198,0.7309824228286743,0.4220689535140991,0.5490592122077942,-0.039324354380369186,-0.0037795754615217447,-0.8348492980003357,0.08013587445020676,-0.3468898832798004,-0.057751115411520004,-5.423001289367676,-4.151381492614746,4.757664680480957,0.40230828523635864,0.7369187474250793,0.4224979877471924,0.1170445904135704,0.01379873976111412,0.05738459527492523,0.4155096411705017,0.7246966361999512,0.42000001668930054,-0.2532336115837097,-1.9573490619659424,-1.231352686882019,2.946784019470215,-0.21111667156219482,-0.2080451250076294,-0.1991063952445984,-0.18982373178005219,0.48810020089149475,0.3655318319797516,0.17203247547149658,0.0015719274524599314
0.6166666666666667,0.06302261352539062,0.006470510736107826,0.0,0.6599361300468445,0.0,0.0,-0.7513217329978943,0.5647093057632446,0.27928853034973145,0.0,0.0,0.0,1.158286213874817,0.4070645868778229,0.7259376645088196,0.42028704285621643,0.5730432868003845,-0.004518914967775345,-0.004119508899748325,-0.8195022344589233,0.019127946346998215,-0.25354546308517456,-0.10935375094413757,5.648202896118164,-2.546750783920288,1.5399459600448608,0.40299713611602783,0.7369080781936646,0.4237973690032959,-0.02769364044070244,0.01779220812022686,0.18831583857536316,0.4155096411705017,0.7246966361999512,0.42000001668930054,-0.3019466996192932,-2.9999966621398926,-1.2528051137924194,-2.9995322227478027,-0.2023811787366867,-0.20144256949424744,-0.19574716687202454,-0.1893061399459839,0.536989152431488,0.406672865152359,0.2131323665380478,0.04348326474428177
0.6333333333333333,0.07272247225046158,0.006364332512021065,0.0,0.6813380718231201,0.0,0.0,-0.7319688200950623,0.6131358742713928,-0.03092248924076557,0.0,0.0,0.0,4.535035133361816,0.40682879090309143,0.7237323522567749,0.42004236578941345,0.5691975355148315,0.0006063323235139251,-0.0008903586422093213,-0.8222000002861023,-0.0780697837471962,-0.06436187773942947,0.013109242543578148,-0.22109301388263702,-0.6170727014541626,-4.0541815757751465,0.4016544818878174,0.7376537322998047,0.427356481552124,-0.18595141172409058,0.008921399712562561,0.23309721052646637,0.4155096411705017,0.7246966361999512,0.42000001668930054,-0.35194075107574463,-2.999997854232788,-1.3027777671813965,-2.999274253845215,-0.19134919345378876,-0.1924414485692978,-0.1897275149822235,-0.18585814535617828,0.5053198933601379,0.44001054763793945,0.3198812007904053,0.21934939920902252
0.65,0.08412856608629227,0.0031147717963904142,0.0,0.690335214138031,0.0,0.0,-0.7234896421432495,0.7136884927749634,-0.25143033266067505,0.0,0.0,0.0,0.4559811055660248,0.4059344530105591,0.7231974601745605,0.42000001668930054,0.5544301867485046,-1.6487681477883598e-06,-5.114338819112163e-07,-0.8322301506996155,-0.04185399040579796,-0.0169034693390131,-5.578645505011082e-05,-0.00025939472834579647,-0.0010204864665865898,-1.6241496801376343,0.4005930423736572,0.7394849061965942,0.4320862293243408,-0.05644194781780243,0.10854198038578033,0.3118128180503845,0.4155096411705017,0.7246966361999512,0.42000001668930054,-0.4019588232040405,-2.9990806579589844,-1.3527512550354004,-2.9999775886535645,-0.18411950767040253,-0.1855902224779129,-0.1840011030435562,-0.18089663982391357,0.4151216447353363,0.4227026104927063,0.39282217621803284,0.38478565216064453
0.6666666666666666,0.09715141355991364,-0.003441483248025179,0.0,0.677304744720459,0.0,0.0,-0.7357025742530823,0.8138473033905029,-0.45884978771209717,0.0,0.0,0.0,-3.0444633960723877,0.40580880641937256,0.7231455445289612,0.4200000762939453,0.5524563789367676,1.6996755221043713e-05,4.171958607912529e-06,-0.833541750907898,0.0008307168609462678,0.0005808932473883033,-0.0006474078400060534,-0.005055136512964964,-0.00018759752856567502,-0.0015148399397730827,0.4022376537322998,0.7429416179656982,0.44306766986846924,0.24772828817367554,0.2476063072681427,1.0978776216506958,0.4155096411705017,0.7246966361999512,0.42000001668930054,-0.45197251439094543,-2.999980926513672,-1.4027695655822754,-2.999999523162842,-0.1794528216123581,-0.18039992451667786,-0.17881834506988525,-0.17538806796073914,0.20733624696731567,0.2557699382305145,0.2766711711883545,0.315334290266037
0.6833333333333333,0.11396992951631546,-0.004343017935752869,0.0,0.64180988073349,0.0,0.0,-0.7668638229370117,1.0871500968933105,0.0807412639260292,0.0,0.0,0.0,-6.69647216796875,0.40581023693084717,0.7231468558311462,0.4200000464916229,0.552455723285675,-1.1435805902237917e-07,-2.8816186841140734e-06,-0.8335421681404114,5.4909927712287754e-05,-0.0002537633990868926,-7.698382250964642e-05,0.00654043210670352,-0.001870380132459104,-0.0007101857918314636,0.415046364068985,0.7418056726455688,0.46793651580810547,1.3830409049987793,-0.33725300431251526,1.9905649423599243,0.4155096411705017,0.7246966361999512,0.42000001668930054,-0.5019855499267578,-2.9997642040252686,-1.4527878761291504,-2.9999682903289795,-0.18472254276275635,-0.18318577110767365,-0.1796153336763382,-0.1740892380475998,-0.5014875531196594,-0.3145136535167694,-0.1554141342639923,0.005028523970395327
0.7,0.1268969178199768,-0.0015928351785987616,0.0,0.619255006313324,0.0,0.0,-0.7851899266242981,0.6768792271614075,0.021292636170983315,0.0,0.0,0.0,-2.252066135406494,0.4058102071285248,0.7231468558311462,0.4200000464916229,0.5524555444717407,2.882687226701819e-07,-2.494786031093099e-06,-0.8335423469543457,5.49360629520379e-05,-0.0002528329787310213,-7.959152571856976e-05,0.006484036333858967,-0.0019474244909361005,-0.0007158681401051581,0.4359309673309326,0.7402080297470093,0.5014703273773193,1.2267183065414429,0.11158393323421478,1.992290735244751,0.4155096411705017,0.7246966361999512,0.42000001668930054,-0.524590790271759,0.0352320522069931,-1.5028061866760254,-2.999999761581421,-0.1894564926624298,-0.18601876497268677,-0.1809539496898651,-0.17392490804195404,0.08540493249893188,0.08919569104909897,0.07641463726758957,0.06929485499858856
0.7166666666666667,0.13469305634498596,0.0005147887277416885,0.0,0.6231426000595093,0.0,0.0,-0.7821082472801208,0.3928002417087555,0.17497964203357697,0.0,0.0,0.0,1.4793291091918945,0.4058102071285248,0.7231468558311462,0.4200000464916229,0.5524558424949646,2.1780384429348487e-07,-2.822062924678903e-06,-0.8335421085357666,5.1536284445319325e-05,-0.00025174178881570697,-7.879268378019333e-05,0.006475469097495079,-0.0019788166973739862,-0.000706323713529855,0.45454394817352295,0.7434353828430176,0.5278123617172241,0.9048123359680176,0.22633050382137299,1.2626398801803589,0.4155096411705017,0.7246966361999512,0.42000001668930054,-0.5042284727096558,2.200674533843994,-1.4640690088272095,3.0000007152557373,-0.18646140396595,-0.1832083761692047,-0.17856265604496002,-0.17189984023571014,0.2532030940055847,0.2331959754228592,0.199343740940094,0.1647764891386032
0.7333333333333333,0.13822075724601746,-0.0014320414047688246,0.0,0.6156563758850098,0.0,0.0,-0.7880147695541382,0.18785925209522247,-0.16399361193180084,0.0,0.0,0.0,-2.0300405025482178,0.4058102071285248,0.7231468558311462,0.4200000464916229,0.5524556636810303,2.8293931109146797e-07,-2.387290351180127e-06,-0.8335422873497009,5.3137624490773305e-05,-0.00025300850393250585,-7.918127812445164e-05,0.006498599890619516,-0.0019681416451931,-0.0007123025716282427,0.462302029132843,0.7475953102111816,0.5431414842605591,0.021080896258354187,0.16169390082359314,0.7229628562927246,0.4155096411705017,0.7246966361999512,0.42000001668930054,-0.4823286235332489,0.5529741644859314,-1.4140163660049438,3.000000238418579,-0.18003453314304352,-0.1773785799741745,-0.17356131970882416,-0.1677979826927185,0.28349772095680237,0.2749178111553192,0.249082550406456,0.21150612831115723
0.75,0.13866160809993744,0.0020513595081865788,0.0,0.6210018396377563,0.0,0.0,-0.7838090658187866,-0.02644546888768673,0.34302204847335815,0.0,0.0,0.0,1.702844262123108,0.4058102071285248,0.7231468558311462,0.4200000464916229,0.5524555444717407,1.3997170356105926e-07,-2.5281628950324375e-06,-0.8335422873497009,5.0707498303381726e-05,-0.00025288775213994086,-7.866416126489639e-05,0.006509104277938604,-0.001995279686525464,-0.0007068231352604926,0.4611237049102783,0.7482487559318542,0.5517696142196655,-0.14350616931915283,0.03678940609097481,0.34615686535835266,0.4155096411705017,0.7246966361999512,0.42000001668930054,-0.46145737171173096,1.8237186670303345,-1.4318568706512451,-3.000000238418579,-0.1806785762310028,-0.17705129086971283,-0.17265231907367706,-0.1666838675737381,-0.08526904135942459,-0.02295948937535286,0.015370840206742287,0.028014658018946648
0.7666666666666666,0.13855278491973877,0.0015953738475218415,0.0,0.6144071817398071,0.0,0.0,-0.7889890670776367,-0.019947895780205727,-0.13923630118370056,0.0,0.0,0.0,-1.9468233585357666,0.4058102071285248,0.723146915435791,0.4200000464916229,0.5524558424949646,2.4543879817429115e-07,-2.642225581439561e-06,-0.8335421681404114,5.141262226970866e-05,-0.0002546139294281602,-7.884902879595757e-05,0.006549707613885403,-0.001996238948777318,-0.0007124298717826605,0.45376497507095337,0.747979462146759,0.550987958908081,-0.7378658652305603,-0.09972744435071945,-0.23514138162136078,0.4155096411705017,0.7246966361999512,0.42000001668930054,-0.46308377385139465,-1.7112483978271484,-1.3933229446411133,2.999999761581421,-0.17861086130142212,-0.1746155321598053,-0.1701626479625702,-0.16450339555740356,0.18626879155635834,0.19951635599136353,0.19563288986682892,0.1701769232749939
0.7833333333333333,0.14044837653636932,0.004008041229099035,0.0,0.6188434958457947,0.0,0.0,-0.7855142951011658,0.08141367137432098,0.10667511820793152,0.0,0.0,0.0,1.1844162940979004,0.4058102071285248,0.7231468558311462,0.4200000464916229,0.552455723285675,2.839191211023717e-07,-2.5322929104731884e-06,-0.8335422277450562,5.187320857658051e-05,-0.000254584796493873,-7.894914597272873e-05,0.0065471758134663105,-0.0019903548527508974,-0.0007129962905310094,0.4458787739276886,0.7467595338821411,0.5459139943122864,-0.1739824414253235,0.12559127807617188,-0.36142033338546753,0.4155096411705017,0.7246966361999512,0.42000001668930054,-0.47548240423202515,0.07894690334796906,-1.4115718603134155,-3.0,-0.17757487297058105,-0.17324315011501312,-0.1686410903930664,-0.1631285697221756,0.3079749345779419,0.25729259848594666,0.20813477039337158,0.1539759784936905
0.8,0.14314448833465576,0.003442108863964677,0.0,0.61175537109375,0.0,0.0,-0.7910469770431519,0.20369355380535126,-0.08119245618581772,0.0,0.0,0.0,-2.0522561073303223,0.40581023693084717,0.7231468558311462,0.4200000464916229,0.5524553656578064,4.6197945380299643e-07,-2.629984010127373e-06,-0.8335424661636353,5.4607531637884676e-05,-0.00025314331287518144,-7.94737134128809e-05,0.006494318135082722,-0.0019513033330440521,-0.0007159799570217729,0.44446003437042236,0.745959997177124,0.5376147627830505,0.04007348418235779,-0.1762045919895172,-0.4700698256492615,0.4155096411705017,0.7246966361999512,0.42000001668930054,-0.5107526779174805,-3.000001907348633,-1.3730953931808472,3.0,-0.1744968593120575,-0.17053353786468506,-0.16620348393917084,-0.16100409626960754,0.1142166331410408,0.11371408402919769,0.12158079445362091,0.12854868173599243
0.8166666666666667,0.14822174608707428,0.005143999587744474,0.0,0.6132820844650269,0.0,0.0,-0.7898640036582947,0.32834261655807495,0.16879457235336304,0.0,0.0,0.0,1.5353014469146729,0.4058102071285248,0.7231468558311462,0.4200000464916229,0.5524556040763855,2.855465766060661e-07,-2.4423059130640468e-06,-0.8335422277450562,5.4593700042460114e-05,-0.0002529039338696748,-7.951655425131321e-05,0.006487720180302858,-0.0019517270848155022,-0.0007152602192945778,0.44740068912506104,0.7435262203216553,0.5352970361709595,0.29963308572769165,-0.09216947108507156,0.2209254801273346,0.4155096411705017,0.7246966361999512,0.42000001668930054,-0.5607689023017883,-2.9999988079071045,-1.3917357921600342,-2.9999990463256836,-0.1737716645002365,-0.16983944177627563,-0.1652960330247879,-0.15980270504951477,0.07209471613168716,0.056230079382658005,0.06032251939177513,0.07465898245573044
0.8333333333333334,0.15480966866016388,0.003969619050621986,0.0,0.6056181788444519,0.0,0.0,-0.7957553863525391,0.4300248920917511,-0.09901741147041321,0.0,0.0,0.0,-2.0872879028320312,0.40581023693084717,0.7231468558311462,0.4200000464916229,0.5524554252624512,1.4509832624298724e-07,-2.583429022706696e-06,-0.8335423469543457,5.2307390433270484e-05,-0.0002530019264668226,-7.900153286755085e-05,0.006503297481685877,-0.0019773340318351984,-0.0007105116383172572,0.4567650556564331,0.7408547401428223,0.5357945561408997,0.7662218809127808,-0.3128604590892792,0.011837322264909744,0.4155096411705017,0.7246966361999512,0.42000001668930054,-0.6107757687568665,-2.9999964237213135,-1.4417541027069092,-2.999999523162842,-0.1710384637117386,-0.16739459335803986,-0.16273829340934753,-0.15688969194889069,0.06590341776609421,0.08638306707143784,0.13022589683532715,0.18737220764160156
0.85,0.16393710672855377,0.004748282488435507,0.0,0.5752971172332764,0.0,0.0,-0.8179445266723633,0.5804628133773804,0.1251102089881897,0.0,0.0,0.0,-5.371576309204102,0.40581023693084717,0.7231468558311462,0.4200000464916229,0.5524556040763855,1.509610001448891e-07,-2.557826292104437e-06,-0.8335423469543457,5.239461097517051e-05,-0.00025261749397031963,-7.907138206064701e-05,0.006492224987596273,-0.0019761675503104925,-0.0007100430666469038,0.4715774953365326,0.7345454096794128,0.5389112234115601,1.0345524549484253,-0.366333931684494,0.4846368432044983,0.4155096411705017,0.7246966361999512,0.42000001668930054,-0.6576014161109924,-2.614147663116455,-1.4917724132537842,-3.0,-0.17093323171138763,-0.16718348860740662,-0.16205397248268127,-0.15551982820034027,0.049514900892972946,0.028136709704995155,0.02849981002509594,0.04243304580450058
0.8666666666666667,0.17016945779323578,0.00820951722562313,0.0,0.5601816177368164,0.0,0.0,-0.8283697962760925,0.292989045381546,0.24380026757717133,0.0,0.0,0.0,-1.1623281240463257,0.4058102071285248,0.7231468558311462,0.4200000464916229,0.5524555444717407,2.973305015530059e-07,-3.0008093290234683e-06,-0.8335423469543457,5.410925950855017e-05,-0.00024965227930806577,-7.935171015560627e-05,0.006406883709132671,-0.001939877518452704,-0.0007071442087180912,0.4850912094116211,0.7329585552215576,0.5470972061157227,0.5515463948249817,0.07526040822267532,0.4709809422492981,0.4155096411705017,0.7246966361999512,0.42000001668930054,-0.6691447496414185,0.9310047030448914,-1.5417907238006592,-2.9999990463256836,-0.16800199449062347,-0.16509968042373657,-0.16053111851215363,-0.15438488125801086,0.24438951909542084,0.1766897588968277,0.12019255757331848,0.06949376314878464
