vladlanda/robotic-transformer/data/env_000_episode_0225.csv
sim_time_s,robot_box_x,robot_box_y,robot_box_z,robot_box_quat_w,robot_box_quat_x,robot_box_quat_y,robot_box_quat_z,robot_box_linvel_x,robot_box_linvel_y,robot_box_linvel_z,robot_box_angvel_x,robot_box_angvel_y,robot_box_angvel_z,cube_world_x,cube_world_y,cube_world_z,cube_quat_w,cube_quat_x,cube_quat_y,cube_quat_z,cube_linvel_x,cube_linvel_y,cube_linvel_z,cube_angvel_x,cube_angvel_y,cube_angvel_z,endpoint_world_x,endpoint_world_y,endpoint_world_z,endpoint_linvel_x,endpoint_linvel_y,endpoint_linvel_z,target_cube_world_x,target_cube_world_y,target_cube_world_z,gripper_actual_pos_rad_gp_leftgearjoint,gripper_actual_vel_rad_s_gp_leftgearjoint,gripper_actual_pos_rad_gp_rotatingjoint,gripper_actual_vel_rad_s_gp_rotatingjoint,motor_angle_rad_joint1,motor_angle_rad_joint2,motor_angle_rad_joint3,motor_angle_rad_joint4,motor_speed_rad_s_joint1,motor_speed_rad_s_joint2,motor_speed_rad_s_joint3,motor_speed_rad_s_joint4
0.0,0.0,0.0,0.0,1.0,0.0,0.0,0.0,0.0,0.0,0.0,0.0,0.0,0.0,-0.3742445111274719,0.6773167848587036,0.41999998688697815,1.0,0.0,0.0,0.0,0.0,0.0,0.0,0.0,0.0,0.0,3.42540442943573e-06,-0.005000244826078415,1.313499927520752,0.0,0.0,0.0,0.4016517400741577,0.6224263310432434,0.42000001668930054,-1.5707999467849731,0.0,0.0,0.0,0.0,0.0,0.0,0.0,0.0,0.0,0.0,0.0
0.016666666666666666,0.002879880601540208,0.0021783472038805485,0.0,0.99981290102005,0.0,0.0,0.019342251121997833,0.24093255400657654,0.18232323229312897,0.0,0.0,0.0,3.14182186126709,-0.3742446303367615,0.6773164868354797,0.41999998688697815,1.0,3.279964630564791e-06,-8.339746386809566e-07,8.465587342243452e-08,-1.9833529222523794e-05,0.00017983045836444944,-6.132945418357849e-05,0.0009432713268324733,-0.004689474124461412,-0.00031981561915017664,-0.007109323516488075,0.003385559655725956,1.315938115119934,-0.8141214847564697,0.9871057271957397,0.1809595227241516,0.4016517400741577,0.6224263310432434,0.42000001668930054,-1.5301095247268677,3.000002145767212,-0.045848503708839417,-3.0000007152557373,0.0008699308382347226,0.0007965892436914146,0.0007111523300409317,0.0006110102985985577,0.11094477772712708,0.09758280962705612,0.0833602324128151,0.06825459748506546
0.03333333333333333,0.008963466621935368,0.006798331160098314,0.0,0.9998009204864502,0.0,0.0,0.019952481612563133,0.4070485532283783,0.3152310252189636,0.0,0.0,0.0,-0.8690969944000244,-0.374244749546051,0.677316427230835,0.4200000464916229,1.0,3.3908354453160428e-06,-2.1324485715012997e-06,-3.710144014235084e-08,0.00026357831666246057,0.00026937946677207947,-0.00010509486310184002,-0.0017707672668620944,0.004130808170884848,-0.000135478752781637,-0.02754059061408043,0.026143327355384827,1.3166074752807617,-1.5907564163208008,1.6165810823440552,-0.08364880830049515,0.4016517400741577,0.6224263310432434,0.42000001668930054,-1.4800903797149658,3.0000014305114746,-0.09588832408189774,-3.000000238418579,0.002990475855767727,0.0026527538429945707,0.0022773032542318106,0.0018607866950333118,0.1641855388879776,0.13974332809448242,0.11380644142627716,0.08628994226455688
0.05,0.018473008647561073,0.01389800850301981,0.0,0.9999760985374451,0.0,0.0,-0.006915370933711529,0.6362330317497253,0.4722440242767334,0.0,0.0,0.0,-4.074100017547607,-0.3742447793483734,0.6773164868354797,0.4200000464916229,1.0,3.7651125239790417e-06,-2.211879063906963e-06,5.622505128144439e-09,0.000265308452071622,0.0002669153327587992,-0.00010440615005791187,-0.001724260626360774,0.004177352879196405,-0.00012949221127200872,-0.057205718010663986,0.05700618401169777,1.3120291233062744,-1.9544570446014404,2.017852783203125,-0.4462612569332123,0.4016517400741577,0.6224263310432434,0.42000001668930054,-1.4300720691680908,3.0000009536743164,-0.14590947329998016,-3.0000016689300537,0.006012661848217249,0.005173643119633198,0.004262310452759266,0.003274307819083333,0.20711150765419006,0.16679491102695465,0.12455356121063232,0.08031076192855835
0.06666666666666667,0.030784757807850838,0.023384932428598404,0.0,0.9998810887336731,0.0,0.0,-0.01542109064757824,0.7725080251693726,0.6160650849342346,0.0,0.0,0.0,-0.03869696706533432,-0.3742447793483734,0.677316427230835,0.4200000464916229,0.9999999403953552,3.4066883927152958e-06,-2.285532218593289e-06,4.300976286231162e-07,0.0002670241810847074,0.00026791772688739,-0.00010438147000968456,-0.00174069800414145,0.00421178387477994,-0.00012850729399360716,-0.09407616406679153,0.08966488391160965,1.3016002178192139,-2.3170228004455566,2.065969705581665,-0.7944294214248657,0.4016517400741577,0.6224263310432434,0.42000001668930054,-1.3800444602966309,2.9999985694885254,-0.11494795978069305,3.000000238418579,0.008652561344206333,0.007076661568135023,0.005388088058680296,0.0035816794261336327,0.14155933260917664,0.08870793879032135,0.033703938126564026,-0.02351277321577072
0.08333333333333333,0.03726770356297493,0.03166981041431427,0.0,0.9992103576660156,0.0,0.0,-0.03973284736275673,0.2467963993549347,0.4075862765312195,0.0,0.0,0.0,-3.858616828918457,-0.3742447793483734,0.677316427230835,0.4200000464916229,1.0,3.6972253383282805e-06,-2.188838152505923e-06,-2.632317830375541e-07,0.00026389729464426637,0.00026586424792185426,-0.00010433932766318321,-0.0017081560799852014,0.004150177352130413,-0.0001299097202718258,-0.12721693515777588,0.12818819284439087,1.286391019821167,-1.7143824100494385,2.5722010135650635,-0.9517970085144043,0.4016517400741577,0.6224263310432434,0.42000001668930054,-1.3300398588180542,3.0,-0.146963968873024,-3.0000009536743164,0.005438898224383593,0.003031636355444789,0.0004631904885172844,-0.002275682520121336,-0.328971266746521,-0.3913693130016327,-0.4564213454723358,-0.524345338344574
0.1,0.04633646458387375,0.042380429804325104,0.0,0.9956833720207214,0.0,0.0,-0.09281523525714874,0.5682275295257568,0.6518142223358154,0.0,0.0,0.0,-7.182301044464111,-0.3742447793483734,0.677316427230835,0.4200000464916229,0.9999999403953552,3.620277084337431e-06,-2.2651142899121623e-06,1.7461523782458244e-07,0.0002667682128958404,0.0002674072457011789,-0.0001040794886648655,-0.0017386354738846421,0.004209177568554878,-0.00012775110371876508,-0.15718621015548706,0.17654196918010712,1.2654188871383667,-1.909902811050415,3.143181324005127,-1.4687535762786865,0.4016517400741577,0.6224263310432434,0.42000001668930054,-1.2800209522247314,2.9999911785125732,-0.11344584822654724,2.999997854232788,0.002357717603445053,-0.001306638354435563,-0.005149243399500847,-0.00918144267052412,-0.2664453089237213,-0.32788804173469543,-0.39050447940826416,-0.45437610149383545
0.11666666666666667,0.054553691297769547,0.054792169481515884,0.0,0.9925718307495117,0.0,0.0,-0.12166010588407516,0.43032631278038025,0.7772569060325623,0.0,0.0,0.0,-2.319093942642212,-0.3742447793483734,0.677316427230835,0.4200000464916229,1.0,3.798308171099052e-06,-2.262737325509079e-06,-1.5021218757738097e-07,0.0002637405996210873,0.000265660259174183,-0.00010428996756672859,-0.0017054072814062238,0.00414755754172802,-0.000129801788716577,-0.1949264407157898,0.22373589873313904,1.2414385080337524,-2.2818713188171387,2.8926174640655518,-1.4988350868225098,0.4016517400741577,0.6224263310432434,0.42000001668930054,-1.2300299406051636,3.0000014305114746,-0.14542360603809357,-3.0000009536743164,0.00026351987617090344,-0.004978003911674023,-0.010367050766944885,-0.01591300033032894,-0.14305932819843292,-0.24204829335212708,-0.33834341168403625,-0.43180662393569946
0.13333333333333333,0.059700336307287216,0.06517850607633591,0.0,0.9869422912597656,0.0,0.0,-0.16107411682605743,0.25935012102127075,0.5656128525733948,0.0,0.0,0.0,-5.622838020324707,-0.3742447793483734,0.6773164868354797,0.4200000464916229,0.9999999403953552,3.55037650479062e-06,-2.229731535408064e-06,2.929058098288806e-07,0.0002670335816219449,0.0002677934826351702,-0.00010417238809168339,-0.0017440745141357183,0.004213663749396801,-0.0001280020660487935,-0.22974392771720886,0.2769013047218323,1.2140867710113525,-1.8354662656784058,3.531130313873291,-1.7780979871749878,0.4016517400741577,0.6224263310432434,0.42000001668930054,-1.18001127243042,2.999990463256836,-0.11190315335988998,2.999998092651367,-0.0026946424040943384,-0.009746652096509933,-0.016883300617337227,-0.02411160245537758,-0.23525899648666382,-0.3426808714866638,-0.4460797607898712,-0.5453295707702637
0.15,0.06218893826007843,0.07241156697273254,0.0,0.9796983003616333,0.0,0.0,-0.20047752559185028,0.10471709817647934,0.3503020405769348,0.0,0.0,0.0,-4.392529487609863,-0.374244749546051,0.677316427230835,0.4200000464916229,1.0,3.3320845886919415e-06,-2.1018886400270276e-06,1.313070612241063e-07,0.00026730558602139354,0.0002685959043446928,-0.00010459567420184612,-0.0017497815424576402,0.004215646535158157,-0.00012928525393363088,-0.2630106806755066,0.3345375061035156,1.1786775588989258,-1.8995096683502197,3.6338844299316406,-2.4866490364074707,0.4016517400741577,0.6224263310432434,0.42000001668930054,-1.1412582397460938,1.7288498878479004,-0.14391350746154785,-2.999999761581421,-0.00735454959794879,-0.015948640182614326,-0.024550998583436012,-0.03316883742809296,-0.32888850569725037,-0.40248221158981323,-0.47169795632362366,-0.5366660356521606
0.16666666666666666,0.06900779902935028,0.07995065301656723,0.0,0.9663217067718506,0.0,0.0,-0.25733715295791626,0.3436499834060669,0.5011265873908997,0.0,0.0,0.0,-7.765571117401123,-0.3742447793483734,0.677316427230835,0.4200000464916229,1.0,3.7371814869402442e-06,-2.2329975308821304e-06,-1.8765943821108522e-07,0.0002643296611495316,0.0002662689657881856,-0.00010446016676723957,-0.0017119699623435736,0.004157591611146927,-0.00013001523620914668,-0.2939336895942688,0.40026649832725525,1.1303550004959106,-1.6689891815185547,4.178857326507568,-3.333313465118408,0.4016517400741577,0.6224263310432434,0.42000001668930054,-1.0942437648773193,2.9999992847442627,-0.19392859935760498,-3.000000238418579,-0.01185704581439495,-0.02158820442855358,-0.031249431893229485,-0.040851373225450516,-0.5624940991401672,-0.5786899328231812,-0.5929328799247742,-0.6056188344955444
0.18333333333333332,0.07117226719856262,0.08797033131122589,0.0,0.9557778835296631,0.0,0.0,-0.29408952593803406,0.13906122744083405,0.4656507968902588,0.0,0.0,0.0,-3.3941245079040527,-0.3742447793483734,0.6773164868354797,0.4200000464916229,0.9999999403953552,3.6601361443899805e-06,-2.3021373181109084e-06,2.5284839466621634e-07,0.00026690843515098095,0.00026760276523418725,-0.00010412652045488358,-0.0017413680907338858,0.004211578983813524,-0.00012787070591002703,-0.3245319426059723,0.4650415778160095,1.066192865371704,-1.5363147258758545,4.008910655975342,-4.252579689025879,0.4016517400741577,0.6224263310432434,0.42000001668930054,-1.0442407131195068,2.9999988079071045,-0.2439553141593933,-3.0,-0.024236483499407768,-0.03362394496798515,-0.0429249107837677,-0.05216333270072937,-0.7040764689445496,-0.6817028522491455,-0.6577509045600891,-0.6329524517059326
0.2,0.07031674683094025,0.09778540581464767,0.0,0.940666139125824,0.0,0.0,-0.3393334746360779,-0.13407254219055176,0.6497895121574402,0.0,0.0,0.0,-6.52581787109375,-0.3742447793483734,0.677316427230835,0.4200000464916229,1.0,3.5907003166357754e-06,-2.30029900194495e-06,1.38729205900745e-07,0.0002665481297299266,0.0002673238341230899,-0.00010424177162349224,-0.0017326157540082932,0.004203508608043194,-0.00012821020209230483,-0.3482508659362793,0.5316801071166992,0.988538384437561,-1.079907774925232,3.9950499534606934,-5.0022735595703125,0.4016517400741577,0.6224263310432434,0.42000001668930054,-0.9942338466644287,2.9999983310699463,-0.29398313164711,-2.999999761581421,-0.03853202983736992,-0.04732789471745491,-0.056008245795965195,-0.064610555768013,-0.9317172169685364,-0.8866760730743408,-0.8402228951454163,-0.793129563331604
0.21666666666666667,0.0733463317155838,0.1036822497844696,0.0,0.9305887222290039,0.0,0.0,-0.36606642603874207,0.1754642277956009,0.296013206243515,0.0,0.0,0.0,-2.05902361869812,-0.3742447793483734,0.6773164868354797,0.4200000464916229,1.0,3.6067965538677527e-06,-2.26086558541283e-06,1.9618761726292178e-08,0.00026447168784216046,0.0002655836578924209,-0.00010396330617368221,-0.0017087386222556233,0.004164193756878376,-0.00012832140782848,-0.3685380220413208,0.5900367498397827,0.9010432362556458,-0.9241194725036621,3.2167205810546875,-5.55293083190918,0.4016517400741577,0.6224263310432434,0.42000001668930054,-0.944223165512085,3.000000476837158,-0.34401336312294006,-3.00000262260437,-0.05197935923933983,-0.06008768826723099,-0.06784051656723022,-0.07553340494632721,-0.9850075840950012,-0.9500673413276672,-0.8568288683891296,-0.7675527334213257
0.23333333333333334,0.0705847516655922,0.11358755826950073,0.0,0.916875958442688,0.0,0.0,-0.39917227625846863,-0.17821116745471954,0.5862728953361511,0.0,0.0,0.0,-5.411838531494141,-0.374244749546051,0.677316427230835,0.4200000464916229,0.9999999403953552,3.742101398529485e-06,-2.227345248684287e-06,4.589114155351126e-07,0.0002647513756528497,0.0002667136723175645,-0.00010453537106513977,-0.0017189161153510213,0.0041657742112874985,-0.00013019364268984646,-0.3794656991958618,0.633849024772644,0.8016518950462341,-0.2912125289440155,2.2542223930358887,-6.137516021728516,0.4016517400741577,0.6224263310432434,0.42000001668930054,-0.8942124843597412,2.999995708465576,-0.39404502511024475,-2.9999990463256836,-0.06860321760177612,-0.0765860304236412,-0.08429031819105148,-0.0919763594865799,-0.7466903924942017,-0.786077618598938,-0.82670658826828,-0.8649862408638
0.25,0.07256334275007248,0.11799950897693634,0.0,0.9090788960456848,0.0,0.0,-0.4166240096092224,0.12246893346309662,0.21381807327270508,0.0,0.0,0.0,-0.95665043592453,-0.3742447793483734,0.677316427230835,0.4200000464916229,1.0,3.39423263540084e-06,-2.2818808247393463e-06,1.3363670348098822e-07,0.0002667944645509124,0.00026794031145982444,-0.00010439474135637283,-0.001741691492497921,0.00420658104121685,-0.0001288425555685535,-0.3882454037666321,0.6621220111846924,0.700752854347229,-0.3494611382484436,1.1797056198120117,-6.066982269287109,0.4016517400741577,0.6224263310432434,0.42000001668930054,-0.8442018032073975,3.000002145767212,-0.44407668709754944,-2.999997138977051,-0.08034559339284897,-0.088512122631073,-0.09646204113960266,-0.10440022498369217,-0.9605158567428589,-0.9185531735420227,-0.8831219673156738,-0.8514198660850525
0.26666666666666666,0.06951101124286652,0.12617965042591095,0.0,0.915354311466217,0.0,0.0,-0.4026493728160858,-0.20148839056491852,0.6381117701530457,0.0,0.0,0.0,2.5862443447113037,-0.3742447793483734,0.6773164868354797,0.4200000464916229,1.0,3.683239356178092e-06,-2.309933051947155e-06,2.1011992146213743e-07,0.0002647916553542018,0.00026625811005942523,-0.00010421057231724262,-0.001716860686428845,0.004168972373008728,-0.00012909462384413928,-0.39751923084259033,0.669992208480835,0.6068621873855591,-0.5303891897201538,-0.0700930505990982,-5.210351943969727,0.4016517400741577,0.6224263310432434,0.42000001668930054,-0.794192910194397,2.999952793121338,-0.49410712718963623,-3.000001907348633,-0.09783429652452469,-0.10580985993146896,-0.11363933980464935,-0.12147960066795349,-0.9701136946678162,-0.9901978373527527,-1.000334620475769,-1.0002520084381104
0.2833333333333333,0.07020367681980133,0.13012805581092834,0.0,0.914800763130188,0.0,0.0,-0.4039054214954376,0.05903247371315956,0.17951847612857819,0.0,0.0,0.0,-0.9029872417449951,-0.3742447793483734,0.677316427230835,0.4200000464916229,1.0,3.306690359750064e-06,-2.2123749658931047e-06,2.6260173058290093e-07,0.0002666071231942624,0.00026745113427750766,-0.00010424456559121609,-0.001735334168188274,0.004204478580504656,-0.0001282861630897969,-0.40235990285873413,0.6716126203536987,0.5173394680023193,0.053031522780656815,-0.04206386208534241,-5.274290561676025,0.4016517400741577,0.6224263310432434,0.42000001668930054,-0.744184136390686,2.999999523162842,-0.5441359281539917,-3.0000016689300537,-0.11225180327892303,-0.1206294372677803,-0.1287866234779358,-0.13684287667274475,-1.0073126554489136,-1.0055243968963623,-1.0041593313217163,-1.003069281578064
0.3,0.0674227923154831,0.13151583075523376,0.0,0.9202544093132019,0.0,0.0,-0.39132067561149597,-0.2447466254234314,0.047872163355350494,0.0,0.0,0.0,2.478395700454712,-0.3742447793483734,0.677316427230835,0.4200000464916229,1.0,3.6410058328328887e-06,-2.377771352257696e-06,-4.1935263084269536e-07,0.0002661160542629659,0.00026725951465778053,-0.00010423478670418262,-0.0017336473101750016,0.004194711335003376,-0.00012854898523073643,-0.39663246273994446,0.6750452518463135,0.43451017141342163,0.6789215803146362,0.3783574402332306,-4.720895767211914,0.4016517400741577,0.6224263310432434,0.42000001668930054,-0.6941768527030945,3.000001907348633,-0.5941627025604248,-3.000000476837158,-0.1300472617149353,-0.13816630840301514,-0.14612993597984314,-0.1540343314409256,-1.0124846696853638,-1.009477972984314,-1.0071768760681152,-1.0053273439407349
0.31666666666666665,0.06276854127645493,0.13005292415618896,0.0,0.918829083442688,0.0,0.0,-0.3946557641029358,-0.32235071063041687,-0.13184712827205658,0.0,0.0,0.0,-1.3063876628875732,-0.37410539388656616,0.6706877946853638,0.42000022530555725,0.9975461959838867,-5.363861177443141e-08,2.024490868279827e-06,-0.07001037150621414,0.011311739683151245,-0.29145073890686035,-1.2216856703162193e-05,-0.0006102772895246744,0.0001397777523379773,-5.771570205688477,-0.39699673652648926,0.6774708032608032,0.4250473380088806,0.11770091950893402,0.05000302195549011,-0.29085874557495117,0.4016517400741577,0.6224263310432434,0.42000001668930054,-0.6441728472709656,3.000000476837158,-0.6445337533950806,-3.0000617504119873,-0.13935767114162445,-0.14708104729652405,-0.1544381082057953,-0.16148720681667328,-0.561738908290863,-0.504102349281311,-0.4336264431476593,-0.34874212741851807
0.3333333333333333,0.05582685396075249,0.1261516809463501,0.0,0.9233930110931396,0.0,0.0,-0.3838558495044708,-0.4634952247142792,-0.2763189673423767,0.0,0.0,0.0,2.2537996768951416,-0.37268829345703125,0.6714506149291992,0.4200144410133362,0.994027316570282,6.317868974292651e-05,9.860964382824022e-06,-0.1091308444738388,0.15075179934501648,0.5026395320892334,-0.016304805874824524,-0.18862520158290863,0.23801586031913757,-2.0406408309936523,-0.3941320776939392,0.6827659010887146,0.4204639792442322,0.24637970328330994,0.4610522389411926,-0.22324775159358978,0.4016517400741577,0.6224263310432434,0.42000001668930054,-0.5941674709320068,2.999941825866699,-0.6945850253105164,-2.9999897480010986,-0.14932921528816223,-0.15570788085460663,-0.1615050882101059,-0.16676342487335205,-0.561087429523468,-0.475702166557312,-0.3771892189979553,-0.26470527052879333
0.35,0.04658130183815956,0.119830422103405,0.0,0.9215519428253174,0.0,0.0,-0.38825511932373047,-0.5970104336738586,-0.42241644859313965,0.0,0.0,0.0,-1.4983693361282349,-0.3705097436904907,0.6787298917770386,0.4200000464916229,0.9924302101135254,-2.0968944625110453e-07,5.115350063533697e-07,-0.12280996888875961,0.12463761121034622,0.4168447256088257,-1.2818491086363792e-06,6.0697831941070035e-05,-2.0221361410222016e-05,-1.5352283716201782,-0.3908400535583496,0.6876369118690491,0.4236565828323364,0.3679754137992859,0.37635985016822815,0.18972939252853394,0.4016517400741577,0.6224263310432434,0.42000001668930054,-0.5441603064537048,2.999992609024048,-0.7446094155311584,-3.000000476837158,-0.15878185629844666,-0.16324399411678314,-0.16684696078300476,-0.16963650286197662,-0.5514395236968994,-0.42006537318229675,-0.2720203399658203,-0.10806524008512497
0.36666666666666664,0.03515581041574478,0.11118501424789429,0.0,0.9256076216697693,0.0,0.0,-0.3784845769405365,-0.7276321649551392,-0.5571981072425842,0.0,0.0,0.0,2.208298921585083,-0.36530575156211853,0.6889512538909912,0.4213434159755707,0.9867737889289856,-0.0340656153857708,0.0050003305077552795,-0.15840443968772888,0.49404001235961914,0.8205450773239136,0.07210703939199448,-3.5927209854125977,0.9766128063201904,-6.855825424194336,-0.3829071521759033,0.6980630159378052,0.4248654246330261,0.6166893839836121,0.809991717338562,-0.051383137702941895,0.4016517400741577,0.6224263310432434,0.42000001668930054,-0.4941554665565491,2.999983310699463,-0.7946334481239319,-3.0000011920928955,-0.1684141457080841,-0.17030943930149078,-0.17104661464691162,-0.17070071399211884,-0.5387333035469055,-0.379665732383728,-0.2023027092218399,-0.00872934702783823
0.3833333333333333,0.027201900258660316,0.09977888315916061,0.0,0.923656702041626,0.0,0.0,-0.38322100043296814,-0.39152994751930237,-0.7314499616622925,0.0,0.0,0.0,-1.5295871496200562,-0.3554666042327881,0.7040216326713562,0.42161640524864197,0.9777336120605469,-0.041341181844472885,0.008724281564354897,-0.20555199682712555,0.5590130090713501,0.868202805519104,0.012905005365610123,-0.6504726409912109,0.2501961290836334,-6.26255989074707,-0.36867010593414307,0.71087646484375,0.4215955436229706,0.9230198860168457,0.6422528624534607,0.07441996783018112,0.4016517400741577,0.6224263310432434,0.42000001668930054,-0.44411054253578186,2.999237298965454,-0.8446475267410278,-2.977963447570801,-0.17686347663402557,-0.1758173406124115,-0.1732824444770813,-0.16938695311546326,-0.4259123206138611,-0.2431369125843048,-0.03934922069311142,0.18170107901096344
0.4,0.016921505331993103,0.08681055158376694,0.0,0.9095698595046997,0.0,0.0,-0.4155510663986206,-0.7003338932991028,-0.8026549816131592,0.0,0.0,0.0,-5.170910358428955,-0.33663395047187805,0.7175226807594299,0.4246848523616791,0.9645625948905945,-0.0681808590888977,-0.009176862426102161,-0.25472763180732727,1.611253023147583,0.6659914255142212,0.07852572202682495,33.516563415527344,-16.10696792602539,7.847180366516113,-0.3489011228084564,0.7260273694992065,0.42373186349868774,1.524609088897705,1.168602466583252,0.1842886507511139,0.4016517400741577,0.6224263310432434,0.42000001668930054,-0.39869070053100586,1.8300855159759521,-0.8946587443351746,-2.999495267868042,-0.18543709814548492,-0.1811375766992569,-0.17500388622283936,-0.16724084317684174,-0.4923785924911499,-0.3056192696094513,-0.10047081857919693,0.11846446990966797
0.4166666666666667,0.009663977660238743,0.07088258117437363,0.0,0.8814277648925781,0.0,0.0,-0.4723187983036041,-0.39442527294158936,-0.9998112320899963,0.0,0.0,0.0,-8.385259628295898,-0.30227363109588623,0.7387282848358154,0.42878028750419617,0.9503413438796997,-0.05520935356616974,-0.04643946886062622,-0.3027316629886627,2.868964433670044,0.9402864575386047,0.5217022895812988,15.352052688598633,-10.244674682617188,12.610318183898926,-0.31330734491348267,0.7484026551246643,0.42676883935928345,2.7689971923828125,1.6015338897705078,0.36728739738464355,0.4016517400741577,0.6224263310432434,0.42000001668930054,-0.3800071179866791,0.9871764779090881,-0.9258606433868408,-0.919983983039856,-0.19267310202121735,-0.1852845549583435,-0.17576898634433746,-0.16441753506660461,-0.5029122233390808,-0.2925075590610504,-0.06846871227025986,0.16299980878829956
0.43333333333333335,0.00444762734696269,0.05974642559885979,0.0,0.8361756205558777,0.0,0.0,-0.5484617948532104,-0.26770246028900146,-0.5402701497077942,0.0,0.0,0.0,-11.423247337341309,-0.22977492213249207,0.7687811255455017,0.43359923362731934,0.9172976613044739,-0.07194776087999344,-0.129848912358284,-0.369496613740921,5.494340419769287,2.212559223175049,0.3497198224067688,-34.86391067504883,-19.11840057373047,-6.303683280944824,-0.24016693234443665,0.7788993716239929,0.430969774723053,5.6540327072143555,2.1955068111419678,0.2629641890525818,0.4016517400741577,0.6224263310432434,0.42000001668930054,-0.3637635111808777,1.1124645471572876,-0.8811847567558289,2.999819278717041,-0.2071792483329773,-0.1956174224615097,-0.18106117844581604,-0.1649201363325119,-0.8379952311515808,-0.6677379608154297,-0.382841557264328,-0.12353529036045074
0.45,0.0029743912164121866,0.046185776591300964,0.0,0.797478973865509,0.0,0.0,-0.6033467650413513,-0.033938705921173096,-0.9984148144721985,0.0,0.0,0.0,-6.7880144119262695,-0.13708144426345825,0.8008966445922852,0.44147422909736633,0.8771999478340149,-0.02683965675532818,-0.16457577049732208,-0.45023828744888306,5.741881370544434,1.2102034091949463,0.6491773724555969,-5.215017318725586,1.7863844633102417,6.957939147949219,-0.14510540664196014,0.8150423169136047,0.43862754106521606,5.911836624145508,1.9189460277557373,0.5492457151412964,0.4016517400741577,0.6224263310432434,0.42000001668930054,-0.3469220995903015,0.9372972249984741,-0.9008423686027527,-2.9998104572296143,-0.21791081130504608,-0.204019695520401,-0.1857733577489853,-0.16645659506320953,-0.45822063088417053,-0.34976762533187866,-0.18448621034622192,-0.05187090113759041
0.4666666666666667,-0.0006691495073027909,0.03543510660529137,0.0,0.7788696885108948,0.0,0.0,-0.6271858215332031,-0.19019384682178497,-0.6045272350311279,0.0,0.0,0.0,-2.2218101024627686,-0.04310384765267372,0.8186019062995911,0.4514300227165222,0.8120392560958862,-0.011044559068977833,-0.1627294421195984,-0.5603475570678711,5.1201276779174805,-0.21507583558559418,0.7029236555099487,-16.17641258239746,21.40003204345703,36.67234420776367,-0.049209922552108765,0.8344510793685913,0.4484211802482605,5.9647932052612305,0.7429983615875244,0.7105147242546082,0.4016517400741577,0.6224263310432434,0.42000001668930054,-0.3334749937057495,0.5840754508972168,-0.9508663415908813,-2.999587059020996,-0.23052068054676056,-0.2134767472743988,-0.1916019469499588,-0.16935785114765167,-0.6086479425430298,-0.4575499892234802,-0.2889719307422638,-0.15537793934345245
0.48333333333333334,-0.005434882361441851,0.02141648717224598,0.0,0.7535134553909302,0.0,0.0,-0.657432496547699,-0.29971444606781006,-0.8814448714256287,0.0,0.0,0.0,-5.569334983825684,0.05076516792178154,0.816603422164917,0.4550270140171051,0.699969470500946,-0.1166151911020279,-0.271270751953125,-0.6502736210823059,5.405381202697754,-1.6704578399658203,-0.10116566717624664,-38.332149505615234,-23.59410285949707,24.480384826660156,0.0438297875225544,0.8354247212409973,0.4591851234436035,5.615819931030273,-0.5848168730735779,0.7989798188209534,0.4016517400741577,0.6224263310432434,0.42000001668930054,-0.3265388607978821,0.15074025094509125,-1.0008903741836548,-3.0000033378601074,-0.2388276606798172,-0.21905982494354248,-0.19429455697536469,-0.16961906850337982,-0.5691537261009216,-0.36144787073135376,-0.1541861891746521,0.02727429009974003
0.5,-0.008631449192762375,0.011805372312664986,0.0,0.7406792044639587,0.0,0.0,-0.6718588471412659,-0.14683066308498383,-0.5123435258865356,0.0,0.0,0.0,-1.2072932720184326,0.13459809124469757,0.7978339791297913,0.46136876940727234,0.6301218867301941,-0.1323244869709015,-0.23879800736904144,-0.7269194722175598,4.618616580963135,-1.5395522117614746,0.44123414158821106,-9.416279792785645,7.322509765625,-11.838634490966797,0.12885519862174988,0.8165395259857178,0.46683984994888306,4.7527923583984375,-1.5291805267333984,0.3143295645713806,0.4016517400741577,0.6224263310432434,0.42000001668930054,-0.3274776339530945,-0.23663832247257233,-1.0509124994277954,-2.9988086223602295,-0.23995254933834076,-0.22831985354423523,-0.20025046169757843,-0.17279283702373505,3.57497701770626e-05,-0.37597429752349854,-0.2536419928073883,-0.15802021324634552
0.5166666666666666,-0.008511043153703213,0.005951490718871355,0.0,0.7208980917930603,0.0,0.0,-0.6930410265922546,0.07126271724700928,-0.2963920533657074,0.0,0.0,0.0,-4.337658405303955,0.20822542905807495,0.77109295129776,0.4602465033531189,0.5771470665931702,-0.15596932172775269,-0.21582713723182678,-0.772006094455719,4.117437839508057,-2.0162513256073,-0.12930960953235626,-4.032040596008301,4.3943867683410645,-3.2177159786224365,0.2037743777036667,0.7900761365890503,0.46743351221084595,4.292675018310547,-1.8312534093856812,-0.17306438088417053,0.4016517400741577,0.6224263310432434,0.42000001668930054,-0.3240169286727905,0.6085085272789001,-1.100934624671936,-3.0,-0.23865681886672974,-0.23253388702869415,-0.203525573015213,-0.1753692328929901,0.16159319877624512,-0.11686328053474426,-0.11148857325315475,-0.11395576596260071
0.5333333333333333,-0.004429783206433058,-0.0035638739354908466,0.0,0.7128283381462097,0.0,0.0,-0.701338529586792,0.2229621410369873,-0.5709103941917419,0.0,0.0,0.0,-0.45648691058158875,0.27169644832611084,0.7398238778114319,0.45420369505882263,0.5334128141403198,-0.1888749599456787,-0.18606705963611603,-0.8032285571098328,3.357456922531128,-2.2838492393493652,-0.36720216274261475,-5.629132270812988,5.38970947265625,-6.783902645111084,0.26988208293914795,0.7578431367874146,0.46212315559387207,3.5323965549468994,-2.127469301223755,-0.4436796307563782,0.4016517400741577,0.6224263310432434,0.42000001668930054,-0.30747583508491516,1.1167949438095093,-1.1509567499160767,-3.000000238418579,-0.2317516952753067,-0.2297288030385971,-0.20176203548908234,-0.1747405230998993,0.32949766516685486,0.16370359063148499,0.08978013694286346,0.005786215420812368
0.55,-0.0026666068006306887,-0.009035317227244377,0.0,0.6957257390022278,0.0,0.0,-0.7183074951171875,0.06607986241579056,-0.29641205072402954,0.0,0.0,0.0,-3.6316161155700684,0.3246074914932251,0.7049949169158936,0.4412292242050171,0.4993045926094055,-0.1969139724969864,-0.1896238476037979,-0.8221694827079773,2.836008310317993,-2.595522880554199,-0.5735396146774292,-3.50616455078125,13.373485565185547,2.7642385959625244,0.323821097612381,0.7224631309509277,0.4498412609100342,2.9622583389282227,-2.1827969551086426,-1.0020102262496948,0.4016517400741577,0.6224263310432434,0.42000001668930054,-0.2923482656478882,0.6248314380645752,-1.1432483196258545,3.000000476837158,-0.22693127393722534,-0.22719596326351166,-0.20117834210395813,-0.17618370056152344,0.37022170424461365,0.2417166382074356,0.07335003465414047,-0.09389251470565796
0.5666666666666667,0.0001927224948303774,-0.011370612308382988,0.0,0.6927761435508728,0.0,0.0,-0.721152663230896,0.20278531312942505,-0.07793998718261719,0.0,0.0,0.0,0.3821381628513336,0.36417797207832336,0.6719763875007629,0.42673856019973755,0.491309255361557,-0.18174166977405548,-0.09873414784669876,-0.8460713624954224,1.7985166311264038,-1.466850996017456,-0.15791109204292297,4.367033958435059,-8.937515258789062,7.209204196929932,0.36435991525650024,0.6869584321975708,0.434906542301178,1.5368444919586182,-1.7347137928009033,-0.18605934083461761,0.4016517400741577,0.6224263310432434,0.42000001668930054,-0.28557559847831726,0.43096137046813965,-1.1655405759811401,-2.9949936866760254,-0.22027292847633362,-0.22253859043121338,-0.19999118149280548,-0.17834225296974182,0.5019288659095764,0.37775492668151855,0.12916362285614014,-0.1030835285782814
0.5833333333333334,0.005856620147824287,-0.018166622146964073,0.0,0.679273784160614,0.0,0.0,-0.7338849902153015,0.33786261081695557,-0.4256858825683594,0.0,0.0,0.0,-3.028826951980591,0.3897453844547272,0.6530355215072632,0.42324185371398926,0.49554383754730225,-0.07344149798154831,-0.03836141154170036,-0.8646219372749329,1.2538273334503174,-1.2571765184402466,-0.04906280338764191,-10.887630462646484,-4.559654712677002,14.586112976074219,0.3881189227104187,0.6643590331077576,0.42759057879447937,0.9634994268417358,-1.0152980089187622,-0.21232646703720093,0.4016517400741577,0.6224263310432434,0.42000001668930054,-0.27060288190841675,1.0737534761428833,-1.127720832824707,2.9974606037139893,-0.2072320431470871,-0.21201473474502563,-0.19469329714775085,-0.17786970734596252,0.7290677428245544,0.6222066879272461,0.3141838610172272,0.030384300276637077
0.6,0.01296199019998312,-0.020414680242538452,0.0,0.6781142950057983,0.0,0.0,-0.7349564433097839,0.4855925440788269,-0.1139104962348938,0.0,0.0,0.0,0.6831989884376526,0.40220382809638977,0.6374701261520386,0.4233325123786926,0.5093749761581421,-0.06533563137054443,-0.0056617590598762035,-0.8580421209335327,0.5084168314933777,-1.2080227136611938,0.14272485673427582,-5.50311279296875,4.38724946975708,11.110052108764648,0.4001612365245819,0.648152232170105,0.42745640873908997,0.4961102306842804,-0.7392443418502808,0.1929527223110199,0.4016517400741577,0.6224263310432434,0.42000001668930054,-0.26933765411376953,-0.8773420453071594,-1.1501295566558838,-3.000000476837158,-0.19838371872901917,-0.20423412322998047,-0.19159117341041565,-0.179082453250885,0.5975178480148315,0.5163989067077637,0.2145712673664093,-0.06026838347315788
0.6166666666666667,0.018082844093441963,-0.01997367851436138,0.0,0.6670261025428772,0.0,0.0,-0.7450343370437622,0.2502085268497467,0.08086243271827698,0.0,0.0,0.0,-2.682997226715088,0.4093676209449768,0.6288097500801086,0.42212146520614624,0.5369522571563721,-0.03900827839970589,0.0020639165304601192,-0.8427077531814575,0.17366421222686768,-0.5886089205741882,-0.042682990431785583,-0.04113733023405075,-1.4812573194503784,10.121456146240234,0.4063846170902252,0.6386657953262329,0.42558223009109497,0.1562281847000122,-0.33192941546440125,-0.10666638612747192,0.4016517400741577,0.6224263310432434,0.42000001668930054,-0.27632632851600647,-0.07918770611286163,-1.11237633228302,2.998156785964966,-0.1878938525915146,-0.19542650878429413,-0.18810562789440155,-0.18040062487125397,0.6324373483657837,0.5345842242240906,0.21993125975131989,-0.06371012330055237
0.6333333333333333,0.023728732019662857,-0.023292232304811478,0.0,0.6679055690765381,0.0,0.0,-0.7442460060119629,0.36140644550323486,-0.18505609035491943,0.0,0.0,0.0,0.975523829460144,0.40950462222099304,0.6248818039894104,0.42228662967681885,0.5639613270759583,-0.03933367505669594,0.016063276678323746,-0.8247073888778687,-0.17776897549629211,-0.21843445301055908,0.03633083403110504,0.17352452874183655,1.5442429780960083,2.3231582641601562,0.4058099687099457,0.6351200938224792,0.4264960289001465,-0.2533573508262634,-0.18704549968242645,0.11702495813369751,0.4016517400741577,0.6224263310432434,0.42000001668930054,-0.3005135953426361,-2.4367563724517822,-1.1347993612289429,-2.999678611755371,-0.17579692602157593,-0.18484456837177277,-0.18255864083766937,-0.17940567433834076,0.5171524286270142,0.47947636246681213,0.23440884053707123,0.011292967014014721
0.65,0.03160581365227699,-0.02215597592294216,0.0,0.6582438945770264,0.0,0.0,-0.752804696559906,0.4975879192352295,0.07310784608125687,0.0,0.0,0.0,-2.492051601409912,0.40849143266677856,0.6235311031341553,0.4230203926563263,0.5774726271629333,-0.052925579249858856,0.022138560190796852,-0.8143919110298157,0.13430795073509216,0.22554384171962738,0.08020990341901779,-4.899961471557617,1.0705517530441284,2.561861753463745,0.4055729806423187,0.6357314586639404,0.42846426367759705,0.1788179725408554,0.17684146761894226,0.13670051097869873,0.4016517400741577,0.6224263310432434,0.42000001668930054,-0.32915017008781433,-1.0793883800506592,-1.1847431659698486,-3.000375986099243,-0.16856026649475098,-0.17825117707252502,-0.17979268729686737,-0.1800624132156372,0.5645467638969421,0.49489355087280273,0.25069233775138855,0.03379138559103012
0.6666666666666666,0.041333384811878204,-0.02498633600771427,0.0,0.6605772972106934,0.0,0.0,-0.7507580518722534,0.6125155091285706,-0.17883791029453278,0.0,0.0,0.0,1.2752559185028076,0.4096471667289734,0.6268702149391174,0.4232478439807892,0.6003280878067017,-0.06159408763051033,-0.00511758541688323,-0.7973619699478149,-0.016791993752121925,0.18093429505825043,0.0022046135272830725,-1.3867706060409546,-0.5711040496826172,5.368352890014648,0.40491580963134766,0.637784481048584,0.43118321895599365,-0.205619677901268,0.051702313125133514,0.18616560101509094,0.4016517400741577,0.6224263310432434,0.42000001668930054,-0.37408941984176636,-2.999976873397827,-1.2347363233566284,-2.9996140003204346,-0.15905852615833282,-0.16946536302566528,-0.17444172501564026,-0.1777980923652649,0.386540949344635,0.3957379460334778,0.25151708722114563,0.11979633569717407
0.6833333333333333,0.04941999912261963,-0.024777669459581375,0.0,0.6839186549186707,0.0,0.0,-0.7295582294464111,0.4063769578933716,0.030555741861462593,0.0,0.0,0.0,4.5828857421875,0.40767374634742737,0.6292701959609985,0.4221811890602112,0.6046324968338013,-0.045482881367206573,-0.03375956416130066,-0.7944879531860352,-0.15945854783058167,0.12152288854122162,-0.0598507784307003,-0.2356380820274353,-2.711984395980835,-1.3813539743423462,0.40172916650772095,0.6380766034126282,0.43441537022590637,-0.1907849907875061,0.084200918674469,0.22105467319488525,0.4016517400741577,0.6224263310432434,0.42000001668930054,-0.42409011721611023,-2.9998574256896973,-1.2847120761871338,-2.9993104934692383,-0.1551138162612915,-0.16470946371555328,-0.17112167179584503,-0.17572404444217682,0.26397740840911865,0.3163759112358093,0.2520502507686615,0.19974781572818756
0.7,0.057461220771074295,-0.027594774961471558,0.0,0.6928696632385254,0.0,0.0,-0.7210628390312195,0.5100158452987671,-0.2113114297389984,0.0,0.0,0.0,0.42441052198410034,0.4055177569389343,0.630704402923584,0.4206991493701935,0.6012091636657715,-0.013740778900682926,-0.010276145301759243,-0.798907458782196,-0.1224108412861824,0.07653885334730148,-0.10620636492967606,5.588225841522217,-1.5846943855285645,-0.506037712097168,0.3999471068382263,0.6396839618682861,0.43959373235702515,-0.13843286037445068,0.012005515396595001,0.3545718789100647,0.4016517400741577,0.6224263310432434,0.42000001668930054,-0.4740975499153137,-2.999607563018799,-1.3346956968307495,-2.9999752044677734,-0.15178833901882172,-0.15969321131706238,-0.16598787903785706,-0.17022107541561127,0.11693568527698517,0.26552557945251465,0.337265282869339,0.4240134656429291
0.7166666666666667,0.0672270730137825,-0.0336085744202137,0.0,0.6802153587341309,0.0,0.0,-0.733012318611145,0.6242921352386475,-0.43328383564949036,0.0,0.0,0.0,-2.944491386413574,0.40455877780914307,0.6310012936592102,0.4200000464916229,0.6008107662200928,-3.5646860396809643e-06,4.143830665270798e-06,-0.7993912696838379,-0.020347412675619125,0.0019056742312386632,-0.00024029979249462485,-0.0030643243808299303,-0.011144907213747501,0.007321735844016075,0.40373694896698,0.6411284804344177,0.4526325762271881,0.5479316711425781,0.1250777691602707,1.2996625900268555,0.4016517400741577,0.6224263310432434,0.42000001668930054,-0.5241101980209351,-2.9999847412109375,-1.3847140073776245,-2.9999990463256836,-0.15221160650253296,-0.1574893444776535,-0.16218174993991852,-0.1645847111940384,-0.09062658995389938,0.06950204074382782,0.18116934597492218,0.3047598898410797
0.7333333333333333,0.0802183449268341,-0.035108741372823715,0.0,0.6460437178611755,0.0,0.0,-0.7633004188537598,0.7632321715354919,-0.07225600630044937,0.0,0.0,0.0,-6.302281379699707,0.4045582711696625,0.6310015320777893,0.42000001668930054,0.600811243057251,8.022269639695878e-07,-3.626869101935881e-06,-0.7993909120559692,0.0002239310706499964,-0.0002641320461407304,-9.387219324707985e-05,0.005528171081095934,0.0005877609364688396,-0.0007759275031276047,0.42193955183029175,0.6392743587493896,0.47975456714630127,1.6643881797790527,-0.1910076141357422,2.0775365829467773,0.4016517400741577,0.6224263310432434,0.42000001668930054,-0.5741219520568848,-2.9999585151672363,-1.4347323179244995,-2.999997615814209,-0.16020521521568298,-0.16184091567993164,-0.16353482007980347,-0.16283944249153137,-0.4170094132423401,-0.22118382155895233,-0.050273239612579346,0.1280328780412674
0.75,0.09463969618082047,-0.03404665365815163,0.0,0.6264763474464417,0.0,0.0,-0.7794404029846191,0.9201807379722595,0.09600616246461868,0.0,0.0,0.0,-1.965813398361206,0.40455830097198486,0.6310015320777893,0.4200000464916229,0.6008107662200928,2.971526384953904e-07,-3.3398086998204235e-06,-0.7993912696838379,0.00013744110765401274,-0.00027622870402410626,-9.509967640042305e-05,0.006175289861857891,-0.0010980040533468127,-0.0006373138166964054,0.4498366117477417,0.6404193639755249,0.5165367722511292,1.6570249795913696,0.26933085918426514,2.3128440380096436,0.4016517400741577,0.6224263310432434,0.42000001668930054,-0.5941190123558044,0.32807791233062744,-1.4847506284713745,-2.9999990463256836,-0.1656932681798935,-0.1652626395225525,-0.16519083082675934,-0.16266664862632751,-0.19970063865184784,-0.14500389993190765,-0.10284367948770523,-0.06000227853655815
0.7666666666666666,0.10643106698989868,-0.030786562711000443,0.0,0.632156491279602,0.0,0.0,-0.7748407125473022,0.6256407499313354,0.23488664627075195,0.0,0.0,0.0,1.7799487113952637,0.4045582711696625,0.6310015320777893,0.4200000464916229,0.600810706615448,2.9663962664017163e-07,-3.2501225177838933e-06,-0.7993912696838379,0.0001358374865958467,-0.0002763426164165139,-9.470130316913128e-05,0.006188354454934597,-0.0011160187423229218,-0.0006336133810691535,0.4737198054790497,0.6454284191131592,0.5493593811988831,1.1633045673370361,0.3608354330062866,1.688089370727539,0.4016517400741577,0.6224263310432434,0.42000001668930054,-0.5670639276504517,2.6904921531677246,-1.4460654258728027,3.0000007152557373,-0.16717182099819183,-0.1661262959241867,-0.16555358469486237,-0.16257591545581818,0.012632733210921288,0.031903740018606186,0.04788665845990181,0.056994106620550156
0.7833333333333333,0.11284495145082474,-0.03327834606170654,0.0,0.6257402896881104,0.0,0.0,-0.7800314426422119,0.39727404713630676,-0.14087936282157898,0.0,0.0,0.0,-1.766930341720581,0.4045582711696625,0.6310015320777893,0.4200000464916229,0.6008106470108032,3.154866021759517e-07,-3.139097543680691e-06,-0.7993912696838379,0.00013437957386486232,-0.00027630809927359223,-9.430432692170143e-05,0.006195909343659878,-0.0011316562304273248,-0.0006302163819782436,0.4873931407928467,0.6539556384086609,0.5718327164649963,0.33389395475387573,0.3755505084991455,1.1134486198425293,0.4016517400741577,0.6224263310432434,0.42000001668930054,-0.5314401984214783,1.647358775138855,-1.396012783050537,2.999999523162842,-0.16089390218257904,-0.16053828597068787,-0.16062656044960022,-0.15841910243034363,0.09872893989086151,0.11662471294403076,0.13262660801410675,0.13178130984306335
0.8,0.11649894714355469,-0.03102703206241131,0.0,0.6321394443511963,0.0,0.0,-0.7748546600341797,0.15351952612400055,0.17258095741271973,0.0,0.0,0.0,1.8087713718414307,0.4045582711696625,0.6310015320777893,0.4200000464916229,0.6008107662200928,2.8433194643184834e-07,-3.2088537409435958e-06,-0.7993911504745483,0.00013614134513773024,-0.00027654567384161055,-9.468593634665012e-05,0.006192053202539682,-0.0011111346539109945,-0.0006343924906104803,0.4868011772632599,0.6594326496124268,0.5861881375312805,-0.3100244998931885,0.3870149254798889,0.647796630859375,0.4016517400741577,0.6224263310432434,0.42000001668930054,-0.4901776909828186,3.0000009536743164,-1.3459906578063965,3.0000009536743164,-0.16188150644302368,-0.16061948239803314,-0.15985457599163055,-0.15717986226081848,0.029268624261021614,0.06486184149980545,0.09992700815200806,0.1117185652256012
0.8166666666666667,0.11652328073978424,-0.03245324641466141,0.0,0.6267986297607422,0.0,0.0,-0.7791813015937805,-0.040825337171554565,-0.16989818215370178,0.0,0.0,0.0,-1.7132582664489746,0.4045582711696625,0.6310015320777893,0.4200000464916229,0.6008108258247375,3.0740790180061595e-07,-3.261718575231498e-06,-0.7993912100791931,0.00013412513362709433,-0.0002763547236099839,-9.42423939704895e-05,0.00619844812899828,-0.0011348605621606112,-0.0006296834326349199,0.47585248947143555,0.6651827096939087,0.5907663702964783,-1.0165005922317505,0.3100387752056122,0.09672834724187851,0.4016517400741577,0.6224263310432434,0.42000001668930054,-0.4702198803424835,-0.3340386152267456,-1.2959380149841309,2.9999992847442627,-0.16054560244083405,-0.1588420867919922,-0.15759874880313873,-0.15482062101364136,0.10456779599189758,0.129723459482193,0.1578567624092102,0.1629306972026825
0.8333333333333334,0.11417009681463242,-0.02895144559442997,0.0,0.6339779496192932,0.0,0.0,-0.7733511328697205,-0.22126847505569458,0.3510489761829376,0.0,0.0,0.0,1.9839580059051514,0.4045582711696625,0.6310015320777893,0.4200000464916229,0.6008105874061584,3.2598904908809345e-07,-3.330387926325784e-06,-0.7993913292884827,0.00013542665692511946,-0.0002766292600426823,-9.451131336390972e-05,0.006198135670274496,-0.0011197993298992515,-0.0006326834554784,0.4588896632194519,0.6691689491271973,0.5899544954299927,-0.9795626401901245,0.2643283009529114,-0.17018944025039673,0.4016517400741577,0.6224263310432434,0.42000001668930054,-0.45700088143348694,1.7316139936447144,-1.3158953189849854,-2.999999523162842,-0.16358159482479095,-0.16058103740215302,-0.1580648273229599,-0.15449927747249603,-0.23496225476264954,-0.1565670669078827,-0.0795116052031517,-0.03162847086787224
0.85,0.11342031508684158,-0.028295233845710754,0.0,0.63090580701828,0.0,0.0,-0.7758594155311584,-0.03532017394900322,-0.022886648774147034,0.0,0.0,0.0,-1.0032860040664673,0.4045582711696625,0.6310015320777893,0.4200000464916229,0.6008107662200928,2.9500563414330827e-07,-3.2377236038882984e-06,-0.7993913292884827,0.00013565615518018603,-0.00027628749376162887,-9.463680908083916e-05,0.006188300438225269,-0.001117130508646369,-0.0006330979522317648,0.44032275676727295,0.6726365089416504,0.5811417102813721,-1.2863078117370605,0.13524024188518524,-0.6839549541473389,0.4016517400741577,0.6224263310432434,0.42000001668930054,-0.4713197350502014,-2.9999959468841553,-1.277686357498169,3.0,-0.16435155272483826,-0.16080263257026672,-0.15764887630939484,-0.153798446059227,-0.02620857022702694,-0.0019009511452168226,0.031227609142661095,0.04721563681960106
0.8666666666666667,0.11488091200590134,-0.031125742942094803,0.0,0.6396462917327881,0.0,0.0,-0.7686694264411926,0.1360035538673401,-0.23151986300945282,0.0,0.0,0.0,2.214376449584961,0.4045582711696625,0.6310015320777893,0.4200000464916229,0.6008108854293823,2.9638951559718407e-07,-3.3092046578531154e-06,-0.7993912100791931,0.00013566204870585352,-0.0002765748358797282,-9.456207044422626e-05,0.006195446010679007,-0.0011167493648827076,-0.0006333248456940055,0.42558926343917847,0.6746536493301392,0.5708285570144653,-0.5200586915016174,0.12472452223300934,-0.49787282943725586,0.4016517400741577,0.6224263310432434,0.42000001668930054,-0.5045269131660461,-1.120412826538086,-1.2979400157928467,-3.0000011920928955,-0.1657700389623642,-0.1614282727241516,-0.1572461575269699,-0.1525561362504959,-0.0851723775267601,-0.030064048245549202,0.043582573533058167,0.11153815686702728
0.8833333333333333,0.11877626180648804,-0.036587100476026535,0.0,0.6362960934638977,0.0,0.0,-0.7714449167251587,0.2738381326198578,-0.3849290609359741,0.0,0.0,0.0,-1.4060754776000977,0.4045582711696625,0.6310015320777893,0.4200000464916229,0.6008107662200928,2.8290591558288725e-07,-3.302394588899915e-06,-0.7993912696838379,0.00013649412721861154,-0.0002764242235571146,-9.477930143475533e-05,0.00618678517639637,-0.0011068745516240597,-0.0006351095507852733,0.4218595325946808,0.6735570430755615,0.5588829517364502,0.06866815686225891,-0.21929025650024414,-0.7128621339797974,0.4016517400741577,0.6224263310432434,0.42000001668930054,-0.5485435724258423,-2.999998092651367,-1.2609708309173584,3.0,-0.16863811016082764,-0.16304202377796173,-0.15723298490047455,-0.1509297490119934,-0.17597386240959167,-0.08860495686531067,0.023180797696113586,0.1376638561487198
0.9,0.1255052238702774,-0.03931669890880585,0.0,0.6121131777763367,0.0,0.0,-0.7907701730728149,0.4472685158252716,-0.11499705910682678,0.0,0.0,0.0,-4.510734558105469,0.4045582711696625,0.6310015320777893,0.4200000464916229,0.6008108854293823,3.065811142732855e-07,-3.380333737368346e-06,-0.7993911504745483,0.00013591782771982253,-0.0002765320532489568,-9.462307207286358e-05,0.006193012930452824,-0.0011135132517665625,-0.000633867341093719,0.42803168296813965,0.6674036979675293,0.5508052110671997,0.6482155323028564,-0.4311925768852234,-0.1084923967719078,0.4016517400741577,0.6224263310432434,0.42000001668930054,-0.598520815372467,-2.9883837699890137,-1.2815089225769043,-2.999999761581421,-0.17292049527168274,-0.16621600091457367,-0.15884555876255035,-0.15085701644420624,-0.19429492950439453,-0.16074039041996002,-0.09817157685756683,-0.0238372590392828
0.9166666666666666,0.13452765345573425,-0.0385049469769001,0.0,0.6035928726196289,0.0,0.0,-0.7972927093505859,0.5746912956237793,0.11747995018959045,0.0,0.0,0.0,-0.2999732494354248,0.4045582711696625,0.6310015320777893,0.4200000464916229,0.600810706615448,3.06881076994614e-07,-3.2066898256744025e-06,-0.7993912696838379,0.00013615060015581548,-0.000276424631010741,-9.468966163694859e-05,0.0061887637712061405,-0.0011107026366516948,-0.000634330848697573,0.4402175545692444,0.6648340225219727,0.5525403618812561,0.7912088632583618,0.028241954743862152,0.2655867338180542,0.4016517400741577,0.6224263310432434,0.42000001668930054,-0.6173572540283203,0.4460941553115845,-1.3315272331237793,-3.000000238418579,-0.17470943927764893,-0.1683424860239029,-0.1608838438987732,-0.15261876583099365,-0.028577925637364388,-0.09100484848022461,-0.13314808905124664,-0.16609452664852142
