vladlanda/robotic-transformer/data/env_000_episode_0093.csv
sim_time_s,robot_box_x,robot_box_y,robot_box_z,robot_box_quat_w,robot_box_quat_x,robot_box_quat_y,robot_box_quat_z,robot_box_linvel_x,robot_box_linvel_y,robot_box_linvel_z,robot_box_angvel_x,robot_box_angvel_y,robot_box_angvel_z,cube_world_x,cube_world_y,cube_world_z,cube_quat_w,cube_quat_x,cube_quat_y,cube_quat_z,cube_linvel_x,cube_linvel_y,cube_linvel_z,cube_angvel_x,cube_angvel_y,cube_angvel_z,endpoint_world_x,endpoint_world_y,endpoint_world_z,endpoint_linvel_x,endpoint_linvel_y,endpoint_linvel_z,target_cube_world_x,target_cube_world_y,target_cube_world_z,gripper_actual_pos_rad_gp_leftgearjoint,gripper_actual_vel_rad_s_gp_leftgearjoint,gripper_actual_pos_rad_gp_rotatingjoint,gripper_actual_vel_rad_s_gp_rotatingjoint,motor_angle_rad_joint1,motor_angle_rad_joint2,motor_angle_rad_joint3,motor_angle_rad_joint4,motor_speed_rad_s_joint1,motor_speed_rad_s_joint2,motor_speed_rad_s_joint3,motor_speed_rad_s_joint4
0.0,0.0,0.0,0.0,1.0,0.0,0.0,0.0,0.0,0.0,0.0,0.0,0.0,0.0,-0.3618953227996826,0.7188841700553894,0.41999998688697815,1.0,0.0,0.0,0.0,0.0,0.0,0.0,0.0,0.0,0.0,3.42540442943573e-06,-0.005000244826078415,1.313499927520752,0.0,0.0,0.0,0.4669209420681,0.6663300395011902,0.42000001668930054,-1.5707999467849731,0.0,0.0,0.0,0.0,0.0,0.0,0.0,0.0,0.0,0.0,0.0
0.016666666666666666,0.002903904765844345,0.0021371510811150074,0.0,0.9998670816421509,0.0,0.0,0.016302283853292465,0.24138106405735016,0.1812630146741867,0.0,0.0,0.0,3.1420841217041016,-0.36189544200897217,0.7188838720321655,0.41999998688697815,1.0,3.279964630564791e-06,-8.339746386809566e-07,8.465587342243452e-08,-1.9833529222523794e-05,0.00017983045836444944,-6.132945418357849e-05,0.0009432713268324733,-0.004689474124461412,-0.00031981561915017664,-0.007096214219927788,0.003462547902017832,1.3159456253051758,-0.8120839595794678,0.9893938302993774,0.18092423677444458,0.4669209420681,0.6663300395011902,0.42000001668930054,-1.5301096439361572,3.000002384185791,-0.045854318886995316,-3.0000007152557373,0.0008771915454417467,0.0008033507619984448,0.0007173160556703806,0.0006177076720632613,0.11081331968307495,0.09746343642473221,0.083253875374794,0.06813307851552963
0.03333333333333333,0.008989901281893253,0.006741217337548733,0.0,0.9998569488525391,0.0,0.0,0.016914669424295425,0.4072025716304779,0.31427791714668274,0.0,0.0,0.0,-0.8682589530944824,-0.3618955612182617,0.7188838124275208,0.4200000464916229,1.0,3.3908354453160428e-06,-2.1324485715012997e-06,-3.710144014235084e-08,0.00026357831666246057,0.00026937946677207947,-0.00010509486310184002,-0.0017707672668620944,0.004130808170884848,-0.000135478752781637,-0.026810020208358765,0.02655312791466713,1.3166685104370117,-1.5142149925231934,1.6309118270874023,-0.07686568796634674,0.4669209420681,0.6663300395011902,0.42000001668930054,-1.4800903797149658,3.0000014305114746,-0.09589413553476334,-3.0000007152557373,0.0029239964205771685,0.0025633613113313913,0.0021649093832820654,0.0017261026659980416,0.15575136244297028,0.12895642220973969,0.10066796094179153,0.07077863812446594
0.05,0.018494492396712303,0.013832350261509418,0.0,0.9999471306800842,0.0,0.0,-0.010280173271894455,0.6355305910110474,0.47129443287849426,0.0,0.0,0.0,-4.073693752288818,-0.3618955910205841,0.7188838720321655,0.4200000464916229,1.0,3.7651125239790417e-06,-2.211879063906963e-06,5.622505128144439e-09,0.000265308452071622,0.0002669153327587992,-0.00010440615005791187,-0.001724260626360774,0.004177352879196405,-0.00012949221127200872,-0.05487625673413277,0.05839289724826813,1.3123230934143066,-1.8550312519073486,2.1135153770446777,-0.4325500726699829,0.4669209420681,0.6663300395011902,0.42000001668930054,-1.4300720691680908,2.999999761581421,-0.1459266096353531,-2.9999985694885254,0.005728745833039284,0.004824663046747446,0.003848225576803088,0.002795589854940772,0.19069229066371918,0.14828099310398102,0.10395004600286484,0.05760916694998741
0.06666666666666667,0.030874818563461304,0.023316139355301857,0.0,0.9998051524162292,0.0,0.0,-0.019739020615816116,0.7736262083053589,0.6158557534217834,0.0,0.0,0.0,-0.021723352372646332,-0.3618955910205841,0.7188838124275208,0.4200000464916229,0.9999999403953552,3.4066883927152958e-06,-2.285532218593289e-06,4.300976286231162e-07,0.0002670241810847074,0.00026791772688739,-0.00010438147000968456,-0.00174069800414145,0.00421178387477994,-0.00012850729399360716,-0.08873330056667328,0.09306927025318146,1.3027088642120361,-2.0748050212860107,2.1913347244262695,-0.7112807631492615,0.4669209420681,0.6663300395011902,0.42000001668930054,-1.3800468444824219,2.9999985694885254,-0.11854591220617294,3.000000238418579,0.007984131574630737,0.006269173230975866,0.004441620782017708,0.0024955999106168747,0.10827573388814926,0.049741361290216446,-0.010963816195726395,-0.07387030869722366
0.08333333333333333,0.03692176938056946,0.0367223359644413,0.0,0.9990538358688354,0.0,0.0,-0.043490346521139145,0.22763001918792725,0.878756046295166,0.0,0.0,0.0,-3.7957026958465576,-0.3618955910205841,0.7188838124275208,0.4200000464916229,0.9999999403953552,3.626031229941873e-06,-2.3352447442448465e-06,3.032197639640799e-07,0.0002661392209120095,0.0002668500819709152,-0.00010405294597148895,-0.0017282416811212897,0.00419628107920289,-0.00012790791515726596,-0.11824602633714676,0.13326168060302734,1.2889773845672607,-1.4988031387329102,2.6379432678222656,-0.8665341138839722,0.4669209420681,0.6663300395011902,0.42000001668930054,-1.3300471305847168,3.0000011920928955,-0.1505415290594101,-2.999999523162842,0.0035079014487564564,0.0009830036433413625,-0.0017088968306779861,-0.004577029496431351,-0.39546453952789307,-0.4565449655056,-0.5203922390937805,-0.5872243046760559
0.1,0.046841658651828766,0.051668453961610794,0.0,0.9954985976219177,0.0,0.0,-0.0947764441370964,0.7385934591293335,0.9037333726882935,0.0,0.0,0.0,-6.95064115524292,-0.3618955910205841,0.7188838124275208,0.4200000464916229,1.0,3.4220790894323727e-06,-2.3084901386027923e-06,1.7962952369998675e-07,0.00026681559393182397,0.0002680041070561856,-0.00010440824553370476,-0.001743067754432559,0.004207110498100519,-0.0001289140636799857,-0.14495418965816498,0.17916014790534973,1.2744134664535522,-1.7009751796722412,2.8988003730773926,-0.9418261647224426,0.4669209420681,0.6663300395011902,0.42000001668930054,-1.2800427675247192,3.000000476837158,-0.18987499177455902,-1.788487434387207,0.001512218383140862,-0.0025689483154565096,-0.006819870322942734,-0.011249598115682602,-0.030491996556520462,-0.13065317273139954,-0.2297753393650055,-0.32777953147888184
0.11666666666666667,0.05543862655758858,0.06371715664863586,0.0,0.9919665455818176,0.0,0.0,-0.12650062143802643,0.5423479676246643,0.683043897151947,0.0,0.0,0.0,-2.5652270317077637,-0.3618955910205841,0.7188838720321655,0.4200000464916229,1.0,3.7114921269676415e-06,-2.3325701477006078e-06,2.574244888364774e-07,0.0002648564986884594,0.0002663535706233233,-0.0001042329240590334,-0.0017182455630972981,0.004170000087469816,-0.00012915577099192888,-0.17719900608062744,0.22559326887130737,1.2567007541656494,-1.8839731216430664,3.0112876892089844,-1.0830919742584229,0.4669209420681,0.6663300395011902,0.42000001668930054,-1.230031132698059,2.999988317489624,-0.15013818442821503,3.000000476837158,-0.0011236716527491808,-0.006793596316128969,-0.012606438249349594,-0.01857067458331585,-0.07398319989442825,-0.18815924227237701,-0.29898586869239807,-0.4062778055667877
0.13333333333333333,0.061741460114717484,0.07299365103244781,0.0,0.9858294129371643,0.0,0.0,-0.16775090992450714,0.32984283566474915,0.4796667993068695,0.0,0.0,0.0,-5.788872718811035,-0.3618955910205841,0.7188838124275208,0.4200000464916229,0.9999999403953552,3.4247264011355583e-06,-2.301872882526368e-06,1.559877063073145e-07,0.0002670699032023549,0.000268113479251042,-0.0001044438686221838,-0.0017433533212170005,0.004212031606584787,-0.00012877589324489236,-0.2062692940235138,0.27917712926864624,1.236541986465454,-1.5714573860168457,3.507938861846924,-1.329654574394226,0.4669209420681,0.6663300395011902,0.42000001668930054,-1.1823689937591553,2.7035820484161377,-0.18193773925304413,-3.0000009536743164,-0.004059251863509417,-0.011552402749657631,-0.019125740975141525,-0.026785416528582573,-0.22199513018131256,-0.32784074544906616,-0.42956921458244324,-0.5270307064056396
0.15,0.0641864538192749,0.08318332582712173,0.0,0.9737166166305542,0.0,0.0,-0.22776302695274353,0.07341276109218597,0.6681362986564636,0.0,0.0,0.0,-8.34803295135498,-0.3618955910205841,0.7188838124275208,0.4200000464916229,1.0,3.7138852349016815e-06,-2.2076646928326227e-06,-1.690935107490077e-07,0.0002635338169056922,0.00026536203222349286,-0.00010422198101878166,-0.0017013110918924212,0.0041441041976213455,-0.00012960704043507576,-0.23617038130760193,0.3406739830970764,1.2082288265228271,-1.7451980113983154,4.000207424163818,-2.0557425022125244,0.4669209420681,0.6663300395011902,0.42000001668930054,-1.1503264904022217,1.2415692806243896,-0.1482376754283905,2.999999761581421,-0.009429484605789185,-0.018371647223830223,-0.027314020320773125,-0.036261215806007385,-0.3973529636859894,-0.4618142545223236,-0.5216728448867798,-0.5769364833831787
0.16666666666666666,0.0698143020272255,0.09382104128599167,0.0,0.9628114700317383,0.0,0.0,-0.270174115896225,0.35195788741111755,0.671574056148529,0.0,0.0,0.0,-4.089206695556641,-0.3618955910205841,0.7188838124275208,0.4200000464916229,0.9999999403953552,3.638363523350563e-06,-2.278693045809632e-06,2.700642482977855e-07,0.0002668263914529234,0.00026750031975097954,-0.00010410090908408165,-0.0017399657517671585,0.004210122860968113,-0.00012781827535945922,-0.2713407874107361,0.40501105785369873,1.167626142501831,-1.9735134840011597,4.151623249053955,-2.8323192596435547,0.4669209420681,0.6663300395011902,0.42000001668930054,-1.1064726114273071,2.9999992847442627,-0.18000848591327667,-2.999999761581421,-0.015468633733689785,-0.025196988135576248,-0.03485585004091263,-0.04445257782936096,-0.522724986076355,-0.5352910757064819,-0.5453702211380005,-0.5532450079917908
0.18333333333333332,0.0722588300704956,0.10269825905561447,0.0,0.9466227293014526,0.0,0.0,-0.32234370708465576,0.12696078419685364,0.4548117220401764,0.0,0.0,0.0,-7.451781272888184,-0.3618955910205841,0.7188838124275208,0.4200000464916229,1.0,3.3864323540910846e-06,-2.300143023603596e-06,1.4392101377325162e-07,0.00026674565742723644,0.0002678720629774034,-0.00010437029413878918,-0.0017412372399121523,0.004205969627946615,-0.0001287883351324126,-0.30224138498306274,0.47604531049728394,1.111331582069397,-1.5235097408294678,4.533422470092773,-3.786864995956421,0.4669209420681,0.6663300395011902,0.42000001668930054,-1.0564695596694946,3.00000262260437,-0.23003652691841125,-2.9999990463256836,-0.027859527617692947,-0.03717085346579552,-0.04640035703778267,-0.05556603893637657,-0.7504773736000061,-0.7183213233947754,-0.6854642033576965,-0.6525407433509827
0.2,0.0766618400812149,0.11233189702033997,0.0,0.9344019293785095,0.0,0.0,-0.3562204837799072,0.30280035734176636,0.5966275334358215,0.0,0.0,0.0,-3.1978375911712646,-0.3618955910205841,0.7188838720321655,0.4200000464916229,1.0,3.6755022847501095e-06,-2.3264412902790355e-06,2.211315717204343e-07,0.00026484468253329396,0.00026631311629898846,-0.00010421779006719589,-0.0017176943365484476,0.0041699339635670185,-0.00012910230725537986,-0.33004286885261536,0.5456605553627014,1.0387241840362549,-1.373828411102295,4.170720100402832,-4.820899963378906,0.4669209420681,0.6663300395011902,0.42000001668930054,-1.0064665079116821,3.0000009536743164,-0.28006261587142944,-2.999999761581421,-0.043089475482702255,-0.051212377846241,-0.05920511484146118,-0.06718158721923828,-0.959114134311676,-0.8800621032714844,-0.79194176197052,-0.7073028683662415
0.21666666666666667,0.07848186045885086,0.12372099608182907,0.0,0.9279091954231262,0.0,0.0,-0.37280622124671936,0.030390750616788864,0.7413084506988525,0.0,0.0,0.0,-1.6473041772842407,-0.3618955910205841,0.7188838124275208,0.4200000464916229,1.0,3.322260681670741e-06,-2.2079154859966366e-06,2.7427799409451836e-07,0.0002666290965862572,0.0002674963907338679,-0.00010426202788949013,-0.0017359007615596056,0.004204810131341219,-0.00012833699292968959,-0.3550427258014679,0.6076328158378601,0.9520263671875,-1.2881641387939453,3.44105863571167,-5.552679061889648,0.4669209420681,0.6663300395011902,0.42000001668930054,-0.9564574360847473,2.9999983310699463,-0.3300904631614685,-3.000000238418579,-0.05938845872879028,-0.0673862174153328,-0.07404740899801254,-0.08036527037620544,-0.9812827110290527,-0.9763734936714172,-0.9248659610748291,-0.8222948908805847
0.23333333333333334,0.08354225009679794,0.13100171089172363,0.0,0.9142892360687256,0.0,0.0,-0.4050619304180145,0.3315858542919159,0.3690064251422882,0.0,0.0,0.0,-4.883902072906494,-0.3618955910205841,0.7188838124275208,0.4200000464916229,1.0,3.656489070635871e-06,-2.3733603029540973e-06,-4.076755999449233e-07,0.0002661180915310979,0.0002672612317837775,-0.0001042359508574009,-0.0017336306627839804,0.004194698762148619,-0.00012855089153163135,-0.3724501132965088,0.6627556681632996,0.8524996638298035,-0.7320082187652588,2.9947192668914795,-6.302422046661377,0.4669209420681,0.6663300395011902,0.42000001668930054,-0.9064472317695618,2.9999983310699463,-0.3801206946372986,-2.999999523162842,-0.07425399124622345,-0.08217765390872955,-0.0883648619055748,-0.09296410530805588,-0.9874427914619446,-0.9754429459571838,-0.9567961096763611,-0.8366401791572571
0.25,0.08358977735042572,0.14240367710590363,0.0,0.907529890537262,0.0,0.0,-0.4199874699115753,0.007736349944025278,0.6412443518638611,0.0,0.0,0.0,-0.9349484443664551,-0.3618955910205841,0.7188838720321655,0.4200000464916229,1.0,3.630435230661533e-06,-2.2425372208090266e-06,1.1225562701611125e-08,0.0002667999651748687,0.0002670606190804392,-0.00010390975512564182,-0.0017342327628284693,0.004210583865642548,-0.0001270299544557929,-0.38270890712738037,0.6960117220878601,0.7443583011627197,-0.3516600728034973,1.375464677810669,-6.526055335998535,0.4669209420681,0.6663300395011902,0.42000001668930054,-0.8564366698265076,2.9999899864196777,-0.43015235662460327,-2.9999990463256836,-0.09115434437990189,-0.09892527759075165,-0.10502099245786667,-0.10957340151071548,-0.6697406768798828,-0.7318564653396606,-0.7894679307937622,-0.8414552211761475
0.26666666666666666,0.08317535370588303,0.14841803908348083,0.0,0.9133023619651794,0.0,0.0,-0.4072822630405426,-0.14348122477531433,0.34934359788894653,0.0,0.0,0.0,2.478034257888794,-0.3618955612182617,0.7188838124275208,0.4200000464916229,0.9999999403953552,3.7400498058559606e-06,-2.2362221443472663e-06,4.499843271332793e-07,0.00026479526422917843,0.0002667304943315685,-0.00010454165749251842,-0.0017189675709232688,0.004166619386523962,-0.00013016564480494708,-0.3937499523162842,0.7095458507537842,0.6378402709960938,-0.6302045583724976,0.16746386885643005,-6.300400733947754,0.4669209420681,0.6663300395011902,0.42000001668930054,-0.806427538394928,2.999964952468872,-0.48018375039100647,-2.999993085861206,-0.10344308614730835,-0.11157551407814026,-0.11804293096065521,-0.12299677729606628,-0.946343183517456,-0.934485673904419,-0.9127562642097473,-0.8992224335670471
0.2833333333333333,0.08472465723752975,0.15028616786003113,0.0,0.9123691916465759,0.0,0.0,-0.4093683362007141,0.12847672402858734,0.02825629524886608,0.0,0.0,0.0,-0.9077734351158142,-0.3618955910205841,0.7188838124275208,0.4200000464916229,1.0,3.3915318908839254e-06,-2.2911408450454473e-06,1.2461448761769134e-07,0.00026677080313675106,0.0002678920573089272,-0.00010437588207423687,-0.0017412164015695453,0.004206300713121891,-0.00012878398410975933,-0.3967732787132263,0.7167518138885498,0.5321935415267944,0.20613253116607666,0.295562744140625,-6.043428897857666,0.4669209420681,0.6663300395011902,0.42000001668930054,-0.756418764591217,3.0000016689300537,-0.5302138924598694,-3.000002145767212,-0.11975099891424179,-0.12786966562271118,-0.13442988693714142,-0.13942165672779083,-1.021063208580017,-1.0159082412719727,-1.0119715929031372,-1.0088286399841309
0.3,0.08316082507371902,0.14970296621322632,0.0,0.917883038520813,0.0,0.0,-0.3968510329723358,-0.17742252349853516,-0.05686623975634575,0.0,0.0,0.0,2.5109691619873047,-0.3618955910205841,0.7188838720321655,0.4200000464916229,1.0,3.6806275147682754e-06,-2.319080067536561e-06,2.0109595766371058e-07,0.0002647907240316272,0.0002662569750100374,-0.00010421173647046089,-0.0017167399637401104,0.004168936051428318,-0.00012909939687233418,-0.38868212699890137,0.7215439081192017,0.4388037919998169,0.8251308798789978,0.20447777211666107,-5.267970085144043,0.4669209420681,0.6663300395011902,0.42000001668930054,-0.7064108848571777,2.999999523162842,-0.5802415013313293,-3.000002145767212,-0.13762572407722473,-0.14545777440071106,-0.15180368721485138,-0.15662775933742523,-1.0143357515335083,-1.010877251625061,-1.0082296133041382,-1.0061001777648926
0.31666666666666665,0.07726074755191803,0.147588849067688,0.0,0.9165273308753967,0.0,0.0,-0.39997202157974243,-0.4216046631336212,-0.1582707315683365,0.0,0.0,0.0,-1.3287606239318848,-0.3618955910205841,0.7188838124275208,0.4200000464916229,1.0,3.3041440019587753e-06,-2.221521754108835e-06,2.5355475941069017e-07,0.0002666081127244979,0.0002674511633813381,-0.00010424340143799782,-0.0017353221774101257,0.004204528406262398,-0.00012828911712858826,-0.38895732164382935,0.7239940762519836,0.42936623096466064,0.13067446649074554,0.06616824120283127,-0.26303595304489136,0.4669209420681,0.6663300395011902,0.42000001668930054,-0.656406044960022,3.0000011920928955,-0.6306837797164917,-2.9991114139556885,-0.1496032178401947,-0.15730316936969757,-0.16328880190849304,-0.16636058688163757,-0.7333266139030457,-0.6876339912414551,-0.6307588219642639,-0.49970686435699463
0.3333333333333333,0.06912091374397278,0.1432347297668457,0.0,0.9211440682411194,0.0,0.0,-0.38922175765037537,-0.4485180377960205,-0.3433043360710144,0.0,0.0,0.0,2.223459482192993,-0.3617851436138153,0.7190631628036499,0.42000555992126465,0.9999988675117493,-0.0003426639304962009,0.00015488370263483375,-0.0013908389955759048,0.10793758183717728,0.17157408595085144,-0.008523079566657543,0.4661290645599365,-0.039458174258470535,-3.191073417663574,-0.38402214646339417,0.7263691425323486,0.4248505234718323,0.40629178285598755,0.1646975576877594,-0.2530286908149719,0.4669209420681,0.6663300395011902,0.42000001668930054,-0.6064003109931946,3.000000238418579,-0.6807408928871155,-2.9999587535858154,-0.16284134984016418,-0.16874343156814575,-0.17273668944835663,-0.1728164702653885,-0.6402649879455566,-0.5254773497581482,-0.3960352838039398,-0.21547375619411469
0.35,0.06008612737059593,0.13584288954734802,0.0,0.9191395044326782,0.0,0.0,-0.3939322531223297,-0.5856614708900452,-0.47707322239875793,0.0,0.0,0.0,-1.559782862663269,-0.3581044375896454,0.7241341471672058,0.42000022530555725,0.9991273283958435,-9.381222298543435e-06,1.1557765901670791e-05,-0.04176650568842888,0.31196755170822144,0.41041284799575806,-0.0004863336798734963,0.026825254783034325,-0.007905624806880951,-6.375844478607178,-0.3752754330635071,0.7303415536880493,0.42133191227912903,0.6606543064117432,0.3673277199268341,-0.17179502546787262,0.4669209420681,0.6663300395011902,0.42000001668930054,-0.556395411491394,2.999979257583618,-0.7307975888252258,-2.999995470046997,-0.17320726811885834,-0.17705075442790985,-0.17876240611076355,-0.17591871321201324,-0.5780847072601318,-0.4504002034664154,-0.3120422661304474,-0.14753976464271545
0.36666666666666664,0.0488947257399559,0.12631258368492126,0.0,0.9231429100036621,0.0,0.0,-0.38445696234703064,-0.7117875814437866,-0.6103357076644897,0.0,0.0,0.0,2.187765121459961,-0.35088661313056946,0.7332677841186523,0.4200000762939453,0.9927058815956116,-7.225070817185042e-07,4.072517185704783e-06,-0.12056129425764084,0.5186111927032471,0.665101170539856,-0.00010674097575247288,0.003981854300945997,-0.003389977151528001,-13.748226165771484,-0.3635694980621338,0.7397260665893555,0.4206714630126953,0.7874377965927124,0.7467749118804932,-0.0019255876541137695,0.4669209420681,0.6663300395011902,0.42000001668930054,-0.5063904523849487,2.9999818801879883,-0.7808218598365784,-3.000000238418579,-0.1827787458896637,-0.18409019708633423,-0.18311427533626556,-0.17733021080493927,-0.5090563893318176,-0.35268017649650574,-0.18859398365020752,-0.018538519740104675
0.3833333333333333,0.04062201827764511,0.11415964365005493,0.0,0.9210847616195679,0.0,0.0,-0.3893621861934662,-0.42986568808555603,-0.7647135257720947,0.0,0.0,0.0,-1.561962604522705,-0.3404105305671692,0.7458667755126953,0.420001357793808,0.9745421409606934,-1.331420207861811e-05,-2.913141770477523e-06,-0.22420422732830048,0.700973391532898,0.8103896975517273,-0.001541341538541019,0.023910513147711754,0.03470483794808388,-5.006636142730713,-0.34769678115844727,0.751123309135437,0.42014187574386597,1.0401697158813477,0.5757564306259155,0.10939569026231766,0.4669209420681,0.6663300395011902,0.42000001668930054,-0.45634976029396057,3.0000009536743164,-0.8308315277099609,-2.999976634979248,-0.19059337675571442,-0.18900586664676666,-0.18497225642204285,-0.17612498998641968,-0.44823789596557617,-0.2592405080795288,-0.060059454292058945,0.1339874416589737
0.4,0.029915792867541313,0.10062475502490997,0.0,0.9066482186317444,0.0,0.0,-0.42188745737075806,-0.7173552513122559,-0.8382853269577026,0.0,0.0,0.0,-5.211138725280762,-0.3209649920463562,0.7610713839530945,0.42191585898399353,0.9611126184463501,-0.02394241653382778,-0.0084986612200737,-0.27498555183410645,1.4953029155731201,0.758256733417511,-0.11963033676147461,29.62846565246582,-17.20882225036621,0.7350603342056274,-0.32580459117889404,0.7651122808456421,0.42235153913497925,1.6557703018188477,1.07966148853302,0.2744344472885132,0.4669209420681,0.6663300395011902,0.42000001668930054,-0.4079548120498657,2.2506327629089355,-0.8808469772338867,-3.0000007152557373,-0.1991526484489441,-0.19423700869083405,-0.18670037388801575,-0.17451326549053192,-0.4729461967945099,-0.27977702021598816,-0.07726158946752548,0.11098267883062363
0.4166666666666667,0.02231362648308277,0.08420094102621078,0.0,0.8779836297035217,0.0,0.0,-0.47869065403938293,-0.40563830733299255,-1.0330089330673218,0.0,0.0,0.0,-8.423735618591309,-0.28399530053138733,0.7823420763015747,0.4263131022453308,0.9416360855102539,-0.010088247247040272,-0.042580775916576385,-0.33377620577812195,3.2338244915008545,1.3173285722732544,0.714235246181488,-3.9185361862182617,-0.5819295048713684,3.957521677017212,-0.2883469760417938,0.7864114046096802,0.4265730082988739,2.8763389587402344,1.4943525791168213,0.4492838382720947,0.4669209420681,0.6663300395011902,0.42000001668930054,-0.3839532136917114,1.1358479261398315,-0.9308692812919617,-2.999840021133423,-0.20621629059314728,-0.19815927743911743,-0.18734672665596008,-0.17218877375125885,-0.4658626914024353,-0.2587551474571228,-0.04726402834057808,0.139677494764328
0.43333333333333335,0.0175601989030838,0.07148870825767517,0.0,0.8328947424888611,0.0,0.0,-0.5534314513206482,-0.20885558426380157,-0.749991238117218,0.0,0.0,0.0,-11.1749906539917,-0.2116120308637619,0.8116084933280945,0.4329606592655182,0.919462263584137,0.030337605625391006,-0.07842761278152466,-0.3840804994106293,5.737751007080078,1.566854476928711,0.3509376347064972,14.214123725891113,-7.674051761627197,20.706480026245117,-0.21495020389556885,0.8166830539703369,0.43301182985305786,5.517563343048096,2.255446434020996,0.49287763237953186,0.4669209420681,0.6663300395011902,0.42000001668930054,-0.36378616094589233,1.2196706533432007,-0.8936417698860168,2.997875452041626,-0.21795426309108734,-0.20555809140205383,-0.19060947000980377,-0.1720283478498459,-0.5673739910125732,-0.349692702293396,-0.15078653395175934,0.0006373263895511627
0.45,0.016442446038126945,0.061661142855882645,0.0,0.7943934202194214,0.0,0.0,-0.607403576374054,-0.004935892764478922,-0.5332082509994507,0.0,0.0,0.0,-6.447123050689697,-0.11868572235107422,0.8461339473724365,0.4428640604019165,0.8733713030815125,0.06458574533462524,-0.10584288835525513,-0.4710080325603485,5.930910110473633,1.1059119701385498,0.7204740047454834,6.631986141204834,-12.7004976272583,17.275169372558594,-0.12168025970458984,0.8523434400558472,0.44251614809036255,5.802295684814453,1.8572479486465454,0.6749143600463867,0.4669209420681,0.6663300395011902,0.42000001668930054,-0.34592553973197937,0.8875336647033691,-0.9196822643280029,-3.00000262260437,-0.22644780576229095,-0.21117375791072845,-0.19377270340919495,-0.17361001670360565,-0.4478561580181122,-0.29926371574401855,-0.18078213930130005,-0.11799740046262741
0.4666666666666667,0.013362576253712177,0.05567152053117752,0.0,0.7782197594642639,0.0,0.0,-0.6279920339584351,-0.19358354806900024,-0.2311239093542099,0.0,0.0,0.0,-1.7433720827102661,-0.02310968190431595,0.8644123077392578,0.4549272954463959,0.8096004128456116,0.07621032744646072,-0.10453873872756958,-0.5725474953651428,5.275043964385986,-0.22551606595516205,0.7026844024658203,-10.226876258850098,10.786394119262695,38.965572357177734,-0.02603781223297119,0.8717221021652222,0.4536293148994446,5.982547283172607,0.6354475021362305,0.8056724071502686,0.4669209420681,0.6663300395011902,0.42000001668930054,-0.3332785964012146,0.5324214696884155,-0.9697062373161316,-3.0000011920928955,-0.23598867654800415,-0.2176247239112854,-0.19763891398906708,-0.17584364116191864,-0.5669962167739868,-0.3871152698993683,-0.23255831003189087,-0.13029520213603973
0.48333333333333334,0.01317665632814169,0.046158574521541595,0.0,0.7548699975013733,0.0,0.0,-0.6558744311332703,0.007486806251108646,-0.6264380216598511,0.0,0.0,0.0,-5.1378631591796875,0.07032917439937592,0.8642133474349976,0.46411508321762085,0.7542002201080322,0.08244982361793518,-0.08982152491807938,-0.6452257037162781,5.213265895843506,-1.1503257751464844,0.3370431959629059,-10.765473365783691,-4.000999927520752,31.933124542236328,0.06813192367553711,0.8731151819229126,0.4625473618507385,5.656739234924316,-0.5275169014930725,0.5688890218734741,0.4669209420681,0.6663300395011902,0.42000001668930054,-0.3257579505443573,0.3160358965396881,-1.019729733467102,-3.000001907348633,-0.24005526304244995,-0.22005240619182587,-0.19777005910873413,-0.17437392473220825,-0.027581030502915382,-0.19280114769935608,-0.01877230405807495,0.11656267195940018
0.5,0.011155719868838787,0.042174600064754486,0.0,0.7441673278808594,0.0,0.0,-0.6679932475090027,-0.13985896110534668,-0.19562165439128876,0.0,0.0,0.0,-0.6421539783477783,0.1587858498096466,0.8458401560783386,0.47058796882629395,0.6876486539840698,0.058360930532217026,-0.08322359621524811,-0.7188930511474609,4.822503566741943,-1.887619137763977,0.31423333287239075,-0.197291299700737,-3.898871898651123,14.899908065795898,0.15744978189468384,0.855219841003418,0.46988746523857117,5.320927619934082,-1.3699259757995605,0.3676585853099823,0.4669209420681,0.6663300395011902,0.42000001668930054,-0.31862959265708923,0.4740437865257263,-1.0697518587112427,-3.0000011920928955,-0.2398495227098465,-0.22795410454273224,-0.20236237347126007,-0.1764792650938034,0.05341280251741409,-0.2967635989189148,-0.17914800345897675,-0.10322984308004379
0.5166666666666666,0.011627606116235256,0.03381737321615219,0.0,0.7259857654571533,0.0,0.0,-0.6877097487449646,0.04670229181647301,-0.5454703569412231,0.0,0.0,0.0,-4.052716255187988,0.23957794904708862,0.8202589154243469,0.47131481766700745,0.6346684098243713,0.03647885471582413,-0.06817830353975296,-0.7689063549041748,4.235624313354492,-2.3010849952697754,-0.06770750135183334,-2.190709114074707,-1.811901330947876,13.385659217834473,0.23960009217262268,0.8294131755828857,0.47112658619880676,4.676211833953857,-1.8923507928848267,-0.06749318540096283,0.4669209420681,0.6663300395011902,0.42000001668930054,-0.30713915824890137,0.7886053323745728,-1.1197739839553833,-3.0,-0.23496128618717194,-0.22821135818958282,-0.20170064270496368,-0.1754206120967865,0.2651751637458801,0.04162139445543289,0.08538933098316193,0.10041598975658417
0.5333333333333333,0.014341986738145351,0.030129609629511833,0.0,0.7197684645652771,0.0,0.0,-0.6942141652107239,0.18177859485149384,-0.18283583223819733,0.0,0.0,0.0,-0.10414955765008926,0.30859583616256714,0.7839560508728027,0.4664515554904938,0.5670603513717651,-0.003443593392148614,-0.05834728851914406,-0.8215997815132141,3.359562635421753,-2.8823421001434326,-0.5604996085166931,-13.0517578125,3.3307669162750244,15.76462173461914,0.3092695474624634,0.7929741144180298,0.4672051668167114,3.943164587020874,-2.366323232650757,-0.31733688712120056,0.4669209420681,0.6663300395011902,0.42000001668930054,-0.29444438219070435,0.6118549704551697,-1.169796109199524,-3.0000016689300537,-0.2337493598461151,-0.22920849919319153,-0.20204046368598938,-0.17563390731811523,0.20069684088230133,0.07657134532928467,0.05123494192957878,0.002489561215043068
0.55,0.019536128267645836,0.02312595769762993,0.0,0.7042474746704102,0.0,0.0,-0.709954559803009,0.3572089374065399,-0.47484275698661804,0.0,0.0,0.0,-3.413271903991699,0.3672524094581604,0.7479720115661621,0.4537978768348694,0.5068018436431885,-0.040009599179029465,-0.04067295417189598,-0.86017245054245,2.9886062145233154,-2.4109065532684326,-0.8244418501853943,-2.825615167617798,0.1687047928571701,3.0782995223999023,0.3681938648223877,0.7569282054901123,0.4555044174194336,3.1504364013671875,-2.202329635620117,-0.8897271156311035,0.4669209420681,0.6663300395011902,0.42000001668930054,-0.28359654545783997,0.6101184487342834,-1.2198182344436646,-2.99993634223938,-0.22631427645683289,-0.22415176033973694,-0.1987987756729126,-0.17444388568401337,0.41824525594711304,0.3116439878940582,0.17844130098819733,0.03221878036856651
0.5666666666666667,0.027149809524416924,0.019627269357442856,0.0,0.7013583183288574,0.0,0.0,-0.7128089070320129,0.4794822633266449,-0.16819187998771667,0.0,0.0,0.0,0.42355912923812866,0.4153974652290344,0.7126404047012329,0.43562984466552734,0.38104116916656494,-0.056377656757831573,-0.06513947993516922,-0.9205356240272522,2.6865792274475098,-1.9552034139633179,-1.120900273323059,-1.0634020566940308,-4.950318336486816,-26.79469108581543,0.41165924072265625,0.7205721139907837,0.4395545721054077,2.1736414432525635,-2.0788049697875977,-1.0737504959106445,0.4669209420681,0.6663300395011902,0.42000001668930054,-0.26621028780937195,1.4939237833023071,-1.2698391675949097,-2.999990463256836,-0.22079819440841675,-0.21996954083442688,-0.197204127907753,-0.17560027539730072,0.4604121446609497,0.3562873899936676,0.14150050282478333,-0.07427258044481277
0.5833333333333334,0.036994148045778275,0.01562679000198841,0.0,0.6880033612251282,0.0,0.0,-0.725707471370697,0.6394756436347961,-0.2552028298377991,0.0,0.0,0.0,-3.1862244606018066,0.44546791911125183,0.6914336681365967,0.4234936833381653,0.42621251940727234,-0.0720050036907196,-0.04603427276015282,-0.9005770087242126,1.2696348428726196,-1.2859032154083252,0.31967589259147644,16.412649154663086,-3.751232862472534,12.283257484436035,0.44406595826148987,0.6967873573303223,0.42815566062927246,1.417023777961731,-0.8452928066253662,-0.09732049703598022,0.4669209420681,0.6663300395011902,0.42000001668930054,-0.2369852513074875,1.6926583051681519,-1.231663465499878,3.0015854835510254,-0.2088039517402649,-0.2107955366373062,-0.1930338442325592,-0.17619195580482483,0.8670571446418762,0.6668833494186401,0.31714755296707153,-0.00859309732913971
0.6,0.044319700449705124,0.014262589626014233,0.0,0.6867408156394958,0.0,0.0,-0.7269023656845093,0.3659398853778839,-0.015589458867907524,0.0,0.0,0.0,0.6771066784858704,0.4640677571296692,0.6756575107574463,0.42232486605644226,0.44789788126945496,-0.05525852367281914,-0.02746819704771042,-0.8919525146484375,0.7788247466087341,-0.9591197967529297,-0.059759825468063354,1.6505367755889893,-1.7581125497817993,7.592639446258545,0.46151483058929443,0.6807074546813965,0.4274839162826538,0.724388837814331,-0.9010717272758484,0.018837135285139084,0.4669209420681,0.6663300395011902,0.42000001668930054,-0.243150532245636,-1.6884067058563232,-1.1816563606262207,2.9986624717712402,-0.19621025025844574,-0.20098958909511566,-0.18878978490829468,-0.17709992825984955,0.7078922390937805,0.5599928498268127,0.23244136571884155,-0.07049477845430374
0.6166666666666667,0.051662877202034,0.016359735280275345,0.0,0.675246000289917,0.0,0.0,-0.7375925779342651,0.47852516174316406,0.18619701266288757,0.0,0.0,0.0,-2.8082170486450195,0.4731435179710388,0.6674460768699646,0.42247921228408813,0.47749045491218567,-0.043368931859731674,-6.487358859885717e-06,-0.877565860748291,0.35042667388916016,-0.203709214925766,0.19372211396694183,5.385018825531006,6.128902912139893,4.233700752258301,0.47073519229888916,0.6729844808578491,0.4273790121078491,0.36331674456596375,-0.19576308131217957,0.1336725354194641,0.4669209420681,0.6663300395011902,0.42000001668930054,-0.2635800838470459,-0.8914640545845032,-1.2031502723693848,-2.996971845626831,-0.18330025672912598,-0.19108960032463074,-0.18485647439956665,-0.17857201397418976,0.8149259090423584,0.6289302706718445,0.26514506340026855,-0.06223521754145622
0.6333333333333333,0.06115059182047844,0.014941005036234856,0.0,0.6756693124771118,0.0,0.0,-0.7372048497200012,0.592563271522522,-0.09072097390890121,0.0,0.0,0.0,0.9797842502593994,0.47566187381744385,0.6645519137382507,0.42359620332717896,0.499675452709198,-0.055602747946977615,0.05194554477930069,-0.862864077091217,-0.014519315212965012,-0.13833263516426086,0.04035727679729462,4.017809867858887,2.723742961883545,2.16463565826416,0.4724375903606415,0.6698521375656128,0.42629390954971313,-0.13474062085151672,-0.16202053427696228,-0.08462142944335938,0.4669209420681,0.6663300395011902,0.42000001668930054,-0.29418402910232544,-2.614424467086792,-1.1698720455169678,2.99981427192688,-0.16915000975131989,-0.17962805926799774,-0.1790636032819748,-0.17791017889976501,0.6497939825057983,0.5444716215133667,0.26031988859176636,0.002055784920230508
0.65,0.06820190697908401,0.016948513686656952,0.0,0.6655451655387878,0.0,0.0,-0.7463575601577759,0.3506963551044464,0.13834364712238312,0.0,0.0,0.0,-2.6114959716796875,0.47543928027153015,0.6626747846603394,0.4231812357902527,0.50836580991745,-0.04382191225886345,0.07492747157812119,-0.8567553758621216,-0.012039786204695702,-0.08358708769083023,-0.009961867704987526,-0.2637006938457489,-0.7191895246505737,0.5009921193122864,0.47297677397727966,0.6693695187568665,0.427788108587265,0.04175468534231186,0.0808974876999855,0.1583646535873413,0.4669209420681,0.6663300395011902,0.42000001668930054,-0.3397807478904724,-2.763796091079712,-1.1912541389465332,-2.999324083328247,-0.1595802754163742,-0.17168909311294556,-0.1755443662405014,-0.1783493310213089,0.6259981989860535,0.5207760334014893,0.2587831914424896,0.025084229186177254
0.6666666666666666,0.07543720304965973,0.01591392047703266,0.0,0.6672321557998657,0.0,0.0,-0.7448498010635376,0.4493289887905121,-0.12271019071340561,0.0,0.0,0.0,1.183842420578003,0.47508421540260315,0.6618937849998474,0.42220357060432434,0.5100017189979553,-0.02970152534544468,0.050222065299749374,-0.8581922054290771,-0.08799313753843307,0.039978429675102234,-0.03501233831048012,-0.9943998456001282,-1.8221714496612549,5.26300048828125,0.47203493118286133,0.6704808473587036,0.4300292730331421,-0.12062107026576996,0.0966958999633789,0.13055947422981262,0.4669209420681,0.6663300395011902,0.42000001668930054,-0.37782296538352966,-1.8512600660324097,-1.2412371635437012,-2.9991791248321533,-0.1507919281721115,-0.16388539969921112,-0.1711999773979187,-0.17709685862064362,0.4095960259437561,0.39010992646217346,0.23075473308563232,0.08774127811193466
0.6833333333333333,0.08457785844802856,0.017773840576410294,0.0,0.6579970121383667,0.0,0.0,-0.7530205249786377,0.5724923014640808,0.13624915480613708,0.0,0.0,0.0,-2.3940532207489014,0.47359463572502136,0.6626219749450684,0.42052653431892395,0.5272347927093506,-0.00674000708386302,0.010558069683611393,-0.8496273159980774,-0.09106483310461044,0.04792480170726776,-0.12116493284702301,-2.9998278617858887,-5.8861165046691895,1.3233864307403564,0.47213608026504517,0.6735752820968628,0.43293386697769165,0.06416518241167068,0.26017096638679504,0.21359720826148987,0.4669209420681,0.6663300395011902,0.42000001668930054,-0.42503198981285095,-2.9998953342437744,-1.2912019491195679,-2.999346971511841,-0.14516480267047882,-0.15856139361858368,-0.1682378351688385,-0.17620864510536194,0.39239466190338135,0.3649213910102844,0.2282250076532364,0.10873602330684662
0.7,0.0954923927783966,0.015881890431046486,0.0,0.6609525680541992,0.0,0.0,-0.7504276633262634,0.681858479976654,-0.1318364441394806,0.0,0.0,0.0,1.3802090883255005,0.47304120659828186,0.6628832817077637,0.4200000762939453,0.5277082920074463,3.6697624636872206e-06,-5.510393293661764e-06,-0.8494256138801575,0.00043687981087714434,-0.0004079319769516587,-0.00024410500191152096,0.008199112489819527,-0.000485270720673725,-0.0023288477677851915,0.47162169218063354,0.678088366985321,0.43836039304733276,-0.14974963665008545,0.25320786237716675,0.47884291410446167,0.4669209420681,0.6663300395011902,0.42000001668930054,-0.47504517436027527,-3.0000009536743164,-1.3412203788757324,-3.000000238418579,-0.1394374668598175,-0.15274585783481598,-0.1639387160539627,-0.17319492995738983,0.1326763927936554,0.1912514865398407,0.16415150463581085,0.14578619599342346
0.7166666666666667,0.10853137075901031,0.014598444104194641,0.0,0.6530929803848267,0.0,0.0,-0.7572777271270752,0.8072579503059387,-0.11783481389284134,0.0,0.0,0.0,-2.3107199668884277,0.4729193150997162,0.6629805564880371,0.4200000464916229,0.5313830971717834,1.8342088878853247e-06,1.414430244039977e-06,-0.8471316695213318,0.00014132367505226284,0.00015531234384980053,-8.420227095484734e-05,-0.002262098714709282,0.00031079244217835367,0.0009959177114069462,0.47322583198547363,0.6816861033439636,0.4426443874835968,0.3355600833892822,0.1766241192817688,0.2034623920917511,0.4669209420681,0.6663300395011902,0.42000001668930054,-0.5250577330589294,-2.999997138977051,-1.3912386894226074,-2.9999947547912598,-0.1395459771156311,-0.15122364461421967,-0.16191351413726807,-0.17047636210918427,1.2997219300814322e-08,0.11144277453422546,0.17245709896087646,0.24837146699428558
0.7333333333333333,0.12320553511381149,0.009682293981313705,0.0,0.6233941912651062,0.0,0.0,-0.7819077372550964,0.9183974266052246,-0.36691319942474365,0.0,0.0,0.0,-5.533156394958496,0.4729193150997162,0.662980854511261,0.4200000464916229,0.5313835740089417,2.074083056413656e-07,-2.7303321985527873e-06,-0.8471312522888184,2.3002654415904544e-05,-0.0002418191434117034,-7.049762643873692e-05,0.006525724660605192,-0.002134604612365365,-0.00070564093766734,0.48381155729293823,0.6837161183357239,0.45383894443511963,0.9615488052368164,0.06502220034599304,1.2660942077636719,0.4669209420681,0.6663300395011902,0.42000001668930054,-0.5750694274902344,-2.9999501705169678,-1.4412569999694824,-2.9999966621398926,-0.14307735860347748,-0.15227432548999786,-0.16114450991153717,-0.16769306361675262,-0.3343948423862457,-0.16161483526229858,-0.019459839910268784,0.13123391568660736
0.75,0.13989673554897308,0.0078009651042521,0.0,0.6071091294288635,0.0,0.0,-0.7946184873580933,1.053609013557434,-0.06498322635889053,0.0,0.0,0.0,-1.4089148044586182,0.4729192852973938,0.662980854511261,0.4200000464916229,0.5313835144042969,2.3017804551273002e-07,-2.7774103728006594e-06,-0.8471313714981079,1.3825717360305134e-05,-0.00024248487898148596,-7.080077193677425e-05,0.006566247437149286,-0.0023090289905667305,-0.000694137008395046,0.5015212297439575,0.6900553703308105,0.4792976379394531,1.1674244403839111,0.6672613024711609,1.7140865325927734,0.4669209420681,0.6663300395011902,0.42000001668930054,-0.5949975252151489,0.33510133624076843,-1.4912753105163574,-3.000000238418579,-0.15036721527576447,-0.15721741318702698,-0.1641649305820465,-0.1687425673007965,-0.34358012676239014,-0.26648005843162537,-0.20754657685756683,-0.14689244329929352
0.7666666666666666,0.15386724472045898,0.008514192886650562,0.0,0.6163346767425537,0.0,0.0,-0.787484347820282,0.7581895589828491,0.08760089427232742,0.0,0.0,0.0,2.2944154739379883,0.4729193150997162,0.662980854511261,0.4200000464916229,0.5313834547996521,1.9029758391297946e-07,-2.768110107354005e-06,-0.8471314311027527,1.6475054508191533e-05,-0.00024233193835243583,-7.124734111130238e-05,0.006548652891069651,-0.002275482751429081,-0.0006993960123509169,0.5216525793075562,0.7002422213554382,0.5011229515075684,1.161399006843567,0.5897046327590942,0.9634561538696289,0.4669209420681,0.6663300395011902,0.42000001668930054,-0.567666232585907,2.714114189147949,-1.452569842338562,3.0000009536743164,-0.15518011152744293,-0.16070327162742615,-0.16652213037014008,-0.16999463737010956,-0.23930387198925018,-0.15766459703445435,-0.08419448137283325,-0.016199292615056038
0.7833333333333333,0.16300854086875916,0.004951917566359043,0.0,0.6131112575531006,0.0,0.0,-0.7899965643882751,0.50389164686203,-0.26526692509651184,0.0,0.0,0.0,-1.5036572217941284,0.4729192852973938,0.662980854511261,0.4200000464916229,0.5313833355903625,2.313904587936122e-07,-2.61665491052554e-06,-0.8471313714981079,1.400337896484416e-05,-0.00024248524277936667,-7.083103992044926e-05,0.006565318908542395,-0.0023069086018949747,-0.0006945180939510465,0.5351467132568359,0.7088494300842285,0.5114182233810425,0.3960195779800415,0.3598235845565796,0.43476322293281555,0.4669209420681,0.6663300395011902,0.42000001668930054,-0.5499258041381836,-0.335099995136261,-1.4025171995162964,2.9999990463256836,-0.1569894552230835,-0.16128338873386383,-0.1659640520811081,-0.16845260560512543,-0.2215109020471573,-0.1128799170255661,-0.010368921793997288,0.07575032860040665
0.8,0.16863223910331726,0.006430440582334995,0.0,0.6214956641197205,0.0,0.0,-0.7834175825119019,0.2672071158885956,0.05128888040781021,0.0,0.0,0.0,2.0585458278656006,0.4729192852973938,0.662980854511261,0.4200000464916229,0.5313833951950073,-1.308309016678777e-08,-2.7548951493372442e-06,-0.8471313714981079,1.8281687516719103e-05,-0.0002423442347208038,-7.163197733461857e-05,0.006539127789437771,-0.0022552567534148693,-0.0007033571018837392,0.5397827625274658,0.7137940526008606,0.5150521993637085,0.2932729125022888,0.4146936237812042,0.016850676387548447,0.4669209420681,0.6663300395011902,0.42000001668930054,-0.5337423086166382,2.0585525035858154,-1.420577883720398,-2.999999761581421,-0.1651928722858429,-0.16683928668498993,-0.16901159286499023,-0.16940027475357056,-0.27105674147605896,-0.17110000550746918,-0.07307235896587372,0.004547087009996176
0.8166666666666667,0.17045451700687408,0.003124054754152894,0.0,0.6174476146697998,0.0,0.0,-0.7866119742393494,0.06595193594694138,-0.29071474075317383,0.0,0.0,0.0,-1.6083656549453735,0.4729193150997162,0.662980854511261,0.4200000464916229,0.5313834547996521,2.0168894110383917e-08,-2.7313897135172738e-06,-0.8471313118934631,1.568991137901321e-05,-0.00024269366986118257,-7.107947021722794e-05,0.006562438793480396,-0.0022859065793454647,-0.0006986080552451313,0.5376050472259521,0.7191880941390991,0.5097185969352722,-0.5336962938308716,0.26692962646484375,-0.47094035148620605,0.4669209420681,0.6663300395011902,0.42000001668930054,-0.5326681137084961,-1.6127654314041138,-1.382076382637024,3.0,-0.16893522441387177,-0.16895365715026855,-0.1694769710302353,-0.1685493439435959,-0.18438376486301422,-0.08782456815242767,0.011559971608221531,0.0906207263469696
0.8333333333333334,0.17407414317131042,0.005326537415385246,0.0,0.6251574158668518,0.0,0.0,-0.7804986834526062,0.17041288316249847,0.1636868417263031,0.0,0.0,0.0,1.897237777709961,0.4729193150997162,0.662980854511261,0.4200000464916229,0.5313833951950073,2.2583583358937176e-07,-2.7695343760569813e-06,-0.8471313714981079,1.5302230167435482e-05,-0.00024262096849270165,-7.108110003173351e-05,0.006562079768627882,-0.0022921396885067225,-0.0006976023432798684,0.5274028182029724,0.7225843667984009,0.5033926963806152,-0.5746140480041504,0.38600677251815796,-0.2940356135368347,0.4669209420681,0.6663300395011902,0.42000001668930054,-0.5453884601593018,-0.039184775203466415,-1.400553584098816,-3.0,-0.1780053973197937,-0.17551612854003906,-0.1734784096479416,-0.17036719620227814,-0.34957030415534973,-0.2611503005027771,-0.1599389612674713,-0.07121508568525314
0.85,0.1744222491979599,0.0036693813744932413,0.0,0.6275860667228699,0.0,0.0,-0.7785471677780151,-0.010761584155261517,-0.09251900762319565,0.0,0.0,0.0,-0.31501853466033936,0.4729192852973938,0.662980854511261,0.4200000464916229,0.5313835144042969,2.1464894928158174e-07,-2.7939272513322067e-06,-0.8471313714981079,1.774180964275729e-05,-0.00024246069369837642,-7.162685506045818e-05,0.006544370204210281,-0.002264849143102765,-0.0007028385298326612,0.5172792673110962,0.7266536951065063,0.497333824634552,-0.6988669633865356,0.06667500734329224,-0.3290390968322754,0.4669209420681,0.6663300395011902,0.42000001668930054,-0.580685019493103,-2.9999921321868896,-1.4431793689727783,-2.153465986251831,-0.18191075325012207,-0.178015798330307,-0.1742478609085083,-0.1695074439048767,-0.340081125497818,-0.2231188863515854,-0.08432763069868088,0.05006938427686691
0.8666666666666667,0.17627333104610443,-0.0003210399008821696,0.0,0.6105231046676636,0.0,0.0,-0.7919984459877014,0.15927428007125854,-0.3022659718990326,0.0,0.0,0.0,-3.4947755336761475,0.4729193150997162,0.662980854511261,0.4200000464916229,0.5313834547996521,2.1321497456483485e-07,-2.7878872970177326e-06,-0.8471314311027527,1.6629726815153845e-05,-0.00024226619279943407,-7.128575816750526e-05,0.006546026561409235,-0.0022735712118446827,-0.0006995875155553222,0.5090901851654053,0.728561520576477,0.49548131227493286,-0.2582559287548065,0.1281241476535797,0.23946966230869293,0.4669209420681,0.6663300395011902,0.42000001668930054,-0.630691409111023,-2.9999735355377197,-1.4926172494888306,-2.9999992847442627,-0.18787682056427002,-0.18233714997768402,-0.176491841673851,-0.1696624457836151,-0.33435842394828796,-0.2520046830177307,-0.14149819314479828,-0.026710357517004013
0.8833333333333333,0.18081161379814148,-0.0016972215380519629,0.0,0.6058036088943481,0.0,0.0,-0.7956142425537109,0.29799968004226685,-0.026288822293281555,0.0,0.0,0.0,0.5925188660621643,0.4729193150997162,0.662980854511261,0.4200000464916229,0.5313835144042969,2.1438630426473537e-07,-2.812710590660572e-06,-0.8471312522888184,1.6070702258730307e-05,-0.00024234945885837078,-7.125153206288815e-05,0.0065506091341376305,-0.0022825542837381363,-0.000698871270287782,0.5064722299575806,0.73299241065979,0.505465567111969,-0.06490293890237808,0.40952807664871216,0.9618684649467468,0.4669209420681,0.6663300395011902,0.42000001668930054,-0.6573023200035095,-0.39758962392807007,-1.5426355600357056,-2.999999761581421,-0.19382122159004211,-0.18734455108642578,-0.18003468215465546,-0.1715879589319229,-0.2752881646156311,-0.2542632222175598,-0.19956323504447937,-0.13155771791934967
0.9,0.18269897997379303,-0.007290478330105543,0.0,0.6265257000923157,0.0,0.0,-0.7794007062911987,0.06835412234067917,-0.3613620400428772,0.0,0.0,0.0,3.76933217048645,0.4729192852973938,0.662980854511261,0.4200000464916229,0.5313834547996521,2.369206555385972e-07,-2.656968263181625e-06,-0.8471313118934631,1.40983538585715e-05,-0.0002424356061965227,-7.084803655743599e-05,0.006563597824424505,-0.0023054946213960648,-0.0006945855566300452,0.5064365863800049,0.7376681566238403,0.5204825401306152,-0.03867288678884506,0.0992235466837883,0.8809518814086914,0.4669209420681,0.6663300395011902,0.42000001668930054,-0.67583167552948,-1.6998672485351562,-1.503784418106079,2.9999985694885254,-0.1953636109828949,-0.18847350776195526,-0.1801968812942505,-0.1705479770898819,-0.18030931055545807,-0.1138809323310852,-0.01787680946290493,0.08903877437114716
0.9166666666666666,0.1857617348432541,-0.015111677348613739,0.0,0.630856990814209,0.0,0.0,-0.7758991122245789,0.22939246892929077,-0.5000525116920471,0.0,0.0,0.0,-0.35320568084716797,0.4729192852973938,0.662980854511261,0.4200000464916229,0.5313833355903625,2.2332436344640882e-08,-2.8388635655574035e-06,-0.8471314311027527,1.8533843103796244e-05,-0.0002426886057946831,-7.173907943069935e-05,0.006546461023390293,-0.002255343832075596,-0.0007049686973914504,0.5060200691223145,0.7386128306388855,0.5335364937782288,0.009036166593432426,-0.01154298335313797,0.8426286578178406,0.4669209420681,0.6663300395011902,0.42000001668930054,-0.7037298083305359,-1.6296484470367432,-1.5198700428009033,-3.000000238418579,-0.19872009754180908,-0.1906140148639679,-0.18064852058887482,-0.16915754973888397,-0.16359013319015503,-0.09103032201528549,0.007808927446603775,0.1139211431145668
0.9333333333333333,0.19128407537937164,-0.025276312604546547,0.0,0.6128700375556946,0.0,0.0,-0.7901837229728699,0.37350332736968994,-0.6820494532585144,0.0,0.0,0.0,-3.6431844234466553,0.4729193150997162,0.662980854511261,0.4200000464916229,0.5313835740089417,-2.7252925249854343e-08,-2.619552788019064e-06,-0.8471312522888184,1.8925167751149274e-05,-0.00024281845253426582,-7.176445797085762e-05,0.006548113189637661,-0.0022501174826174974,-0.0007061985088512301,0.5080940127372742,0.7374489307403564,0.5481522679328918,0.2666676342487335,-0.1553751677274704,1.056289553642273,0.4669209420681,0.6663300395011902,0.42000001668930054,-0.7268192172050476,-1.1611599922180176,-1.5418463945388794,0.11193349212408066,-0.20190325379371643,-0.1925104707479477,-0.18085673451423645,-0.16756018996238708,-0.15392066538333893,-0.07840202003717422,0.01841089315712452,0.12183931469917297
