vladlanda/robotic-transformer/data/env_000_episode_0252.csv
sim_time_s,robot_box_x,robot_box_y,robot_box_z,robot_box_quat_w,robot_box_quat_x,robot_box_quat_y,robot_box_quat_z,robot_box_linvel_x,robot_box_linvel_y,robot_box_linvel_z,robot_box_angvel_x,robot_box_angvel_y,robot_box_angvel_z,cube_world_x,cube_world_y,cube_world_z,cube_quat_w,cube_quat_x,cube_quat_y,cube_quat_z,cube_linvel_x,cube_linvel_y,cube_linvel_z,cube_angvel_x,cube_angvel_y,cube_angvel_z,endpoint_world_x,endpoint_world_y,endpoint_world_z,endpoint_linvel_x,endpoint_linvel_y,endpoint_linvel_z,target_cube_world_x,target_cube_world_y,target_cube_world_z,gripper_actual_pos_rad_gp_leftgearjoint,gripper_actual_vel_rad_s_gp_leftgearjoint,gripper_actual_pos_rad_gp_rotatingjoint,gripper_actual_vel_rad_s_gp_rotatingjoint,motor_angle_rad_joint1,motor_angle_rad_joint2,motor_angle_rad_joint3,motor_angle_rad_joint4,motor_speed_rad_s_joint1,motor_speed_rad_s_joint2,motor_speed_rad_s_joint3,motor_speed_rad_s_joint4
0.0,0.0,0.0,0.0,1.0,0.0,0.0,0.0,0.0,0.0,0.0,0.0,0.0,0.0,-0.3402021527290344,0.6216723322868347,0.41999998688697815,1.0,0.0,0.0,0.0,0.0,0.0,0.0,0.0,0.0,0.0,3.42540442943573e-06,-0.005000244826078415,1.313499927520752,0.0,0.0,0.0,0.40994468331336975,0.7551620006561279,0.42000001668930054,-1.5707999467849731,0.0,0.0,0.0,0.0,0.0,0.0,0.0,0.0,0.0,0.0,0.0
0.016666666666666666,0.0028964406810700893,0.0019989367574453354,0.0,0.9999534487724304,0.0,0.0,0.009649247862398624,0.24297384917736053,0.17598971724510193,0.0,0.0,0.0,1.9047667980194092,-0.340202271938324,0.6216720342636108,0.41999998688697815,1.0,3.2799905511637917e-06,-8.339794135281409e-07,8.465515577427141e-08,-1.9833774786093272e-05,0.00017983047291636467,-6.132945418357849e-05,0.0009432245860807598,-0.004689525347203016,-0.00031981084612198174,-0.0070713236927986145,0.0036384339910000563,1.3159422874450684,-0.8111326694488525,0.9993869066238403,0.18118804693222046,0.40994468331336975,0.7551620006561279,0.42000001668930054,-1.530109167098999,3.000002145767212,-0.04585764929652214,-3.000000238418579,0.0008772280998528004,0.0008036840008571744,0.0007171825272962451,0.0006167613319121301,0.11156356334686279,0.09814073890447617,0.08387760818004608,0.06871479749679565
0.03333333333333333,0.008712803944945335,0.006639281753450632,0.0,0.9999967217445374,0.0,0.0,0.002562951063737273,0.41395169496536255,0.3207547664642334,0.0,0.0,0.0,-1.677486538887024,-0.3402023911476135,0.6216719746589661,0.4200000464916229,1.0,3.3908531804627273e-06,-2.132488134520827e-06,-3.710428941872124e-08,0.0002635785494931042,0.0002693783608265221,-0.00010509602725505829,-0.0017707846127450466,0.004130862653255463,-0.00013547409616876394,-0.02695220336318016,0.02648371085524559,1.3165810108184814,-1.5344841480255127,1.6535789966583252,-0.07304096966981888,0.40994468331336975,0.7551620006561279,0.42000001668930054,-1.4800899028778076,3.0,-0.09589746594429016,-3.000000238418579,0.002902613254263997,0.002566803712397814,0.0021927834022790194,0.001778184319846332,0.1681654006242752,0.14303207397460938,0.11643684655427933,0.0882662758231163
0.05,0.018275639042258263,0.013838747516274452,0.0,0.9995874166488647,0.0,0.0,-0.028722740709781647,0.6380234956741333,0.479113906621933,0.0,0.0,0.0,-4.874093055725098,-0.3402024209499359,0.6216720342636108,0.4200000464916229,1.0,3.7651284401363228e-06,-2.2118861124909017e-06,5.622759147172474e-09,0.00026530996547080576,0.00026691515813581645,-0.00010440382175147533,-0.00172425655182451,0.004177390597760677,-0.00012948956282343715,-0.05574347823858261,0.05743676424026489,1.312314510345459,-1.878284215927124,2.035313844680786,-0.4172305464744568,0.40994468331336975,0.7551620006561279,0.42000001668930054,-1.4300715923309326,3.000002384185791,-0.14591489732265472,-3.000001907348633,0.005934098735451698,0.0050873951986432076,0.004168384708464146,0.003173207864165306,0.2065231055021286,0.16556844115257263,0.12271750718355179,0.07786648720502853
0.06666666666666667,0.03084559552371502,0.02349298633635044,0.0,0.9990817308425903,0.0,0.0,-0.042844709008932114,0.7887077331542969,0.6258410215377808,0.0,0.0,0.0,-0.7173032164573669,-0.3402024209499359,0.6216719746589661,0.4200000464916229,0.9999999403953552,3.406779342185473e-06,-2.285526988998754e-06,4.300881926155853e-07,0.00026702668401412666,0.00026791810523718596,-0.00010437914170324802,-0.0017406379338353872,0.004211799707263708,-0.00012850595521740615,-0.09247294813394547,0.09004181623458862,1.3022222518920898,-2.342698097229004,2.080336093902588,-0.7868686318397522,0.40994468331336975,0.7551620006561279,0.42000001668930054,-1.3800445795059204,3.000000238418579,-0.12188129127025604,3.000000476837158,0.008746207691729069,0.007187968585640192,0.0055175586603581905,0.003730335971340537,0.15722711384296417,0.10744686424732208,0.055548083037137985,-5.820766091346741e-09
0.08333333333333333,0.04633324220776558,0.030818292871117592,0.0,0.9975455403327942,0.0,0.0,-0.07002099603414536,0.9940553307533264,0.3774636387825012,0.0,0.0,0.0,-4.083038330078125,-0.3402024209499359,0.6216719746589661,0.4200000464916229,0.9999999403953552,3.6260987599234795e-06,-2.3352677089860663e-06,3.032194797469856e-07,0.00026614003581926227,0.0002668494707904756,-0.00010405294597148895,-0.001728319562971592,0.004196429159492254,-0.00012790538312401623,-0.1266440749168396,0.12868204712867737,1.2889776229858398,-1.7858960628509521,2.558530330657959,-0.7989031672477722,0.40994468331336975,0.7551620006561279,0.42000001668930054,-1.3300364017486572,3.0000033378601074,-0.1538510024547577,-3.0,0.010142294690012932,0.007441226858645678,0.004583364352583885,0.0015467186458408833,0.030688853934407234,-0.05588727071881294,-0.1447836011648178,-0.23694828152656555
0.1,0.055945370346307755,0.04101036116480827,0.0,0.9961535930633545,0.0,0.0,-0.08762409538030624,0.43550410866737366,0.708965539932251,0.0,0.0,0.0,-1.0390069484710693,-0.3402024209499359,0.6216719746589661,0.4200000464916229,1.0,3.422146846787655e-06,-2.30855562222132e-06,1.7962889842237928e-07,0.0002668158267624676,0.00026800387422554195,-0.00010440708138048649,-0.001743036205880344,0.00420708442106843,-0.00012890443031210452,-0.16265398263931274,0.16975924372673035,1.2689669132232666,-2.3716115951538086,2.5064196586608887,-1.4990332126617432,0.40994468331336975,0.7551620006561279,0.42000001668930054,-1.2800185680389404,2.999995470046997,-0.12027119100093842,3.000002145767212,0.004222336690872908,0.0008085196022875607,-0.002815015148371458,-0.006687471643090248,-0.46644800901412964,-0.4965881109237671,-0.5292561650276184,-0.565403938293457
0.11666666666666667,0.06876467913389206,0.0474703274667263,0.0,0.9929007291793823,0.0,0.0,-0.11894600838422775,0.8971916437149048,0.2640926241874695,0.0,0.0,0.0,-4.697962760925293,-0.3402024209499359,0.6216720342636108,0.4200000464916229,1.0,3.711535555339651e-06,-2.332714984731865e-06,2.574262509824621e-07,0.0002648575755301863,0.0002663539780769497,-0.00010423525236546993,-0.0017182475421577692,0.004170094151049852,-0.00012915261322632432,-0.19886215031147003,0.214146226644516,1.2424988746643066,-2.024559736251831,2.829653263092041,-1.68562650680542,0.40994468331336975,0.7551620006561279,0.42000001668930054,-1.230014681816101,3.000000476837158,-0.15225644409656525,-3.000000238418579,-5.459168824017979e-05,-0.004609034862369299,-0.009377106092870235,-0.014408239163458347,-0.20943668484687805,-0.2930973768234253,-0.37589994072914124,-0.4582248628139496
0.13333333333333333,0.0781804546713829,0.05416198819875717,0.0,0.9903705716133118,0.0,0.0,-0.13844196498394012,0.5993635654449463,0.3475878834724426,0.0,0.0,0.0,-1.1719701290130615,-0.3402024209499359,0.6216719746589661,0.4200000464916229,0.9999999403953552,3.424748229008401e-06,-2.302055008840398e-06,1.559933053840723e-07,0.00026707007782533765,0.00026811257703229785,-0.0001044438686221838,-0.0017433564644306898,0.004212007392197847,-0.00012876644905190915,-0.23617993295192719,0.2618589401245117,1.2071863412857056,-2.2727012634277344,3.038404703140259,-2.3158068656921387,0.40994468331336975,0.7551620006561279,0.42000001668930054,-1.1799993515014648,2.9999845027923584,-0.11867567151784897,2.9999992847442627,-0.008556187152862549,-0.013922177255153656,-0.019493944942951202,-0.025327395647764206,-0.28744611144065857,-0.36879226565361023,-0.4462653398513794,-0.5198764801025391
0.15,0.08590824902057648,0.057683538645505905,0.0,0.9857251644134521,0.0,0.0,-0.16836228966712952,0.41220009326934814,0.14766576886177063,0.0,0.0,0.0,-4.474567890167236,-0.3402024209499359,0.6216719746589661,0.4200000464916229,1.0,3.7139056985324714e-06,-2.207889565397636e-06,-1.6909206124182674e-07,0.00026353474822826684,0.0002653609844855964,-0.00010421895422041416,-0.00170131993945688,0.004144174512475729,-0.0001296033151447773,-0.2709362506866455,0.3164147138595581,1.1642557382583618,-1.8802021741867065,3.469090700149536,-2.8366827964782715,0.40994468331336975,0.7551620006561279,0.42000001668930054,-1.1299961805343628,3.0,-0.1506621390581131,-3.0000007152557373,-0.014449196867644787,-0.021149197593331337,-0.027978479862213135,-0.03499298915266991,-0.41092929244041443,-0.4840577244758606,-0.5525727272033691,-0.616432785987854
0.16666666666666666,0.09233228117227554,0.06227976083755493,0.0,0.9743850827217102,0.0,0.0,-0.22488611936569214,0.33269548416137695,0.33374521136283875,0.0,0.0,0.0,-7.722275733947754,-0.3402024209499359,0.6216719746589661,0.4200000464916229,0.9999999403953552,3.638332827904378e-06,-2.278889496665215e-06,2.700760148854897e-07,0.00026682682801038027,0.00026750026154331863,-0.00010410090908408165,-0.0017399408388882875,0.004210108891129494,-0.00012781588884536177,-0.30074435472488403,0.3797408938407898,1.1086130142211914,-1.5403937101364136,4.031497001647949,-3.7609565258026123,0.40994468331336975,0.7551620006561279,0.42000001668930054,-1.0799931287765503,2.9999992847442627,-0.20068316161632538,-3.000000238418579,-0.022865695878863335,-0.03053927980363369,-0.038261860609054565,-0.04608958587050438,-0.5886920690536499,-0.6284627318382263,-0.6637945771217346,-0.6947169899940491
0.18333333333333332,0.10222537815570831,0.06904664635658264,0.0,0.965158224105835,0.0,0.0,-0.2616668939590454,0.5703825950622559,0.46835270524024963,0.0,0.0,0.0,-3.3537771701812744,-0.3402024209499359,0.6216719746589661,0.4200000464916229,1.0,3.3864146189444e-06,-2.3003433398116613e-06,1.4393724256933638e-07,0.00026674557011574507,0.00026787290698848665,-0.00010437075980007648,-0.0017413449240848422,0.004206009674817324,-0.0001287815102841705,-0.32891663908958435,0.4411691725254059,1.0387678146362305,-1.3936398029327393,3.692596912384033,-4.6184163093566895,0.40994468331336975,0.7551620006561279,0.42000001668930054,-1.0299862623214722,3.000000476837158,-0.2507104277610779,-3.0000014305114746,-0.03231469541788101,-0.040309660136699677,-0.048295266926288605,-0.05633081495761871,-0.7634634971618652,-0.7424972057342529,-0.7203438878059387,-0.6973366737365723
0.2,0.10881296545267105,0.0742533728480339,0.0,0.9511716961860657,0.0,0.0,-0.3086622655391693,0.36505457758903503,0.27747949957847595,0.0,0.0,0.0,-6.641209125518799,-0.3402024209499359,0.6216720342636108,0.4200000464916229,1.0,3.6755166092916625e-06,-2.326601588720223e-06,2.2114075193258032e-07,0.00026484514819458127,0.0002663140476215631,-0.00010421662591397762,-0.0017176842084154487,0.004169825464487076,-0.00012909446377307177,-0.34958475828170776,0.5012573003768921,0.9530757665634155,-0.8595281839370728,3.5756888389587402,-5.507259368896484,0.40994468331336975,0.7551620006561279,0.42000001668930054,-0.9799759387969971,3.000001907348633,-0.3007388114929199,-2.9999990463256836,-0.04779805243015289,-0.05545031651854515,-0.06280168890953064,-0.06999500095844269,-0.9533957839012146,-0.9496163725852966,-0.9136176109313965,-0.8540821671485901
0.21666666666666667,0.11170100420713425,0.08130685985088348,0.0,0.9426884651184082,0.0,0.0,-0.33367425203323364,0.10120920836925507,0.46265819668769836,0.0,0.0,0.0,-2.0223655700683594,-0.3402024209499359,0.6216719746589661,0.4200000464916229,1.0,3.322310249131988e-06,-2.2080130293034017e-06,2.742734466210095e-07,0.0002666299988050014,0.00026749627431854606,-0.0001042631920427084,-0.001735798199661076,0.0042047807946801186,-0.00012833732762373984,-0.3656582236289978,0.5497702956199646,0.8577859401702881,-0.6699587106704712,2.5670909881591797,-5.913781642913818,0.40994468331336975,0.7551620006561279,0.42000001668930054,-0.9299652576446533,3.0,-0.35076969861984253,-3.000000476837158,-0.06365393847227097,-0.07134447246789932,-0.07870230078697205,-0.08578181266784668,-0.9881260395050049,-0.9904647469520569,-0.9854819774627686,-0.9637798070907593
0.23333333333333334,0.11865052580833435,0.08423086255788803,0.0,0.9291738867759705,0.0,0.0,-0.3696429133415222,0.4431682527065277,0.1326989084482193,0.0,0.0,0.0,-5.212026596069336,-0.3402024209499359,0.6216719746589661,0.4200000464916229,1.0,3.656517264971626e-06,-2.373446250203415e-06,-4.076827906374092e-07,0.0002661174803506583,0.00026726184296421707,-0.00010423432104289532,-0.001733548240736127,0.00419463450089097,-0.0001285507169086486,-0.37436962127685547,0.5897955298423767,0.7534302473068237,-0.16104328632354736,2.0457892417907715,-6.481632232666016,0.40994468331336975,0.7551620006561279,0.42000001668930054,-0.8799545764923096,2.9999983310699463,-0.4008013606071472,-2.9999988079071045,-0.0787176862359047,-0.0864308625459671,-0.0937594398856163,-0.10065501928329468,-0.9921849966049194,-0.993309497833252,-0.9942082762718201,-0.9949586391448975
0.25,0.12041439861059189,0.09124114364385605,0.0,0.9220747351646423,0.0,0.0,-0.387011855840683,0.09806744009256363,0.3882821798324585,0.0,0.0,0.0,-1.0775132179260254,-0.3402024209499359,0.6216720342636108,0.4200000464916229,1.0,3.6305575576989213e-06,-2.2426402210840024e-06,1.1203578509366707e-08,0.000266801449470222,0.00026706093922257423,-0.00010390859097242355,-0.00173426594119519,0.004210660234093666,-0.00012702868843916804,-0.37361496686935425,0.6066311597824097,0.6505842804908752,0.3294413983821869,0.38916319608688354,-5.843430519104004,0.40994468331336975,0.7551620006561279,0.42000001668930054,-0.8299446105957031,3.000000238418579,-0.4508324861526489,-3.000000238418579,-0.0965171530842781,-0.1039053201675415,-0.11101248115301132,-0.11774913966655731,-0.6964794993400574,-0.7563602924346924,-0.8132852911949158,-0.8649937510490417
0.26666666666666666,0.12061487138271332,0.09309656172990799,0.0,0.926952600479126,0.0,0.0,-0.3751785457134247,-0.07262556999921799,0.11145630478858948,0.0,0.0,0.0,2.3056793212890625,-0.3402023911476135,0.6216719746589661,0.4200000464916229,0.9999999403953552,3.7401903227873845e-06,-2.2363135485647945e-06,4.4995837811256933e-07,0.0002647954097483307,0.0002667296212166548,-0.00010453932918608189,-0.0017188823549076915,0.004166571889072657,-0.00013016258890274912,-0.3751833438873291,0.610403299331665,0.5587987899780273,-0.11119455844163895,-0.0876515582203865,-5.220837116241455,0.40994468331336975,0.7551620006561279,0.42000001668930054,-0.7799358367919922,2.9999947547912598,-0.500862717628479,-2.999998092651367,-0.10843492299318314,-0.11671794205904007,-0.12469189614057541,-0.1322251409292221,-0.9528154134750366,-0.9704664349555969,-0.9893348217010498,-1.0000722408294678
0.2833333333333333,0.1177745908498764,0.09302378445863724,0.0,0.9253361225128174,0.0,0.0,-0.37914782762527466,-0.21443742513656616,-0.04405215010046959,0.0,0.0,0.0,-1.3840516805648804,-0.3402024209499359,0.6216719746589661,0.4200000464916229,1.0,3.3917124255822273e-06,-2.2911347059562104e-06,1.2458362164124992e-07,0.00026677135610952973,0.0002678919117897749,-0.00010437588207423687,-0.0017412183806300163,0.004206273704767227,-0.00012878302368335426,-0.3688558340072632,0.6129150390625,0.4707179665565491,0.7678830027580261,0.22012728452682495,-5.077422142028809,0.40994468331336975,0.7551620006561279,0.42000001668930054,-0.7299273610115051,3.0000011920928955,-0.5508904457092285,-3.0000011920928955,-0.1259358674287796,-0.1340331733226776,-0.1418652981519699,-0.14928561449050903,-1.0125794410705566,-1.0095291137695312,-1.0071948766708374,-1.0053246021270752
0.3,0.11257956922054291,0.09055998921394348,0.0,0.9293540716171265,0.0,0.0,-0.36918964982032776,-0.35884344577789307,-0.1928064525127411,0.0,0.0,0.0,2.1160809993743896,-0.34040793776512146,0.6192504167556763,0.4199999272823334,0.9989585876464844,1.894286288006697e-05,-6.863231828901917e-05,-0.045624587684869766,0.00847603939473629,-0.16170674562454224,-0.0013294771779328585,-0.06500348448753357,0.06213441863656044,-7.039974212646484,-0.3621639013290405,0.6170738339424133,0.4243866205215454,0.19964313507080078,-0.07879265397787094,-0.3469545841217041,0.40994468331336975,0.7551620006561279,0.42000001668930054,-0.6799229383468628,3.000002145767212,-0.6013087630271912,-2.9964466094970703,-0.13895723223686218,-0.14717812836170197,-0.15501520037651062,-0.16193923354148865,-0.40581318736076355,-0.44012686610221863,-0.45687925815582275,-0.4114583730697632
0.31666666666666665,0.10503701865673065,0.08570107817649841,0.0,0.9272045493125916,0.0,0.0,-0.37455540895462036,-0.4962070882320404,-0.3320830762386322,0.0,0.0,0.0,-1.601549506187439,-0.34009110927581787,0.6172890067100525,0.42000001668930054,0.9971930384635925,3.867793907375017e-08,-1.313353777732118e-06,-0.07487260550260544,0.021249065175652504,-0.10055099427700043,-7.36163929104805e-06,0.00030303921084851027,4.0642924432177097e-05,-2.6653754711151123,-0.35836222767829895,0.6227830648422241,0.4205084443092346,0.21576660871505737,0.5450211763381958,0.2683175206184387,0.40994468331336975,0.7551620006561279,0.42000001668930054,-0.6299169659614563,2.9946463108062744,-0.651390790939331,-2.958251476287842,-0.1461971402168274,-0.15449689328670502,-0.16204942762851715,-0.16772711277008057,-0.34791141748428345,-0.3356897830963135,-0.2993449568748474,-0.2104794681072235
0.3333333333333333,0.09525399655103683,0.07855351269245148,0.0,0.9308308362960815,0.0,0.0,-0.36545029282569885,-0.635166585445404,-0.47242075204849243,0.0,0.0,0.0,1.9840190410614014,-0.3368630111217499,0.6245999932289124,0.4207233190536499,0.9933183789253235,-0.010993425734341145,0.00743165984749794,-0.11463990062475204,0.37958696484565735,0.8569691777229309,0.060812629759311676,-2.397226572036743,0.9610552787780762,-5.408066749572754,-0.35362592339515686,0.634934663772583,0.4227583408355713,0.3904595673084259,0.8405603170394897,0.054323434829711914,0.40994468331336975,0.7551620006561279,0.42000001668930054,-0.5799115300178528,2.9999935626983643,-0.7014147639274597,-2.999999761581421,-0.15330256521701813,-0.16067247092723846,-0.16689558327198029,-0.17050547897815704,-0.442557156085968,-0.36292004585266113,-0.25905025005340576,-0.11732473969459534
0.35,0.08880037814378738,0.06860724836587906,0.0,0.9283772706985474,0.0,0.0,-0.3716391324996948,-0.30373772978782654,-0.6433902382850647,0.0,0.0,0.0,-1.688524842262268,-0.3296438753604889,0.6399343609809875,0.42009422183036804,0.9891972541809082,-0.002181068528443575,0.00047870073467493057,-0.14657358825206757,0.3991709053516388,0.8679680228233337,-0.042388398200273514,2.101074695587158,-0.5717135071754456,-4.179032325744629,-0.34259891510009766,0.6483632326126099,0.41926342248916626,0.745853066444397,0.7046612501144409,0.04941495507955551,0.40994468331336975,0.7551620006561279,0.42000001668930054,-0.5298768877983093,2.9993889331817627,-0.7514272332191467,-2.979142427444458,-0.16144613921642303,-0.16687045991420746,-0.17076589167118073,-0.17155137658119202,-0.4777834713459015,-0.3354763984680176,-0.1713365912437439,0.01611737720668316
0.36666666666666664,0.07978078722953796,0.05710863694548607,0.0,0.9144173860549927,0.0,0.0,-0.4047725796699524,-0.6268966794013977,-0.715355634689331,0.0,0.0,0.0,-5.307998180389404,-0.3194228708744049,0.6580682992935181,0.4203682839870453,0.9842474460601807,-0.009127472527325153,0.0014479915844276547,-0.17655427753925323,0.8507834672927856,1.3325257301330566,0.07205716520547867,-3.429201364517212,1.1349961757659912,-5.26257848739624,-0.3266948461532593,0.6632471084594727,0.42066138982772827,1.178156852722168,1.157752513885498,0.10344399511814117,0.40994468331336975,0.7551620006561279,0.42000001668930054,-0.47981932759284973,3.000000476837158,-0.8014346957206726,-2.9999759197235107,-0.17160658538341522,-0.1741287112236023,-0.17478449642658234,-0.1720546931028366,-0.5839840769767761,-0.40795549750328064,-0.21301119029521942,-0.006489924155175686
0.3833333333333333,0.07388701289892197,0.042592547833919525,0.0,0.8864611387252808,0.0,0.0,-0.4628030061721802,-0.31589123606681824,-0.9171454906463623,0.0,0.0,0.0,-8.488286018371582,-0.29579439759254456,0.6886757016181946,0.42140141129493713,0.9735106229782104,-0.02863353304564953,-0.0012878490379080176,-0.22683775424957275,1.950361728668213,2.305609941482544,0.03981001302599907,0.5896981358528137,-5.125847339630127,-6.166635990142822,-0.29672932624816895,0.6894084215164185,0.42263853549957275,2.5356311798095703,1.9696404933929443,0.19997859001159668,0.40994468331336975,0.7551620006561279,0.42000001668930054,-0.42978769540786743,3.000001907348633,-0.8514512777328491,-2.9997947216033936,-0.1799730807542801,-0.179407998919487,-0.17663821578025818,-0.17032723128795624,-0.55442214012146,-0.33716270327568054,-0.10274957120418549,0.13431131839752197
0.4,0.06989874690771103,0.03277372196316719,0.0,0.8417614698410034,0.0,0.0,-0.5398496389389038,-0.19431354105472565,-0.4726194441318512,0.0,0.0,0.0,-11.488542556762695,-0.2264583259820938,0.7273498773574829,0.42467132210731506,0.9579310417175293,0.020739417523145676,-0.043992869555950165,-0.2828470468521118,5.581116676330566,2.8534069061279297,0.12875258922576904,32.183475494384766,-20.030622482299805,4.818281650543213,-0.22772769629955292,0.7290740609169006,0.4255901575088501,5.32818603515625,2.786789655685425,0.3435254991054535,0.40994468331336975,0.7551620006561279,0.42000001668930054,-0.3930397927761078,1.1984214782714844,-0.8146563172340393,3.0004870891571045,-0.19545961916446686,-0.19141161441802979,-0.18306846916675568,-0.17155613005161285,-0.8631037473678589,-0.7757018208503723,-0.4494989514350891,-0.1573120355606079
0.4166666666666667,0.0693311095237732,0.025748517364263535,0.0,0.8052722215652466,0.0,0.0,-0.5929052233695984,0.028383564203977585,-0.3834896981716156,0.0,0.0,0.0,-6.582510471343994,-0.13837558031082153,0.7739269137382507,0.43186089396476746,0.925324022769928,0.0671079084277153,-0.07884416729211807,-0.36476778984069824,5.73065185546875,1.98868989944458,0.5143690705299377,8.680645942687988,-10.878034591674805,12.393875122070312,-0.13901007175445557,0.7763491272926331,0.43260103464126587,5.445033073425293,2.545948028564453,0.5113865733146667,0.40994468331336975,0.7551620006561279,0.42000001668930054,-0.3749748170375824,1.0349502563476562,-0.841471791267395,-3.0000033378601074,-0.20554038882255554,-0.20215344429016113,-0.18976429104804993,-0.17479413747787476,-0.5397659540176392,-0.5583738088607788,-0.35485148429870605,-0.19015517830848694
0.43333333333333335,0.0666743740439415,0.023391995579004288,0.0,0.7890456914901733,0.0,0.0,-0.6143344640731812,-0.14975391328334808,-0.10360808670520782,0.0,0.0,0.0,-1.8665482997894287,-0.04648013040423393,0.8083473443984985,0.4405257999897003,0.8749805688858032,0.07926547527313232,-0.09477794170379639,-0.4681270718574524,5.7683329582214355,1.1013211011886597,0.587090015411377,18.817594528198242,-7.044628620147705,18.063718795776367,-0.047255225479602814,0.8109208345413208,0.4405896067619324,5.667339324951172,1.755639910697937,0.5734791159629822,0.40994468331336975,0.7551620006561279,0.42000001668930054,-0.3558790385723114,1.111585259437561,-0.8914957642555237,-3.000001907348633,-0.21719975769519806,-0.21294350922107697,-0.19699019193649292,-0.17918212711811066,-0.5936659574508667,-0.5416069030761719,-0.3742139935493469,-0.24652446806430817
0.45,0.06884818524122238,0.015018067322671413,0.0,0.7645349502563477,0.0,0.0,-0.6445822715759277,0.22393538057804108,-0.6485069990158081,0.0,0.0,0.0,-5.703032970428467,0.047807153314352036,0.8285830020904541,0.4466601014137268,0.8275903463363647,0.07306244969367981,-0.1040232926607132,-0.5467495322227478,5.667194843292236,-0.00798865407705307,0.4709095060825348,11.399076461791992,-10.36620807647705,23.378070831298828,0.04747021198272705,0.8317828178405762,0.4470200836658478,5.781800270080566,0.7314298152923584,0.42389166355133057,0.40994468331336975,0.7551620006561279,0.42000001668930054,-0.33874568343162537,0.8862707614898682,-0.9415197968482971,-3.0000052452087402,-0.22114361822605133,-0.21618980169296265,-0.19821065664291382,-0.17885205149650574,-0.1357530802488327,-0.06130950152873993,0.05798109620809555,0.1534229964017868
0.4666666666666667,0.06696031987667084,0.010723302140831947,0.0,0.7509361505508423,0.0,0.0,-0.6603748202323914,-0.08279324322938919,-0.19094064831733704,0.0,0.0,0.0,-1.0946632623672485,0.13699747622013092,0.8350120782852173,0.45499148964881897,0.7743740081787109,0.07753027230501175,-0.09956640750169754,-0.6200165152549744,5.035204887390137,-0.454362690448761,0.6621424555778503,-1.3790374994277954,4.337719440460205,6.069900989532471,0.13713893294334412,0.8369739055633545,0.4555056691169739,5.273225784301758,0.03612792491912842,0.5958131551742554,0.40994468331336975,0.7551620006561279,0.42000001668930054,-0.32266807556152344,0.9899579286575317,-0.9915438294410706,-2.999030351638794,-0.22906437516212463,-0.22172050178050995,-0.20139002799987793,-0.18027980625629425,-0.37693411111831665,-0.27080750465393066,-0.19444650411605835,-0.14959533512592316
0.48333333333333334,0.06781769543886185,0.010081814602017403,0.0,0.731903076171875,0.0,0.0,-0.6814087629318237,0.10383036732673645,0.025156956166028976,0.0,0.0,0.0,-4.285205364227295,0.21648360788822174,0.8291123509407043,0.45878317952156067,0.7126662135124207,0.06008528918027878,-0.11936678737401962,-0.6886566877365112,4.040284156799316,-1.3511415719985962,0.18583954870700836,-6.4420695304870605,6.652004241943359,13.355500221252441,0.2156071960926056,0.8331853151321411,0.4605218768119812,4.432552814483643,-0.5727828145027161,0.16856765747070312,0.40994468331336975,0.7551620006561279,0.42000001668930054,-0.30723056197166443,0.7295923829078674,-1.041566252708435,-2.99995493888855,-0.23394249379634857,-0.22511564195156097,-0.2040550410747528,-0.18256987631320953,-0.23909157514572144,-0.14504560828208923,-0.11356692016124725,-0.09943821281194687
0.5,0.07150701433420181,0.009266548790037632,0.0,0.7247965335845947,0.0,0.0,-0.688962996006012,0.23800843954086304,-0.021839985623955727,0.0,0.0,0.0,-0.25219273567199707,0.28171348571777344,0.8157014846801758,0.45590940117836,0.6628170013427734,0.018602274358272552,-0.12865832448005676,-0.7374107241630554,3.21938419342041,-1.4460095167160034,-0.2277313619852066,0.04323238506913185,-1.632552146911621,13.776113510131836,0.2802993655204773,0.8201342821121216,0.4592247009277344,3.522552728652954,-1.0852268934249878,-0.24216991662979126,0.40994468331336975,0.7551620006561279,0.42000001668930054,-0.2959795594215393,0.6337136030197144,-1.0915883779525757,-3.0000007152557373,-0.23586419224739075,-0.22558942437171936,-0.20443637669086456,-0.18316034972667694,-0.1538216918706894,-0.04883914068341255,-0.04259853437542915,-0.05818170681595802
0.5166666666666666,0.07307058572769165,0.011401494033634663,0.0,0.7100148797035217,0.0,0.0,-0.7041866779327393,0.02548852749168873,0.19615918397903442,0.0,0.0,0.0,-3.407872200012207,0.332999050617218,0.7993618845939636,0.44564032554626465,0.6420831680297852,-0.006769554689526558,-0.11254536360502243,-0.7582986354827881,2.453507661819458,-1.374189853668213,-0.7564042806625366,-0.7165553569793701,0.8515892624855042,15.34823989868164,0.33201900124549866,0.803139328956604,0.4492165148258209,2.823591947555542,-1.0688830614089966,-0.7902196645736694,0.40994468331336975,0.7551620006561279,0.42000001668930054,-0.28308096528053284,0.8489721417427063,-1.1416105031967163,-2.9999992847442627,-0.23619629442691803,-0.22516079246997833,-0.2049151062965393,-0.1847507208585739,0.06983678787946701,0.08603435009717941,-0.002815292216837406,-0.10065734386444092
0.5333333333333333,0.07541115581989288,0.010484951548278332,0.0,0.7074266076087952,0.0,0.0,-0.7067868113517761,0.1690470427274704,-0.09350559115409851,0.0,0.0,0.0,0.4554102122783661,0.37046512961387634,0.7813658714294434,0.429893434047699,0.6216453909873962,-0.0250112172216177,-0.08515273034572601,-0.7782546877861023,1.4560964107513428,-1.5554012060165405,-0.9711477756500244,1.9721466302871704,1.2985981702804565,17.154951095581055,0.36977052688598633,0.7841192483901978,0.43318381905555725,1.8546886444091797,-1.21307373046875,-1.0522387027740479,0.40994468331336975,0.7551620006561279,0.42000001668930054,-0.2678680419921875,0.8182278871536255,-1.191632628440857,-2.9999985694885254,-0.23314090073108673,-0.22207443416118622,-0.20363089442253113,-0.18542541563510895,0.1511661261320114,0.15674829483032227,0.048300012946128845,-0.07147900015115738
0.55,0.08012396097183228,0.013070859014987946,0.0,0.6948005557060242,0.0,0.0,-0.71920245885849,0.32195940613746643,0.1510918140411377,0.0,0.0,0.0,-2.960300922393799,0.3900827169418335,0.7717645764350891,0.42213737964630127,0.6215733885765076,-0.014755955897271633,-0.03694027662277222,-0.7823452353477478,0.3481033742427826,-0.6291111707687378,-0.0788673534989357,-2.27329158782959,7.812582969665527,22.470752716064453,0.3889417052268982,0.7731822729110718,0.4239177405834198,0.8370750546455383,-0.27080509066581726,-0.1550092250108719,0.40994468331336975,0.7551620006561279,0.42000001668930054,-0.2554480731487274,0.5714439749717712,-1.2417492866516113,-2.997955083847046,-0.2298177182674408,-0.21954797208309174,-0.20358772575855255,-0.18784455955028534,0.38398832082748413,0.27582302689552307,0.07813858985900879,-0.1073596328496933
0.5666666666666667,0.08267679810523987,0.011361263692378998,0.0,0.6942245364189148,0.0,0.0,-0.7197584509849548,0.07853293418884277,-0.14957991242408752,0.0,0.0,0.0,0.6499316096305847,0.39668020606040955,0.764958918094635,0.42148852348327637,0.6519975662231445,-0.028930960223078728,-0.021797791123390198,-0.757355272769928,0.17673359811306,-0.4853937029838562,0.002742662327364087,-0.85636967420578,-0.39296361804008484,5.055619716644287,0.3961060047149658,0.7671935558319092,0.42413052916526794,0.20641487836837769,-0.3973756432533264,0.11293908953666687,0.40994468331336975,0.7551620006561279,0.42000001668930054,-0.26116499304771423,-0.8965332508087158,-1.2917265892028809,-2.9991848468780518,-0.22322916984558105,-0.21434789896011353,-0.20121611654758453,-0.1881321221590042,0.32039085030555725,0.26378828287124634,0.12362717092037201,-0.009087893180549145
0.5833333333333334,0.08605831861495972,0.01357013639062643,0.0,0.6824459433555603,0.0,0.0,-0.7309360504150391,0.2176477164030075,0.16672584414482117,0.0,0.0,0.0,-2.824153423309326,0.39943888783454895,0.7625355124473572,0.42294925451278687,0.6612735986709595,-0.05464251711964607,-0.007199433632194996,-0.7481173276901245,0.17509901523590088,0.029865898191928864,0.1150156557559967,-2.0253031253814697,3.890308141708374,0.08764567971229553,0.398634135723114,0.7650099992752075,0.4260333776473999,0.17622002959251404,0.05782521516084671,0.14199671149253845,0.40994468331336975,0.7551620006561279,0.42000001668930054,-0.2705995738506317,-0.24873264133930206,-1.341681718826294,-2.9989490509033203,-0.21816150844097137,-0.21063512563705444,-0.20005261898040771,-0.18929354846477509,0.4991447627544403,0.3655194640159607,0.17258207499980927,6.617431608901825e-06
0.6,0.09165695309638977,0.01198660023510456,0.0,0.682660698890686,0.0,0.0,-0.7307354807853699,0.36134928464889526,-0.11192887276411057,0.0,0.0,0.0,0.9323602318763733,0.40200409293174744,0.7629409432411194,0.42357662320137024,0.6614127159118652,-0.06625677645206451,0.00536858756095171,-0.7470704913139343,0.14579075574874878,0.02121632732450962,0.013027846813201904,0.9119019508361816,1.3449745178222656,-0.07590364664793015,0.3994595408439636,0.7639862895011902,0.42824387550354004,-0.09021566808223724,-0.1418233960866928,0.14216986298561096,0.40994468331336975,0.7551620006561279,0.42000001668930054,-0.3107558488845825,-2.999999761581421,-1.387050747871399,-2.456812858581543,-0.2090560495853424,-0.20356805622577667,-0.19594569504261017,-0.18786156177520752,0.41758987307548523,0.3330770432949066,0.19505365192890167,0.06811327487230301
0.6166666666666667,0.09894747287034988,0.01316259615123272,0.0,0.6866000890731812,0.0,0.0,-0.7270352840423584,0.4651246666908264,0.1249927431344986,0.0,0.0,0.0,0.5591495633125305,0.403807133436203,0.7631219625473022,0.4226471483707428,0.6529580950737,-0.047570060938596725,0.014580066315829754,-0.7557580471038818,0.08777190744876862,0.008406376466155052,-0.07625633478164673,2.379687547683716,-1.9028489589691162,-2.6955912113189697,0.39838695526123047,0.7641388177871704,0.43137243390083313,-0.07361967861652374,0.09017977118492126,0.21904520690441132,0.40994468331336975,0.7551620006561279,0.42000001668930054,-0.36071789264678955,-2.9989190101623535,-1.4368175268173218,-2.999363660812378,-0.2021447867155075,-0.19818899035453796,-0.19272693991661072,-0.1864883005619049,0.4575577676296234,0.36434030532836914,0.24379456043243408,0.14548441767692566
0.6333333333333333,0.10804847627878189,0.011185639537870884,0.0,0.6853439807891846,0.0,0.0,-0.7282195091247559,0.5682448148727417,-0.14326424896717072,0.0,0.0,0.0,-0.5790543556213379,0.4040799140930176,0.7639845609664917,0.4204210340976715,0.62662672996521,-0.007826542481780052,-0.005850669927895069,-0.7792581915855408,0.002282256493344903,0.015839755535125732,-0.1098339632153511,5.698606967926025,-1.0554957389831543,-4.067138195037842,0.3976796269416809,0.7653909921646118,0.4354754090309143,-0.051943883299827576,-0.06067954748868942,0.28874820470809937,0.40994468331336975,0.7551620006561279,0.42000001668930054,-0.4107222557067871,-2.9999754428863525,-1.486828327178955,-2.999908208847046,-0.19362550973892212,-0.19093185663223267,-0.18700376152992249,-0.18187296390533447,0.3832121789455414,0.3581260144710541,0.32253313064575195,0.3103683590888977
0.65,0.11877492815256119,0.005895718932151794,0.0,0.6671189665794373,0.0,0.0,-0.7449511885643005,0.6842575073242188,-0.3901423215866089,0.0,0.0,0.0,-3.830444812774658,0.4040435254573822,0.7636367082595825,0.42000001668930054,0.6258225440979004,-1.093008336283674e-06,3.889954768965254e-06,-0.7799654006958008,-0.0018605643417686224,-0.0010410281829535961,-0.00010907254181802273,-0.00012184096704004332,-0.0023275259882211685,0.061821769922971725,0.3994922637939453,0.7663758993148804,0.4461222290992737,0.29763081669807434,0.11760588735342026,1.0888664722442627,0.40994468331336975,0.7551620006561279,0.42000001668930054,-0.4607356786727905,-2.9999799728393555,-1.5368462800979614,-2.9999990463256836,-0.18901750445365906,-0.18651239573955536,-0.18285362422466278,-0.17761798202991486,0.2209467589855194,0.2191653698682785,0.21643313765525818,0.23446062207221985
0.6666666666666666,0.1328665316104889,0.0053861625492572784,0.0,0.6610326766967773,0.0,0.0,-0.7503570914268494,0.7993103861808777,0.014531558379530907,0.0,0.0,0.0,0.06192407011985779,0.4040430784225464,0.7636370658874512,0.4200000464916229,0.6258226633071899,4.7359372956634616e-07,-3.841694706352428e-06,-0.779965341091156,0.0001793949631974101,-0.00029702860047109425,-0.00010196957737207413,0.006181139498949051,-0.0005830068257637322,-0.0005591596127487719,0.40476176142692566,0.7684777975082397,0.4730091691017151,0.3826691508293152,0.3311046361923218,2.0921268463134766,0.40994468331336975,0.7551620006561279,0.42000001668930054,-0.5107486844062805,-2.9999983310699463,-1.5868642330169678,-3.0,-0.1908402293920517,-0.1875847727060318,-0.18318310379981995,-0.17695969343185425,0.0015581762418150902,0.0017294172430410981,0.009555739350616932,0.03686198592185974
0.6833333333333333,0.14328421652317047,0.006386462599039078,0.0,0.6773694753646851,0.0,0.0,-0.7356429696083069,0.5704296231269836,0.10887027531862259,0.0,0.0,0.0,3.4696121215820312,0.4040430784225464,0.7636370062828064,0.4200000464916229,0.6258227229118347,5.42250859325577e-07,-3.3684518712107092e-06,-0.7799652218818665,0.00017457710055168718,-0.0002829137083608657,-0.00010008341632783413,0.005851082969456911,-0.0005703418282791972,-0.0005449476302601397,0.4164769649505615,0.7699286937713623,0.503852367401123,0.8995375633239746,-0.09520327299833298,1.712486743927002,0.40994468331336975,0.7551620006561279,0.42000001668930054,-0.5607593655586243,-2.9999990463256836,-1.6368790864944458,-3.000000238418579,-0.18927417695522308,-0.18592219054698944,-0.18114131689071655,-0.17414504289627075,0.14287583529949188,0.16381005942821503,0.20637929439544678,0.272938072681427
0.7,0.14958210289478302,0.003247704589739442,0.0,0.681217610836029,0.0,0.0,-0.7320809960365295,0.319683313369751,-0.1920037567615509,0.0,0.0,0.0,-0.37015941739082336,0.4040430784225464,0.7636370062828064,0.4200000464916229,0.6258229613304138,6.38685264675587e-07,-3.8633879739791155e-06,-0.7799651622772217,0.00017632741946727037,-0.00028290023328736424,-0.00010051834397017956,0.005840690806508064,-0.0005492413183674216,-0.0005487489979714155,0.4324638247489929,0.7681419253349304,0.5274174809455872,0.9652470350265503,-0.3144717216491699,1.2243438959121704,0.40994468331336975,0.7551620006561279,0.42000001668930054,-0.6107689738273621,-2.9999945163726807,-1.6868935823440552,-2.999999523162842,-0.18327325582504272,-0.17999128997325897,-0.17499616742134094,-0.16749602556228638,0.24143409729003906,0.27246367931365967,0.31180864572525024,0.3565189242362976
0.7166666666666667,0.1572224199771881,0.004768498707562685,0.0,0.6628970503807068,0.0,0.0,-0.7487105131149292,0.4422661364078522,0.12086448073387146,0.0,0.0,0.0,-3.7990968227386475,0.4040430784225464,0.7636370062828064,0.4200000464916229,0.6258227825164795,5.591517151515291e-07,-3.6953067592548905e-06,-0.7799652218818665,0.00018015872046817094,-0.00028108200058341026,-0.0001016850583255291,0.0057778204791247845,-0.0004967583226971328,-0.0005570499342866242,0.4497675895690918,0.7635265588760376,0.5475336909294128,1.1323957443237305,-0.20222944021224976,1.2587833404541016,0.40994468331336975,0.7551620006561279,0.42000001668930054,-0.6566898822784424,-2.5151684284210205,-1.7369080781936646,-2.999999761581421,-0.1815212517976761,-0.1776900738477707,-0.17206326127052307,-0.1639331877231598,0.21689535677433014,0.2156928926706314,0.2196752279996872,0.22288641333580017
0.7333333333333333,0.1662164032459259,0.007548267487436533,0.0,0.658239483833313,0.0,0.0,-0.7528085708618164,0.5699262022972107,0.28234872221946716,0.0,0.0,0.0,0.23093648254871368,0.4040430784225464,0.7636370062828064,0.4200000464916229,0.6258229613304138,5.727972620661603e-07,-3.7155082281969953e-06,-0.7799651622772217,0.00018021470168605447,-0.0002810787409543991,-0.00010170764289796352,0.005777385085821152,-0.0004962391685694456,-0.0005571895162574947,0.46690863370895386,0.7617168426513672,0.5674707889556885,0.8925052881240845,-0.025074906647205353,1.1903318166732788,0.40994468331336975,0.7551620006561279,0.42000001668930054,-0.6667966842651367,1.004631757736206,-1.724416971206665,3.000000238418579,-0.17640554904937744,-0.1730768084526062,-0.16790874302387238,-0.16030550003051758,0.30745914578437805,0.26514774560928345,0.2212010771036148,0.1683754026889801
0.75,0.17260266840457916,0.0070684850215911865,0.0,0.676180362701416,0.0,0.0,-0.7367361187934875,0.34675535559654236,-0.08671044558286667,0.0,0.0,0.0,3.657851457595825,0.4040430784225464,0.7636370062828064,0.4200000464916229,0.6258227229118347,5.620776164505514e-07,-3.7294964840839384e-06,-0.7799652814865112,0.00018037301197182387,-0.00028106794343329966,-0.00010175304487347603,0.005776143167167902,-0.000494420703034848,-0.0005575457471422851,0.4799671173095703,0.7605012655258179,0.5861014127731323,0.645073413848877,-0.15029194951057434,1.1053837537765503,0.40994468331336975,0.7551620006561279,0.42000001668930054,-0.6703469157218933,-1.23312509059906,-1.6743566989898682,3.0,-0.1687309890985489,-0.16634996235370636,-0.1622389853000641,-0.15592139959335327,0.38550615310668945,0.3446822464466095,0.290998637676239,0.21686570346355438
0.7666666666666666,0.17540930211544037,0.010534527711570263,0.0,0.6807620525360107,0.0,0.0,-0.7325046062469482,0.10816390812397003,0.18951304256916046,0.0,0.0,0.0,-0.2536374628543854,0.4040430784225464,0.7636370658874512,0.4200000464916229,0.6258226037025452,4.831423439100035e-07,-3.5938896871812176e-06,-0.7799654006958008,0.0001734182587824762,-0.0002833516919054091,-9.975512512028217e-05,0.005866395775228739,-0.0005871463799849153,-0.000542309251613915,0.4870232343673706,0.7583228349685669,0.5968843698501587,0.32175034284591675,-0.060735225677490234,0.303238183259964,0.40994468331336975,0.7551620006561279,0.42000001668930054,-0.6703820824623108,1.0322949886322021,-1.6242964267730713,3.0000014305114746,-0.1659575253725052,-0.16368234157562256,-0.15995004773139954,-0.15442511439323425,0.2925232946872711,0.2584501802921295,0.2101607322692871,0.1397899091243744
0.7833333333333333,0.1747984141111374,0.01059044897556305,0.0,0.6934298872947693,0.0,0.0,-0.7205241322517395,-0.09191501140594482,-0.0479452908039093,0.0,0.0,0.0,2.8273046016693115,0.4040430784225464,0.7636370062828064,0.4200000464916229,0.6258227229118347,6.269931986935262e-07,-3.6782637380383676e-06,-0.7799652218818665,0.0001754310360411182,-0.00028276926605030894,-0.00010031042620539665,0.005843382328748703,-0.0005591293447650969,-0.000546685594599694,0.48886680603027344,0.7557192444801331,0.6016897559165955,-0.061887290328741074,-0.16621756553649902,0.322166383266449,0.40994468331336975,0.7551620006561279,0.42000001668930054,-0.6566633582115173,0.6353078484535217,-1.5742371082305908,2.9999990463256836,-0.16223210096359253,-0.16014009714126587,-0.15686610341072083,-0.15220989286899567,0.17641468346118927,0.17332327365875244,0.1525891125202179,0.1064131036400795
0.8,0.17156793177127838,0.013854012824594975,0.0,0.6934898495674133,0.0,0.0,-0.7204663753509521,-0.22499248385429382,0.21755482256412506,0.0,0.0,0.0,-0.8788220286369324,0.4040430784225464,0.7636370658874512,0.4200000464916229,0.6258225440979004,5.299592089613725e-07,-3.369186288182391e-06,-0.7799654603004456,0.00017396688053850085,-0.0002833905164152384,-9.989598765969276e-05,0.005864452105015516,-0.0005806807894259691,-0.0005435217753984034,0.4884185791015625,0.7538387179374695,0.6027590036392212,0.02078358083963394,-0.05097796767950058,-0.0654045045375824,0.40994468331336975,0.7551620006561279,0.42000001668930054,-0.6411485075950623,1.1669021844863892,-1.5241844654083252,2.999999523162842,-0.16115577518939972,-0.15913495421409607,-0.15614326298236847,-0.15210646390914917,0.15058816969394684,0.12110191583633423,0.08468855172395706,0.03467399254441261
0.8166666666666667,0.16778971254825592,0.013754191808402538,0.0,0.7036427855491638,0.0,0.0,-0.7105539441108704,-0.2269613891839981,-0.04038676992058754,0.0,0.0,0.0,2.393836259841919,0.4040430784225464,0.7636370658874512,0.4200000464916229,0.6258224844932556,5.562206411013904e-07,-3.3866235753521323e-06,-0.7799654603004456,0.0001734983961796388,-0.00028308131732046604,-9.983568452298641e-05,0.005860391538590193,-0.0005853829206898808,-0.000542523164767772,0.4878917932510376,0.7522698640823364,0.6043696999549866,-0.08744055777788162,-0.10248710960149765,0.27741801738739014,0.40994468331336975,0.7551620006561279,0.42000001668930054,-0.6186604499816895,1.485235333442688,-1.5398460626602173,-3.000000238418579,-0.1581069976091385,-0.15655650198459625,-0.15414807200431824,-0.15090639889240265,0.08102420717477798,0.06685608625411987,0.045445699244737625,0.011285222135484219
0.8333333333333334,0.1666119247674942,0.0168545451015234,0.0,0.701453685760498,0.0,0.0,-0.7127150297164917,-0.017430707812309265,0.21578751504421234,0.0,0.0,0.0,-1.2035640478134155,0.4040430784225464,0.7636370658874512,0.4200000464916229,0.6258226037025452,5.452509981296316e-07,-3.5883497275790432e-06,-0.7799652814865112,0.00017482387193012983,-0.00028343158192001283,-0.00010010134428739548,0.005861778277903795,-0.0005692410049960017,-0.0005454467027448118,0.48824042081832886,0.7535417079925537,0.6044316291809082,0.13751740753650665,0.15911322832107544,-0.10642904043197632,0.40994468331336975,0.7551620006561279,0.42000001668930054,-0.5898874998092651,1.9080544710159302,-1.5010126829147339,3.000000238418579,-0.15770943462848663,-0.15663714706897736,-0.15470489859580994,-0.152018204331398,0.09961637854576111,0.052025072276592255,0.010213853791356087,-0.02975974977016449
0.85,0.16438162326812744,0.016674038022756577,0.0,0.7096313238143921,0.0,0.0,-0.7045732140541077,-0.17341481149196625,-0.0405723862349987,0.0,0.0,0.0,2.0926830768585205,0.4040430784225464,0.7636370658874512,0.4200000464916229,0.6258226037025452,5.621519676424214e-07,-3.4377042084088316e-06,-0.7799654006958008,0.00017369756824336946,-0.0002830736630130559,-9.987689554691315e-05,0.0058592502027750015,-0.0005826475680805743,-0.0005429434822872281,0.4887433648109436,0.753840982913971,0.6062174439430237,-0.07761324942111969,-0.03891252353787422,0.3351009488105774,0.40994468331336975,0.7551620006561279,0.42000001668930054,-0.5777027010917664,-0.26858454942703247,-1.4874507188796997,-1.0350706577301025,-0.15592564642429352,-0.15542489290237427,-0.15399621427059174,-0.15180207788944244,-0.01274094544351101,-0.024671772494912148,-0.034593626856803894,-0.045585814863443375
