vladlanda/robotic-transformer/data/env_000_episode_0286.csv
sim_time_s,robot_box_x,robot_box_y,robot_box_z,robot_box_quat_w,robot_box_quat_x,robot_box_quat_y,robot_box_quat_z,robot_box_linvel_x,robot_box_linvel_y,robot_box_linvel_z,robot_box_angvel_x,robot_box_angvel_y,robot_box_angvel_z,cube_world_x,cube_world_y,cube_world_z,cube_quat_w,cube_quat_x,cube_quat_y,cube_quat_z,cube_linvel_x,cube_linvel_y,cube_linvel_z,cube_angvel_x,cube_angvel_y,cube_angvel_z,endpoint_world_x,endpoint_world_y,endpoint_world_z,endpoint_linvel_x,endpoint_linvel_y,endpoint_linvel_z,target_cube_world_x,target_cube_world_y,target_cube_world_z,gripper_actual_pos_rad_gp_leftgearjoint,gripper_actual_vel_rad_s_gp_leftgearjoint,gripper_actual_pos_rad_gp_rotatingjoint,gripper_actual_vel_rad_s_gp_rotatingjoint,motor_angle_rad_joint1,motor_angle_rad_joint2,motor_angle_rad_joint3,motor_angle_rad_joint4,motor_speed_rad_s_joint1,motor_speed_rad_s_joint2,motor_speed_rad_s_joint3,motor_speed_rad_s_joint4
0.0,0.0,0.0,0.0,1.0,0.0,0.0,0.0,0.0,0.0,0.0,0.0,0.0,0.0,-0.38767337799072266,0.7460380792617798,0.41999998688697815,1.0,0.0,0.0,0.0,0.0,0.0,0.0,0.0,0.0,0.0,3.42540442943573e-06,-0.005000244826078415,1.313499927520752,0.0,0.0,0.0,0.4154989421367645,0.6706926226615906,0.42000001668930054,-1.5707999467849731,0.0,0.0,0.0,0.0,0.0,0.0,0.0,0.0,0.0,0.0,0.0
0.016666666666666666,0.002878817729651928,0.0021796354558318853,0.0,0.9998103380203247,0.0,0.0,0.019474171102046967,0.24089989066123962,0.18236954510211945,0.0,0.0,0.0,3.1418466567993164,-0.3876734972000122,0.7460377812385559,0.41999998688697815,1.0,3.279964630564791e-06,-8.339746386809566e-07,8.465587342243452e-08,-1.9833529222523794e-05,0.00017983045836444944,-6.132945418357849e-05,0.0009432713268324733,-0.004689474124461412,-0.00031981561915017664,-0.0071103256195783615,0.003382459282875061,1.3159375190734863,-0.8142374157905579,0.98697829246521,0.18095505237579346,0.4154989421367645,0.6706926226615906,0.42000001668930054,-1.5301095247268677,3.000001907348633,-0.04584817960858345,-3.0000014305114746,0.0008699203608557582,0.0007964746910147369,0.0007111303857527673,0.000610977818723768,0.11093438416719437,0.0975756049156189,0.0833505168557167,0.0682457834482193
0.03333333333333333,0.008962156251072884,0.0068003772757947445,0.0,0.9997982978820801,0.0,0.0,0.020084291696548462,0.40704110264778137,0.3152737319469452,0.0,0.0,0.0,-0.8691062331199646,-0.38767361640930176,0.7460377216339111,0.4200000464916229,1.0,3.390805204617209e-06,-2.132404688381939e-06,-3.708747797759315e-08,0.0002635775599628687,0.0002693787682801485,-0.0001050964929163456,-0.0017706695944070816,0.004130705259740353,-0.00013547964044846594,-0.027308138087391853,0.026316121220588684,1.3166159391403198,-1.5635159015655518,1.6181789636611938,-0.08268637210130692,0.4154989421367645,0.6706926226615906,0.42000001668930054,-1.4800903797149658,3.0000014305114746,-0.09588801115751266,-3.000000476837158,0.0029641538858413696,0.002616963582113385,0.0022321499418467283,0.0018062324961647391,0.1610194593667984,0.1356040984392166,0.10868886858224869,0.0801984891295433
0.05,0.01847410760819912,0.013905396685004234,0.0,0.9999762773513794,0.0,0.0,-0.006891133729368448,0.6363244652748108,0.4724424183368683,0.0,0.0,0.0,-4.073355674743652,-0.38767364621162415,0.7460377812385559,0.4200000464916229,1.0,3.7651225284207612e-06,-2.211832452303497e-06,5.631207500300661e-09,0.0002653110132087022,0.000266915129031986,-0.00010440382175147533,-0.0017243130132555962,0.00417749211192131,-0.00012949398660566658,-0.05589459091424942,0.057866886258125305,1.31216561794281,-1.8711578845977783,2.09237003326416,-0.4374843239784241,0.4154989421367645,0.6706926226615906,0.42000001668930054,-1.4300720691680908,3.000002145767212,-0.14592671394348145,-3.000000238418579,0.00584212364628911,0.004955760668963194,0.003997106570750475,0.002961857244372368,0.19390664994716644,0.1509460210800171,0.10605672001838684,0.05917461961507797
0.06666666666666667,0.03079879656434059,0.023397333920001984,0.0,0.999879777431488,0.0,0.0,-0.015507259406149387,0.7727864384651184,0.6163003444671631,0.0,0.0,0.0,-0.03624733164906502,-0.38767364621162415,0.7460377216339111,0.4200000464916229,0.9999999403953552,3.4066986245306907e-06,-2.2855422230350086e-06,4.301130900330463e-07,0.0002670245012268424,0.00026791836717166007,-0.0001043803058564663,-0.0017406563274562359,0.004211660008877516,-0.00012850432540290058,-0.09013857692480087,0.09190985560417175,1.3025095462799072,-2.104572296142578,2.1552839279174805,-0.7121045589447021,0.4154989421367645,0.6706926226615906,0.42000001668930054,-1.3800442218780518,2.9999990463256836,-0.13595981895923615,3.0000014305114746,0.008134461008012295,0.006433224771171808,0.004618963226675987,0.0026878505013883114,0.11213032901287079,0.053369589149951935,-0.007563258521258831,-0.07073011249303818
0.08333333333333333,0.03683507442474365,0.036772534251213074,0.0,0.9992247819900513,0.0,0.0,-0.03936818614602089,0.22708085179328918,0.875912606716156,0.0,0.0,0.0,-3.8076541423797607,-0.38767364621162415,0.7460377216339111,0.4200000464916229,1.0,3.697237389133079e-06,-2.188894086430082e-06,-2.632152131809562e-07,0.000263897207332775,0.0002658645680639893,-0.00010433699935674667,-0.0017081270925700665,0.00415023323148489,-0.0001299154246225953,-0.11950603127479553,0.13196119666099548,1.2889368534088135,-1.4555796384811401,2.656080722808838,-0.8456839919090271,0.4154989421367645,0.6706926226615906,0.42000001668930054,-1.3300443887710571,3.0000016689300537,-0.16784913837909698,-3.000000238418579,0.0036594343837350607,0.0011166499461978674,-0.001593715394847095,-0.004479266703128815,-0.39943405985832214,-0.4636424481868744,-0.5306316018104553,-0.6006404161453247
0.1,0.04669569060206413,0.05172910913825035,0.0,0.9958689212799072,0.0,0.0,-0.09080242365598679,0.7374762296676636,0.9041669964790344,0.0,0.0,0.0,-6.965177059173584,-0.38767364621162415,0.7460377216339111,0.4200000464916229,0.9999999403953552,3.6202645787852816e-06,-2.2652204734185943e-06,1.7464172685777157e-07,0.00026676952256821096,0.00026740870089270175,-0.0001040799543261528,-0.0017386189429089427,0.004209231119602919,-0.0001277522387681529,-0.1450715959072113,0.17817530035972595,1.2749238014221191,-1.611187219619751,2.919349193572998,-0.8935422897338867,0.4154989421367645,0.6706926226615906,0.42000001668930054,-1.2800337076187134,3.0000009536743164,-0.18638697266578674,0.49240946769714355,0.0014210572699084878,-0.0027252729050815105,-0.007043001241981983,-0.011539892293512821,-0.045802533626556396,-0.1495366096496582,-0.2522592544555664,-0.3539056181907654
0.11666666666666667,0.05518190562725067,0.06389948725700378,0.0,0.9924590587615967,0.0,0.0,-0.12257637083530426,0.5402833819389343,0.6846907734870911,0.0,0.0,0.0,-2.578183889389038,-0.38767364621162415,0.7460377216339111,0.4200000464916229,1.0,3.798244051722577e-06,-2.2627962152910186e-06,-1.50183694813677e-07,0.000263741152593866,0.00026566089945845306,-0.00010428996756672859,-0.0017054296331480145,0.004147564060986042,-0.00012979822349734604,-0.17592990398406982,0.22434768080711365,1.2583240270614624,-1.8205671310424805,2.9799585342407227,-1.005719542503357,0.4154989421367645,0.6706926226615906,0.42000001668930054,-1.2300423383712769,2.9999992847442627,-0.22133205831050873,-3.000000238418579,-0.0016048653051257133,-0.007356663234531879,-0.013254247605800629,-0.019305245950818062,-0.09003287553787231,-0.20487457513809204,-0.3163546025753021,-0.4243064522743225
0.13333333333333333,0.06097392365336418,0.07746294140815735,0.0,0.9865782856941223,0.0,0.0,-0.16328901052474976,0.28311794996261597,0.8539087772369385,0.0,0.0,0.0,-5.693318843841553,-0.38767364621162415,0.7460377812385559,0.4200000464916229,0.9999999403953552,3.55031761500868e-06,-2.2298022486211266e-06,2.929353684066882e-07,0.0002670320973265916,0.0002677934244275093,-0.00010417005978524685,-0.0017440698575228453,0.004213511943817139,-0.00012799800606444478,-0.20517472922801971,0.2785525619983673,1.2392399311065674,-1.601790189743042,3.6106934547424316,-1.285215139389038,0.4154989421367645,0.6706926226615906,0.42000001668930054,-1.180027961730957,2.999988317489624,-0.18743041157722473,3.0,-0.004834903869777918,-0.012434679083526134,-0.020111048594117165,-0.027868937700986862,-0.2514507472515106,-0.35593661665916443,-0.4559424817562103,-0.5513051748275757
0.15,0.06391299515962601,0.08893843740224838,0.0,0.9806751608848572,0.0,0.0,-0.19564321637153625,0.14034755527973175,0.5893988013267517,0.0,0.0,0.0,-3.0610549449920654,-0.38767361640930176,0.7460377216339111,0.4200000464916229,1.0,3.332025926283677e-06,-2.1019659470766783e-06,1.313283775061791e-07,0.00026730605168268085,0.00026859392528422177,-0.00010459637269377708,-0.0017496388172730803,0.004215574357658625,-0.00012928410433232784,-0.2365136444568634,0.33671730756759644,1.2126967906951904,-1.9374845027923584,3.5668227672576904,-1.873445749282837,0.4154989421367645,0.6706926226615906,0.42000001668930054,-1.153276801109314,0.4133402407169342,-0.21895401179790497,-2.9999983310699463,-0.009319350123405457,-0.01842651329934597,-0.027526121586561203,-0.036621902137994766,-0.2962660789489746,-0.3694077134132385,-0.43766576051712036,-0.5010493993759155
0.16666666666666666,0.06943703442811966,0.10062996298074722,0.0,0.9702783226966858,0.0,0.0,-0.24199169874191284,0.3343668580055237,0.7370602488517761,0.0,0.0,0.0,-6.530289173126221,-0.38767364621162415,0.7460377216339111,0.4200000464916229,1.0,3.7371282815001905e-06,-2.233031636933447e-06,-1.8763215337003203e-07,0.000264328729826957,0.0002662690822035074,-0.00010445667430758476,-0.0017118192045018077,0.004157449118793011,-0.00013001686602365226,-0.2686184048652649,0.40292519330978394,1.1745761632919312,-1.7844953536987305,4.346697807312012,-2.6959691047668457,0.4154989421367645,0.6706926226615906,0.42000001668930054,-1.113150715827942,2.9999988079071045,-0.19567681849002838,2.9999990463256836,-0.015790263190865517,-0.025624314323067665,-0.03539152815937996,-0.04509911313652992,-0.5557568669319153,-0.5630542635917664,-0.5685092210769653,-0.5724778175354004
0.18333333333333332,0.07233262062072754,0.1125621423125267,0.0,0.9632437825202942,0.0,0.0,-0.268628865480423,0.1256948858499527,0.6954572796821594,0.0,0.0,0.0,-2.22636342048645,-0.38767364621162415,0.7460377812385559,0.4200000464916229,0.9999999403953552,3.6600679322873475e-06,-2.302136635989882e-06,2.528700520088023e-07,0.00026690925005823374,0.0002676027943380177,-0.0001041253563016653,-0.0017412796150892973,0.0042115445248782635,-0.00012787021114490926,-0.302489697933197,0.4705284833908081,1.1232328414916992,-1.8274447917938232,4.178867340087891,-3.4235870838165283,0.4154989421367645,0.6706926226615906,0.42000001668930054,-1.068976879119873,2.323913335800171,-0.22712431848049164,-3.0000009536743164,-0.02666010707616806,-0.03628788888454437,-0.04582054913043976,-0.055274687707424164,-0.6747480034828186,-0.6543877720832825,-0.6324257254600525,-0.6094399690628052
0.2,0.07130345702171326,0.12577494978904724,0.0,0.9519802927970886,0.0,0.0,-0.3061594069004059,-0.13884112238883972,0.8419989347457886,0.0,0.0,0.0,-5.545015335083008,-0.38767364621162415,0.7460377216339111,0.4200000464916229,1.0,3.5906386983697303e-06,-2.3002876332611777e-06,1.387365955451969e-07,0.0002665475767571479,0.0002673207491170615,-0.00010424014180898666,-0.0017325275111943483,0.004203495569527149,-0.00012820970732718706,-0.3323413133621216,0.5413651466369629,1.0596565008163452,-1.5498225688934326,4.326377868652344,-4.189200401306152,0.4154989421367645,0.6706926226615906,0.42000001668930054,-1.0199720859527588,3.0000011920928955,-0.2771507203578949,-3.0000007152557373,-0.03978275880217552,-0.04889051988720894,-0.0578710213303566,-0.06675197184085846,-0.8485391736030579,-0.8064302206039429,-0.7627872228622437,-0.7182780504226685
0.21666666666666667,0.074221670627594,0.13495302200317383,0.0,0.9454065561294556,0.0,0.0,-0.32589325308799744,0.20006169378757477,0.44652068614959717,0.0,0.0,0.0,-1.3225271701812744,-0.38767364621162415,0.7460377812385559,0.4200000464916229,1.0,3.6067460769118043e-06,-2.260896735606366e-06,1.9630940428783106e-08,0.0002644705818966031,0.0002655840362422168,-0.00010396447032690048,-0.0017087544547393918,0.004164231941103935,-0.00012832245556637645,-0.35949212312698364,0.607900083065033,0.9824087023735046,-1.3753236532211304,3.8586745262145996,-5.070744514465332,0.4154989421367645,0.6706926226615906,0.42000001668930054,-0.9699689745903015,3.0000030994415283,-0.32717758417129517,-2.999999761581421,-0.052169665694236755,-0.060289666056632996,-0.06828700751066208,-0.07620307803153992,-0.8925855755805969,-0.7989369630813599,-0.7078709006309509,-0.6203446388244629
0.23333333333333334,0.07129116356372833,0.1474200040102005,0.0,0.9336252808570862,0.0,0.0,-0.35825100541114807,-0.17472364008426666,0.7255440354347229,0.0,0.0,0.0,-4.801204681396484,-0.38767361640930176,0.7460377216339111,0.4200000464916229,0.9999999403953552,3.742040007637115e-06,-2.2273377453529974e-06,4.589223294715339e-07,0.00026475079357624054,0.00026671396335586905,-0.0001045342069119215,-0.001718980842269957,0.004165731370449066,-0.00013019278412684798,-0.3783101439476013,0.6647359132766724,0.8892338275909424,-0.8653388023376465,3.1645021438598633,-5.81321907043457,0.4154989421367645,0.6706926226615906,0.42000001668930054,-0.9199597239494324,2.9999918937683105,-0.3772068917751312,-2.999988079071045,-0.06837689131498337,-0.07648153603076935,-0.08445461839437485,-0.0922451913356781,-0.6445457935333252,-0.7069934606552124,-0.7641382813453674,-0.8149513602256775
0.25,0.07357821613550186,0.1540687531232834,0.0,0.9282376170158386,0.0,0.0,-0.37198784947395325,0.14278672635555267,0.31417301297187805,0.0,0.0,0.0,-0.5948891639709473,-0.38767364621162415,0.7460377216339111,0.4200000464916229,1.0,3.3941641959245317e-06,-2.2818860543338815e-06,1.336301380661098e-07,0.0002667922817636281,0.0002679384488146752,-0.00010439474135637283,-0.0017417253693565726,0.004206556361168623,-0.00012884114403277636,-0.39435940980911255,0.7083433270454407,0.7894501686096191,-0.7283811569213867,2.142735719680786,-6.205052375793457,0.4154989421367645,0.6706926226615906,0.42000001668930054,-0.869949221611023,2.9999966621398926,-0.4272380769252777,-2.999997138977051,-0.07828934490680695,-0.08680707216262817,-0.09516249597072601,-0.10329809039831161,-0.8483100533485413,-0.8138411045074463,-0.7811022400856018,-0.7504532337188721
0.26666666666666666,0.07011834532022476,0.16444237530231476,0.0,0.9172935485839844,0.0,0.0,-0.39821165800094604,-0.21608930826187134,0.617671549320221,0.0,0.0,0.0,-4.0195536613464355,-0.38767364621162415,0.7460377812385559,0.4200000464916229,1.0,3.683193199321977e-06,-2.309913497811067e-06,2.101072880122956e-07,0.0002647913643158972,0.0002662580809555948,-0.00010421057231724262,-0.0017168582417070866,0.0041689565405249596,-0.00012909348879475147,-0.4012700319290161,0.7342963218688965,0.6831689476966858,-0.09678357094526291,1.0636851787567139,-6.234033584594727,0.4154989421367645,0.6706926226615906,0.42000001668930054,-0.8199396133422852,2.999997615814209,-0.4772697389125824,-3.0000011920928955,-0.09578180313110352,-0.10407159477472305,-0.11225419491529465,-0.12021128833293915,-0.6931490898132324,-0.7595392465591431,-0.8197453618049622,-0.8727796673774719
0.2833333333333333,0.07126202434301376,0.16905584931373596,0.0,0.9136919975280762,0.0,0.0,-0.4064073860645294,0.08356526494026184,0.18041841685771942,0.0,0.0,0.0,-0.06144532188773155,-0.38767364621162415,0.7460377216339111,0.4200000464916229,1.0,3.3066860396502307e-06,-2.2123508642835077e-06,2.6256594765072805e-07,0.00026660787989385426,0.00026745101786218584,-0.00010424572974443436,-0.0017352577997371554,0.004204442724585533,-0.00012828593025915325,-0.404873251914978,0.7454110383987427,0.5810003280639648,-0.02719542384147644,0.17673715949058533,-6.06141471862793,0.4154989421367645,0.6706926226615906,0.42000001668930054,-0.7699307799339294,2.999990224838257,-0.5273000001907349,-3.0000009536743164,-0.10737426578998566,-0.11602810025215149,-0.12453670799732208,-0.1327798217535019,-0.9573633670806885,-0.9162811636924744,-0.8765335083007812,-0.8390929102897644
0.3,0.06876509636640549,0.1707506775856018,0.0,0.9214863777160645,0.0,0.0,-0.388410747051239,-0.2335633933544159,0.07376158237457275,0.0,0.0,0.0,3.280200481414795,-0.38767364621162415,0.7460377216339111,0.4200000464916229,1.0,3.641024932221626e-06,-2.377741111558862e-06,-4.1939159700632445e-07,0.0002661148027982563,0.00026725901989266276,-0.00010423362255096436,-0.0017336049349978566,0.004194726701825857,-0.0001285561011172831,-0.4061066806316376,0.7479194402694702,0.4855458736419678,0.0604679174721241,-0.016917768865823746,-5.240392684936523,0.4154989421367645,0.6706926226615906,0.42000001668930054,-0.7199223637580872,3.0000009536743164,-0.5773287415504456,-3.000001907348633,-0.12480024993419647,-0.13329064846038818,-0.1416863054037094,-0.14982560276985168,-1.025536060333252,-1.0193287134170532,-1.0145941972732544,-1.0108048915863037
0.31666666666666665,0.06204034760594368,0.1706961691379547,0.0,0.9222213625907898,0.0,0.0,-0.3866623044013977,-0.45695406198501587,-0.04113521799445152,0.0,0.0,0.0,-0.7162719964981079,-0.38767364621162415,0.7460377812385559,0.4200000464916229,1.0,3.621596988523379e-06,-2.2888571038492955e-06,1.9691172781222122e-07,0.0002673400449566543,0.0002680283214431256,-0.00010420801118016243,-0.0017466888530179858,0.00421897554770112,-0.00012793613132089376,-0.3973979651927948,0.7433395981788635,0.39872249960899353,0.9298664331436157,-0.5293418765068054,-5.132741928100586,0.4154989421367645,0.6706926226615906,0.42000001668930054,-0.6699154376983643,2.9999940395355225,-0.6273554563522339,-3.0,-0.14237889647483826,-0.1506250500679016,-0.15883542597293854,-0.1668284833431244,-1.0000189542770386,-1.0000089406967163,-1.0000038146972656,-1.0000001192092896
0.3333333333333333,0.053937945514917374,0.16768765449523926,0.0,0.9282070994377136,0.0,0.0,-0.37206390500068665,-0.5018046498298645,-0.23863817751407623,0.0,0.0,0.0,2.698817014694214,-0.38810187578201294,0.7446914911270142,0.42036959528923035,0.9997866153717041,0.00528199365362525,-0.00402907095849514,-0.01955646649003029,0.0044870078563690186,0.004339978564530611,-0.00860978290438652,-0.017011230811476707,0.4022168219089508,0.46392926573753357,-0.39793768525123596,0.7488890886306763,0.4262901544570923,0.3321877717971802,0.6720057725906372,-0.14981351792812347,0.4154989421367645,0.6706926226615906,0.42000001668930054,-0.6204133033752441,3.0000014305114746,-0.6776425838470459,-2.9711339473724365,-0.13974353671073914,-0.1496538519859314,-0.15909530222415924,-0.1677761822938919,-0.035463832318782806,-0.10072243958711624,-0.14443522691726685,-0.16175509989261627
0.35,0.04404297471046448,0.1620606631040573,0.0,0.9276169538497925,0.0,0.0,-0.37353289127349854,-0.6346300840377808,-0.37785080075263977,0.0,0.0,0.0,-1.1385830640792847,-0.3829963505268097,0.7509046196937561,0.4207271933555603,0.9978793263435364,0.018490435555577278,-0.0011530999327078462,-0.062397800385951996,0.31127479672431946,0.3781677186489105,0.000511630205437541,0.026485830545425415,-0.002220364287495613,-4.950431823730469,-0.3917047381401062,0.7556616067886353,0.42359763383865356,0.5216938257217407,0.3763890266418457,-0.1792600452899933,0.4154989421367645,0.6706926226615906,0.42000001668930054,-0.5704081058502197,2.9999899864196777,-0.7276776432991028,-2.99999737739563,-0.14275871217250824,-0.15294930338859558,-0.16235025227069855,-0.17062155902385712,-0.2780434489250183,-0.25517410039901733,-0.21661509573459625,-0.1610366851091385
0.36666666666666664,0.03202657401561737,0.1541232019662857,0.0,0.9325603246688843,0.0,0.0,-0.36101412773132324,-0.7635200023651123,-0.5157589912414551,0.0,0.0,0.0,2.530240297317505,-0.3752180337905884,0.7598612308502197,0.4204939007759094,0.9907410740852356,0.01232224516570568,-0.0017988737672567368,-0.1351923793554306,0.545333743095398,0.6125168800354004,-0.007532727438956499,-0.3266817629337311,0.02040540613234043,-10.726642608642578,-0.38119184970855713,0.763862133026123,0.4208676218986511,0.7353601455688477,0.597525954246521,-0.13015706837177277,0.4154989421367645,0.6706926226615906,0.42000001668930054,-0.5204031467437744,2.9999825954437256,-0.7777135968208313,-2.9999892711639404,-0.14909905195236206,-0.15815803408622742,-0.1661660075187683,-0.1727885752916336,-0.4063049554824829,-0.31390851736068726,-0.20604459941387177,-0.08402769267559052
0.3833333333333333,0.01874692551791668,0.1439788043498993,0.0,0.9315443634986877,0.0,0.0,-0.36362776160240173,-0.8497331738471985,-0.6599713563919067,0.0,0.0,0.0,-1.2692487239837646,-0.365943968296051,0.7701573967933655,0.4200001358985901,0.9737669825553894,-1.1207605439267354e-06,7.487962648156099e-06,-0.2275470793247223,0.5862194299697876,0.6418954730033875,-0.00010289059719070792,-0.0014607845805585384,-0.0018858369439840317,-12.597884178161621,-0.3663142919540405,0.7727789878845215,0.4198354482650757,0.9879116415977478,0.5381054878234863,0.07018488645553589,0.4154989421367645,0.6706926226615906,0.42000001668930054,-0.47037509083747864,2.999758005142212,-0.8277400732040405,-2.999131917953491,-0.15710675716400146,-0.16394013166427612,-0.16943922638893127,-0.17331527173519135,-0.4536511301994324,-0.3085309863090515,-0.14399291574954987,0.03647789731621742
0.4,0.0075372979044914246,0.13116659224033356,0.0,0.9200829863548279,0.0,0.0,-0.39172354340553284,-0.5974711775779724,-0.819581151008606,0.0,0.0,0.0,-4.465036392211914,-0.34876543283462524,0.7843277454376221,0.4213138520717621,0.961342990398407,-0.02117474563419819,-0.004864485934376717,-0.27449485659599304,1.2465633153915405,0.7914537787437439,0.02033308893442154,16.242338180541992,-0.8467748165130615,-3.563838243484497,-0.3482193350791931,0.7848608493804932,0.4215273857116699,1.3656368255615234,0.9961874485015869,0.12779107689857483,0.4154989421367645,0.6706926226615906,0.42000001668930054,-0.4203261733055115,2.8922924995422363,-0.8777452111244202,-3.000399589538574,-0.16518256068229675,-0.16925181448459625,-0.17160376906394958,-0.17202669382095337,-0.43145692348480225,-0.2568613886833191,-0.0584334097802639,0.15867237746715546
0.4166666666666667,0.0005256524309515953,0.11537621915340424,0.0,0.8963450193405151,0.0,0.0,-0.4433571696281433,-0.34830403327941895,-1.0015621185302734,0.0,0.0,0.0,-7.66085958480835,-0.319181889295578,0.8054916858673096,0.42408305406570435,0.9424076080322266,-0.033872976899147034,-0.028467968106269836,-0.33152660727500916,2.5640017986297607,1.3737192153930664,0.010509517975151539,28.97625160217285,-22.494773864746094,9.949347496032715,-0.31839367747306824,0.8059384226799011,0.42403289675712585,2.2006187438964844,1.480576992034912,0.3959695100784302,0.4154989421367645,0.6706926226615906,0.42000001668930054,-0.3860253393650055,1.0883255004882812,-0.9277669787406921,-2.9998812675476074,-0.17273841798305511,-0.17376808822155,-0.1726870983839035,-0.16938212513923645,-0.4677332639694214,-0.27641284465789795,-0.06440087407827377,0.16193744540214539
0.43333333333333335,-0.003474780358374119,0.0989597737789154,0.0,0.8567887544631958,0.0,0.0,-0.5156674981117249,-0.1890963315963745,-0.9801015853881836,0.0,0.0,0.0,-10.642243385314941,-0.25750792026519775,0.8366652131080627,0.42693111300468445,0.9239369034767151,0.007309031207114458,-0.06998805701732635,-0.37601691484451294,5.027309894561768,1.7591876983642578,0.16967825591564178,8.557074546813965,-11.847155570983887,15.03068733215332,-0.25687921047210693,0.8367023468017578,0.4271162748336792,4.901009559631348,2.2822632789611816,0.2633240222930908,0.4154989421367645,0.6706926226615906,0.42000001668930054,-0.37080132961273193,0.9262188076972961,-0.8974149823188782,2.997516632080078,-0.1851472407579422,-0.1815861612558365,-0.17586590349674225,-0.16801926493644714,-0.827362596988678,-0.5284974575042725,-0.23908452689647675,0.031545497477054596
0.45,-0.011860310100018978,0.08950529992580414,0.0,0.7964645624160767,0.0,0.0,-0.6046851873397827,-0.5991374850273132,-0.42941486835479736,0.0,0.0,0.0,-13.912973403930664,-0.1535864621400833,0.8677347302436829,0.4341066777706146,0.8938359022140503,0.03637310862541199,-0.08809464424848557,-0.4381481111049652,7.382687091827393,1.4709012508392334,0.5355029106140137,2.6933035850524902,-13.894429206848145,7.640254974365234,-0.1536710560321808,0.8687624931335449,0.43426671624183655,7.307068347930908,1.8318283557891846,0.6766743659973145,0.4154989421367645,0.6706926226615906,0.42000001668930054,-0.35133838653564453,1.39646577835083,-0.9232561588287354,-3.000000238418579,-0.20146863162517548,-0.1972842514514923,-0.18787167966365814,-0.1738692671060562,-0.9172031879425049,-0.9124245047569275,-0.8834993243217468,-0.5200069546699524
0.4666666666666667,-0.01629963144659996,0.07730462402105331,0.0,0.7403689622879028,0.0,0.0,-0.6722007393836975,-0.22547896206378937,-0.7399609684944153,0.0,0.0,0.0,-9.134648323059082,-0.03456226736307144,0.8838042616844177,0.44446542859077454,0.8442338109016418,0.05185454338788986,-0.09009181708097458,-0.5257983207702637,7.235604286193848,-0.3907478153705597,0.744096040725708,21.26962661743164,-5.3535614013671875,17.281965255737305,-0.03470929339528084,0.8875454068183899,0.4448596239089966,7.037354946136475,0.2745506763458252,0.6312384605407715,0.4154989421367645,0.6706926226615906,0.42000001668930054,-0.3267652094364166,1.366585612297058,-0.9732666611671448,-3.0000014305114746,-0.21604694426059723,-0.2114698439836502,-0.20012784004211426,-0.17978359758853912,-0.9682676792144775,-0.9447165727615356,-0.7874753475189209,-0.3948662281036377
0.48333333333333334,-0.021513987332582474,0.06710105389356613,0.0,0.7090256810188293,0.0,0.0,-0.705182671546936,-0.3573189079761505,-0.5482137799263,0.0,0.0,0.0,-4.286251068115234,0.07767975330352783,0.8774620294570923,0.4527216851711273,0.7935628890991211,0.03964068368077278,-0.08814368396997452,-0.6007639169692993,6.254576683044434,-1.7207423448562622,0.6370391845703125,28.136640548706055,-10.219250679016113,26.97372817993164,0.0772622674703598,0.8828755021095276,0.4536079168319702,6.490324020385742,-0.9352906942367554,0.46376723051071167,0.4154989421367645,0.6706926226615906,0.42000001668930054,-0.309751957654953,0.6126831769943237,-1.0232897996902466,-3.00000262260437,-0.22874894738197327,-0.22412708401679993,-0.21287670731544495,-0.18703074753284454,-0.7674638032913208,-0.704887866973877,-0.6623986959457397,-0.3680971562862396
0.5,-0.024397533386945724,0.061836764216423035,0.0,0.7026885151863098,0.0,0.0,-0.7114976048469543,-0.10059810429811478,-0.1979340761899948,0.0,0.0,0.0,-0.10457189381122589,0.1726805865764618,0.8551239371299744,0.45880380272865295,0.7281602025032043,0.04803706333041191,-0.05736343190073967,-0.6813108921051025,4.793561935424805,-2.406973361968994,0.23907563090324402,3.7569127082824707,-10.929143905639648,17.83627700805664,0.1722227782011032,0.860987663269043,0.45926639437675476,5.072935104370117,-1.7794909477233887,0.2966078221797943,0.4154989421367645,0.6706926226615906,0.42000001668930054,-0.3033848702907562,0.1485258936882019,-1.0733119249343872,-3.0000014305114746,-0.24003830552101135,-0.2357761561870575,-0.2232489138841629,-0.19309984147548676,-0.029968583956360817,-0.7219986319541931,-0.6204431653022766,-0.3986567258834839
0.5166666666666666,-0.022664034739136696,0.051792774349451065,0.0,0.6857464909553528,0.0,0.0,-0.7278404831886292,0.17768023908138275,-0.7443131804466248,0.0,0.0,0.0,-3.848689079284668,0.24838224053382874,0.8260977864265442,0.4592236876487732,0.6965808868408203,0.043514758348464966,-0.030429938808083534,-0.7155106067657471,4.001376628875732,-2.224067449569702,-0.07541806250810623,-2.384403705596924,8.996944427490234,0.2991252541542053,0.24877166748046875,0.8311272263526917,0.45930445194244385,4.206953525543213,-2.053705930709839,-0.12716279923915863,0.4154989421367645,0.6706926226615906,0.42000001668930054,-0.29843974113464355,0.5113124251365662,-1.1233339309692383,-2.999854326248169,-0.23418676853179932,-0.24001140892505646,-0.2269127070903778,-0.19498211145401,0.46136629581451416,-0.007818156853318214,-0.0026456306222826242,0.04250771924853325
0.5333333333333333,-0.019493887200951576,0.045800186693668365,0.0,0.681854784488678,0.0,0.0,-0.7314875721931458,0.2054518610239029,-0.2332915961742401,0.0,0.0,0.0,0.3136861324310303,0.30827558040618896,0.7889115810394287,0.4536074697971344,0.6533910036087036,0.004519172012805939,-0.01930365525186062,-0.756760835647583,2.8541808128356934,-2.69128680229187,-0.4355747401714325,-4.4552083015441895,7.550853252410889,6.802892684936523,0.30883580446243286,0.7938501834869385,0.45465630292892456,3.178722381591797,-2.382627010345459,-0.4031316339969635,0.4154989421367645,0.6706926226615906,0.42000001668930054,-0.28640833497047424,0.7792078852653503,-1.173356056213379,-3.0000014305114746,-0.23251979053020477,-0.2399207502603531,-0.22911474108695984,-0.19655704498291016,0.07842230051755905,0.016724124550819397,-0.06634972989559174,-0.08225627988576889
0.55,-0.014012767001986504,0.03687126189470291,0.0,0.6677879095077515,0.0,0.0,-0.7443516254425049,0.34663107991218567,-0.5890660285949707,0.0,0.0,0.0,-3.1506600379943848,0.35538971424102783,0.7543964385986328,0.44048887491226196,0.6267395615577698,-0.029891418293118477,0.0031754293013364077,-0.7786487936973572,2.04866623878479,-2.5475354194641113,-0.8645691871643066,1.3597116470336914,-1.6984341144561768,28.60989761352539,0.3562564253807068,0.7584840059280396,0.44214409589767456,2.5355019569396973,-2.0692505836486816,-0.9396271705627441,0.4154989421367645,0.6706926226615906,0.42000001668930054,-0.2731717824935913,0.6387109160423279,-1.2233781814575195,-3.0000011920928955,-0.2256331592798233,-0.23444487154483795,-0.22593669593334198,-0.19544070959091187,0.42477431893348694,0.3842596709728241,0.2574204206466675,0.09059207141399384
0.5666666666666667,-0.0058730002492666245,0.03173971548676491,0.0,0.6659544110298157,0.0,0.0,-0.7459924221038818,0.5163551568984985,-0.2737841308116913,0.0,0.0,0.0,0.5826423168182373,0.3900156021118164,0.7201375961303711,0.4209868907928467,0.5888258218765259,-0.1043132096529007,0.002111034234985709,-0.8014975786209106,1.4113351106643677,-2.17061448097229,-1.2183853387832642,-5.8150715827941895,3.164537191390991,21.895309448242188,0.3903205990791321,0.7235326766967773,0.4247332215309143,1.813405156135559,-2.022066831588745,-1.1698706150054932,0.4154989421367645,0.6706926226615906,0.42000001668930054,-0.2626151144504547,0.6332494020462036,-1.2733979225158691,-3.0000016689300537,-0.22065414488315582,-0.22948303818702698,-0.2228279411792755,-0.19557778537273407,0.39473944902420044,0.382677286863327,0.24604545533657074,-0.0036354386247694492
0.5833333333333334,-8.75223267939873e-05,0.029736412689089775,0.0,0.6542486548423767,0.0,0.0,-0.7562795281410217,0.28349384665489197,-0.06378775835037231,0.0,0.0,0.0,-2.749021291732788,0.40712013840675354,0.7029551267623901,0.42276838421821594,0.5986671447753906,-0.050106242299079895,0.009918972849845886,-0.7993675470352173,0.6133524179458618,-1.6167352199554443,0.16371548175811768,-6.583444595336914,3.4233663082122803,25.347463607788086,0.4071961045265198,0.705590009689331,0.4259607195854187,0.7542778253555298,-0.8712286949157715,-0.07722125202417374,0.4154989421367645,0.6706926226615906,0.42000001668930054,-0.24497869610786438,0.5197886824607849,-1.2345060110092163,2.9999992847442627,-0.21145352721214294,-0.22123871743679047,-0.21751511096954346,-0.19518980383872986,0.558066189289093,0.5123181343078613,0.3365669250488281,0.018601397052407265
0.6,0.006216683890670538,0.02489349991083145,0.0,0.6549648642539978,0.0,0.0,-0.7556593418121338,0.41563543677330017,-0.27762308716773987,0.0,0.0,0.0,0.9927048683166504,0.4150819182395935,0.691353440284729,0.4234175682067871,0.5915451645851135,-0.0599617175757885,0.029233332723379135,-0.8035075068473816,0.11810599267482758,-0.9470441341400146,0.2126924693584442,-4.284360885620117,7.474849224090576,8.160652160644531,0.4141237735748291,0.6931707262992859,0.42686766386032104,0.04714842140674591,-0.6089380979537964,0.12336902320384979,0.4154989421367645,0.6706926226615906,0.42000001668930054,-0.23621906340122223,0.17345969378948212,-1.2551114559173584,-2.9976675510406494,-0.2006164938211441,-0.21093231439590454,-0.21000359952449799,-0.19309614598751068,0.495880126953125,0.5158766508102417,0.3933968245983124,0.09785504639148712
0.6166666666666667,0.011726900935173035,0.023342857137322426,0.0,0.6453859806060791,0.0,0.0,-0.7638565897941589,0.27211663126945496,-0.0523945577442646,0.0,0.0,0.0,-2.373896837234497,0.4157060384750366,0.6848076581954956,0.4227839410305023,0.6107513308525085,-0.04848654940724373,0.026004208251833916,-0.7899085879325867,-0.07331336289644241,-0.28245899081230164,-0.05462361127138138,0.1837558150291443,-2.3491172790527344,5.739847660064697,0.4143400192260742,0.6865247488021851,0.4260038137435913,-0.0006327852606773376,-0.22412413358688354,-0.0725935846567154,0.4154989421367645,0.6706926226615906,0.42000001668930054,-0.23214547336101532,0.2514994740486145,-1.2170065641403198,2.999159097671509,-0.1920672357082367,-0.2023349553346634,-0.20362064242362976,-0.1917855143547058,0.5527054667472839,0.5502829551696777,0.4166673421859741,0.11228197067975998
0.6333333333333333,0.01776391826570034,0.01930742710828781,0.0,0.6481084823608398,0.0,0.0,-0.7615479826927185,0.3986954391002655,-0.2692123353481293,0.0,0.0,0.0,1.2806305885314941,0.4138876795768738,0.6815625429153442,0.4226478636264801,0.6180058121681213,-0.04616932570934296,0.025177212432026863,-0.784412682056427,-0.19171252846717834,-0.15592533349990845,-0.020126251503825188,-0.7699571847915649,-1.432619571685791,-0.8027952313423157,0.4119355082511902,0.6839528679847717,0.42719584703445435,-0.2992289662361145,-0.11208656430244446,0.14566484093666077,0.4154989421367645,0.6706926226615906,0.42000001668930054,-0.2570526897907257,-2.8900341987609863,-1.2378199100494385,-2.9997315406799316,-0.18357662856578827,-0.19340455532073975,-0.19638271629810333,-0.1890881061553955,0.4094083607196808,0.4647226333618164,0.39522096514701843,0.15563619136810303
0.65,0.025828756392002106,0.01837018132209778,0.0,0.6401481032371521,0.0,0.0,-0.7682515382766724,0.5186786651611328,-0.005301353987306356,0.0,0.0,0.0,-2.1859052181243896,0.4127808213233948,0.6802712678909302,0.4222985506057739,0.617104709148407,-0.03904582932591438,0.02755647338926792,-0.7854283452033997,-0.008401425555348396,-0.04821045324206352,-0.0501139797270298,1.8937671184539795,-0.2876274287700653,0.6923724412918091,0.41202184557914734,0.6849030256271362,0.4300711750984192,0.1284070909023285,0.1675300896167755,0.20347383618354797,0.4154989421367645,0.6706926226615906,0.42000001668930054,-0.3043312728404999,-2.7037839889526367,-1.2877694368362427,-2.999702215194702,-0.17666710913181305,-0.1859830617904663,-0.19027115404605865,-0.18685895204544067,0.4886893928050995,0.4989963173866272,0.410770446062088,0.18010418117046356
0.6666666666666666,0.03612580895423889,0.015390774235129356,0.0,0.644494891166687,0.0,0.0,-0.76460862159729,0.6313191056251526,-0.2032429575920105,0.0,0.0,0.0,1.5806292295455933,0.41240406036376953,0.6797218918800354,0.4211248755455017,0.6195790767669678,-0.017801320180296898,0.022557999938726425,-0.7844079732894897,-0.05799694359302521,-0.029010608792304993,-0.08492802083492279,-1.0781673192977905,-4.530919075012207,-0.27797189354896545,0.4114934802055359,0.687769889831543,0.4333895444869995,-0.2008921504020691,0.15515673160552979,0.1996474713087082,0.4154989421367645,0.6706926226615906,0.42000001668930054,-0.3542667627334595,-2.9999916553497314,-1.3377764225006104,-2.9999022483825684,-0.16749157011508942,-0.17667748034000397,-0.18237069249153137,-0.18260231614112854,0.4172685444355011,0.46054893732070923,0.41465505957603455,0.23828504979610443
0.6833333333333333,0.04432231932878494,0.01440814882516861,0.0,0.6690208911895752,0.0,0.0,-0.7432436347007751,0.43635332584381104,-0.008141514845192432,0.0,0.0,0.0,4.805703639984131,0.41173550486564636,0.6796441674232483,0.4200000464916229,0.6189089417457581,-2.9957995138829574e-05,-3.257213029428385e-05,-0.7854627370834351,-0.004878317471593618,-0.0034647744614630938,-0.0013387665385380387,0.08086757361888885,-0.06941406428813934,-0.010624242015182972,0.4090563654899597,0.6881675124168396,0.43727052211761475,-0.15163639187812805,-0.022069640457630157,0.2776741087436676,0.4154989421367645,0.6706926226615906,0.42000001668930054,-0.40427297353744507,-2.999988317489624,-1.3877596855163574,-2.9999375343322754,-0.16279257833957672,-0.17051886022090912,-0.17597651481628418,-0.17786812782287598,0.25964033603668213,0.36691299080848694,0.41415929794311523,0.36318331956863403
0.7,0.05280539020895958,0.011343644931912422,0.0,0.6791562438011169,0.0,0.0,-0.7339937686920166,0.5385679006576538,-0.23654241859912872,0.0,0.0,0.0,0.6106328964233398,0.41128671169281006,0.6794564723968506,0.42000001668930054,0.6108769178390503,-5.600854819931556e-07,4.5017029037808243e-07,-0.7917255759239197,-0.028827138245105743,-0.017305752262473106,-1.9443745259195566e-05,-0.0006825116579420865,-0.0008818449568934739,-1.188981294631958,0.40838223695755005,0.6879123449325562,0.4428826570510864,-0.006244326941668987,-0.1064312607049942,0.3444274067878723,0.4154989421367645,0.6706926226615906,0.42000001668930054,-0.4542815387248993,-2.9999325275421143,-1.4377667903900146,-2.9999020099639893,-0.16000312566757202,-0.16538198292255402,-0.16926880180835724,-0.17096519470214844,0.12548302114009857,0.2880311906337738,0.41405346989631653,0.47027257084846497
0.7166666666666667,0.0630321353673935,0.005071473307907581,0.0,0.6671566963195801,0.0,0.0,-0.7449174523353577,0.6498508453369141,-0.44580504298210144,0.0,0.0,0.0,-2.8193411827087402,0.4112492799758911,0.6794352531433105,0.4200000762939453,0.6102814674377441,3.5797474993159994e-06,-3.9321271287917625e-06,-0.7921845316886902,0.0006385066080838442,-0.0001969863660633564,-0.00022764923050999641,0.0008204859914258122,0.0045812721364200115,-0.0017220855224877596,0.41384685039520264,0.6876263618469238,0.45605140924453735,0.6117079257965088,0.023310374468564987,1.308640956878662,0.4154989421367645,0.6706926226615906,0.42000001668930054,-0.504294216632843,-2.9999852180480957,-1.4877851009368896,-2.999999761581421,-0.1600235253572464,-0.16266559064388275,-0.16427916288375854,-0.16466496884822845,-0.05331715941429138,0.10706038028001785,0.2466016262769699,0.3388221859931946
0.7333333333333333,0.07637691497802734,0.003192760981619358,0.0,0.6333798766136169,0.0,0.0,-0.7738410234451294,0.7880438566207886,-0.08215972036123276,0.0,0.0,0.0,-6.17719030380249,0.41124963760375977,0.6794353127479553,0.4200000464916229,0.6102813482284546,5.698915970242524e-07,-3.6682477002614178e-06,-0.7921847105026245,0.0001541992387501523,-0.00027407126617617905,-9.80873592197895e-05,0.005923094227910042,-0.0008629714138805866,-0.0006077352445572615,0.4322541058063507,0.6849777698516846,0.48361891508102417,1.6032025814056396,-0.19992700219154358,2.1081736087799072,0.4154989421367645,0.6706926226615906,0.42000001668930054,-0.5543068051338196,-2.9999258518218994,-1.5378034114837646,-2.999993085861206,-0.16660112142562866,-0.16587339341640472,-0.1643880307674408,-0.1623508483171463,-0.33103039860725403,-0.15869154036045074,0.006015712395310402,0.1423320174217224
0.75,0.08703288435935974,0.0029237426351755857,0.0,0.6145064830780029,0.0,0.0,-0.788911759853363,0.5593628287315369,0.010119701735675335,0.0,0.0,0.0,-1.8223568201065063,0.41124966740608215,0.6794353127479553,0.4200000464916229,0.6102813482284546,3.89144190648949e-07,-3.2562061278440524e-06,-0.7921847105026245,0.0001530405570520088,-0.0002792153391055763,-9.739771485328674e-05,0.006059194914996624,-0.0008901870460249484,-0.0006074590492062271,0.45954054594039917,0.684745192527771,0.5214459896087646,1.5892431735992432,0.16068902611732483,2.393509864807129,0.4154989421367645,0.6706926226615906,0.42000001668930054,-0.5750300288200378,0.24566295742988586,-1.587820053100586,-2.999999761581421,-0.16993795335292816,-0.16746802628040314,-0.16434331238269806,-0.16104309260845184,-0.07563207298517227,-0.03217266872525215,0.005468639545142651,0.025009317323565483
0.7666666666666666,0.09289606660604477,0.004862149711698294,0.0,0.620820164680481,0.0,0.0,-0.7839530110359192,0.27845498919487,0.1629118025302887,0.0,0.0,0.0,1.8157157897949219,0.41124966740608215,0.6794353127479553,0.4200000464916229,0.6102814674377441,4.2884019535449625e-07,-3.1962638331606286e-06,-0.792184591293335,0.0001499858481111005,-0.0002787646371871233,-9.678257629275322e-05,0.0060644797049462795,-0.000927687855437398,-0.0006006102194078267,0.48068171739578247,0.6875802278518677,0.5560790300369263,0.9147341251373291,0.21351203322410583,1.8190922737121582,0.4154989421367645,0.6706926226615906,0.42000001668930054,-0.5498776435852051,2.550745964050293,-1.548840045928955,2.9999992847442627,-0.16961731016635895,-0.16671475768089294,-0.16322383284568787,-0.15978385508060455,0.10073056071996689,0.11066491901874542,0.11682946234941483,0.11233069002628326
0.7833333333333333,0.09454752504825592,0.0028537961188703775,0.0,0.6152303814888,0.0,0.0,-0.7883473634719849,0.08108823001384735,-0.15983402729034424,0.0,0.0,0.0,-1.7652432918548584,0.41124963760375977,0.6794353127479553,0.4200000464916229,0.6102814078330994,4.0660933109393227e-07,-3.687282287501148e-06,-0.792184591293335,0.00014905573334544897,-0.00027841905830428004,-9.661656804382801e-05,0.0060610659420490265,-0.0009384689619764686,-0.0005983519367873669,0.4891626238822937,0.6922107934951782,0.5797437429428101,0.04212425649166107,0.22288015484809875,1.180662989616394,0.4154989421367645,0.6706926226615906,0.42000001668930054,-0.5170279741287231,1.458604097366333,-1.4987835884094238,2.999999761581421,-0.16564130783081055,-0.162937194108963,-0.1597040891647339,-0.156650573015213,0.14322274923324585,0.1522188037633896,0.15459607541561127,0.14768502116203308
0.8,0.09370394051074982,0.005868773441761732,0.0,0.6220452189445496,0.0,0.0,-0.7829813361167908,-0.08232532441616058,0.16392618417739868,0.0,0.0,0.0,1.7991230487823486,0.41124963760375977,0.6794353127479553,0.4200000464916229,0.6102812886238098,4.1441620624027564e-07,-3.1977190246834652e-06,-0.7921847105026245,0.0001518059434602037,-0.0002787894627545029,-9.716162458062172e-05,0.00605553574860096,-0.0009042469901032746,-0.0006046209018677473,0.4845205545425415,0.6940126419067383,0.5947030782699585,-0.4170825779438019,0.16610021889209747,0.6543432474136353,0.4154989421367645,0.6706926226615906,0.42000001668930054,-0.4793401062488556,2.9103682041168213,-1.4487285614013672,2.999999761581421,-0.16779418289661407,-0.16390059888362885,-0.15967927873134613,-0.15587997436523438,0.0615263395011425,0.08866240829229355,0.10836010426282883,0.12058106064796448
0.8166666666666667,0.09087034314870834,0.0048636398278176785,0.0,0.6166340112686157,0.0,0.0,-0.7872499823570251,-0.24619540572166443,-0.038731250911951065,0.0,0.0,0.0,-1.53977632522583,0.41124963760375977,0.6794353127479553,0.4200000464916229,0.6102814078330994,4.0739817563917313e-07,-3.310322881588945e-06,-0.792184591293335,0.000152498934767209,-0.00027924703317694366,-9.726407006382942e-05,0.006062881089746952,-0.0008968986221589148,-0.0006062802858650684,0.47279179096221924,0.6968695521354675,0.6007418632507324,-1.0631425380706787,0.15133036673069,0.23983295261859894,0.4154989421367645,0.6706926226615906,0.42000001668930054,-0.45882290601730347,-0.19870056211948395,-1.3986759185791016,2.999999523162842,-0.16596466302871704,-0.16188940405845642,-0.157572939991951,-0.15374049544334412,0.004246523138135672,0.030959604308009148,0.051938485354185104,0.06923537701368332
0.8333333333333334,0.08978772908449173,0.008628583513200283,0.0,0.6238295435905457,0.0,0.0,-0.7815604209899902,-0.025440644472837448,0.24597302079200745,0.0,0.0,0.0,1.5839542150497437,0.41124966740608215,0.6794353127479553,0.4200000464916229,0.6102815270423889,4.449914854376402e-07,-3.257108346588211e-06,-0.7921844720840454,0.00015072945097927004,-0.00027861190028488636,-9.694206528365612e-05,0.006057029124349356,-0.0009173272410407662,-0.0006021116860210896,0.4594898223876953,0.6985424757003784,0.6040030717849731,-0.4357646703720093,0.20231503248214722,0.17669802904129028,0.4154989421367645,0.6706926226615906,0.42000001668930054,-0.4456162452697754,1.6177669763565063,-1.3486690521240234,3.0000007152557373,-0.16816596686840057,-0.16337840259075165,-0.15837857127189636,-0.15385496616363525,0.054295171052217484,0.04058198630809784,0.0359523631632328,0.04379777982831001
0.85,0.09094695746898651,0.007930964231491089,0.0,0.6174434423446655,0.0,0.0,-0.786615252494812,0.09904440492391586,-0.07528553158044815,0.0,0.0,0.0,-1.8057408332824707,0.41124963760375977,0.6794353127479553,0.4200000464916229,0.6102810502052307,3.3180816672029323e-07,-3.494476459309226e-06,-0.7921849489212036,0.00015101840835995972,-0.00027989185764454305,-9.69709362834692e-05,0.0060857320204377174,-0.0009201270877383649,-0.000603341730311513,0.4547898769378662,0.702063798904419,0.6054219603538513,-0.21837815642356873,0.12720274925231934,0.13818974792957306,0.4154989421367645,0.6706926226615906,0.42000001668930054,-0.46499377489089966,-3.0000011920928955,-1.2986164093017578,3.0,-0.16435103118419647,-0.16051889955997467,-0.15624812245368958,-0.15214753150939941,0.16075916588306427,0.115984708070755,0.08361028134822845,0.06864488124847412
0.8666666666666667,0.09424390643835068,0.005106388591229916,0.0,0.6236044764518738,0.0,0.0,-0.7817400097846985,0.24885323643684387,-0.24667884409427643,0.0,0.0,0.0,1.7236043214797974,0.41124966740608215,0.6794353127479553,0.4200000464916229,0.6102813482284546,3.854222541121999e-07,-3.262582367824507e-06,-0.7921847105026245,0.00015306139539461583,-0.00027928478084504604,-9.741145186126232e-05,0.006060819607228041,-0.0008903720299713314,-0.0006075574783608317,0.45651137828826904,0.7026398181915283,0.6061329245567322,0.40218159556388855,-0.027094002813100815,-0.01035822182893753,0.4154989421367645,0.6706926226615906,0.42000001668930054,-0.48991909623146057,-0.21177084743976593,-1.3185232877731323,-2.999999761581421,-0.1633104681968689,-0.1593785583972931,-0.15479588508605957,-0.1501050740480423,0.029657548293471336,0.0631074383854866,0.11033142358064651,0.17480483651161194
0.8833333333333333,0.09994269907474518,-0.0006022260640747845,0.0,0.617420494556427,0.0,0.0,-0.786633312702179,0.3814280033111572,-0.3998115062713623,0.0,0.0,0.0,-1.843877911567688,0.41124966740608215,0.6794353127479553,0.4200000464916229,0.6102814674377441,4.250710219366738e-07,-3.202524112566607e-06,-0.792184591293335,0.00014998398546595126,-0.00027876681997440755,-9.678490459918976e-05,0.0060646370984613895,-0.0009277788922190666,-0.0006006102776154876,0.46519872546195984,0.699905276298523,0.6023700833320618,0.6546653509140015,-0.3015543818473816,-0.2370230108499527,0.4154989421367645,0.6706926226615906,0.42000001668930054,-0.5205687880516052,-3.000000476837158,-1.2803083658218384,3.0,-0.16410815715789795,-0.15938326716423035,-0.1537611335515976,-0.14773426949977875,-0.050850775092840195,0.005362932104617357,0.07609143853187561,0.16422420740127563
0.9,0.10922114551067352,-0.0013597700744867325,0.0,0.6145789623260498,0.0,0.0,-0.7888553142547607,0.4923146069049835,0.012251772917807102,0.0,0.0,0.0,0.2722757160663605,0.41124963760375977,0.6794353127479553,0.4200000464916229,0.6102814078330994,4.6184467805687746e-07,-3.5158475384378107e-06,-0.792184591293335,0.00014919099339749664,-0.0002784051757771522,-9.665451943874359e-05,0.006060004234313965,-0.0009368539904244244,-0.0005986475152894855,0.4738770127296448,0.6942670345306396,0.6005444526672363,0.4693656861782074,-0.20557616651058197,0.07152076065540314,0.4154989421367645,0.6706926226615906,0.42000001668930054,-0.5425958633422852,0.10629234462976456,-1.300536870956421,-2.999999761581421,-0.16865064203739166,-0.16273163259029388,-0.15580293536186218,-0.14831268787384033,-0.10737959295511246,-0.09211519360542297,-0.06983312964439392,-0.03696271404623985
0.9166666666666666,0.1146778017282486,-0.007672794163227081,0.0,0.6322864294052124,0.0,0.0,-0.7747346758842468,0.30675551295280457,-0.4462166428565979,0.0,0.0,0.0,3.502429962158203,0.41124963760375977,0.6794353127479553,0.4200000464916229,0.610281229019165,4.4325324211058614e-07,-3.39308098773472e-06,-0.7921847105026245,0.00015263844397850335,-0.00027863457216881216,-9.738910011947155e-05,0.006046933587640524,-0.000894222583156079,-0.0006064256886020303,0.48221921920776367,0.6899368166923523,0.6000417470932007,0.43063515424728394,-0.3742983341217041,-0.08134078979492188,0.4154989421367645,0.6706926226615906,0.42000001668930054,-0.5470776557922363,-0.583375871181488,-1.2683755159378052,3.000000238418579,-0.16595767438411713,-0.16022272408008575,-0.15333625674247742,-0.1456851363182068,0.10512230545282364,0.11926522850990295,0.13805672526359558,0.1645606905221939
