vladlanda/robotic-transformer/data/env_000_episode_0119.csv
sim_time_s,robot_box_x,robot_box_y,robot_box_z,robot_box_quat_w,robot_box_quat_x,robot_box_quat_y,robot_box_quat_z,robot_box_linvel_x,robot_box_linvel_y,robot_box_linvel_z,robot_box_angvel_x,robot_box_angvel_y,robot_box_angvel_z,cube_world_x,cube_world_y,cube_world_z,cube_quat_w,cube_quat_x,cube_quat_y,cube_quat_z,cube_linvel_x,cube_linvel_y,cube_linvel_z,cube_angvel_x,cube_angvel_y,cube_angvel_z,endpoint_world_x,endpoint_world_y,endpoint_world_z,endpoint_linvel_x,endpoint_linvel_y,endpoint_linvel_z,target_cube_world_x,target_cube_world_y,target_cube_world_z,gripper_actual_pos_rad_gp_leftgearjoint,gripper_actual_vel_rad_s_gp_leftgearjoint,gripper_actual_pos_rad_gp_rotatingjoint,gripper_actual_vel_rad_s_gp_rotatingjoint,motor_angle_rad_joint1,motor_angle_rad_joint2,motor_angle_rad_joint3,motor_angle_rad_joint4,motor_speed_rad_s_joint1,motor_speed_rad_s_joint2,motor_speed_rad_s_joint3,motor_speed_rad_s_joint4
0.0,0.0,0.0,0.0,1.0,0.0,0.0,0.0,0.0,0.0,0.0,0.0,0.0,0.0,-0.44712525606155396,0.6888691782951355,0.41999998688697815,1.0,0.0,0.0,0.0,0.0,0.0,0.0,0.0,0.0,0.0,3.42540442943573e-06,-0.005000244826078415,1.313499927520752,0.0,0.0,0.0,0.3818030059337616,0.7188223600387573,0.42000001668930054,-1.5707999467849731,0.0,0.0,0.0,0.0,0.0,0.0,0.0,0.0,0.0,0.0,0.0
0.016666666666666666,0.0028778850100934505,0.0021806680597364902,0.0,0.9998081922531128,0.0,0.0,0.019586581736803055,0.24087215960025787,0.18240931630134583,0.0,0.0,0.0,3.1418697834014893,-0.4471253752708435,0.6888688802719116,0.41999998688697815,1.0,3.2799832752061775e-06,-8.339598593920527e-07,8.465660528145236e-08,-1.9833856640616432e-05,0.00017983021098189056,-6.132945418357849e-05,0.0009432561928406358,-0.004689492750912905,-0.0003198107879143208,-0.007110234349966049,0.003379564033821225,1.3159373998641968,-0.8143353462219238,0.9868683815002441,0.18095196783542633,0.3818030059337616,0.7188223600387573,0.42000001668930054,-1.5301095247268677,3.0000011920928955,-0.04584788903594017,-2.9999992847442627,0.0008691533003002405,0.0007963840034790337,0.0007110277656465769,0.0006108740926720202,0.11094217747449875,0.09756709635257721,0.08334315568208694,0.06823883205652237
0.03333333333333333,0.008960975334048271,0.006801906507462263,0.0,0.9997960329055786,0.0,0.0,0.020196840167045593,0.4070213735103607,0.3153083026409149,0.0,0.0,0.0,-0.8691301345825195,-0.44712549448013306,0.6888688206672668,0.4200000464916229,1.0,3.3908236218849197e-06,-2.1324740373529494e-06,-3.7087911408661967e-08,0.0002635786950122565,0.00026937879738397896,-0.00010509719140827656,-0.0017707741353660822,0.004130927845835686,-0.00013548358401749283,-0.027548540383577347,0.026018176227808,1.3166240453720093,-1.5915074348449707,1.614368200302124,-0.08182913810014725,0.3818030059337616,0.7188223600387573,0.42000001668930054,-1.4800903797149658,3.000000476837158,-0.0958876982331276,-2.999999523162842,0.002990150358527899,0.002652778523042798,0.002277366816997528,0.0018608402460813522,0.16422304511070251,0.13976778090000153,0.11382810026407242,0.08631140738725662
0.05,0.017749419435858727,0.013771342113614082,0.0,0.9993773698806763,0.0,0.0,0.035282570868730545,0.5938218832015991,0.46507665514945984,0.0,0.0,0.0,2.648637533187866,-0.44712552428245544,0.6888688802719116,0.4200000464916229,1.0,3.7651204820576822e-06,-2.2119561435829382e-06,5.640150124719412e-09,0.0002653099945746362,0.0002669153327587992,-0.0001044049859046936,-0.0017243726179003716,0.0041774604469537735,-0.0001294949179282412,-0.05967949703335762,0.053807199001312256,1.3116800785064697,-2.187572717666626,1.7536640167236328,-0.47311311960220337,0.3818030059337616,0.7188223600387573,0.42000001668930054,-1.4300720691680908,3.00000262260437,-0.1459263414144516,-3.0000009536743164,0.0057083857245743275,0.0049163587391376495,0.004052205942571163,0.0031114781741052866,0.19273045659065247,0.15582981705665588,0.11705480515956879,0.07631148397922516
0.06666666666666667,0.02906484715640545,0.02306482195854187,0.0,0.9994494318962097,0.0,0.0,0.033179301768541336,0.7203764319419861,0.5952073335647583,0.0,0.0,0.0,-1.2107008695602417,-0.44712552428245544,0.6888688206672668,0.4200000464916229,0.9999999403953552,3.406740233913297e-06,-2.2856668238091515e-06,4.3010706463064707e-07,0.0002670245012268424,0.00026791717391461134,-0.0001043803058564663,-0.0017406563274562359,0.00421176990494132,-0.00012850540224462748,-0.09815165400505066,0.0878942459821701,1.2991268634796143,-2.4447712898254395,2.2223565578460693,-1.0075268745422363,0.3818030059337616,0.7188223600387573,0.42000001668930054,-1.3800537586212158,3.0000016689300537,-0.19596368074417114,-3.0000009536743164,0.008300073444843292,0.0068216645158827305,0.005232715513557196,0.003526370506733656,0.1526639461517334,0.10201167315244675,0.04931984096765518,-0.005471652839332819
0.08333333333333333,0.04317213594913483,0.03448110073804855,0.0,0.9999931454658508,0.0,0.0,0.0037040943279862404,0.939358651638031,0.725622296333313,0.0,0.0,0.0,-4.535223484039307,-0.44712552428245544,0.6888688206672668,0.4200000464916229,0.9999999403953552,3.626007128332276e-06,-2.335401404707227e-06,3.0324841304718575e-07,0.0002661396865732968,0.00026684964541345835,-0.00010405061766505241,-0.0017283027991652489,0.004196319729089737,-0.00012790360779035836,-0.13773316144943237,0.12913933396339417,1.2796239852905273,-2.3413658142089844,2.613640785217285,-1.3117079734802246,0.3818030059337616,0.7188223600387573,0.42000001668930054,-1.3300237655639648,3.0000011920928955,-0.19254572689533234,2.8990070819854736,0.0099420715123415,0.007505790330469608,0.004917649552226067,0.002173746470361948,0.08809308707714081,0.020167499780654907,-0.049835145473480225,-0.12193511426448822
0.1,0.05191602185368538,0.04976824298501015,0.0,0.9999538064002991,0.0,0.0,-0.009610370732843876,0.3860836923122406,0.994022786617279,0.0,0.0,0.0,-0.5846365094184875,-0.44712552428245544,0.6888688206672668,0.4200000464916229,1.0,3.4220852285216097e-06,-2.308649982296629e-06,1.7965334109248943e-07,0.0002668154484126717,0.000268004194367677,-0.00010440708138048649,-0.0017430060543119907,0.004207085818052292,-0.00012891326332464814,-0.17797231674194336,0.16814203560352325,1.2564034461975098,-2.319701671600342,2.3524301052093506,-1.4085118770599365,0.3818030059337616,0.7188223600387573,0.42000001668930054,-1.280023217201233,3.000000476837158,-0.22463752329349518,-2.999999523162842,0.004900308325886726,0.0016810368979349732,-0.001741682062856853,-0.00537523627281189,-0.42892852425575256,-0.48152482509613037,-0.5366865992546082,-0.5946463942527771
0.11666666666666667,0.05585847422480583,0.06605047732591629,0.0,0.9993659257888794,0.0,0.0,-0.035605497658252716,0.2518026530742645,0.9362794160842896,0.0,0.0,0.0,-3.8764615058898926,-0.44712552428245544,0.6888688802719116,0.4200000464916229,1.0,3.7114855331310537e-06,-2.332717940589646e-06,2.5745248422026634e-07,0.00026485795387998223,0.0002663535706233233,-0.00010423408821225166,-0.0017181923612952232,0.004170115105807781,-0.0001291551161557436,-0.21465587615966797,0.21115821599960327,1.2332119941711426,-2.09120512008667,2.8323183059692383,-1.3817187547683716,0.3818030059337616,0.7188223600387573,0.42000001668930054,-1.2300125360488892,3.000000238418579,-0.27464935183525085,-3.000000476837158,-0.0021059541031718254,-0.00661323731765151,-0.011329960078001022,-0.016266081482172012,-0.3282811939716339,-0.4303938150405884,-0.5308159589767456,-0.6295768618583679
0.13333333333333333,0.058517228811979294,0.08157802373170853,0.0,0.9990829825401306,0.0,0.0,-0.04281531274318695,0.1322050839662552,0.9258134365081787,0.0,0.0,0.0,0.32596588134765625,-0.44712552428245544,0.6888688206672668,0.4200000464916229,1.0,3.3357036954839714e-06,-2.2319193249131786e-06,3.113252375896991e-07,0.00026669810176827013,0.0002675947907846421,-0.00010428531095385551,-0.0017370772548019886,0.0042058308608829975,-0.0001284025056520477,-0.2541466951370239,0.2571257948875427,1.2068543434143066,-2.4423770904541016,2.8520450592041016,-1.7615611553192139,0.3818030059337616,0.7188223600387573,0.42000001668930054,-1.1799978017807007,2.9999897480010986,-0.24043819308280945,3.0000007152557373,-0.006138094700872898,-0.012525908648967743,-0.019055066630244255,-0.025734709575772285,-0.21312406659126282,-0.3251359164714813,-0.4320514500141144,-0.5337969064712524
0.15,0.06724408268928528,0.0933300331234932,0.0,0.9979708790779114,0.0,0.0,-0.06367164850234985,0.6869000792503357,0.6229965686798096,0.0,0.0,0.0,-3.466299057006836,-0.44712552428245544,0.6888688206672668,0.4200000464916229,1.0,3.518945050018374e-06,-2.283112280565547e-06,-3.6253939583730244e-07,0.00026618465199135244,0.00026735689607448876,-0.00010425783693790436,-0.0017348835244774818,0.004195805639028549,-0.00012861379946116358,-0.29210659861564636,0.30843213200569153,1.1768925189971924,-2.1678528785705566,3.235835075378418,-1.8958239555358887,0.3818030059337616,0.7188223600387573,0.42000001668930054,-1.131313681602478,2.8175225257873535,-0.27161845564842224,-2.999999761581421,-0.005927872844040394,-0.014581962488591671,-0.023268211632966995,-0.0319930799305439,0.028704749420285225,-0.10254433006048203,-0.22744107246398926,-0.3458362817764282
0.16666666666666666,0.0748012438416481,0.10196162760257721,0.0,0.9936500787734985,0.0,0.0,-0.11251430958509445,0.2600157856941223,0.5266817808151245,0.0,0.0,0.0,-6.595519542694092,-0.44712552428245544,0.6888688206672668,0.4200000464916229,1.0,3.66662789019756e-06,-2.339195589229348e-06,-3.1499598662776407e-07,0.00026595781673677266,0.00026667400379665196,-0.00010403618216514587,-0.0017254058038815856,0.0041928826831281185,-0.00012778442760463804,-0.32588833570480347,0.36845263838768005,1.139707088470459,-1.8269095420837402,3.8848977088928223,-2.566586494445801,0.3818030059337616,0.7188223600387573,0.42000001668930054,-1.091461181640625,1.9997495412826538,-0.2374546378850937,2.9999992847442627,-0.010014803148806095,-0.020255552604794502,-0.03044295869767666,-0.04058532416820526,-0.5827833414077759,-0.6268364191055298,-0.6682431101799011,-0.7073601484298706
0.18333333333333332,0.07472292333841324,0.11483550071716309,0.0,0.9873447418212891,0.0,0.0,-0.15858866274356842,0.051422927528619766,0.6630073189735413,0.0,0.0,0.0,-4.689927577972412,-0.44712552428245544,0.6888688206672668,0.4200000464916229,1.0,3.814332103502238e-06,-2.3995876290427987e-06,-2.702606138882402e-07,0.0002654899435583502,0.00026610950590111315,-0.00010390975512564182,-0.0017176909605041146,0.0041847554966807365,-0.00012753659393638372,-0.35731950402259827,0.43160393834114075,1.0876798629760742,-1.8583464622497559,3.9680590629577637,-3.383864641189575,0.3818030059337616,0.7188223600387573,0.42000001668930054,-1.04776930809021,2.9999985694885254,-0.2686319351196289,-3.0000007152557373,-0.024269038811326027,-0.034650519490242004,-0.04496007785201073,-0.05519538000226021,-0.5839971303939819,-0.6412472724914551,-0.69322669506073,-0.7397122979164124
0.2,0.07323963940143585,0.1277725100517273,0.0,0.9766077995300293,0.0,0.0,-0.21502837538719177,-0.173727348446846,0.8279958367347717,0.0,0.0,0.0,-7.920197486877441,-0.44712552428245544,0.6888688206672668,0.4200000464916229,1.0,3.600046738938545e-06,-2.2912495296623092e-06,-2.201834092829813e-07,0.00026572891511023045,0.00026644940953701735,-0.00010398216545581818,-0.00172265840228647,0.004188699182122946,-0.00012773076014127582,-0.3885217607021332,0.4990479350090027,1.0227175951004028,-1.5963656902313232,4.226417541503906,-4.341091156005859,0.3818030059337616,0.7188223600387573,0.42000001668930054,-1.0032310485839844,2.3610122203826904,-0.31865862011909485,-3.0000007152557373,-0.03671666607260704,-0.04755695164203644,-0.058243170380592346,-0.0687742605805397,-0.8563634753227234,-0.8562220335006714,-0.8520675897598267,-0.8441617488861084
0.21666666666666667,0.07685713469982147,0.13640309870243073,0.0,0.9668242335319519,0.0,0.0,-0.2554425597190857,0.3428097367286682,0.4008103013038635,0.0,0.0,0.0,-4.018051624298096,-0.44712552428245544,0.6888688206672668,0.4200000464916229,0.9999999403953552,3.6396800169313792e-06,-2.262049974888214e-06,2.2246886999255366e-07,0.00026687380159273744,0.0002675444702617824,-0.00010411953553557396,-0.001740359584800899,0.004211038816720247,-0.00012783762940671295,-0.4176217317581177,0.5626912117004395,0.9444962739944458,-1.4232834577560425,3.7720065116882324,-5.083559036254883,0.3818030059337616,0.7188223600387573,0.42000001668930054,-0.9542513489723206,2.9999988079071045,-0.3686869442462921,-3.000000476837158,-0.0474698580801487,-0.058083318173885345,-0.06849804520606995,-0.0787217766046524,-0.6320570707321167,-0.5956857204437256,-0.5584437847137451,-0.521025538444519
0.23333333333333334,0.07620901614427567,0.14843076467514038,0.0,0.9646481871604919,0.0,0.0,-0.2635410726070404,-0.06669348478317261,0.6556445360183716,0.0,0.0,0.0,-0.02368696592748165,-0.44712549448013306,0.6888688206672668,0.4200000464916229,1.0,3.4207453154522227e-06,-2.3168672669271473e-06,2.9559359404629504e-07,0.0002668002271093428,0.00026803958462551236,-0.0001044226810336113,-0.0017436748603358865,0.004206745885312557,-0.00012899730063509196,-0.4417111873626709,0.6116434335708618,0.8542999029159546,-1.318903923034668,2.5912365913391113,-5.601125717163086,0.3818030059337616,0.7188223600387573,0.42000001668930054,-0.9042406678199768,2.9999866485595703,-0.4187171757221222,-2.999999761581421,-0.06298636645078659,-0.07358012348413467,-0.08381961286067963,-0.09367301315069199,-0.7126733064651489,-0.7587859630584717,-0.7955685257911682,-0.826188862323761
0.25,0.07377221435308456,0.1563592106103897,0.0,0.9587525725364685,0.0,0.0,-0.2842419147491455,-0.24294190108776093,0.42485618591308594,0.0,0.0,0.0,-3.387709140777588,-0.44712552428245544,0.6888688206672668,0.4200000464916229,0.9999999403953552,3.347649908391759e-06,-2.2592610093852272e-06,1.808287350968385e-07,0.0002668778761290014,0.0002679122262634337,-0.00010439427569508553,-0.0017405308317393064,0.004208267666399479,-0.0001287017366848886,-0.4602033793926239,0.6514626741409302,0.7543262243270874,-0.8137288093566895,2.0678372383117676,-6.229649543762207,0.3818030059337616,0.7188223600387573,0.42000001668930054,-0.8542300462722778,2.9999990463256836,-0.4687485098838806,-3.0000014305114746,-0.07812127470970154,-0.0888790488243103,-0.099173404276371,-0.10903850197792053,-0.9837601184844971,-0.9802355766296387,-0.9742521643638611,-0.9674508571624756
0.26666666666666666,0.07327407598495483,0.15938794612884521,0.0,0.9581314325332642,0.0,0.0,-0.2863287329673767,0.0465298630297184,0.09821054339408875,0.0,0.0,0.0,0.4901995062828064,-0.44712552428245544,0.6888688206672668,0.4200000464916229,0.9999999403953552,3.5357800243218662e-06,-2.300360165463644e-06,-1.268776941287797e-07,0.0002660180034581572,0.0002671218535397202,-0.0001041970681399107,-0.0017316099256277084,0.004192830063402653,-0.00012849360064137727,-0.47267335653305054,0.6750601530075073,0.6484394073486328,-0.5069050788879395,0.8892468810081482,-6.417944431304932,0.3818030059337616,0.7188223600387573,0.42000001668930054,-0.8042206764221191,2.9999947547912598,-0.5187798738479614,-2.9999992847442627,-0.09475955367088318,-0.10547499358654022,-0.11569926142692566,-0.12543584406375885,-0.9939451217651367,-0.9947639107704163,-0.9954442977905273,-0.9942362308502197
0.2833333333333333,0.0691211074590683,0.15958814322948456,0.0,0.9529755711555481,0.0,0.0,-0.30304715037345886,-0.35347500443458557,-0.022537322714924812,0.0,0.0,0.0,-2.9894254207611084,-0.44712552428245544,0.6888688802719116,0.4200000464916229,1.0,3.5935388496000087e-06,-2.2627079943049466e-06,-5.6562196704135204e-08,0.0002670464455150068,0.00026775040896609426,-0.00010416749864816666,-0.001743161934427917,0.004214160609990358,-0.00012789397442247719,-0.4731186032295227,0.6830101609230042,0.5435817241668701,0.4427661597728729,0.11246507614850998,-5.963958740234375,0.3818030059337616,0.7188223600387573,0.42000001668930054,-0.7542119026184082,3.000000476837158,-0.5688095092773438,-3.000000238418579,-0.11294220387935638,-0.12328777462244034,-0.13323156535625458,-0.14274680614471436,-1.0126768350601196,-1.0095397233963013,-1.0071520805358887,-1.0052510499954224
0.3,0.06175168976187706,0.15763887763023376,0.0,0.9528765082359314,0.0,0.0,-0.3033585250377655,-0.4026069641113281,-0.1772615760564804,0.0,0.0,0.0,0.8614612817764282,-0.44712549448013306,0.6888688206672668,0.4200000464916229,0.9999999403953552,3.7250752029649448e-06,-2.2361496121448e-06,3.8286421499833523e-07,0.00026479942607693374,0.00026673139655031264,-0.00010454049333930016,-0.0017189221689477563,0.004166769329458475,-0.00013016645971219987,-0.46380114555358887,0.6847547292709351,0.4518929123878479,0.7138758897781372,0.1746339201927185,-5.219956398010254,0.3818030059337616,0.7188223600387573,0.42000001668930054,-0.7042040228843689,3.000000238418579,-0.618837296962738,-2.999999761581421,-0.1297028809785843,-0.14004480838775635,-0.15004071593284607,-0.15960799157619476,-0.9799469113349915,-0.9991903305053711,-1.0003852844238281,-1.0002638101577759
0.31666666666666665,0.05324934050440788,0.15303555130958557,0.0,0.9483118057250977,0.0,0.0,-0.31734004616737366,-0.5599208474159241,-0.32018691301345825,0.0,0.0,0.0,-2.613635301589966,-0.4474218487739563,0.6881093978881836,0.4202794134616852,0.99995356798172,0.005789719056338072,-0.0011138583067804575,-0.0076169404201209545,0.005815633572638035,0.009026607498526573,-0.056671012192964554,-1.2332661151885986,1.4765695333480835,0.7387233972549438,-0.4583401083946228,0.6878598928451538,0.41989099979400635,0.3600826859474182,0.23931041359901428,-0.11643458902835846,0.3818030059337616,0.7188223600387573,0.42000001668930054,-0.6544150710105896,2.9871864318847656,-0.6694844365119934,-2.799964666366577,-0.13843759894371033,-0.1493244767189026,-0.15960274636745453,-0.1691250205039978,-0.17501883208751678,-0.21123573184013367,-0.22198718786239624,-0.20166274905204773
0.3333333333333333,0.04250713437795639,0.14608252048492432,0.0,0.9490727782249451,0.0,0.0,-0.3150569498538971,-0.6833416223526001,-0.4570032060146332,0.0,0.0,0.0,1.21719229221344,-0.4460841417312622,0.6906365752220154,0.4202081561088562,0.9993033409118652,0.00522254966199398,-1.698727828625124e-05,-0.03695186227560043,0.24107296764850616,0.38160470128059387,0.03815773129463196,1.9085335731506348,-0.029693378135561943,-8.476934432983398,-0.4561321437358856,0.6953529119491577,0.4255627691745758,0.21040749549865723,0.4753691852092743,-0.1581820845603943,0.3818030059337616,0.7188223600387573,0.42000001668930054,-0.6044080853462219,2.9999687671661377,-0.7195232510566711,-3.000002861022949,-0.14205126464366913,-0.15286757051944733,-0.16269521415233612,-0.1713210940361023,-0.32675227522850037,-0.28518715500831604,-0.2274671494960785,-0.15116792917251587
0.35,0.030719682574272156,0.1369291990995407,0.0,0.9449028372764587,0.0,0.0,-0.3273508548736572,-0.7513928413391113,-0.5917442440986633,0.0,0.0,0.0,-2.4735121726989746,-0.4421336352825165,0.6968396306037903,0.420000284910202,0.9946340918540955,-2.562325107646757e-06,-2.1674350136891007e-06,-0.10345496982336044,0.2665945291519165,0.40280652046203613,-0.0002149587235180661,0.006106414832174778,-0.0038594405632466078,-8.772954940795898,-0.45054060220718384,0.7020277380943298,0.42320168018341064,0.46427980065345764,0.4318799078464508,-0.13934750854969025,0.3818030059337616,0.7188223600387573,0.42000001668930054,-0.5544031858444214,2.999974012374878,-0.769571840763092,-2.9999186992645264,-0.14923447370529175,-0.15864510834217072,-0.1668291687965393,-0.17355871200561523,-0.4555719196796417,-0.34847313165664673,-0.22913652658462524,-0.0976734310388565
0.36666666666666664,0.020975850522518158,0.1253248006105423,0.0,0.9454346299171448,0.0,0.0,-0.3258119225502014,-0.4403330683708191,-0.749386727809906,0.0,0.0,0.0,1.3902978897094727,-0.4359923303127289,0.7054409980773926,0.4200001657009125,0.9847521185874939,-2.7027422220271546e-06,6.06828871241305e-06,-0.1739632487297058,0.5714534521102905,0.7391295433044434,-0.000162739452207461,0.00798507034778595,-0.0024094250984489918,-4.989202499389648,-0.441534161567688,0.7108702659606934,0.4215180277824402,0.6060470938682556,0.6414047479629517,-0.0648360401391983,0.3818030059337616,0.7188223600387573,0.42000001668930054,-0.5043983459472656,2.999978542327881,-0.8196166157722473,-2.9999783039093018,-0.15866878628730774,-0.1654934138059616,-0.17088530957698822,-0.17464952170848846,-0.5273965001106262,-0.3615134656429291,-0.18265922367572784,0.006582931149750948
0.3833333333333333,0.010324949398636818,0.1118437796831131,0.0,0.9414982795715332,0.0,0.0,-0.33701783418655396,-0.6575812101364136,-0.8533918261528015,0.0,0.0,0.0,-2.3680827617645264,-0.42425858974456787,0.7197854518890381,0.4200212359428406,0.9767354130744934,0.0005340505740605295,-9.757134830579162e-05,-0.2144472748041153,0.8857408761978149,1.0231271982192993,0.015887130051851273,0.7344646453857422,-0.3001090884208679,-5.722463607788086,-0.4283066391944885,0.7228821516036987,0.4214480519294739,0.9863202571868896,0.9048329591751099,0.025386199355125427,0.3818030059337616,0.7188223600387573,0.42000001668930054,-0.4543944001197815,2.9999845027923584,-0.8696655035018921,-2.999997138977051,-0.16906015574932098,-0.17264887690544128,-0.17457102239131927,-0.17469562590122223,-0.5114744305610657,-0.3311149775981903,-0.13481365144252777,0.07352886348962784
0.4,0.003014279529452324,0.09568292647600174,0.0,0.927150547504425,0.0,0.0,-0.3746889531612396,-0.3832561671733856,-1.0143556594848633,0.0,0.0,0.0,-5.6631760597229,-0.4041518568992615,0.7389307022094727,0.4218383729457855,0.9632481932640076,-0.012076357379555702,-0.014182208105921745,-0.2679661810398102,1.6179163455963135,1.2218326330184937,0.10449553281068802,26.515396118164062,-15.145342826843262,6.612441062927246,-0.40762507915496826,0.7421122789382935,0.4233395457267761,1.4880003929138184,1.2703078985214233,0.3322785496711731,0.3818030059337616,0.7188223600387573,0.42000001668930054,-0.4061897099018097,2.357841968536377,-0.9197010397911072,-3.000002861022949,-0.17671485245227814,-0.1772749274969101,-0.17583613097667694,-0.17234523594379425,-0.4551580250263214,-0.26382169127464294,-0.052874501794576645,0.17232806980609894
0.4166666666666667,-0.00046640870277769864,0.07670316100120544,0.0,0.9001286029815674,0.0,0.0,-0.43562430143356323,-0.13797445595264435,-1.196887731552124,0.0,0.0,0.0,-8.798830032348633,-0.3670944273471832,0.7672211527824402,0.42738914489746094,0.9461477994918823,0.03442656621336937,-0.05430107191205025,-0.3172861933708191,3.3988277912139893,1.9842467308044434,0.6558467149734497,10.736467361450195,-10.91948127746582,7.2207794189453125,-0.37025171518325806,0.7697099447250366,0.42887815833091736,3.029414653778076,2.0903849601745605,0.5440270900726318,0.3818030059337616,0.7188223600387573,0.42000001668930054,-0.38459402322769165,0.9723161458969116,-0.8922264575958252,2.998436450958252,-0.1860005259513855,-0.18292251229286194,-0.1776246428489685,-0.17016464471817017,-0.6140097975730896,-0.371589720249176,-0.12229034304618835,0.1263507902622223
0.43333333333333335,-0.0021353906486183405,0.06251075863838196,0.0,0.8573129773139954,0.0,0.0,-0.5147955417633057,-0.05695469304919243,-0.7297673225402832,0.0,0.0,0.0,-11.558430671691895,-0.2917865812778473,0.8069798350334167,0.4364180564880371,0.9199612736701965,0.06829170882701874,-0.08265938609838486,-0.3770608603954315,5.939776420593262,2.2926552295684814,0.6348262429237366,8.6072416305542,-10.764127731323242,17.782712936401367,-0.29487553238868713,0.8098479509353638,0.43787193298339844,5.724374771118164,2.8089044094085693,0.6863687038421631,0.3818030059337616,0.7188223600387573,0.42000001668930054,-0.3674318194389343,1.1270679235458374,-0.9107219576835632,-3.0000014305114746,-0.20167508721351624,-0.19512203335762024,-0.1843600571155548,-0.17181751132011414,-0.9262049198150635,-0.8320727944374084,-0.5049842000007629,-0.21178311109542847
0.45,-0.007779326755553484,0.0560353621840477,0.0,0.8181266188621521,0.0,0.0,-0.5750381350517273,-0.4594208896160126,-0.4066907465457916,0.0,0.0,0.0,-6.942388534545898,-0.19570328295230865,0.8414385318756104,0.44872093200683594,0.8738524317741394,0.13690868020057678,-0.1168086901307106,-0.4516565203666687,5.953745365142822,0.9959720373153687,0.9832654595375061,-2.1566481590270996,-1.9296772480010986,9.854084968566895,-0.19883054494857788,0.8461306095123291,0.4505669176578522,5.91584587097168,1.81963050365448,0.7559641599655151,0.3818030059337616,0.7188223600387573,0.42000001668930054,-0.34748390316963196,1.1424487829208374,-0.8734840154647827,3.000002145767212,-0.216128408908844,-0.20986315608024597,-0.19797280430793762,-0.1803910732269287,-0.5981840491294861,-0.6640017032623291,-0.7284349203109741,-0.512832522392273
0.4666666666666667,-0.009687462821602821,0.04238292574882507,0.0,0.7985093593597412,0.0,0.0,-0.6019823551177979,0.02685762383043766,-0.9750086665153503,0.0,0.0,0.0,-2.950230121612549,-0.09396351128816605,0.8619171977043152,0.4622148275375366,0.8059753179550171,0.14532865583896637,-0.11120830476284027,-0.5629528760910034,6.319939613342285,-0.07791583985090256,0.7473669052124023,12.540035247802734,-15.441656112670898,22.78978729248047,-0.09743152558803558,0.8677261471748352,0.46244901418685913,6.3265275955200195,0.6913027167320251,0.811095654964447,0.3818030059337616,0.7188223600387573,0.42000001668930054,-0.32938531041145325,0.8972909450531006,-0.8992647528648376,-3.000002384185791,-0.22075676918029785,-0.21490570902824402,-0.20350418984889984,-0.18267488479614258,-0.19027499854564667,-0.1568002700805664,-0.13348416984081268,0.06363783776760101
0.48333333333333334,-0.01140171941369772,0.030958840623497963,0.0,0.7715746164321899,0.0,0.0,-0.6361387968063354,-0.1907699853181839,-0.5578005313873291,0.0,0.0,0.0,-5.739057540893555,0.009240638464689255,0.8650201559066772,0.4728488326072693,0.7429513931274414,0.14971709251403809,-0.11384744942188263,-0.6423758268356323,5.815316200256348,-1.1052284240722656,0.5104166269302368,-13.007080078125,-11.532082557678223,27.266496658325195,0.00616961345076561,0.8727014064788818,0.4735172390937805,6.3302459716796875,-0.11192812025547028,0.7415355443954468,0.3818030059337616,0.7188223600387573,0.42000001668930054,-0.31823816895484924,0.3679983615875244,-0.9492901563644409,-3.000002861022949,-0.22622942924499512,-0.21942132711410522,-0.20742474496364594,-0.1839938461780548,-0.41677242517471313,-0.3387083113193512,-0.2918713390827179,-0.1711408644914627
0.5,-0.012098458595573902,0.024515803903341293,0.0,0.7589552402496338,0.0,0.0,-0.6511427760124207,0.01924721710383892,-0.31180432438850403,0.0,0.0,0.0,-1.2242164611816406,0.10472885519266129,0.8538591861724854,0.4798274040222168,0.6637369394302368,0.1396188884973526,-0.11338261514902115,-0.7260193228721619,5.144953727722168,-1.5124623775482178,0.19933943450450897,-3.1247613430023193,-3.134688138961792,4.064164161682129,0.10141406953334808,0.8617708683013916,0.4807281792163849,5.388099670410156,-1.1776409149169922,0.32755494117736816,0.3818030059337616,0.7188223600387573,0.42000001668930054,-0.3106098473072052,0.5801416635513306,-0.9993141889572144,-3.0000007152557373,-0.23320938646793365,-0.2246488481760025,-0.2115304172039032,-0.18643741309642792,-0.3707883358001709,-0.252610445022583,-0.17789094150066376,-0.10575500875711441
0.5166666666666666,-0.013508175499737263,0.022455450147390366,0.0,0.7398344278335571,0.0,0.0,-0.6727889776229858,-0.16787400841712952,-0.04677492752671242,0.0,0.0,0.0,-4.3021626472473145,0.1868853121995926,0.8297377824783325,0.47870150208473206,0.5992350578308105,0.12538254261016846,-0.09920439124107361,-0.7844456434249878,4.199761390686035,-2.136857271194458,-0.39627403020858765,-15.966229438781738,-0.28464147448539734,16.087909698486328,0.18409526348114014,0.8395543098449707,0.4801275134086609,4.744170188903809,-1.663717269897461,-0.1613035500049591,0.3818030059337616,0.7188223600387573,0.42000001668930054,-0.2988123893737793,0.6479220986366272,-1.0493378639221191,-3.0000007152557373,-0.2386615127325058,-0.2283056229352951,-0.21402932703495026,-0.18817901611328125,-0.2626391351222992,-0.15499842166900635,-0.08450382202863693,-0.0591576062142849
0.5333333333333333,-0.013057192787528038,0.017347663640975952,0.0,0.7321931719779968,0.0,0.0,-0.6810969710350037,0.02403930388391018,-0.29507216811180115,0.0,0.0,0.0,-0.4238312542438507,0.2556547522544861,0.7974114418029785,0.4686174988746643,0.522258996963501,0.03753991052508354,-0.12563572824001312,-0.8426458239555359,3.415332555770874,-2.5052332878112793,-0.4163755178451538,-8.281257629394531,13.38552474975586,-4.441060543060303,0.2529968023300171,0.8093886375427246,0.47346073389053345,3.5856943130493164,-2.049004077911377,-0.6319841146469116,0.3818030059337616,0.7188223600387573,0.42000001668930054,-0.285703182220459,0.7944621443748474,-1.0993599891662598,-3.0000030994415283,-0.23791202902793884,-0.22646424174308777,-0.2117612510919571,-0.18655577301979065,0.001972020138055086,0.08598661422729492,0.12232542037963867,0.0713791698217392
0.55,-0.010949183255434036,0.016011232510209084,0.0,0.7156507968902588,0.0,0.0,-0.6984582543373108,0.16434812545776367,-0.007431948557496071,0.0,0.0,0.0,-3.7867252826690674,0.30869194865226746,0.7667118906974792,0.45257624983787537,0.48361605405807495,-0.003671822836622596,-0.10937153548002243,-0.8684121966362,2.903266429901123,-2.1124351024627686,-1.0294361114501953,-7.174865245819092,12.237458229064941,10.38947868347168,0.3072938024997711,0.7788564562797546,0.4577261805534363,2.8498482704162598,-1.7397334575653076,-1.1717162132263184,0.3818030059337616,0.7188223600387573,0.42000001668930054,-0.27686747908592224,0.34979525208473206,-1.1493821144104004,-2.9991354942321777,-0.23585155606269836,-0.22405481338500977,-0.20968478918075562,-0.18632377684116364,0.2559821903705597,0.23065343499183655,0.16744586825370789,0.008992956951260567
0.5666666666666667,-0.0058602215722203255,0.017234288156032562,0.0,0.7126438021659851,0.0,0.0,-0.7015260457992554,0.3370707631111145,0.1425829827785492,0.0,0.0,0.0,0.4101616442203522,0.3490910232067108,0.736148476600647,0.431039035320282,0.4501824975013733,-0.04874914139509201,-0.09874612838029861,-0.8861197829246521,1.8388575315475464,-2.1630966663360596,-1.206947684288025,6.126442909240723,11.070202827453613,0.20985254645347595,0.348481148481369,0.7482889294624329,0.43630456924438477,2.037890911102295,-1.7991446256637573,-1.380530834197998,0.3818030059337616,0.7188223600387573,0.42000001668930054,-0.27206307649612427,0.25322258472442627,-1.199404239654541,-2.99814772605896,-0.23013196885585785,-0.21941401064395905,-0.20666520297527313,-0.18651831150054932,0.39236873388290405,0.3016325831413269,0.17983531951904297,-0.03953280672430992
0.5833333333333334,0.0017327043460682034,0.014081435278058052,0.0,0.6996006369590759,0.0,0.0,-0.7145340442657471,0.4866086542606354,-0.19041785597801208,0.0,0.0,0.0,-2.882775068283081,0.37514403462409973,0.7232242822647095,0.42014211416244507,0.40689656138420105,0.0015196659369394183,-0.0021874201484024525,-0.9134702682495117,1.0816830396652222,-0.28063198924064636,-0.026741011068224907,0.7510865330696106,0.9740612506866455,-9.636933326721191,0.37176603078842163,0.7331544756889343,0.42490482330322266,0.6984873414039612,-0.375352144241333,-0.006360603496432304,0.3818030059337616,0.7188223600387573,0.42000001668930054,-0.26387983560562134,0.9036038517951965,-1.1958727836608887,2.9110267162323,-0.21716941893100739,-0.20929326117038727,-0.1999809592962265,-0.18463650345802307,0.6711874008178711,0.5290049314498901,0.33627933263778687,0.06398169696331024
0.6,0.006766234524548054,0.015610160306096077,0.0,0.6991479396820068,0.0,0.0,-0.7149770259857178,0.24871127307415009,0.10661112517118454,0.0,0.0,0.0,0.7400356531143188,0.3856559693813324,0.7206295132637024,0.42003387212753296,0.43743741512298584,-0.0004580226668622345,0.0006902951863594353,-0.8992484211921692,0.6717619299888611,-0.17489680647850037,-0.02321636863052845,-0.7518332004547119,-0.8784788846969604,1.648543119430542,0.3798583745956421,0.7226711511611938,0.4242785573005676,0.2538143992424011,-0.5405706763267517,0.13385076820850372,0.3818030059337616,0.7188223600387573,0.42000001668930054,-0.28026530146598816,-2.5188515186309814,-1.2182059288024902,-2.9999804496765137,-0.2101767659187317,-0.20394864678382874,-0.1970674991607666,-0.18554408848285675,0.4766972064971924,0.35194748640060425,0.19050991535186768,-0.04777640104293823
0.6166666666666667,0.012712483294308186,0.019749661907553673,0.0,0.6878268122673035,0.0,0.0,-0.7258748412132263,0.3662877380847931,0.2783767282962799,0.0,0.0,0.0,-2.7956316471099854,0.3902320861816406,0.7188949584960938,0.4200003743171692,0.4952126741409302,-5.965057425783016e-06,-1.4221407582226675e-05,-0.8687717318534851,0.116899274289608,-0.07267238199710846,-0.00038306720671243966,0.01987643726170063,0.014570582658052444,12.316811561584473,0.3832706809043884,0.7208850383758545,0.426503986120224,0.18044832348823547,0.1302596777677536,0.15518033504486084,0.3818030059337616,0.7188223600387573,0.42000001668930054,-0.3047552704811096,-0.5928720235824585,-1.2681632041931152,-2.9989163875579834,-0.20067264139652252,-0.19736699759960175,-0.19375763833522797,-0.18655093014240265,0.6993055939674377,0.48814672231674194,0.26651981472969055,-0.007843553088605404
0.6333333333333333,0.02096148394048214,0.018443787470459938,0.0,0.6883342266082764,0.0,0.0,-0.7253937125205994,0.4477848410606384,-0.09530683606863022,0.0,0.0,0.0,0.9795112013816833,0.3911131024360657,0.7183732986450195,0.4200057089328766,0.5357897877693176,-0.00012154097930761054,-0.00014226451457943767,-0.8443513512611389,-0.11741229891777039,0.02056693099439144,-0.006798404268920422,0.31645676493644714,-0.11700502783060074,3.005537986755371,0.3826146721839905,0.7216396331787109,0.4275101125240326,-0.2545502185821533,0.01222401112318039,0.004835248924791813,0.3818030059337616,0.7188223600387573,0.42000001668930054,-0.3456447422504425,-2.9996654987335205,-1.2720355987548828,2.0969040393829346,-0.18624599277973175,-0.1862592101097107,-0.18638268113136292,-0.18371844291687012,0.7116059064865112,0.5826077461242676,0.4066445231437683,0.18088208138942719
0.65,0.03077826090157032,0.021500656381249428,0.0,0.701309323310852,0.0,0.0,-0.7128571271896362,0.6328568458557129,0.16478967666625977,0.0,0.0,0.0,2.6611645221710205,0.3899133503437042,0.718480110168457,0.4200000464916229,0.5453118085861206,4.811475946553401e-07,5.894905825698515e-07,-0.8382332921028137,-0.045089270919561386,0.0026811982970684767,-9.709868209029082e-06,-0.00036325157270766795,-0.0001785441709216684,0.7143403887748718,0.3805333971977234,0.7218092083930969,0.42979857325553894,-0.04147862643003464,0.079084612429142,0.20566394925117493,0.3818030059337616,0.7188223600387573,0.42000001668930054,-0.3957013785839081,-2.9990150928497314,-1.2999402284622192,-2.9991891384124756,-0.17756885290145874,-0.17927363514900208,-0.18167757987976074,-0.1820424348115921,0.6484187841415405,0.5132512450218201,0.35691413283348083,0.16596418619155884
0.6666666666666666,0.04227885231375694,0.02107526920735836,0.0,0.700149416923523,0.0,0.0,-0.7139963507652283,0.7138204574584961,-0.08002655953168869,0.0,0.0,0.0,-1.1878942251205444,0.389570027589798,0.7186020612716675,0.42000001668930054,0.5509227514266968,-1.1439043845484775e-07,3.961585662182188e-06,-0.8345562815666199,-0.029927723109722137,0.013121109455823898,-0.00011399926006561145,-0.0030275702010840178,-0.005418851505964994,1.3790236711502075,0.38016557693481445,0.7257583141326904,0.43345510959625244,0.011073056608438492,0.25574660301208496,0.24884317815303802,0.3818030059337616,0.7188223600387573,0.42000001668930054,-0.4457259476184845,-2.9999008178710938,-1.349900484085083,-2.9991366863250732,-0.16708730161190033,-0.17085984349250793,-0.1755337417125702,-0.17866022884845734,0.5771835446357727,0.47434544563293457,0.3648257851600647,0.2280726581811905
0.6833333333333333,0.05537627264857292,0.01723548397421837,0.0,0.7092900276184082,0.0,0.0,-0.704916775226593,0.8194246888160706,-0.3064780533313751,0.0,0.0,0.0,2.4458060264587402,0.3890243172645569,0.718671441078186,0.4200000464916229,0.5581845641136169,-2.095565150739276e-06,4.282766894903034e-06,-0.8297167420387268,-0.047353632748126984,0.003082916373386979,-0.00014228347572498024,-0.003530481830239296,-0.006800045724958181,1.5553253889083862,0.37892115116119385,0.7271693348884583,0.4401710033416748,-0.10909433662891388,0.022525301203131676,0.610142171382904,0.3818030059337616,0.7188223600387573,0.42000001668930054,-0.4957393705844879,-2.9999992847442627,-1.399919033050537,-2.9999990463256836,-0.16092762351036072,-0.16522261500358582,-0.17036715149879456,-0.1743154674768448,0.27922311425209045,0.28892481327056885,0.3103542923927307,0.31732994318008423
0.7,0.07126501947641373,0.017699800431728363,0.0,0.7070887088775635,0.0,0.0,-0.7071248888969421,0.9140709042549133,0.06798803061246872,0.0,0.0,0.0,-1.3183680772781372,0.3888046145439148,0.7186521887779236,0.4200001060962677,0.5604393482208252,1.474098189646611e-05,-7.141809419408673e-06,-0.8281954526901245,0.001278294250369072,0.00019066665845457464,-0.0005305241793394089,-0.007274792995303869,0.006376233417540789,-0.00365116773173213,0.38175302743911743,0.7272518873214722,0.44987571239471436,0.4823794364929199,0.09699217230081558,0.6535812020301819,0.3818030059337616,0.7188223600387573,0.42000001668930054,-0.5457519292831421,-2.999995231628418,-1.449937343597412,-2.9999992847442627,-0.16126930713653564,-0.16451187431812286,-0.16830383241176605,-0.17105905711650848,0.1059364378452301,0.14237049221992493,0.2080184370279312,0.2758710980415344
0.7166666666666667,0.08817789703607559,0.013963134028017521,0.0,0.6837495565414429,0.0,0.0,-0.7297167778015137,1.075303077697754,-0.25914183259010315,0.0,0.0,0.0,-4.675483703613281,0.3888063430786133,0.718652606010437,0.4200000464916229,0.5604379177093506,1.1130782695545349e-07,-2.858147581719095e-06,-0.8281963467597961,6.400881102308631e-05,-0.0002491382765583694,-8.009606972336769e-05,0.0062783039174973965,-0.0018108062213286757,-0.000685040489770472,0.39611107110977173,0.7309468388557434,0.4681292772293091,1.139726161956787,0.16169732809066772,1.6571850776672363,0.3818030059337616,0.7188223600387573,0.42000001668930054,-0.5957635045051575,-3.0000011920928955,-1.499955654144287,-2.999999523162842,-0.15903355181217194,-0.16167402267456055,-0.16433072090148926,-0.16585297882556915,-0.09656059741973877,-0.012369899079203606,0.10260635614395142,0.22201070189476013
0.7333333333333333,0.10298943519592285,0.013377021066844463,0.0,0.673688530921936,0.0,0.0,-0.7390154004096985,0.8206652402877808,-0.015126815997064114,0.0,0.0,0.0,-0.6311227083206177,0.3888063430786133,0.718652606010437,0.4200000464916229,0.5604377388954163,1.8598120732349344e-07,-2.4669661797815934e-06,-0.8281965255737305,6.798700633225963e-05,-0.0002559999702498317,-8.225487545132637e-05,0.006434837356209755,-0.001826175837777555,-0.0007090938161127269,0.41724371910095215,0.7361400127410889,0.5006251335144043,1.4150781631469727,0.5132709741592407,2.1926469802856445,0.3818030059337616,0.7188223600387573,0.42000001668930054,-0.6210764646530151,-0.25578373670578003,-1.549973964691162,-2.999999761581421,-0.16231949627399445,-0.16391843557357788,-0.16511301696300507,-0.16516096889972687,-0.09100822359323502,-0.08551957458257675,-0.0570019967854023,-0.02729547768831253
0.75,0.11362282931804657,0.015474343672394753,0.0,0.6863610744476318,0.0,0.0,-0.727260947227478,0.5713080167770386,0.17942273616790771,0.0,0.0,0.0,2.924896240234375,0.3888063430786133,0.718652606010437,0.4200000464916229,0.5604375600814819,1.381457082061388e-07,-2.5905844722728943e-06,-0.8281965851783752,6.681781815132126e-05,-0.00025731849018484354,-8.198106661438942e-05,0.006475153379142284,-0.0018455669051036239,-0.0007086441037245095,0.4382062256336212,0.7413256168365479,0.5303170680999756,1.0880852937698364,0.22771796584129333,1.4632411003112793,0.3818030059337616,0.7188223600387573,0.42000001668930054,-0.6009964346885681,2.414257526397705,-1.511101245880127,2.999999523162842,-0.16393733024597168,-0.16520355641841888,-0.16572867333889008,-0.16511636972427368,-0.05611705780029297,-0.031952567398548126,0.008669545873999596,0.046652115881443024
0.7666666666666666,0.11984115093946457,0.013689806684851646,0.0,0.6868453621864319,0.0,0.0,-0.7268035411834717,0.3173036575317383,-0.14078739285469055,0.0,0.0,0.0,-0.9215599894523621,0.3888063430786133,0.718652606010437,0.4200000464916229,0.560437798500061,1.325391423279143e-07,-2.706977056732285e-06,-0.8281965255737305,6.758196104783565e-05,-0.00025711432681418955,-8.21421854197979e-05,0.006465913727879524,-0.0018356285290792584,-0.0007102130330167711,0.44930964708328247,0.7459945678710938,0.5485386848449707,0.19956868886947632,0.18245117366313934,0.8803398609161377,0.3818030059337616,0.7188223600387573,0.42000001668930054,-0.5793246626853943,0.3485426604747772,-1.4610447883605957,3.0,-0.1626734584569931,-0.163716658949852,-0.16380523145198822,-0.16282503306865692,-0.02517087198793888,0.01947147399187088,0.07017675042152405,0.11139270663261414
0.7833333333333333,0.1224263533949852,0.015575493685901165,0.0,0.6971279978752136,0.0,0.0,-0.7169466614723206,0.11119083315134048,0.13226819038391113,0.0,0.0,0.0,2.49300217628479,0.3888063430786133,0.718652606010437,0.4200000464916229,0.5604379773139954,-8.119759087321654e-09,-2.9447251108649652e-06,-0.8281962871551514,6.484658661065623e-05,-0.000259534630458802,-8.155358955264091e-05,0.006542591843754053,-0.0018792401533573866,-0.0007089510327205062,0.45123422145843506,0.7464191317558289,0.5588830709457397,0.10755836963653564,0.02871801145374775,0.41844165325164795,0.3818030059337616,0.7188223600387573,0.42000001668930054,-0.5589398741722107,1.9419469833374023,-1.4779731035232544,-3.0000009536743164,-0.16516000032424927,-0.1650373488664627,-0.1639224737882614,-0.16193872690200806,-0.03371230885386467,0.009820571169257164,0.055829327553510666,0.09236592054367065
0.8,0.1218065395951271,0.014830618165433407,0.0,0.6939099431037903,0.0,0.0,-0.7200617790222168,-0.08211912959814072,-0.09000963717699051,0.0,0.0,0.0,-1.4544601440429688,0.3888063430786133,0.718652606010437,0.4200000464916229,0.5604379177093506,1.4600179554236092e-07,-2.5366191493958468e-06,-0.8281963467597961,6.987832603044808e-05,-0.00025611845194362104,-8.258502930402756e-05,0.006427725777029991,-0.001803122228011489,-0.0007137337815947831,0.4467460513114929,0.7482845187187195,0.5593740940093994,-0.6235755681991577,0.12038210034370422,-0.17987079918384552,0.3818030059337616,0.7188223600387573,0.42000001668930054,-0.5489848256111145,-0.5399034023284912,-1.4393084049224854,3.000000476837158,-0.16575638949871063,-0.1649828851222992,-0.16321486234664917,-0.16074377298355103,-0.04613262787461281,-0.005280397366732359,0.03237900510430336,0.058497585356235504
0.8166666666666667,0.12244240939617157,0.016447436064481735,0.0,0.7001330256462097,0.0,0.0,-0.7140123844146729,0.08637680113315582,0.14008212089538574,0.0,0.0,0.0,1.7997392416000366,0.3888063430786133,0.718652606010437,0.4200000464916229,0.5604378581047058,1.6489070731040556e-07,-2.3896477614471223e-06,-0.8281963467597961,6.936731369933113e-05,-0.0002562370791565627,-8.24641901999712e-05,0.006433786824345589,-0.0018091859528794885,-0.0007124918629415333,0.4391617476940155,0.7495478391647339,0.5561549663543701,-0.2819063663482666,0.1047019362449646,-0.1471087485551834,0.3818030059337616,0.7188223600387573,0.42000001668930054,-0.5413824319839478,1.2871639728546143,-1.4566843509674072,-3.000000238418579,-0.16682419180870056,-0.1654943972826004,-0.163139209151268,-0.16016364097595215,-0.00528869079425931,0.011163454502820969,0.033404480665922165,0.0561261884868145
0.8333333333333334,0.1253475397825241,0.01483992487192154,0.0,0.6953060030937195,0.0,0.0,-0.7187138199806213,0.21787512302398682,-0.1480793058872223,0.0,0.0,0.0,-1.613570213317871,0.3888063430786133,0.718652606010437,0.4200000464916229,0.5604377388954163,1.2641696400805813e-07,-2.577312670837273e-06,-0.8281964659690857,6.766902515664697e-05,-0.00025616728817112744,-8.211936801671982e-05,0.006441377103328705,-0.0018288358114659786,-0.0007084301905706525,0.4353023171424866,0.7521553635597229,0.5510300397872925,-0.22542992234230042,0.08745816349983215,-0.31123822927474976,0.3818030059337616,0.7188223600387573,0.42000001668930054,-0.5620967149734497,-3.0000016689300537,-1.4180794954299927,2.999999523162842,-0.16566702723503113,-0.16434688866138458,-0.16187644004821777,-0.15872031450271606,1.2701639207080007e-07,0.015956498682498932,0.03769402951002121,0.06264208257198334
0.85,0.13075943291187286,0.01644432730972767,0.0,0.7000299096107483,0.0,0.0,-0.7141135334968567,0.35766980051994324,0.1024525910615921,0.0,0.0,0.0,1.9810577630996704,0.3888063430786133,0.718652606010437,0.4200000464916229,0.5604376196861267,1.261895050674866e-07,-2.7000633053830825e-06,-0.8281965255737305,6.725642015226185e-05,-0.0002572415687609464,-8.207838982343674e-05,0.006470942869782448,-0.0018401743145659566,-0.0007094611064530909,0.43460729718208313,0.7517535090446472,0.548589825630188,0.17921683192253113,-0.027071624994277954,0.06460864841938019,0.3818030059337616,0.7188223600387573,0.42000001668930054,-0.5983911752700806,-1.458569049835205,-1.4358717203140259,-2.999999523162842,-0.16783230006694794,-0.16580341756343842,-0.16247344017028809,-0.15834563970565796,-0.03845815733075142,-0.010570326820015907,0.03179929405450821,0.08722816407680511
0.8666666666666667,0.1379873901605606,0.014257650822401047,0.0,0.6955534219741821,0.0,0.0,-0.7184743881225586,0.45843902230262756,-0.1726268231868744,0.0,0.0,0.0,-1.6621248722076416,0.3888063430786133,0.718652606010437,0.4200000464916229,0.5604378581047058,1.933664073305863e-08,-2.937966428362415e-06,-0.8281964063644409,6.484996993094683e-05,-0.00025954132433980703,-8.155615068972111e-05,0.0065428693778812885,-0.0018792502814903855,-0.0007089649443514645,0.43937408924102783,0.7513732314109802,0.5461410284042358,0.32216140627861023,-0.14017146825790405,-0.19684062898159027,0.3818030059337616,0.7188223600387573,0.42000001668930054,-0.6379678249359131,-2.9999966621398926,-1.4858900308609009,-3.000000238418579,-0.16738393902778625,-0.16490647196769714,-0.16086754202842712,-0.1557825654745102,-0.041576385498046875,0.013684832490980625,0.08224055171012878,0.16342370212078094
0.8833333333333333,0.1477423906326294,0.013371337205171585,0.0,0.6700518727302551,0.0,0.0,-0.7423142790794373,0.6144157648086548,-0.06231517717242241,0.0,0.0,0.0,-5.099945545196533,0.3888063430786133,0.718652606010437,0.4200000464916229,0.5604379177093506,1.106645015624963e-07,-2.6801496915140888e-06,-0.8281963467597961,6.807265890529379e-05,-0.0002561945002526045,-8.223229087889194e-05,0.006439483258873224,-0.0018251617439091206,-0.0007097480702213943,0.44937050342559814,0.7498722076416016,0.5452661514282227,0.8899589776992798,-0.005476346705108881,0.22046151757240295,0.3818030059337616,0.7188223600387573,0.42000001668930054,-0.6702256798744202,-1.016173243522644,-1.5359083414077759,-3.000000238418579,-0.1703139692544937,-0.1668245941400528,-0.16159138083457947,-0.1551329344511032,-0.0739058256149292,-0.044471375644207,-0.0033057755790650845,0.05054783448576927
0.9,0.15510837733745575,0.014423837885260582,0.0,0.6582133769989014,0.0,0.0,-0.7528314590454102,0.3751530051231384,0.1100282371044159,0.0,0.0,0.0,-0.8648582100868225,0.3888063430786133,0.718652606010437,0.4200000464916229,0.5604378581047058,1.6797031321402756e-07,-2.2835531581222313e-06,-0.8281964063644409,6.870119250379503e-05,-0.00025594845646992326,-8.238665759563446e-05,0.006429523229598999,-0.001817298703826964,-0.0007107321289367974,0.4602508246898651,0.7523695230484009,0.5517106652259827,0.4393022060394287,0.3303888738155365,0.5172309279441833,0.3818030059337616,0.7188223600387573,0.42000001668930054,-0.6590572595596313,2.077867031097412,-1.5859266519546509,-3.0000009536743164,-0.17063535749912262,-0.16717462241649628,-0.16185657680034637,-0.15516941249370575,0.05026065558195114,0.014537028037011623,-0.019228043034672737,-0.04783826321363449
