vladlanda/robotic-transformer/data/env_000_episode_0035.csv
sim_time_s,robot_box_x,robot_box_y,robot_box_z,robot_box_quat_w,robot_box_quat_x,robot_box_quat_y,robot_box_quat_z,robot_box_linvel_x,robot_box_linvel_y,robot_box_linvel_z,robot_box_angvel_x,robot_box_angvel_y,robot_box_angvel_z,cube_world_x,cube_world_y,cube_world_z,cube_quat_w,cube_quat_x,cube_quat_y,cube_quat_z,cube_linvel_x,cube_linvel_y,cube_linvel_z,cube_angvel_x,cube_angvel_y,cube_angvel_z,endpoint_world_x,endpoint_world_y,endpoint_world_z,endpoint_linvel_x,endpoint_linvel_y,endpoint_linvel_z,target_cube_world_x,target_cube_world_y,target_cube_world_z,gripper_actual_pos_rad_gp_leftgearjoint,gripper_actual_vel_rad_s_gp_leftgearjoint,gripper_actual_pos_rad_gp_rotatingjoint,gripper_actual_vel_rad_s_gp_rotatingjoint,motor_angle_rad_joint1,motor_angle_rad_joint2,motor_angle_rad_joint3,motor_angle_rad_joint4,motor_speed_rad_s_joint1,motor_speed_rad_s_joint2,motor_speed_rad_s_joint3,motor_speed_rad_s_joint4
0.0,0.0,0.0,0.0,1.0,0.0,0.0,0.0,0.0,0.0,0.0,0.0,0.0,0.0,-0.3319239914417267,0.6773801445960999,0.41999998688697815,1.0,0.0,0.0,0.0,0.0,0.0,0.0,0.0,0.0,0.0,3.42540442943573e-06,-0.005000244826078415,1.313499927520752,0.0,0.0,0.0,0.37830865383148193,0.6603953242301941,0.42000001668930054,-1.5707999467849731,0.0,0.0,0.0,0.0,0.0,0.0,0.0,0.0,0.0,0.0,0.0
0.016666666666666666,0.0028841912280768156,0.0021351769100874662,0.0,0.9998537302017212,0.0,0.0,-0.01710374280810356,0.2395452857017517,0.1796390861272812,0.0,0.0,0.0,-3.14565110206604,-0.33192411065101624,0.677379846572876,0.41999998688697815,1.0,3.2799914606584935e-06,-8.339814598912199e-07,8.465387679734704e-08,-1.9833554688375443e-05,0.00017983050202019513,-6.133061833679676e-05,0.0009432226070202887,-0.004689437802881002,-0.0003198152990080416,-0.00699000246822834,0.004072651732712984,1.3159312009811401,-0.7947119474411011,1.0440093278884888,0.17933759093284607,0.37830865383148193,0.6603953242301941,0.42000001668930054,-1.5301095247268677,3.000001907348633,-0.04586757719516754,-3.0000016689300537,0.0008698793244548142,0.0007961164228618145,0.0007101951050572097,0.0006106672226451337,0.11047250777482986,0.0970376580953598,0.08274172246456146,0.0675320252776146
0.03333333333333333,0.008890545926988125,0.00670250877737999,0.0,0.9998415112495422,0.0,0.0,-0.017804179340600967,0.40285709500312805,0.3134195804595947,0.0,0.0,0.0,0.8611337542533875,-0.3319242298603058,0.6773797869682312,0.4200000464916229,1.0,3.39090593115543e-06,-2.1324372028175276e-06,-3.7106541839193596e-08,0.0002635782293509692,0.0002693790593184531,-0.00010509486310184002,-0.0017707175575196743,0.004130743443965912,-0.00013547750131692737,-0.02649654448032379,0.02519182674586773,1.3168525695800781,-1.4778361320495605,1.5262174606323242,-0.04719021916389465,0.37830865383148193,0.6603953242301941,0.42000001668930054,-1.4800904989242554,2.999999523162842,-0.09590736776590347,-3.0000011920928955,0.002927012974396348,0.0025836473796516657,0.0022025073412805796,0.001780880382284522,0.1589546799659729,0.1343003809452057,0.10815941542387009,0.08041713386774063
0.05,0.01755066029727459,0.013493259437382221,0.0,0.9994588494300842,0.0,0.0,-0.03289439156651497,0.5820656418800354,0.45008519291877747,0.0,0.0,0.0,-2.64201283454895,-0.3319242596626282,0.677379846572876,0.4200000464916229,1.0,3.765230758290272e-06,-2.211922264905297e-06,5.6083799826467384e-09,0.0002653090050444007,0.00026691501261666417,-0.00010440615005791187,-0.00172435212880373,0.0041774665005505085,-0.0001294955873163417,-0.05277987942099571,0.05639960616827011,1.3129565715789795,-1.6568598747253418,2.172402858734131,-0.3908229470252991,0.37830865383148193,0.6603953242301941,0.42000001668930054,-1.4300721883773804,2.9999985694885254,-0.144149050116539,-2.7652103900909424,0.00523456372320652,0.004316125530749559,0.0033257892355322838,0.00225946051068604,0.14878979325294495,0.10023633390665054,0.049815692007541656,-0.002577384002506733
0.06666666666666667,0.02973918616771698,0.022758541628718376,0.0,0.9972414374351501,0.0,0.0,-0.0742257684469223,0.7912426590919495,0.600904643535614,0.0,0.0,0.0,-5.865833759307861,-0.3319242596626282,0.6773797869682312,0.4200000464916229,0.9999999403953552,3.406835730856983e-06,-2.2856456780573353e-06,4.3008122929677484e-07,0.0002670265967026353,0.0002679176104720682,-0.0001043803058564663,-0.0017406701808795333,0.004211854189634323,-0.0001285061298403889,-0.08203333616256714,0.0961514562368393,1.303633213043213,-1.8250646591186523,2.5617003440856934,-0.7206119298934937,0.37830865383148193,0.6603953242301941,0.42000001668930054,-1.3800495862960815,2.9999966621398926,-0.10938777029514313,2.9999983310699463,0.007370237726718187,0.005599447060376406,0.0037185726687312126,0.0017200778238475323,0.1262473315000534,0.06886958330869675,0.009411503560841084,-0.052128974348306656
0.08333333333333333,0.03623406961560249,0.03629056364297867,0.0,0.9951320290565491,0.0,0.0,-0.09855049848556519,0.24470381438732147,0.9316282868385315,0.0,0.0,0.0,-1.909971833229065,-0.3319242596626282,0.6773797869682312,0.4200000464916229,0.9999999403953552,3.6261644709156826e-06,-2.3353672986559104e-06,3.032186555174121e-07,0.00026613904628902674,0.0002668514207471162,-0.00010405178181827068,-0.0017283462220802903,0.004196255002170801,-0.00012790478649549186,-0.11524084955453873,0.13554468750953674,1.2884736061096191,-1.968949556350708,2.4259305000305176,-1.004734754562378,0.37830865383148193,0.6603953242301941,0.42000001668930054,-1.3300493955612183,2.999999523162842,-0.14139299094676971,-2.999999761581421,0.003529751906171441,0.0011397398775443435,-0.001411563833244145,-0.00413510762155056,-0.3522292673587799,-0.39258140325546265,-0.43562573194503784,-0.4816107749938965
0.1,0.04713388904929161,0.04616867005825043,0.0,0.9908286929130554,0.0,0.0,-0.13512417674064636,0.6943612098693848,0.5850541591644287,0.0,0.0,0.0,-4.971492767333984,-0.3319242596626282,0.6773797869682312,0.4200000464916229,1.0,3.4222073281853227e-06,-2.308677721885033e-06,1.7962315723707434e-07,0.00026681547751650214,0.0002680041070561856,-0.00010440708138048649,-0.0017430889420211315,0.004207076504826546,-0.00012890899961348623,-0.144682839512825,0.17986084520816803,1.2718021869659424,-1.6168525218963623,3.014357089996338,-1.0584559440612793,0.37830865383148193,0.6603953242301941,0.42000001668930054,-1.2800387144088745,3.000000476837158,-0.19139620661735535,-2.9999992847442627,0.0032988060265779495,-0.0006820880225859582,-0.00482032960280776,-0.00912643875926733,-0.1385546326637268,-0.22874866425991058,-0.3193364143371582,-0.4101983308792114
0.11666666666666667,0.05626831576228142,0.053507208824157715,0.0,0.987815260887146,0.0,0.0,-0.1556311547756195,0.5142905712127686,0.34537315368652344,0.0,0.0,0.0,-1.1817151308059692,-0.3319242596626282,0.677379846572876,0.4200000464916229,1.0,3.711554427354713e-06,-2.33274568017805e-06,2.5742957632246544e-07,0.00026485853595659137,0.0002663547347765416,-0.00010423525236546993,-0.0017182121518999338,0.004170075058937073,-0.00012915946717839688,-0.17664121091365814,0.22961676120758057,1.2498786449432373,-2.023974895477295,3.107794761657715,-1.521068811416626,0.37830865383148193,0.6603953242301941,0.42000001668930054,-1.230027198791504,2.9995081424713135,-0.15761610865592957,3.000000476837158,0.0009780081454664469,-0.004521370865404606,-0.01015911903232336,-0.01594395563006401,-0.1136905774474144,-0.20448525249958038,-0.2930976152420044,-0.3794284760951996
0.13333333333333333,0.062317755073308945,0.05808703601360321,0.0,0.9827367067337036,0.0,0.0,-0.18500949442386627,0.3094446659088135,0.21974492073059082,0.0,0.0,0.0,-4.414953231811523,-0.3319242596626282,0.6773797869682312,0.4200000464916229,1.0,3.33573370880913e-06,-2.231942062280723e-06,3.11316910028836e-07,0.00026669775252230465,0.00026759415050037205,-0.00010428694076836109,-0.0017371064750477672,0.004205882549285889,-0.0001283985038753599,-0.20695893466472626,0.2854490578174591,1.2220263481140137,-1.6139999628067017,3.5909013748168945,-1.8369420766830444,0.37830865383148193,0.6603953242301941,0.42000001668930054,-1.1800341606140137,3.0000016689300537,-0.1893678456544876,-2.999999761581421,-0.0016941239591687918,-0.008815130218863487,-0.01602037437260151,-0.02331702783703804,-0.2156357765197754,-0.3100827634334564,-0.4010261297225952,-0.48840391635894775
0.15,0.07011287659406662,0.06372947245836258,0.0,0.970506489276886,0.0,0.0,-0.24107490479946136,0.5103042125701904,0.39375555515289307,0.0,0.0,0.0,-7.700154781341553,-0.3319242596626282,0.6773797869682312,0.4200000464916229,1.0,3.5189407299185405e-06,-2.2831916339782765e-06,-3.625398221629439e-07,0.00026618593255989254,0.0002673580893315375,-0.00010425783693790436,-0.0017348837573081255,0.004195804242044687,-0.0001286142214667052,-0.2346542477607727,0.3490392565727234,1.184291124343872,-1.567857265472412,4.009486198425293,-2.6466562747955322,0.37830865383148193,0.6603953242301941,0.42000001668930054,-1.1370753049850464,2.1872029304504395,-0.15563558042049408,3.0,-0.0073792459443211555,-0.015622410923242569,-0.02390449121594429,-0.032233648002147675,-0.4505491554737091,-0.4923974871635437,-0.5322182178497314,-0.5701720118522644
0.16666666666666666,0.07538386434316635,0.07253716886043549,0.0,0.9615685343742371,0.0,0.0,-0.2745651304721832,0.24191182851791382,0.5814566016197205,0.0,0.0,0.0,-2.993443727493286,-0.3319242596626282,0.6773797869682312,0.4200000464916229,1.0,3.666569227789296e-06,-2.3392851744574727e-06,-3.149910696720326e-07,0.0002659586607478559,0.00026667313068173826,-0.00010403618216514587,-0.0017253010300919414,0.004192846827208996,-0.00012778765812981874,-0.26593783497810364,0.4124521315097809,1.134498119354248,-1.6432056427001953,3.9669055938720703,-3.326895236968994,0.37830865383148193,0.6603953242301941,0.42000001668930054,-1.088295578956604,3.000000238418579,-0.18735627830028534,-2.9999992847442627,-0.01666984148323536,-0.025384709239006042,-0.03409242630004883,-0.04280567541718483,-0.6173985004425049,-0.6342269778251648,-0.6482918858528137,-0.6599297523498535
0.18333333333333332,0.07897879183292389,0.07857183367013931,0.0,0.9478365778923035,0.0,0.0,-0.31875666975975037,0.13112777471542358,0.30000174045562744,0.0,0.0,0.0,-6.393731594085693,-0.3319242596626282,0.6773797869682312,0.4200000464916229,1.0,3.8143041365401587e-06,-2.3996408344828524e-06,-2.702642802887567e-07,0.0002654908166732639,0.00026611139765009284,-0.00010391324758529663,-0.0017178601119667292,0.00418486213311553,-0.00012754034833051264,-0.2909946143627167,0.480543315410614,1.071412444114685,-1.187652349472046,4.2075700759887695,-4.208930969238281,0.37830865383148193,0.6603953242301941,0.42000001668930054,-1.0382887125015259,3.0000014305114746,-0.237383171916008,-2.9999990463256836,-0.02666732668876648,-0.035564955323934555,-0.04440511763095856,-0.05320822075009346,-0.6637083888053894,-0.6583691835403442,-0.6505661606788635,-0.640838623046875
0.2,0.08434833586215973,0.08622352033853531,0.0,0.938399076461792,0.0,0.0,-0.3455534279346466,0.2966064214706421,0.4715016782283783,0.0,0.0,0.0,-2.308000087738037,-0.3319242596626282,0.6773797869682312,0.4200000464916229,1.0,3.6000490126752993e-06,-2.291332066306495e-06,-2.2018168976956076e-07,0.00026572856586426497,0.0002664503117557615,-0.00010398332960903645,-0.001722772722132504,0.004188805352896452,-0.00012773540220223367,-0.31255006790161133,0.5437436103820801,0.9939688444137573,-1.059295654296875,3.6186869144439697,-5.015599250793457,0.37830865383148193,0.6603953242301941,0.42000001668930054,-0.9882818460464478,3.0,-0.2874104380607605,-3.000002384185791,-0.03985288739204407,-0.04807916283607483,-0.056180067360401154,-0.06426022201776505,-0.9168930649757385,-0.8622005581855774,-0.7932307720184326,-0.726805567741394
0.21666666666666667,0.08611594885587692,0.09561146795749664,0.0,0.9242485761642456,0.0,0.0,-0.38179123401641846,0.04935721680521965,0.6416441202163696,0.0,0.0,0.0,-5.4769439697265625,-0.3319242596626282,0.6773797869682312,0.4200000464916229,0.9999999403953552,3.6395638289832277e-06,-2.262036105094012e-06,2.2249726328027464e-07,0.00026687339413911104,0.00026754429563879967,-0.00010411953553557396,-0.0017403189558535814,0.004211003892123699,-0.00012784055434167385,-0.3288131356239319,0.601227879524231,0.9031977653503418,-0.7015146613121033,3.256542205810547,-5.735945701599121,0.37830865383148193,0.6603953242301941,0.42000001668930054,-0.938271701335907,3.0000016689300537,-0.3374406695365906,-3.0000007152557373,-0.05533325672149658,-0.0636909008026123,-0.07186412811279297,-0.07902689278125763,-0.9730095863342285,-0.972629725933075,-0.9703065752983093,-0.9168583154678345
0.23333333333333334,0.09137456119060516,0.10098371654748917,0.0,0.9163808226585388,0.0,0.0,-0.4003075957298279,0.3285290598869324,0.24158379435539246,0.0,0.0,0.0,-1.270097017288208,-0.3319242298603058,0.6773797869682312,0.4200000464916229,1.0,3.4206011605419917e-06,-2.3168734060163843e-06,2.956235789497441e-07,0.0002668012457434088,0.00026803865330293775,-0.00010442431084811687,-0.0017437878996133804,0.004206913989037275,-0.00012899268767796457,-0.3433748483657837,0.646070122718811,0.8054267168045044,-0.6582965850830078,2.2499120235443115,-6.048590660095215,0.37830865383148193,0.6603953242301941,0.42000001668930054,-0.8882610201835632,2.9999985694885254,-0.3874723017215729,-2.9999983310699463,-0.0701359212398529,-0.07846546918153763,-0.08655771613121033,-0.09268127381801605,-0.9880080819129944,-0.9900323748588562,-0.9850926995277405,-0.9044114947319031
0.25,0.09125197678804398,0.11061131209135056,0.0,0.9212377071380615,0.0,0.0,-0.38900017738342285,-0.002167837228626013,0.522205650806427,0.0,0.0,0.0,2.3602941036224365,-0.3319242596626282,0.6773797869682312,0.4200000464916229,0.9999999403953552,3.347513484186493e-06,-2.259259417769499e-06,1.808668770308941e-07,0.0002668780798558146,0.00026791231357492507,-0.00010439381003379822,-0.00174043164588511,0.004208127502351999,-0.00012869967031292617,-0.35677671432495117,0.6659297943115234,0.7056174278259277,-0.7973381280899048,0.45443207025527954,-5.849822521209717,0.37830865383148193,0.6603953242301941,0.42000001668930054,-0.8382507562637329,2.999990701675415,-0.43750396370887756,-3.0000014305114746,-0.08737178146839142,-0.09548953175544739,-0.10344476252794266,-0.10948267579078674,-0.6669625639915466,-0.7304791212081909,-0.7895019054412842,-0.8436779975891113
0.26666666666666666,0.09561467915773392,0.11394553631544113,0.0,0.9201252460479736,0.0,0.0,-0.3916242718696594,0.2594590485095978,0.13580311834812164,0.0,0.0,0.0,-1.0916177034378052,-0.3319242596626282,0.6773797869682312,0.4200000464916229,0.9999999403953552,3.7079632875247626e-06,-2.3925138066260843e-06,-1.272268548291322e-07,0.00026603610604070127,0.0002671657130122185,-0.00010421453043818474,-0.001732206903398037,0.00419316440820694,-0.00012854795204475522,-0.3664582371711731,0.675216794013977,0.6071269512176514,-0.320859432220459,0.36422351002693176,-5.816506862640381,0.37830865383148193,0.6603953242301941,0.42000001668930054,-0.7882419228553772,2.999995231628418,-0.48753491044044495,-2.999997138977051,-0.0988503247499466,-0.10775568336248398,-0.11645873636007309,-0.1232665628194809,-0.9564267992973328,-0.9567641019821167,-0.9576603770256042,-0.9666280746459961
0.2833333333333333,0.09586767852306366,0.11451833695173264,0.0,0.9248483180999756,0.0,0.0,-0.3803361654281616,-0.06820365786552429,0.0025396402925252914,0.0,0.0,0.0,2.3286287784576416,-0.3319242596626282,0.677379846572876,0.4200000464916229,0.9999999403953552,3.5726056921703275e-06,-2.304081363035948e-06,1.298819682915564e-07,0.00026521802647039294,0.00026455227634869516,-0.00010317238047719002,-0.0017021402018144727,0.004185078199952841,-0.00012500137381721288,-0.3674410581588745,0.6803767681121826,0.5158572196960449,0.2445959895849228,0.21215315163135529,-5.091249465942383,0.37830865383148193,0.6603953242301941,0.42000001668930054,-0.7382331490516663,3.0000016689300537,-0.5375638604164124,-2.999999761581421,-0.1166762113571167,-0.1253170371055603,-0.13382241129875183,-0.14047564566135406,-1.0168384313583374,-1.0127062797546387,-1.0095503330230713,-1.0070315599441528
0.3,0.09202312678098679,0.11328984797000885,0.0,0.923186719417572,0.0,0.0,-0.38435178995132446,-0.19700206816196442,-0.15266181528568268,0.0,0.0,0.0,-1.327962875366211,-0.3319242596626282,0.6773797869682312,0.4200000464916229,1.0,3.7450477066158783e-06,-2.2382080260285875e-06,-1.7676092056717607e-07,0.0002643615298438817,0.00026623584562912583,-0.00010443432256579399,-0.001712094759568572,0.0041588121093809605,-0.00012989898095838726,-0.35575735569000244,0.6815125942230225,0.43220555782318115,1.0730892419815063,0.0019301827996969223,-4.894603729248047,0.37830865383148193,0.6603953242301941,0.42000001668930054,-0.6882261037826538,2.9999959468841553,-0.5875915288925171,-3.000000238418579,-0.13384966552257538,-0.14233727753162384,-0.15074622631072998,-0.1573365181684494,-0.8248963356018066,-0.8586993217468262,-0.8904783725738525,-0.9202694296836853
0.31666666666666665,0.08710835874080658,0.10913732647895813,0.0,0.9275966882705688,0.0,0.0,-0.3735831379890442,-0.34144893288612366,-0.29053568840026855,0.0,0.0,0.0,2.2481117248535156,-0.3319242596626282,0.677379846572876,0.4200000464916229,0.9999999403953552,3.668103772724862e-06,-2.307351678609848e-06,2.6375269612799457e-07,0.00026690849335864186,0.0002676023868843913,-0.00010412768460810184,-0.0017413728637620807,0.004211636260151863,-0.00012787195737473667,-0.3549405634403229,0.6852132081985474,0.42547714710235596,0.16462835669517517,0.2888595759868622,-0.2719106078147888,0.37830865383148193,0.6603953242301941,0.42000001668930054,-0.638221263885498,2.9999840259552,-0.6379867792129517,-3.0,-0.14418718218803406,-0.15217682719230652,-0.15956951677799225,-0.16486945748329163,-0.5778741836547852,-0.5355721116065979,-0.465909868478775,-0.38521814346313477
0.3333333333333333,0.07980381697416306,0.10276691615581512,0.0,0.9257495403289795,0.0,0.0,-0.3781372904777527,-0.4813445806503296,-0.42024698853492737,0.0,0.0,0.0,-1.5247660875320435,-0.32949918508529663,0.6808087825775146,0.4200000464916229,0.9996961951255798,-1.091520880436292e-05,1.4401190128410235e-05,-0.024645773693919182,0.23916436731815338,0.3222461938858032,-0.0003909817023668438,0.025565803050994873,-0.006482840981334448,-4.3485283851623535,-0.35024988651275635,0.6887819766998291,0.4217866063117981,0.4422453045845032,0.26986393332481384,-0.18425501883029938,0.37830865383148193,0.6603953242301941,0.42000001668930054,-0.588216245174408,2.999972105026245,-0.6880630254745483,-2.9999475479125977,-0.15488369762897491,-0.16150188446044922,-0.16705067455768585,-0.17033086717128754,-0.6432424187660217,-0.533863365650177,-0.3971758484840393,-0.2517770230770111
0.35,0.07029106467962265,0.09422222524881363,0.0,0.9297690987586975,0.0,0.0,-0.368143230676651,-0.6121677756309509,-0.5508927702903748,0.0,0.0,0.0,2.1976184844970703,-0.323996901512146,0.6877948045730591,0.4200000762939453,0.9973150491714478,-8.55121743370546e-06,1.2901828995381948e-05,-0.07323037087917328,0.3939136862754822,0.4841034412384033,-0.0003671883896458894,0.023013705387711525,-0.00742697436362505,-6.817827224731445,-0.341461181640625,0.6950177550315857,0.4189380407333374,0.6315280199050903,0.4563201367855072,-0.13728582859039307,0.37830865383148193,0.6603953242301941,0.42000001668930054,-0.5382113456726074,2.9999725818634033,-0.738109827041626,-2.9999847412109375,-0.16603228449821472,-0.17031912505626678,-0.17311634123325348,-0.17354746162891388,-0.6286966800689697,-0.47692811489105225,-0.3020651638507843,-0.12343759089708328
0.36666666666666664,0.05848165601491928,0.0834740698337555,0.0,0.9278554320335388,0.0,0.0,-0.3729400038719177,-0.7543978691101074,-0.6889957189559937,0.0,0.0,0.0,-1.5251320600509644,-0.3172982931137085,0.6953661441802979,0.4200000464916229,0.9889995455741882,2.2206502762855962e-05,-7.788754373905249e-06,-0.14791858196258545,0.44513291120529175,0.4517240524291992,-0.0004022873181384057,-0.019368676468729973,0.018088122829794884,-13.223553657531738,-0.32944440841674805,0.7012829184532166,0.4187849760055542,0.8195348978042603,0.3847463130950928,0.0765252560377121,0.37830865383148193,0.6603953242301941,0.42000001668930054,-0.48815813660621643,2.9997406005859375,-0.7881085872650146,-2.999995231628418,-0.1763303279876709,-0.17782706022262573,-0.1774132251739502,-0.17453759908676147,-0.5645667314529419,-0.39204126596450806,-0.1939203441143036,0.010567973367869854
0.3833333333333333,0.049369849264621735,0.06999650597572327,0.0,0.9150304794311523,0.0,0.0,-0.4033846855163574,-0.4711301922798157,-0.8599144816398621,0.0,0.0,0.0,-4.802581787109375,-0.3063405156135559,0.7062268257141113,0.42071521282196045,0.9706868529319763,-0.0175620149821043,0.0033208278473466635,-0.23968207836151123,0.951278567314148,0.9108379483222961,0.11099181324243546,-5.097332954406738,2.2066380977630615,-5.509008407592773,-0.3134623169898987,0.7108393907546997,0.42059117555618286,1.1386520862579346,0.7461045980453491,0.13609173893928528,0.37830865383148193,0.6603953242301941,0.42000001668930054,-0.4380977749824524,2.9999990463256836,-0.8381147980690002,-2.999976396560669,-0.18454965949058533,-0.1831374168395996,-0.1793513000011444,-0.1729537695646286,-0.3901190757751465,-0.21952904760837555,-0.021726656705141068,0.1854061335325241
0.4,0.04353565350174904,0.053762223571538925,0.0,0.8893041014671326,0.0,0.0,-0.45731624960899353,-0.23407423496246338,-1.0324257612228394,0.0,0.0,0.0,-7.931796550750732,-0.27881452441215515,0.7248814702033997,0.4239797294139862,0.9579023122787476,-0.03002682700753212,-0.02535153739154339,-0.2843921184539795,2.3456308841705322,1.2837941646575928,-0.050065066665410995,21.318096160888672,-16.24530601501465,4.576776027679443,-0.28539496660232544,0.7307627201080322,0.4228877127170563,2.3261489868164062,1.6124944686889648,0.2862076461315155,0.37830865383148193,0.6603953242301941,0.42000001668930054,-0.39491912722587585,1.7829402685165405,-0.8881320953369141,-3.000000476837158,-0.19126898050308228,-0.18694965541362762,-0.17984354496002197,-0.17000126838684082,-0.37925320863723755,-0.2053413838148117,-0.0121340686455369,0.1844472736120224
0.4166666666666667,0.040531013160943985,0.0420425720512867,0.0,0.847412645816803,0.0,0.0,-0.5309348106384277,-0.14258119463920593,-0.5786950588226318,0.0,0.0,0.0,-10.939408302307129,-0.21335721015930176,0.7558850646018982,0.4254426062107086,0.9367663264274597,0.022096239030361176,-0.07671752572059631,-0.3407272398471832,5.236859321594238,1.632401704788208,0.6861753463745117,1.9026037454605103,-5.184359073638916,27.053762435913086,-0.21948301792144775,0.7618466019630432,0.42456725239753723,5.104866981506348,2.2361900806427,0.33489707112312317,0.37830865383148193,0.6603953242301941,0.42000001668930054,-0.3727961778640747,0.9820829629898071,-0.8512657880783081,2.9834041595458984,-0.20519012212753296,-0.19646219909191132,-0.1844736486673355,-0.1701052188873291,-0.8942002058029175,-0.6519914269447327,-0.34977051615715027,-0.08066487312316895
0.43333333333333335,0.033438701182603836,0.03756512328982353,0.0,0.8117015361785889,0.0,0.0,-0.584072470664978,-0.5383334755897522,-0.26156508922576904,0.0,0.0,0.0,-6.389865875244141,-0.1301211267709732,0.7878265976905823,0.4353680908679962,0.9056345224380493,0.03553638234734535,-0.06634902954101562,-0.41732606291770935,5.497922897338867,1.2807860374450684,0.41812679171562195,20.689647674560547,2.9286327362060547,3.103027105331421,-0.13439293205738068,0.7956507205963135,0.4338723421096802,5.108715057373047,1.8184542655944824,0.7265692949295044,0.37830865383148193,0.6603953242301941,0.42000001668930054,-0.35940423607826233,0.7600135803222656,-0.8778426051139832,-3.000002384185791,-0.21863310039043427,-0.21020370721817017,-0.19409246742725372,-0.1756085455417633,-0.5873667001724243,-0.6419044733047485,-0.5113406181335449,-0.33126941323280334
0.45,0.031096383929252625,0.026035403832793236,0.0,0.7952558398246765,0.0,0.0,-0.6062739491462708,-0.0010379592422395945,-0.8505409955978394,0.0,0.0,0.0,-2.296905279159546,-0.0408424474298954,0.8106071352958679,0.4465155601501465,0.8502776622772217,0.02814759500324726,-0.07642991095781326,-0.5199942588806152,5.535447597503662,-0.10943153500556946,0.6662124395370483,4.962245941162109,-11.565815925598145,25.865222930908203,-0.04482100158929825,0.8191107511520386,0.44445404410362244,5.61592960357666,0.9262073040008545,0.8201428055763245,0.37830865383148193,0.6603953242301941,0.42000001668930054,-0.347281813621521,0.5899187326431274,-0.9278665781021118,-3.0000040531158447,-0.22186508774757385,-0.21408292651176453,-0.1962285041809082,-0.1753135472536087,-0.10015059262514114,-0.08488266915082932,0.035413894802331924,0.18599313497543335
0.4666666666666667,0.027755318209528923,0.016788963228464127,0.0,0.7709619998931885,0.0,0.0,-0.6368811130523682,-0.24628762900829315,-0.4942818582057953,0.0,0.0,0.0,-5.376465320587158,0.04791869595646858,0.8175349235534668,0.45597168803215027,0.8031474947929382,0.03119921311736107,-0.0675600916147232,-0.591114342212677,5.150213718414307,-0.5945279598236084,0.5725559592247009,-7.085547924041748,1.5110441446304321,11.059736251831055,0.0454757995903492,0.8261681795120239,0.4544353485107422,5.434902191162109,0.06486226618289948,0.5796267986297607,0.37830865383148193,0.6603953242301941,0.42000001668930054,-0.33621564507484436,0.718780517578125,-0.9778906106948853,-2.9974236488342285,-0.22557123005390167,-0.21713986992835999,-0.19757390022277832,-0.17469440400600433,-0.1476464569568634,-0.11796443164348602,-0.05742311105132103,0.008959198370575905
0.48333333333333334,0.026107214391231537,0.011991720646619797,0.0,0.7605858445167542,0.0,0.0,-0.6492373943328857,-0.03470144048333168,-0.18635812401771545,0.0,0.0,0.0,-0.7529739737510681,0.13006840646266937,0.8107830882072449,0.46228116750717163,0.7480909824371338,0.012668780982494354,-0.0691831186413765,-0.6598582863807678,4.36395263671875,-1.5617703199386597,0.41669711470603943,5.1947808265686035,-3.6496224403381348,24.14025115966797,0.12865209579467773,0.8203383684158325,0.4618832468986511,4.8020734786987305,-0.7680521011352539,0.38713717460632324,0.37830865383148193,0.6603953242301941,0.42000001668930054,-0.32280370593070984,0.7600334286689758,-1.0279135704040527,-3.0000011920928955,-0.22878287732601166,-0.2193959355354309,-0.1988746076822281,-0.17513620853424072,-0.19953005015850067,-0.12296142429113388,-0.07386013120412827,-0.04108752682805061
0.5,0.02355610765516758,0.005996701307594776,0.0,0.7430975437164307,0.0,0.0,-0.6691831350326538,-0.202294260263443,-0.4048536717891693,0.0,0.0,0.0,-4.025561809539795,0.2017221301794052,0.7930825352668762,0.46432897448539734,0.7086528539657593,-0.004168977960944176,-0.04841335490345955,-0.7038819193840027,3.6822054386138916,-2.0198376178741455,0.19294852018356323,-0.8915781378746033,8.972469329833984,16.46196746826172,0.20152908563613892,0.8019971251487732,0.4646269679069519,4.159025192260742,-1.4711750745773315,0.060580063611269,0.37830865383148193,0.6603953242301941,0.42000001668930054,-0.3097785711288452,0.7149063944816589,-1.0779356956481934,-2.9980404376983643,-0.231496661901474,-0.22048607468605042,-0.19909371435642242,-0.17483274638652802,-0.17323093116283417,-0.04961346834897995,0.01256842352449894,0.04860958829522133
0.5166666666666666,0.022611871361732483,0.003604448400437832,0.0,0.7379692792892456,0.0,0.0,-0.6748343110084534,0.0009984055068343878,-0.03392542898654938,0.0,0.0,0.0,0.034171197563409805,0.2618900239467621,0.7654749155044556,0.46025338768959045,0.6370232105255127,-0.07343052327632904,-0.07610803842544556,-0.7635554671287537,2.866407871246338,-2.274414539337158,-0.4334903359413147,-20.61223793029785,14.147326469421387,2.805508613586426,0.26107287406921387,0.7749934792518616,0.4639207720756531,3.2356069087982178,-1.742526888847351,-0.12424686551094055,0.37830865383148193,0.6603953242301941,0.42000001668930054,-0.29817062616348267,0.6120243668556213,-1.127957820892334,-2.9993948936462402,-0.23376040160655975,-0.22111938893795013,-0.19932101666927338,-0.17512854933738708,-0.020793410018086433,0.03662761300802231,0.012102468870580196,-0.04120617359876633
0.5333333333333333,0.025319762527942657,-0.0023598135448992252,0.0,0.7235239148139954,0.0,0.0,-0.6902993321418762,0.18183660507202148,-0.4129975736141205,0.0,0.0,0.0,-3.363363742828369,0.31054753065109253,0.739776611328125,0.4505912661552429,0.6006169319152832,-0.1005420982837677,-0.054829347878694534,-0.7912928462028503,2.3652327060699463,-1.8026765584945679,-0.6735162138938904,1.5707566738128662,3.4954421520233154,10.85270881652832,0.3102019429206848,0.7488741874694824,0.4548264741897583,2.6916556358337402,-1.5823901891708374,-0.7376641631126404,0.37830865383148193,0.6603953242301941,0.42000001668930054,-0.2860620617866516,0.7661519646644592,-1.1779799461364746,-2.9999067783355713,-0.22788503766059875,-0.21570704877376556,-0.19578197598457336,-0.17385932803153992,0.4077213406562805,0.36324796080589294,0.22743593156337738,0.06531428545713425
0.55,0.030343912541866302,-0.003982262685894966,0.0,0.720596969127655,0.0,0.0,-0.6933541893959045,0.3266570270061493,-0.09600729495286942,0.0,0.0,0.0,0.3167012333869934,0.34865468740463257,0.7131267786026001,0.4350995421409607,0.5395618081092834,-0.12864328920841217,-0.04333978518843651,-0.8309304714202881,2.060112237930298,-1.541200041770935,-0.9944539666175842,-0.007837765850126743,-5.282851219177246,-11.802369117736816,0.34689170122146606,0.7206131219863892,0.44030651450157166,1.8945059776306152,-1.6657721996307373,-1.0359858274459839,0.37830865383148193,0.6603953242301941,0.42000001668930054,-0.26971447467803955,1.3686254024505615,-1.2279982566833496,-3.000002145767212,-0.2239542454481125,-0.212183877825737,-0.19428615272045135,-0.17491313815116882,0.41511183977127075,0.3327392637729645,0.15819455683231354,-0.04110155627131462
0.5666666666666667,0.03765183687210083,-0.009476609528064728,0.0,0.7079201340675354,0.0,0.0,-0.706292450428009,0.47969672083854675,-0.36906522512435913,0.0,0.0,0.0,-2.9707775115966797,0.3719639182090759,0.6963829398155212,0.4246259331703186,0.5280077457427979,-0.09124933183193207,-0.016451898962259293,-0.84416264295578,0.8804898262023926,-1.441380500793457,-0.29652923345565796,0.5615701675415039,-12.165231704711914,35.75718307495117,0.3696601986885071,0.7014470100402832,0.4281041622161865,0.6749189496040344,-0.6896308660507202,-0.0963292121887207,0.37830865383148193,0.6603953242301941,0.42000001668930054,-0.24347950518131256,1.0815874338150024,-1.1899999380111694,2.9817705154418945,-0.214314803481102,-0.2047920525074005,-0.19054014980793,-0.17509034276008606,0.5658692121505737,0.4236399829387665,0.2030935436487198,-0.030536828562617302
0.5833333333333334,0.04278021678328514,-0.011379453353583813,0.0,0.7074896693229675,0.0,0.0,-0.7067236304283142,0.25620779395103455,-0.07611167430877686,0.0,0.0,0.0,0.7828647494316101,0.38024798035621643,0.6841590404510498,0.4249900281429291,0.5544458627700806,-0.0943433865904808,0.010421146638691425,-0.826789140701294,0.3115231394767761,-0.7981358766555786,0.03160720318555832,3.583458185195923,2.3697352409362793,7.7864227294921875,0.3769647777080536,0.6882164478302002,0.4287870228290558,0.2409433126449585,-0.7236990928649902,0.08282829821109772,0.37830865383148193,0.6603953242301941,0.42000001668930054,-0.2513425648212433,-1.365168809890747,-1.211487889289856,-2.9988739490509033,-0.20728857815265656,-0.19984973967075348,-0.18891969323158264,-0.17700836062431335,0.4722498059272766,0.3260130286216736,0.11214838176965714,-0.11087612062692642
0.6,0.04853237792849541,-0.010495052672922611,0.0,0.6977806091308594,0.0,0.0,-0.7163115739822388,0.38330379128456116,0.10677772015333176,0.0,0.0,0.0,-2.4965226650238037,0.3829396963119507,0.6770123839378357,0.42401987314224243,0.5801970958709717,-0.07435590773820877,0.010889751836657524,-0.8110018372535706,0.10061439871788025,-0.3813632130622864,-0.03236200660467148,0.9760569930076599,-1.0478202104568481,8.79851245880127,0.3795965611934662,0.6817582845687866,0.4271741807460785,0.08155947923660278,-0.16733962297439575,-0.10897374153137207,0.37830865383148193,0.6603953242301941,0.42000001668930054,-0.2614521384239197,-0.12167547643184662,-1.1735097169876099,2.9980950355529785,-0.1978081464767456,-0.19362574815750122,-0.1868477761745453,-0.17906790971755981,0.6179683804512024,0.40669092535972595,0.14939938485622406,-0.10262691229581833
0.6166666666666667,0.0519450418651104,-0.014415564946830273,0.0,0.6992580890655518,0.0,0.0,-0.7148692607879639,0.17113694548606873,-0.25647974014282227,0.0,0.0,0.0,0.9511098265647888,0.3833136558532715,0.671957790851593,0.4222198724746704,0.6098024249076843,-0.0394243448972702,0.007194740232080221,-0.7915396094322205,-0.04446161165833473,-0.2666585147380829,-0.1207718700170517,1.657019019126892,-4.454830646514893,-0.6420060396194458,0.37972038984298706,0.6785780191421509,0.4281417727470398,-0.1712709367275238,-0.27168992161750793,0.11967101693153381,0.37830865383148193,0.6603953242301941,0.42000001668930054,-0.3010565936565399,-3.000000238418579,-1.1950608491897583,-2.999765157699585,-0.18534521758556366,-0.1843891143798828,-0.18166370689868927,-0.17784848809242249,0.5254461169242859,0.40200233459472656,0.21893300116062164,0.03588900342583656
0.6333333333333333,0.05722834914922714,-0.013878083787858486,0.0,0.6893681287765503,0.0,0.0,-0.7244111895561218,0.3021327555179596,0.06214159354567528,0.0,0.0,0.0,-2.464873790740967,0.3824491500854492,0.6700215339660645,0.4212537705898285,0.6197953224182129,-0.021868793293833733,0.007262772414833307,-0.7844250798225403,0.06045407056808472,0.10108478367328644,0.19939839839935303,-7.033488750457764,4.043005466461182,1.4014513492584229,0.37907272577285767,0.6784239411354065,0.43010884523391724,0.11649571359157562,0.1933721899986267,0.13063278794288635,0.37830865383148193,0.6603953242301941,0.42000001668930054,-0.33162999153137207,-0.8329206705093384,-1.245007872581482,-2.999115467071533,-0.17847862839698792,-0.17950142920017242,-0.17954659461975098,-0.17844046652317047,0.5706448554992676,0.41578948497772217,0.22591660916805267,0.045635614544153214
0.65,0.06385335326194763,-0.016629738733172417,0.0,0.6915008425712585,0.0,0.0,-0.7223756909370422,0.4349631071090698,-0.18312011659145355,0.0,0.0,0.0,1.209276795387268,0.3832124173641205,0.6717190742492676,0.4230896234512329,0.6225250363349915,-0.058999817818403244,-0.014329939149320126,-0.780241072177887,-0.004109151195734739,0.08631005883216858,0.08425357937812805,-3.177778959274292,2.0622355937957764,1.3621846437454224,0.37872010469436646,0.679722785949707,0.4324328303337097,-0.13467341661453247,-0.01213829591870308,0.15670675039291382,0.37830865383148193,0.6603953242301941,0.42000001668930054,-0.3751971125602722,-2.9997825622558594,-1.295007348060608,-2.999868154525757,-0.16974607110023499,-0.17277470231056213,-0.17535510659217834,-0.17670702934265137,0.3342563211917877,0.26517006754875183,0.1662268042564392,0.06592757999897003
0.6666666666666666,0.07308872044086456,-0.016606805846095085,0.0,0.7120780944824219,0.0,0.0,-0.7021002769470215,0.5986506938934326,0.03610818088054657,0.0,0.0,0.0,4.446268558502197,0.3825725317001343,0.6727897524833679,0.423202246427536,0.6254287362098694,-0.0643370971083641,-0.03275807201862335,-0.7769339680671692,-0.0818992629647255,0.049918681383132935,-0.016490651294589043,-1.9914016723632812,-1.8490231037139893,-1.5943125486373901,0.37659043073654175,0.6788376569747925,0.43589454889297485,-0.11318673193454742,-0.060516029596328735,0.2684049904346466,0.37830865383148193,0.6603953242301941,0.42000001668930054,-0.4251985251903534,-2.9999873638153076,-1.3449931144714355,-2.9999871253967285,-0.1658174991607666,-0.16929815709590912,-0.17256690561771393,-0.1744973063468933,0.2659723460674286,0.25847795605659485,0.2495732307434082,0.2538844048976898
0.6833333333333333,0.08440804481506348,-0.01978091336786747,0.0,0.7204554677009583,0.0,0.0,-0.6935011744499207,0.7032861709594727,-0.22704923152923584,0.0,0.0,0.0,0.3843300938606262,0.3815053403377533,0.6731230616569519,0.4221906065940857,0.6246234774589539,-0.04525495320558548,-0.036310285329818726,-0.7787675857543945,-0.04780062660574913,0.0004465835227165371,-0.055423203855752945,3.192904233932495,-0.7148814797401428,0.17681977152824402,0.37632888555526733,0.6789906024932861,0.4413525462150574,-0.0061045363545417786,-0.07379026710987091,0.33352047204971313,0.37830865383148193,0.6603953242301941,0.42000001668930054,-0.475202739238739,-2.999948740005493,-1.3949942588806152,-2.999912738800049,-0.1612892895936966,-0.16443681716918945,-0.1672651171684265,-0.16849973797798157,0.18366210162639618,0.243574857711792,0.31377744674682617,0.39787644147872925
0.7,0.09730954468250275,-0.026139941066503525,0.0,0.7077476382255554,0.0,0.0,-0.7064653038978577,0.8101171851158142,-0.45597758889198303,0.0,0.0,0.0,-3.0443315505981445,0.3808565139770508,0.6725403070449829,0.42044171690940857,0.6271263957023621,-0.008052552118897438,-0.006521386094391346,-0.7788484692573547,-0.035312384366989136,-0.046429604291915894,-0.12176534533500671,6.449258327484131,-1.4228806495666504,0.2596290707588196,0.38287246227264404,0.6795161366462708,0.45392927527427673,0.7297117114067078,0.08955371379852295,1.2615752220153809,0.37830865383148193,0.6603953242301941,0.42000001668930054,-0.5252153277397156,-2.9999842643737793,-1.4450125694274902,-3.0,-0.16048331558704376,-0.1623828113079071,-0.16372714936733246,-0.16325125098228455,-0.012650932185351849,0.07157944142818451,0.1722724735736847,0.2855883240699768
0.7166666666666667,0.11331453919410706,-0.027855681255459785,0.0,0.6739646792411804,0.0,0.0,-0.7387635707855225,0.9422010779380798,-0.10891243815422058,0.0,0.0,0.0,-6.416235446929932,0.3807694911956787,0.6721388697624207,0.4199999272823334,0.627186119556427,-1.431228156434372e-05,-1.1009880836354569e-05,-0.7788694500923157,-0.0003058977017644793,0.0017694364069029689,-0.0006364726577885449,0.013937988318502903,-0.005283103324472904,-0.057740725576877594,0.40451839566230774,0.6774928569793701,0.4803917706012726,1.9063827991485596,-0.16478753089904785,2.0367703437805176,0.37830865383148193,0.6603953242301941,0.42000001668930054,-0.5752271413803101,-2.9999923706054688,-1.4950308799743652,-2.9999990463256836,-0.16756194829940796,-0.16686178743839264,-0.16536280512809753,-0.16193771362304688,-0.3332810699939728,-0.19809876382350922,-0.04370502382516861,0.11972049623727798
0.7333333333333333,0.12614057958126068,-0.027240581810474396,0.0,0.6538075804710388,0.0,0.0,-0.7566608190536499,0.7229124903678894,0.03743654862046242,0.0,0.0,0.0,-2.106348991394043,0.38076910376548767,0.672138512134552,0.42000001668930054,0.6271863579750061,-1.9002982298843563e-06,-4.553672170004575e-06,-0.7788692116737366,0.00011387050471967086,-0.00036365457344800234,-9.364169090986252e-05,0.008158743381500244,-0.0019514906452968717,-0.0004433178692124784,0.43518397212028503,0.6786163449287415,0.5175364017486572,1.7753468751907349,0.2686921954154968,2.3484063148498535,0.37830865383148193,0.6603953242301941,0.42000001668930054,-0.5952193140983582,0.3294089138507843,-1.5450491905212402,-2.999999761581421,-0.17196568846702576,-0.16993188858032227,-0.16685032844543457,-0.1617722511291504,-0.10344797372817993,-0.09305447340011597,-0.06991896778345108,-0.04440894350409508
0.75,0.13487030565738678,-0.024580778554081917,0.0,0.6583923101425171,0.0,0.0,-0.75267493724823,0.44847291707992554,0.20538125932216644,0.0,0.0,0.0,1.613524317741394,0.38076910376548767,0.6721385717391968,0.42000001668930054,0.6271862387657166,-2.2195952169568045e-06,-4.379819529276574e-06,-0.7788692116737366,9.770947508513927e-05,-0.00036839264794252813,-0.00010181101970374584,0.008160398341715336,-0.0021672688890248537,-0.00040956924203783274,0.4579871594905853,0.6830325722694397,0.5518332719802856,0.9378675222396851,0.30743640661239624,1.8176658153533936,0.37830865383148193,0.6603953242301941,0.42000001668930054,-0.5681836605072021,2.6872622966766357,-1.5061931610107422,2.9999992847442627,-0.1724546104669571,-0.17041051387786865,-0.16714070737361908,-0.16188517212867737,0.06176754832267761,0.04776958003640175,0.04153445363044739,0.03154342621564865
0.7666666666666666,0.13895279169082642,-0.027147050946950912,0.0,0.6516597867012024,0.0,0.0,-0.7585113644599915,0.2482469081878662,-0.17081649601459503,0.0,0.0,0.0,-1.810489535331726,0.38076910376548767,0.6721385717391968,0.42000001668930054,0.6271862983703613,-2.0879388102912344e-06,-4.489190359890927e-06,-0.7788692116737366,0.00010183334961766377,-0.0003691682650242001,-0.00010071927681565285,0.0081908805295825,-0.0021221169736236334,-0.0004187182348687202,0.46720820665359497,0.6901202201843262,0.5757532715797424,0.0674707368016243,0.30141961574554443,1.1847769021987915,0.37830865383148193,0.6603953242301941,0.42000001668930054,-0.5298324823379517,1.948510766029358,-1.4561405181884766,2.999999523162842,-0.16653677821159363,-0.16548675298690796,-0.1630975753068924,-0.15878300368785858,0.16550755500793457,0.15082857012748718,0.13563957810401917,0.10849634557962418
0.7833333333333333,0.1402517557144165,-0.024654533714056015,0.0,0.6573858857154846,0.0,0.0,-0.753554105758667,0.03462619334459305,0.18359416723251343,0.0,0.0,0.0,1.6603926420211792,0.38076910376548767,0.6721385717391968,0.42000001668930054,0.6271861791610718,-2.1146788640180603e-06,-4.426492068887455e-06,-0.7788693308830261,0.0001016792084556073,-0.00036915444070473313,-0.00010077282786369324,0.008189957588911057,-0.0021243090741336346,-0.00041840641642920673,0.46187150478363037,0.6933426260948181,0.5909160375595093,-0.5895106792449951,0.2197398841381073,0.6667908430099487,0.37830865383148193,0.6603953242301941,0.42000001668930054,-0.48675379157066345,2.999997615814209,-1.406087875366211,3.000000238418579,-0.16746686398983002,-0.16578179597854614,-0.1628773808479309,-0.15837539732456207,0.039321254938840866,0.05814443901181221,0.06969331949949265,0.062402307987213135
0.8,0.13899336755275726,-0.025738030672073364,0.0,0.6516848802566528,0.0,0.0,-0.7584897875785828,-0.14810298383235931,-0.05890823155641556,0.0,0.0,0.0,-1.59170401096344,0.38076910376548767,0.6721385717391968,0.42000001668930054,0.627186119556427,-2.1990683762851404e-06,-4.289584467187524e-06,-0.7788693904876709,9.887239866657183e-05,-0.0003686125564854592,-0.00010145618580281734,0.008170457556843758,-0.0021534026600420475,-0.0004120797966606915,0.4465073049068451,0.6965804100036621,0.5960115194320679,-1.3235268592834473,0.112068772315979,0.10976602882146835,0.37830865383148193,0.6603953242301941,0.42000001668930054,-0.46571239829063416,-0.21625742316246033,-1.3560352325439453,2.9999992847442627,-0.16525942087173462,-0.1634662002325058,-0.16055803000926971,-0.15633432567119598,0.022509034723043442,0.055530887097120285,0.08017414808273315,0.08580195158720016
0.8166666666666667,0.13831259310245514,-0.022454550489783287,0.0,0.6583240628242493,0.0,0.0,-0.7527346014976501,0.02447872795164585,0.19340597093105316,0.0,0.0,0.0,1.6798090934753418,0.38076910376548767,0.672138512134552,0.42000001668930054,0.627186119556427,-2.239433342765551e-06,-4.874537808063906e-06,-0.7788693904876709,0.00010006227239500731,-0.0003674554463941604,-0.00010087760165333748,0.008143149316310883,-0.002134013222530484,-0.00041421232162974775,0.42793071269989014,0.698914110660553,0.5962138175964355,-0.8623760938644409,0.2977468967437744,-0.059590619057416916,0.37830865383148193,0.6603953242301941,0.42000001668930054,-0.45093411207199097,1.803871750831604,-1.3664970397949219,-3.0,-0.16627730429172516,-0.163824662566185,-0.1603592187166214,-0.15585066378116608,0.10809788852930069,0.09971855580806732,0.09221591055393219,0.07694538682699203
0.8333333333333334,0.13823947310447693,-0.023256851360201836,0.0,0.6530182957649231,0.0,0.0,-0.7573421001434326,-0.011656256392598152,-0.07668918371200562,0.0,0.0,0.0,-1.6168487071990967,0.38076910376548767,0.672138512134552,0.42000001668930054,0.6271861791610718,-2.2376341348717688e-06,-4.411067493492737e-06,-0.7788693308830261,9.996317385230213e-05,-0.000369865883840248,-0.0001014114823192358,0.008204706013202667,-0.0021485972683876753,-0.00041487126145511866,0.41573476791381836,0.7032411098480225,0.5920994281768799,-0.6395130157470703,0.15395306050777435,-0.27361541986465454,0.37830865383148193,0.6603953242301941,0.42000001668930054,-0.46784037351608276,-3.0000007152557373,-1.3281458616256714,3.0000009536743164,-0.1632259339094162,-0.16114717721939087,-0.1580004245042801,-0.15387803316116333,0.08452906459569931,0.08361100405454636,0.08511423319578171,0.08214245736598969
0.85,0.13979440927505493,-0.026178548112511635,0.0,0.6590536832809448,0.0,0.0,-0.7520959377288818,0.14127704501152039,-0.24925343692302704,0.0,0.0,0.0,1.9091596603393555,0.38076910376548767,0.6721385717391968,0.42000001668930054,0.6271862387657166,-2.3722723199171014e-06,-4.481777523324126e-06,-0.7788693308830261,9.62645499384962e-05,-0.00036652199923992157,-0.000101892976090312,0.008107808418571949,-0.002175810979679227,-0.00040585294482298195,0.4096519351005554,0.7047454118728638,0.5885396003723145,-0.11199740320444107,0.05304989218711853,-0.10871291160583496,0.37830865383148193,0.6603953242301941,0.42000001668930054,-0.5075623989105225,-1.83447265625,-1.347554087638855,-3.000000476837158,-0.16349691152572632,-0.16072335839271545,-0.1568276733160019,-0.15201863646507263,-0.025959379971027374,0.03324098512530327,0.09730608016252518,0.15972919762134552
0.8666666666666667,0.1438179761171341,-0.03190161660313606,0.0,0.6541986465454102,0.0,0.0,-0.7563228011131287,0.28334176540374756,-0.40356045961380005,0.0,0.0,0.0,-1.646010398864746,0.38076910376548767,0.672138512134552,0.42000001668930054,0.6271865367889404,-2.2963179162616143e-06,-4.943262865708675e-06,-0.778869092464447,9.925934136845171e-05,-0.00036709048436023295,-0.00010104826651513577,0.00813167542219162,-0.0021417560055851936,-0.0004125497071072459,0.4121466875076294,0.7027923464775085,0.5819442272186279,0.39449048042297363,-0.2701908051967621,-0.4668227732181549,0.37830865383148193,0.6603953242301941,0.42000001668930054,-0.553199052810669,-3.000000476837158,-1.3376246690750122,3.000000238418579,-0.16535039246082306,-0.1611291766166687,-0.15565793216228485,-0.14925099909305573,-0.11530109494924545,-0.009826387278735638,0.10479641705751419,0.22243095934391022
0.8833333333333333,0.15121500194072723,-0.03296525776386261,0.0,0.627454936504364,0.0,0.0,-0.7786528468132019,0.4234066605567932,-0.03211202472448349,0.0,0.0,0.0,-4.968487739562988,0.38076910376548767,0.672138512134552,0.42000001668930054,0.6271861791610718,-2.094477622449631e-06,-4.546348009171197e-06,-0.7788693308830261,0.00010220060357823968,-0.00037030139355920255,-0.00010087760165333748,0.008219812996685505,-0.0021241933573037386,-0.0004197369853500277,0.4220525324344635,0.6951067447662354,0.5766774415969849,0.8238835334777832,-0.4453257918357849,-0.0014025866985321045,0.37830865383148193,0.6603953242301941,0.42000001668930054,-0.5881714820861816,-1.3144806623458862,-1.3568986654281616,-2.999999523162842,-0.1714724749326706,-0.16535037755966187,-0.15790626406669617,-0.14954306185245514,-0.22649510204792023,-0.16921953856945038,-0.1059761792421341,-0.04021088778972626
0.9,0.1563291847705841,-0.03257500380277634,0.0,0.6168013215065002,0.0,0.0,-0.7871188521385193,0.21092866361141205,0.04572239890694618,0.0,0.0,0.0,-0.5620545148849487,0.38076910376548767,0.6721385717391968,0.42000001668930054,0.6271862387657166,-2.3922323180158855e-06,-4.433228241396137e-06,-0.7788693308830261,9.613933798391372e-05,-0.0003664255782496184,-0.00010190438479185104,0.008105152286589146,-0.0021762594114989042,-0.0004055231111124158,0.4350320100784302,0.6910949945449829,0.5785526633262634,0.6714261770248413,-0.10169101506471634,0.1707165390253067,0.37830865383148193,0.6603953242301941,0.42000001668930054,-0.5841737985610962,1.5416942834854126,-1.4069169759750366,-3.000000476837158,-0.17222142219543457,-0.16606144607067108,-0.15849341452121735,-0.14995236694812775,0.0797809287905693,0.04180491343140602,0.006030291318893433,-0.02786596491932869
