vladlanda/robotic-transformer/data/env_000_episode_0069.csv
sim_time_s,robot_box_x,robot_box_y,robot_box_z,robot_box_quat_w,robot_box_quat_x,robot_box_quat_y,robot_box_quat_z,robot_box_linvel_x,robot_box_linvel_y,robot_box_linvel_z,robot_box_angvel_x,robot_box_angvel_y,robot_box_angvel_z,cube_world_x,cube_world_y,cube_world_z,cube_quat_w,cube_quat_x,cube_quat_y,cube_quat_z,cube_linvel_x,cube_linvel_y,cube_linvel_z,cube_angvel_x,cube_angvel_y,cube_angvel_z,endpoint_world_x,endpoint_world_y,endpoint_world_z,endpoint_linvel_x,endpoint_linvel_y,endpoint_linvel_z,target_cube_world_x,target_cube_world_y,target_cube_world_z,gripper_actual_pos_rad_gp_leftgearjoint,gripper_actual_vel_rad_s_gp_leftgearjoint,gripper_actual_pos_rad_gp_rotatingjoint,gripper_actual_vel_rad_s_gp_rotatingjoint,motor_angle_rad_joint1,motor_angle_rad_joint2,motor_angle_rad_joint3,motor_angle_rad_joint4,motor_speed_rad_s_joint1,motor_speed_rad_s_joint2,motor_speed_rad_s_joint3,motor_speed_rad_s_joint4
0.0,0.0,0.0,0.0,1.0,0.0,0.0,0.0,0.0,0.0,0.0,0.0,0.0,0.0,-0.4617409110069275,0.7258788347244263,0.41999998688697815,1.0,0.0,0.0,0.0,0.0,0.0,0.0,0.0,0.0,0.0,3.42540442943573e-06,-0.005000244826078415,1.313499927520752,0.0,0.0,0.0,0.39379817247390747,0.684286892414093,0.42000001668930054,-1.5707999467849731,0.0,0.0,0.0,0.0,0.0,0.0,0.0,0.0,0.0,0.0,0.0
0.016666666666666666,0.0028778850100934505,0.0021806680597364902,0.0,0.9998081922531128,0.0,0.0,0.019586581736803055,0.24087215960025787,0.18240931630134583,0.0,0.0,0.0,3.1418697834014893,-0.46174103021621704,0.7258785367012024,0.41999998688697815,1.0,3.2799832752061775e-06,-8.339598593920527e-07,8.465660528145236e-08,-1.9833856640616432e-05,0.00017983021098189056,-6.132945418357849e-05,0.0009432561928406358,-0.004689492750912905,-0.0003198107879143208,-0.007110234349966049,0.003379564033821225,1.3159373998641968,-0.8143353462219238,0.9868683815002441,0.18095196783542633,0.39379817247390747,0.684286892414093,0.42000001668930054,-1.5301095247268677,3.0000011920928955,-0.04584788903594017,-2.9999992847442627,0.0008691533003002405,0.0007963840034790337,0.0007110277656465769,0.0006108740926720202,0.11094217747449875,0.09756709635257721,0.08334315568208694,0.06823883205652237
0.03333333333333333,0.008960976265370846,0.006801940966397524,0.0,0.9997960329055786,0.0,0.0,0.020196838304400444,0.40702131390571594,0.31530845165252686,0.0,0.0,0.0,-0.8691309690475464,-0.4617411494255066,0.7258784770965576,0.4200000464916229,1.0,3.3908236218849197e-06,-2.1324740373529494e-06,-3.7087911408661967e-08,0.0002635786950122565,0.00026937879738397896,-0.00010509719140827656,-0.0017707741353660822,0.004130927845835686,-0.00013548358401749283,-0.027550259605050087,0.02609618566930294,1.3166120052337646,-1.5914971828460693,1.6156353950500488,-0.08311359584331512,0.39379817247390747,0.684286892414093,0.42000001668930054,-1.4800903797149658,3.0000009536743164,-0.09588772058486938,-3.0,0.0029901345260441303,0.0026527554728090763,0.002277336549013853,0.001860801363363862,0.16422021389007568,0.13976460695266724,0.11382429301738739,0.08630716800689697
0.05,0.017754411324858665,0.013772193342447281,0.0,0.9993760585784912,0.0,0.0,0.035320185124874115,0.5939037203788757,0.46512213349342346,0.0,0.0,0.0,2.648052930831909,-0.461741179227829,0.7258785367012024,0.4200000464916229,1.0,3.7651166167051997e-06,-2.2119024833955336e-06,5.637348365894468e-09,0.0002653102274052799,0.00026691530365496874,-0.0001044049859046936,-0.0017243424663320184,0.004177475813776255,-0.00012949523807037622,-0.059685271233320236,0.053951557725667953,1.3116393089294434,-2.187640905380249,1.7602472305297852,-0.4758651554584503,0.39379817247390747,0.684286892414093,0.42000001668930054,-1.4300720691680908,2.999999761581421,-0.145926371216774,-3.000000476837158,0.0057098139077425,0.004917692858725786,0.0040534441359341145,0.003112624865025282,0.1927006095647812,0.1558021903038025,0.11702889949083328,0.07628762722015381
0.06666666666666667,0.029071256518363953,0.02306647039949894,0.0,0.999448299407959,0.0,0.0,0.03321259841322899,0.7204651832580566,0.5952549576759338,0.0,0.0,0.0,-1.2111769914627075,-0.461741179227829,0.7258784770965576,0.4200000464916229,0.9999999403953552,3.4067338674503844e-06,-2.2856738723930903e-06,4.301002434203838e-07,0.0002670263347681612,0.0002679180761333555,-0.00010437914170324802,-0.001740648876875639,0.004211838357150555,-0.00012851078645326197,-0.09766519069671631,0.08842259645462036,1.2991634607315063,-2.389869451522827,2.2604622840881348,-0.9950836896896362,0.39379817247390747,0.684286892414093,0.42000001668930054,-1.3800537586212158,3.000001907348633,-0.19596371054649353,-3.000000476837158,0.008230841718614101,0.006730534136295319,0.0051192366518080235,0.003391290083527565,0.14436401426792145,0.0914602056145668,0.036517202854156494,-0.020544778555631638
0.08333333333333333,0.034445829689502716,0.03570115566253662,0.0,0.9999995827674866,0.0,0.0,0.0008981232531368732,0.19039250910282135,0.8242480754852295,0.0,0.0,0.0,-4.935836315155029,-0.461741179227829,0.7258784770965576,0.4200000464916229,1.0,3.6972542147850618e-06,-2.189012548114988e-06,-2.632233417898533e-07,0.0002638970036059618,0.00026586418971419334,-0.00010433932766318321,-0.0017081733094528317,0.004150197375565767,-0.0001299117284361273,-0.13545584678649902,0.13032954931259155,1.278074860572815,-2.191133499145508,2.6515653133392334,-1.4379355907440186,0.39379817247390747,0.684286892414093,0.42000001668930054,-1.3300267457962036,2.999998092651367,-0.19928941130638123,2.159757137298584,0.005055084824562073,0.0029520185198634863,0.0006871647201478481,-0.0017493943450972438,-0.28514689207077026,-0.3280397653579712,-0.3734866678714752,-0.4217742681503296
0.1,0.04405838996171951,0.04965737834572792,0.0,0.9999086260795593,0.0,0.0,-0.01352001540362835,0.6749890446662903,0.8508542776107788,0.0,0.0,0.0,-0.7051038146018982,-0.461741179227829,0.7258784770965576,0.4200000464916229,0.9999999403953552,3.620308916651993e-06,-2.2652425286651123e-06,1.7463578672050062e-07,0.00026676832931116223,0.0002674081770237535,-0.0001040799543261528,-0.0017385705141350627,0.004209125880151987,-0.0001277521369047463,-0.17397823929786682,0.17062167823314667,1.2557487487792969,-2.270982265472412,2.4733505249023438,-1.3339537382125854,0.39379817247390747,0.684286892414093,0.42000001668930054,-1.2800251245498657,3.000002861022949,-0.2355351746082306,-3.0000009536743164,0.005228414665907621,0.0015846439637243748,-0.0022181987296789885,-0.0061903768219053745,0.035148732364177704,-0.07061243057250977,-0.1754932403564453,-0.27943992614746094
0.11666666666666667,0.05163602903485298,0.06568614393472672,0.0,0.9991730451583862,0.0,0.0,-0.040659431368112564,0.45808717608451843,1.0249295234680176,0.0,0.0,0.0,-3.9371516704559326,-0.461741179227829,0.7258784770965576,0.4200000464916229,1.0,3.798331817961298e-06,-2.2628737497143447e-06,-1.5019459453924355e-07,0.0002637395809870213,0.00026566043379716575,-0.00010428996756672859,-0.0017054103082045913,0.0041475603356957436,-0.0001298010174650699,-0.2082739770412445,0.21751922369003296,1.2338545322418213,-1.850813388824463,3.155235767364502,-1.2731000185012817,0.39379817247390747,0.684286892414093,0.42000001668930054,-1.229999303817749,2.9999935626983643,-0.20155954360961914,3.0,0.0037103304639458656,-0.0018661932554095984,-0.00757422111928463,-0.013422583229839802,-0.045762237161397934,-0.1834903210401535,-0.3181130886077881,-0.4493970572948456
0.13333333333333333,0.05683976039290428,0.08051791787147522,0.0,0.9957117438316345,0.0,0.0,-0.09250997751951218,0.2549723982810974,0.8091360926628113,0.0,0.0,0.0,-7.145011901855469,-0.461741179227829,0.7258785367012024,0.4200000464916229,0.9999999403953552,3.5504490369930863e-06,-2.2298452222457854e-06,2.929317872713e-07,0.0002670326502993703,0.00026779386098496616,-0.00010417005978524685,-0.0017441416857764125,0.004213591571897268,-0.00012799994146917015,-0.2390274703502655,0.27179741859436035,1.2120037078857422,-1.8123700618743896,3.3810434341430664,-1.398040533065796,0.39379817247390747,0.684286892414093,0.42000001668930054,-1.193564772605896,1.4730561971664429,-0.2330154925584793,-3.0000007152557373,0.0019177402136847377,-0.005903789307922125,-0.013790045864880085,-0.02174578793346882,-0.17899347841739655,-0.30124983191490173,-0.4193674921989441,-0.5331454873085022
0.15,0.05836781486868858,0.0956028401851654,0.0,0.9922860264778137,0.0,0.0,-0.12396954745054245,0.021904680877923965,0.9401900768280029,0.0,0.0,0.0,-2.724947452545166,-0.461741179227829,0.7258784770965576,0.4200000464916229,0.9999999403953552,3.3379828892066143e-06,-2.2429737782658776e-06,-2.8000011198514585e-08,0.0002667461521923542,0.0002675800060387701,-0.00010427623055875301,-0.001736729289405048,0.004206979181617498,-0.00012831634376198053,-0.2774932086467743,0.3253512680530548,1.182941198348999,-2.3787856101989746,3.4107799530029297,-2.0739824771881104,0.39379817247390747,0.684286892414093,0.42000001668930054,-1.1495507955551147,2.999990224838257,-0.19901996850967407,3.0,-0.0023994604125618935,-0.011884024366736412,-0.021354015916585922,-0.030812032520771027,-0.32899799942970276,-0.4051656424999237,-0.4767518937587738,-0.5437445640563965
0.16666666666666666,0.0566684827208519,0.11123264580965042,0.0,0.9858673214912415,0.0,0.0,-0.1675279140472412,-0.1718781292438507,0.9533945918083191,0.0,0.0,0.0,-6.145834922790527,-0.461741179227829,0.7258785367012024,0.4200000464916229,0.9999999403953552,3.6477658795774914e-06,-2.3074287582858233e-06,3.527969738570391e-08,0.00026727005024440587,0.0002680135949049145,-0.00010418915189802647,-0.0017472486943006516,0.004217661917209625,-0.00012798381794709712,-0.3143277168273926,0.3855512738227844,1.147007942199707,-1.9547836780548096,3.8814778327941895,-2.260493278503418,0.39379817247390747,0.684286892414093,0.42000001668930054,-1.1016441583633423,2.729940414428711,-0.23048490285873413,-3.0000009536743164,-0.009367916733026505,-0.020127898082137108,-0.0307894516736269,-0.04135479778051376,-0.507872998714447,-0.5760439038276672,-0.639478325843811,-0.6981580853462219
0.18333333333333332,0.059695787727832794,0.12653596699237823,0.0,0.9810094237327576,0.0,0.0,-0.19396020472049713,0.30384257435798645,0.9030885100364685,0.0,0.0,0.0,-2.2488720417022705,-0.461741179227829,0.7258784770965576,0.4200000464916229,0.9999999403953552,3.290518861831515e-06,-2.1940602437098278e-06,-2.792300222154154e-07,0.0002667784283403307,0.0002677590528037399,-0.00010434072464704514,-0.001739021739922464,0.004206892568618059,-0.00012845716264564544,-0.3502238392829895,0.4473382830619812,1.1013256311416626,-2.030444622039795,3.8289451599121094,-3.1773743629455566,0.39379817247390747,0.684286892414093,0.42000001668930054,-1.0686566829681396,1.322969913482666,-0.2805132269859314,-3.000000238418579,-0.01571507379412651,-0.0272764191031456,-0.03866611048579216,-0.04989178478717804,-0.3896145522594452,-0.41124677658081055,-0.4295278489589691,-0.44497767090797424
0.2,0.05992050841450691,0.13840541243553162,0.0,0.9724568128585815,0.0,0.0,-0.23308303952217102,-0.07751644402742386,0.6583127975463867,0.0,0.0,0.0,-5.431766510009766,-0.461741179227829,0.7258784770965576,0.4200000464916229,1.0,3.2806988201627973e-06,-2.2193432869244134e-06,1.5948184284297895e-07,0.0002662798506207764,0.00026740229805000126,-0.0001042510848492384,-0.0017357115866616368,0.004197767470031977,-0.00012865093594882637,-0.38320234417915344,0.5129691362380981,1.0409263372421265,-1.777438759803772,4.094429016113281,-4.008064270019531,0.39379817247390747,0.684286892414093,0.42000001668930054,-1.0232326984405518,3.0,-0.33053964376449585,-3.0000007152557373,-0.02794226072728634,-0.038979776203632355,-0.04983335733413696,-0.060525793582201004,-0.8972286581993103,-0.839020311832428,-0.7811004519462585,-0.7243471741676331
0.21666666666666667,0.0559198372066021,0.15080325305461884,0.0,0.9679511189460754,0.0,0.0,-0.25113871693611145,-0.30918392539024353,0.7851982116699219,0.0,0.0,0.0,-1.2128132581710815,-0.461741179227829,0.7258785367012024,0.4200000464916229,1.0,3.613101398514118e-06,-2.270231107104337e-06,2.210174301353618e-07,0.00026712517137639225,0.00026781667838804424,-0.00010414118878543377,-0.001744576497003436,0.0042152018286287785,-0.00012786168372258544,-0.4153047800064087,0.573417067527771,0.9672640562057495,-1.7332103252410889,3.4638495445251465,-4.772247791290283,0.39379817247390747,0.684286892414093,0.42000001668930054,-0.9732296466827393,3.0,-0.3805670142173767,-3.0000007152557373,-0.0439765639603138,-0.05445338785648346,-0.06391313672065735,-0.07324256747961044,-0.9847770929336548,-0.9589129686355591,-0.863393247127533,-0.7701887488365173
0.23333333333333334,0.054677534848451614,0.16502639651298523,0.0,0.9593712091445923,0.0,0.0,-0.28214702010154724,-0.058919914066791534,0.8960008025169373,0.0,0.0,0.0,-4.723267555236816,-0.461741179227829,0.7258784770965576,0.4200000464916229,1.0,3.3818532756413333e-06,-2.291060127390665e-06,2.727961714299454e-07,0.0002669147797860205,0.0002677999727893621,-0.00010433257557451725,-0.0017395797185599804,0.004209762904793024,-0.00012843632430303842,-0.4431678056716919,0.6295082569122314,0.8815136551856995,-1.434349536895752,3.1651840209960938,-5.437835693359375,0.39379817247390747,0.684286892414093,0.42000001668930054,-0.923220157623291,3.0000016689300537,-0.43059632182121277,-2.999999761581421,-0.059736382216215134,-0.06999997049570084,-0.07863170653581619,-0.08642692863941193,-0.987330436706543,-0.989581823348999,-0.9883208870887756,-0.8856762051582336
0.25,0.05102789029479027,0.1767454743385315,0.0,0.9553501605987549,0.0,0.0,-0.2954759895801544,-0.25865885615348816,0.6280307769775391,0.0,0.0,0.0,-0.6341366767883301,-0.4617411494255066,0.7258784770965576,0.4200000464916229,0.9999999403953552,3.7065613014419796e-06,-2.22313519770978e-06,-2.2550631229023566e-07,0.0002642478502821177,0.0002665684442035854,-0.00010457867756485939,-0.0017169876955449581,0.004155559465289116,-0.00013063046208117157,-0.46656376123428345,0.6714261174201965,0.7865656614303589,-1.1414612531661987,2.1386804580688477,-5.893063068389893,0.39379817247390747,0.684286892414093,0.42000001668930054,-0.8732094764709473,3.000000476837158,-0.48062703013420105,-3.000000238418579,-0.07578831911087036,-0.08603140711784363,-0.09466451406478882,-0.10220641642808914,-0.9690697193145752,-0.9616837501525879,-0.9574038982391357,-0.9341882467269897
0.26666666666666666,0.05072352662682533,0.18356989324092865,0.0,0.9478302597999573,0.0,0.0,-0.3187754452228546,0.033669497817754745,0.3250504732131958,0.0,0.0,0.0,-3.6626124382019043,-0.461741179227829,0.7258784770965576,0.4200000464916229,0.9999999403953552,3.7196393805061234e-06,-2.4035975911829155e-06,-1.830753433296195e-07,0.0002662325860001147,0.00026729193632490933,-0.00010425969958305359,-0.0017327084206044674,0.004196519032120705,-0.00012850586790591478,-0.48180916905403137,0.7030602693557739,0.682178795337677,-0.5980269908905029,1.5197315216064453,-6.446258544921875,0.39379817247390747,0.684286892414093,0.42000001668930054,-0.823199450969696,2.9999990463256836,-0.5306578278541565,-2.9999985694885254,-0.09215602278709412,-0.10233956575393677,-0.11094821989536285,-0.11844850331544876,-0.993522584438324,-0.9942420721054077,-0.9948253631591797,-0.9923986196517944
0.2833333333333333,0.04710700735449791,0.18709538877010345,0.0,0.9462746977806091,0.0,0.0,-0.3233638405799866,-0.28306886553764343,0.1653091311454773,0.0,0.0,0.0,0.38009077310562134,-0.461741179227829,0.7258785367012024,0.4200000464916229,0.9999999403953552,3.584038495318964e-06,-2.3155648705142085e-06,7.404717194958721e-08,0.0002652202092576772,0.00026455349870957434,-0.00010317075066268444,-0.0017022540559992194,0.004185175523161888,-0.00012499988952185959,-0.4885835647583008,0.716755211353302,0.5790327787399292,-0.0845600962638855,0.2942797541618347,-5.930230140686035,0.39379817247390747,0.684286892414093,0.42000001668930054,-0.7731906175613403,3.00000262260437,-0.5806875228881836,-3.000000476837158,-0.10973173379898071,-0.11967449635267258,-0.1281050145626068,-0.1354687660932541,-1.0078564882278442,-1.0059123039245605,-1.004431128501892,-1.0032541751861572
0.3,0.03840035945177078,0.18841691315174103,0.0,0.9402366280555725,0.0,0.0,-0.34052181243896484,-0.42689019441604614,-0.03654872626066208,0.0,0.0,0.0,-2.9612045288085938,-0.461741179227829,0.7258784770965576,0.4200000464916229,1.0,3.7242393773340154e-06,-2.272014398840838e-06,9.635331821300497e-08,0.000263127323705703,0.0002652598777785897,-0.00010438216850161552,-0.0016961408546194434,0.004134894348680973,-0.00013027827662881464,-0.4826621413230896,0.717937707901001,0.4844138026237488,0.6973831653594971,0.020890410989522934,-5.378913879394531,0.39379817247390747,0.684286892414093,0.42000001668930054,-0.7231818437576294,3.000002384185791,-0.6307154893875122,-3.0000011920928955,-0.12773223221302032,-0.13735754787921906,-0.14555096626281738,-0.15272840857505798,-0.6769405603408813,-0.7448745369911194,-0.8081024289131165,-0.8648278713226318
0.31666666666666665,0.029582226648926735,0.18649998307228088,0.0,0.940257728099823,0.0,0.0,-0.3404635488986969,-0.5671875476837158,-0.15615373849868774,0.0,0.0,0.0,0.9206218719482422,-0.4619304835796356,0.7225274443626404,0.420011043548584,0.999991238117218,-0.001849339110776782,0.0003664116084109992,0.003723343601450324,-0.023182682693004608,-0.4807358682155609,-0.039029981940984726,2.0072851181030273,-0.0747319683432579,1.0376979112625122,-0.47002696990966797,0.7242028713226318,0.3991243243217468,0.9552356004714966,0.5858783721923828,-4.746783256530762,0.39379817247390747,0.684286892414093,0.42000001668930054,-0.6731750965118408,2.9955523014068604,-0.6807414293289185,-2.9999523162841797,-0.1437593400478363,-0.15349708497524261,-0.16181634366512299,-0.16911782324314117,-1.0164248943328857,-1.0124882459640503,-1.009467601776123,-1.0070327520370483
0.3333333333333333,0.01870862953364849,0.18219353258609772,0.0,0.9354232549667358,0.0,0.0,-0.35352984070777893,-0.7023715376853943,-0.2997739911079407,0.0,0.0,0.0,-2.640803337097168,-0.4602517783641815,0.7205827236175537,0.42333123087882996,0.9938544631004333,0.04849446192383766,0.034415267407894135,-0.0933653861284256,0.20579315721988678,0.09075291454792023,0.3138628602027893,10.537567138671875,5.234355449676514,-17.26881217956543,-0.4712810218334198,0.7292534112930298,0.4251154065132141,0.2897116541862488,0.4741125702857971,-0.14233362674713135,0.39379817247390747,0.684286892414093,0.42000001668930054,-0.6234633922576904,2.9999940395355225,-0.731179416179657,-2.9939141273498535,-0.14040227234363556,-0.15183807909488678,-0.1613999605178833,-0.1693686991930008,-0.034721847623586655,-0.08256036788225174,-0.1113312765955925,-0.11452707648277283
0.35,0.005773455835878849,0.17546938359737396,0.0,0.9361939430236816,0.0,0.0,-0.35148388147354126,-0.8185734748840332,-0.4455883502960205,0.0,0.0,0.0,1.1961075067520142,-0.4564763307571411,0.7302937507629395,0.42488542199134827,0.990212619304657,0.09523560106754303,0.031833402812480927,-0.0969318151473999,0.2867017984390259,0.742091715335846,0.05719804763793945,4.062429904937744,-1.4891154766082764,-2.3314239978790283,-0.46608060598373413,0.7385188341140747,0.42261606454849243,0.36630746722221375,0.6516005992889404,-0.1563243418931961,0.39379817247390747,0.684286892414093,0.42000001668930054,-0.5734583735466003,2.9999916553497314,-0.7812035083770752,-3.000000238418579,-0.14297911524772644,-0.15442319214344025,-0.16378377377986908,-0.1712493896484375,-0.2164219319820404,-0.18680936098098755,-0.15015669167041779,-0.10143332183361053
0.36666666666666664,-0.002847277093678713,0.16570577025413513,0.0,0.9319351315498352,0.0,0.0,-0.3626250922679901,-0.5536319613456726,-0.6063226461410522,0.0,0.0,0.0,-2.136950969696045,-0.45148155093193054,0.7428165674209595,0.4244571030139923,0.9873123168945312,0.10395647585391998,0.008313173428177834,-0.11974266171455383,0.30408209562301636,0.7543307542800903,-0.05235052853822708,-0.4683859646320343,-2.9274721145629883,-3.397160768508911,-0.4579164385795593,0.7483777403831482,0.4206303358078003,0.5571485757827759,0.48178642988204956,0.03571631386876106,0.39379817247390747,0.684286892414093,0.42000001668930054,-0.5234299302101135,2.9995789527893066,-0.8312294483184814,-2.9999911785125732,-0.14656120538711548,-0.1569981426000595,-0.165252223610878,-0.17143888771533966,-0.43013641238212585,-0.3058704435825348,-0.17927689850330353,-0.047602906823158264
0.3833333333333333,-0.015629304572939873,0.15471647679805756,0.0,0.9241434335708618,0.0,0.0,-0.3820456564426422,-0.8437076807022095,-0.683488667011261,0.0,0.0,0.0,-2.647317886352539,-0.4451213777065277,0.756950318813324,0.42269882559776306,0.9859701991081238,0.07147181034088135,-0.01134083978831768,-0.15041899681091309,0.4346514046192169,0.9119975566864014,-0.10037834197282791,-5.908819675445557,1.554819107055664,-4.445440292358398,-0.44551193714141846,0.7603299617767334,0.4215235114097595,0.9523216485977173,0.9879022240638733,0.06572980433702469,0.39379817247390747,0.684286892414093,0.42000001668930054,-0.4733904302120209,3.0,-0.881240725517273,-2.999974489212036,-0.1568995863199234,-0.16436609625816345,-0.1696193665266037,-0.1727522760629654,-0.640018880367279,-0.4448515474796295,-0.2474638968706131,-0.04700867086648941
0.4,-0.025158893316984177,0.14091582596302032,0.0,0.90701824426651,0.0,0.0,-0.42109137773513794,-0.5271391272544861,-0.8722434639930725,0.0,0.0,0.0,-5.901540279388428,-0.4298136830329895,0.778918981552124,0.4219510555267334,0.9745328426361084,-0.03369453176856041,-0.010791466571390629,-0.22143566608428955,1.7174897193908691,1.074216604232788,0.3432072401046753,-10.976430892944336,-3.9676525592803955,-10.32546329498291,-0.426625519990921,0.7777518033981323,0.42318713665008545,1.3543267250061035,1.1749536991119385,0.13173367083072662,0.39379817247390747,0.684286892414093,0.42000001668930054,-0.4233255088329315,2.96108078956604,-0.9312472939491272,-2.999692440032959,-0.1657981127500534,-0.1699371039867401,-0.17173607647418976,-0.17128382623195648,-0.5523051023483276,-0.32491275668144226,-0.08851023018360138,0.15594744682312012
0.4166666666666667,-0.03348277136683464,0.12467461824417114,0.0,0.8756799101829529,0.0,0.0,-0.4828920066356659,-0.4714328646659851,-1.023499608039856,0.0,0.0,0.0,-9.156010627746582,-0.39251789450645447,0.8056841492652893,0.42604705691337585,0.9598429203033447,-0.021268662065267563,-0.042522672563791275,-0.2764797806739807,3.3834991455078125,2.065781354904175,0.25464773178100586,19.75795555114746,-14.083561897277832,6.74704122543335,-0.3894534707069397,0.8045663833618164,0.4272153079509735,3.076746940612793,2.0734262466430664,0.5425081253051758,0.39379817247390747,0.684286892414093,0.42000001668930054,-0.38817813992500305,1.175691843032837,-0.9535279273986816,0.07378029078245163,-0.17708271741867065,-0.17686860263347626,-0.17422370612621307,-0.16927993297576904,-0.7139387726783752,-0.4348297417163849,-0.153400719165802,0.12672966718673706
0.43333333333333335,-0.039692483842372894,0.11364085972309113,0.0,0.8269004225730896,0.0,0.0,-0.5623483061790466,-0.3228360116481781,-0.5362708568572998,0.0,0.0,0.0,-11.970447540283203,-0.31477099657058716,0.8451316952705383,0.43368327617645264,0.9416095018386841,0.046653829514980316,-0.08355842530727386,-0.3228200376033783,6.1369829177856445,2.418692111968994,0.5399249792098999,10.547774314880371,-14.336868286132812,11.418508529663086,-0.31214213371276855,0.844264030456543,0.43518710136413574,5.8168816566467285,2.762960910797119,0.6192005276679993,0.39379817247390747,0.684286892414093,0.42000001668930054,-0.37056711316108704,1.0864026546478271,-0.9063235521316528,2.9986965656280518,-0.1930071860551834,-0.1904004067182541,-0.18189360201358795,-0.17146152257919312,-0.8925368785858154,-0.8903765082359314,-0.5540244579315186,-0.24948672950267792
0.45,-0.047494057565927505,0.10189763456583023,0.0,0.7852195501327515,0.0,0.0,-0.6192174553871155,-0.4281511604785919,-0.8262052536010742,0.0,0.0,0.0,-7.218315601348877,-0.21603909134864807,0.8856650590896606,0.44616860151290894,0.898914098739624,0.07527566701173782,-0.10765305161476135,-0.4179687201976776,6.1997761726379395,1.761204481124878,0.858669638633728,16.19883155822754,-2.4442567825317383,9.45016098022461,-0.21430116891860962,0.885496199131012,0.4474385678768158,6.138957977294922,2.1701745986938477,0.8084461688995361,0.39379817247390747,0.684286892414093,0.42000001668930054,-0.34945744276046753,1.3828481435775757,-0.932257890701294,-3.0000011920928955,-0.20519442856311798,-0.20286965370178223,-0.18956388533115387,-0.17489656805992126,-0.5438255071640015,-0.5566368103027344,-0.3327798545360565,-0.1414545774459839
0.4666666666666667,-0.051800694316625595,0.09137538075447083,0.0,0.7645081877708435,0.0,0.0,-0.6446139812469482,-0.20428712666034698,-0.5657699108123779,0.0,0.0,0.0,-2.762930393218994,-0.11137071251869202,0.9079276323318481,0.4588682949542999,0.8522437810897827,0.07199948281049728,-0.10346130281686783,-0.5077325105667114,6.47545862197876,-0.0698099434375763,0.8188323378562927,14.015119552612305,-7.397630214691162,22.860862731933594,-0.11067662388086319,0.9098285436630249,0.4595036506652832,6.38232946395874,0.7642350792884827,0.7945106625556946,0.39379817247390747,0.684286892414093,0.42000001668930054,-0.3258374333381653,1.1563332080841064,-0.9822818636894226,-3.000004768371582,-0.21730397641658783,-0.21326951682567596,-0.19533269107341766,-0.17656594514846802,-0.7465620636940002,-0.5809968113899231,-0.2916821837425232,-0.030400026589632034
0.48333333333333334,-0.057158369570970535,0.07958260923624039,0.0,0.7363635301589966,0.0,0.0,-0.6765860915184021,-0.37184756994247437,-0.7257958054542542,0.0,0.0,0.0,-5.9231719970703125,-0.006851267069578171,0.9075976610183716,0.46850714087486267,0.7917341589927673,0.06426874548196793,-0.09473391622304916,-0.6000432372093201,6.05141019821167,-1.356993317604065,0.44543275237083435,-6.006265640258789,-2.3590433597564697,11.30010986328125,-0.007120990194380283,0.9102671146392822,0.46951255202293396,6.231060028076172,-0.6939209699630737,0.5945965051651001,0.39379817247390747,0.684286892414093,0.42000001668930054,-0.3103770911693573,0.6948515176773071,-1.0323046445846558,-3.000002384185791,-0.23107056319713593,-0.2229858934879303,-0.19980685412883759,-0.17629866302013397,-0.8761031031608582,-0.577462375164032,-0.2516348659992218,0.043590497225522995
0.5,-0.06070389226078987,0.07117126882076263,0.0,0.7215499877929688,0.0,0.0,-0.6923623085021973,-0.14412905275821686,-0.42997562885284424,0.0,0.0,0.0,-1.4458556175231934,0.08897148817777634,0.8874034285545349,0.47530701756477356,0.7317490577697754,0.06328369677066803,-0.062255870550870895,-0.6757681369781494,5.344035625457764,-1.785559892654419,0.06993377953767776,-15.23160457611084,0.8014841675758362,-2.027438163757324,0.08932891488075256,0.8906930685043335,0.47569358348846436,5.460589408874512,-1.6577985286712646,0.3228682279586792,0.39379817247390747,0.684286892414093,0.42000001668930054,-0.3009191155433655,0.6278632283210754,-1.0823267698287964,-3.00000262260437,-0.2399684488773346,-0.23304957151412964,-0.20506654679775238,-0.17731109261512756,-0.004554125480353832,-0.5299564003944397,-0.30539941787719727,-0.11194504052400589
0.5166666666666666,-0.06059940159320831,0.05992412939667702,0.0,0.6982713341712952,0.0,0.0,-0.7158331871032715,0.03377727046608925,-0.7401641011238098,0.0,0.0,0.0,-4.841588973999023,0.17364421486854553,0.8565571904182434,0.4746966063976288,0.680192232131958,0.03915446624159813,-0.05063878372311592,-0.7302335500717163,4.441752910614014,-2.609408378601074,0.009516458958387375,13.257981300354004,-8.74186897277832,18.91050148010254,0.17397254705429077,0.8603405952453613,0.4759288430213928,4.803653717041016,-2.1747398376464844,-0.18299227952957153,0.39379817247390747,0.684286892414093,0.42000001668930054,-0.2920517027378082,0.4724389612674713,-1.132348895072937,-3.000002384185791,-0.23765867948532104,-0.2377588003873825,-0.20714019238948822,-0.1771751344203949,0.14163196086883545,-0.16423878073692322,-0.04451658949255943,0.051294345408678055
0.5333333333333333,-0.057711247354745865,0.05264468491077423,0.0,0.687452495098114,0.0,0.0,-0.7262293696403503,0.19915635883808136,-0.37763965129852295,0.0,0.0,0.0,-0.7604745626449585,0.24548952281475067,0.8168953061103821,0.4688452184200287,0.6282166242599487,-0.003961043898016214,-0.04171276092529297,-0.7769094109535217,3.707169771194458,-2.81923770904541,-0.46510955691337585,-2.880955696105957,5.632114410400391,4.324802398681641,0.245551198720932,0.8203877210617065,0.4709932506084442,3.9671127796173096,-2.5550718307495117,-0.4359282851219177,0.39379817247390747,0.684286892414093,0.42000001668930054,-0.28153184056282043,0.7365491390228271,-1.1823710203170776,-2.99865460395813,-0.23768350481987,-0.23977121710777283,-0.2089546173810959,-0.17796111106872559,0.12102945894002914,0.07231061160564423,-0.024190697818994522,-0.033808570355176926
0.55,-0.052546463906764984,0.04908159375190735,0.0,0.6686754822731018,0.0,0.0,-0.7435543537139893,0.3595861792564392,-0.14689181745052338,0.0,0.0,0.0,-3.957014560699463,0.3040675222873688,0.7774237394332886,0.45599716901779175,0.5990515947341919,-0.034589506685733795,-0.01984172873198986,-0.7997168898582458,2.7736291885375977,-2.8048160076141357,-0.8301050662994385,-0.008891248144209385,-0.478823184967041,18.986122131347656,0.30483579635620117,0.7804250717163086,0.4586237072944641,3.2209742069244385,-2.3747904300689697,-0.9029704928398132,0.39379817247390747,0.684286892414093,0.42000001668930054,-0.26789969205856323,0.7241861820220947,-1.2323931455612183,-3.0,-0.23367609083652496,-0.2367933839559555,-0.2087940126657486,-0.1793023943901062,0.3201916813850403,0.26809757947921753,0.05460670217871666,-0.09288010746240616
0.5666666666666667,-0.04500649869441986,0.048998087644577026,0.0,0.663750410079956,0.0,0.0,-0.7479541301727295,0.4878576695919037,0.0806519165635109,0.0,0.0,0.0,0.14700669050216675,0.3487286865711212,0.7391644716262817,0.43877461552619934,0.5646360516548157,-0.07288818806409836,0.007052863482385874,-0.8220849633216858,1.799225926399231,-2.691720962524414,-0.9839220643043518,1.9336951971054077,1.4507750272750854,18.57460594177246,0.34945034980773926,0.7412703037261963,0.44159311056137085,2.2759346961975098,-2.2989342212677,-1.0947566032409668,0.39379817247390747,0.684286892414093,0.42000001668930054,-0.2568627595901489,0.49920397996902466,-1.282413363456726,-3.0000011920928955,-0.22763505578041077,-0.23146399855613708,-0.20754627883434296,-0.18123458325862885,0.39315441250801086,0.3589707314968109,0.08902096003293991,-0.1386917531490326
0.5833333333333334,-0.03968096151947975,0.0437399223446846,0.0,0.6471620798110962,0.0,0.0,-0.7623524069786072,0.1882164478302002,-0.4759826362133026,0.0,0.0,0.0,-3.6552071571350098,0.3782910406589508,0.7126625180244446,0.4255751967430115,0.5643447041511536,-0.11031343787908554,-0.008505365811288357,-0.8180913925170898,0.9670397043228149,-1.257602572441101,-0.0008113551884889603,-2.39770245552063,-1.0998624563217163,22.35851287841797,0.37892627716064453,0.7141865491867065,0.4302084445953369,1.2454869747161865,-1.0819878578186035,-0.03752642124891281,0.39379817247390747,0.684286892414093,0.42000001668930054,-0.24513310194015503,0.9118656516075134,-1.2441996335983276,2.9980649948120117,-0.21351991593837738,-0.21849851310253143,-0.20063036680221558,-0.17962734401226044,0.9910498857498169,0.990603506565094,0.58939528465271,0.22959157824516296
0.6,-0.03212870657444,0.041339267045259476,0.0,0.6428977251052856,0.0,0.0,-0.7659520506858826,0.42069071531295776,-0.09591372311115265,0.0,0.0,0.0,0.24749384820461273,0.39601418375968933,0.6947248578071594,0.4252937436103821,0.5593277215957642,-0.10371717810630798,-0.0005173764075152576,-0.8224322199821472,0.5122473835945129,-1.357783555984497,0.03774946182966232,-1.9592928886413574,0.947357714176178,27.903484344482422,0.39580297470092773,0.6957395076751709,0.43014606833457947,1.0027292966842651,-0.924962043762207,0.01877017319202423,0.39379817247390747,0.684286892414093,0.42000001668930054,-0.23191320896148682,0.46027594804763794,-1.217147707939148,0.44439393281936646,-0.2025592178106308,-0.206850066781044,-0.1947830617427826,-0.1791934072971344,0.7226957678794861,0.7222101092338562,0.3560939133167267,0.008682046085596085
0.6166666666666667,-0.023923862725496292,0.03745562210679054,0.0,0.6281470656394958,0.0,0.0,-0.7780946493148804,0.5351582765579224,-0.2607087790966034,0.0,0.0,0.0,-3.0411243438720703,0.40719377994537354,0.6858537793159485,0.4235422909259796,0.5720056891441345,-0.06585864722728729,0.007490475196391344,-0.8175670504570007,0.323063462972641,-0.8386805653572083,-0.01001700572669506,-6.561706066131592,-3.7781002521514893,10.331718444824219,0.4059082865715027,0.6858913898468018,0.42741960287094116,0.16368228197097778,-0.3681323230266571,-0.10761398077011108,0.39379817247390747,0.684286892414093,0.42000001668930054,-0.22243255376815796,0.234907865524292,-1.1690069437026978,2.9972004890441895,-0.18970106542110443,-0.19441208243370056,-0.18844948709011078,-0.17874214053153992,0.5574996471405029,0.5701954960823059,0.2622545659542084,-0.04372487589716911
0.6333333333333333,-0.01815955713391304,0.03571237996220589,0.0,0.6275115013122559,0.0,0.0,-0.7786073088645935,0.27268120646476746,-0.05295487120747566,0.0,0.0,0.0,0.7617695331573486,0.40976983308792114,0.6782741546630859,0.42295750975608826,0.5751123428344727,-0.05517697334289551,0.0013969017891213298,-0.8162103295326233,0.02374385856091976,-0.40898817777633667,-0.10475865006446838,0.9599196314811707,-3.9678738117218018,-0.12414318323135376,0.40709370374679565,0.6799260377883911,0.4282224774360657,-0.02917579561471939,-0.2546718716621399,0.10891194641590118,0.39379817247390747,0.684286892414093,0.42000001668930054,-0.2509535551071167,-2.9999966621398926,-1.190588116645813,-2.9988298416137695,-0.18160034716129303,-0.1860424280166626,-0.1845821738243103,-0.17941224575042725,0.47914716601371765,0.48724499344825745,0.24010911583900452,-0.0131926778703928
0.65,-0.012048007920384407,0.037753377109766006,0.0,0.6308363676071167,0.0,0.0,-0.7759159207344055,0.38946232199668884,0.17922066152095795,0.0,0.0,0.0,0.43039605021476746,0.4096696376800537,0.673250138759613,0.4204826056957245,0.5623008608818054,-0.009626339189708233,-0.006096273194998503,-0.8268541693687439,0.054442111402750015,-0.0807371661067009,-0.05173388496041298,2.175640106201172,-1.1505988836288452,-5.179625511169434,0.40725740790367126,0.6799353361129761,0.42982858419418335,0.028930481523275375,0.16775405406951904,0.10203495621681213,0.39379817247390747,0.684286892414093,0.42000001668930054,-0.2836739122867584,-1.0805768966674805,-1.240549087524414,-2.9961650371551514,-0.17378836870193481,-0.17863869667053223,-0.18120679259300232,-0.18013283610343933,0.5251891016960144,0.47230932116508484,0.23388299345970154,-0.009344887919723988
0.6666666666666666,-0.004298396408557892,0.03608759492635727,0.0,0.6363785862922668,0.0,0.0,-0.77137690782547,0.4702281653881073,-0.12776575982570648,0.0,0.0,0.0,1.0594078302383423,0.4095938503742218,0.6756964921951294,0.42000558972358704,0.5650189518928528,5.900493124499917e-05,-2.032783413596917e-05,-0.8250778317451477,-0.15856409072875977,0.17204426229000092,-0.0007442072383128107,-0.03635617718100548,0.04404293745756149,1.2216345071792603,0.40516525506973267,0.6837438344955444,0.4294819235801697,-0.29837942123413086,0.26672250032424927,-0.04885861277580261,0.39379817247390747,0.684286892414093,0.42000001668930054,-0.327970027923584,-2.999955654144287,-1.2141703367233276,2.9998762607574463,-0.16281016170978546,-0.16888749599456787,-0.17529529333114624,-0.1781959980726242,0.5599873065948486,0.5110753178596497,0.3284197747707367,0.13070115447044373
0.6833333333333333,0.0060753049328923225,0.03770119696855545,0.0,0.6594995260238647,0.0,0.0,-0.7517049908638,0.6499408483505249,0.11511392891407013,0.0,0.0,0.0,4.416664123535156,0.4075206220149994,0.6779177188873291,0.42000019550323486,0.5686452984809875,-2.7081403004558524e-06,1.0883594768529292e-05,-0.8225828409194946,-0.11907953768968582,0.1251196265220642,-0.0002645857457537204,-0.0058686030097305775,-0.01292121410369873,0.026413042098283768,0.40204885601997375,0.6870665550231934,0.4311370253562927,-0.12999789416790009,0.23901432752609253,0.18172195553779602,0.39379817247390747,0.684286892414093,0.42000001668930054,-0.37801802158355713,-2.9999966621398926,-1.2349932193756104,-2.99930739402771,-0.15619659423828125,-0.16275613009929657,-0.17142339050769806,-0.17686261236667633,0.4432038366794586,0.398404061794281,0.2719441056251526,0.12941783666610718
0.7,0.017993470653891563,0.03628704696893692,0.0,0.6684449911117554,0.0,0.0,-0.7437615394592285,0.7413434386253357,-0.13479995727539062,0.0,0.0,0.0,0.3895496726036072,0.4060022532939911,0.6795082092285156,0.4200000464916229,0.5661618709564209,-1.008216941045248e-06,4.9261309698067635e-08,-0.8242940306663513,-0.074342742562294,0.07818564772605896,-7.065424597385572e-06,-0.0003042182943318039,-0.00014321686467155814,-0.153694286942482,0.4007387161254883,0.6917437314987183,0.435411274433136,-0.06211197003722191,0.2227029800415039,0.30116990208625793,0.39379817247390747,0.684286892414093,0.42000001668930054,-0.4280396103858948,-3.0000009536743164,-1.2849678993225098,-2.9999382495880127,-0.14914686977863312,-0.15599454939365387,-0.16586434841156006,-0.17271296679973602,0.347714364528656,0.3677964210510254,0.3537284731864929,0.32768845558166504
0.7166666666666667,0.03142496198415756,0.03152504935860634,0.0,0.6546044945716858,0.0,0.0,-0.7559715509414673,0.8366395235061646,-0.3533913493156433,0.0,0.0,0.0,-3.1344027519226074,0.4054546654224396,0.6800857186317444,0.42000001668930054,0.565799355506897,1.480297271427844e-07,-6.181045932862617e-07,-0.8245429396629333,-0.01807565800845623,0.018898213282227516,-1.2446660548448563e-05,0.0005192054668441415,0.0005053327768109739,-0.026546413078904152,0.40375208854675293,0.6952265501022339,0.44392386078834534,0.39684826135635376,0.16288438439369202,0.8465461730957031,0.39379817247390747,0.684286892414093,0.42000001668930054,-0.4780527651309967,-2.999985694885254,-1.3349862098693848,-2.999999523162842,-0.14638139307498932,-0.15227001905441284,-0.16142982244491577,-0.1677463948726654,0.05710616335272789,0.14401011168956757,0.23144258558750153,0.3086909353733063
0.7333333333333333,0.04791402816772461,0.031178610399365425,0.0,0.618205189704895,0.0,0.0,-0.7860167622566223,0.9690449237823486,0.010563036426901817,0.0,0.0,0.0,-6.548132419586182,0.4054546058177948,0.6800859570503235,0.41999998688697815,0.5657994747161865,-2.188750841014553e-06,-3.170652007611352e-06,-0.824542760848999,-6.0267402659519576e-06,-0.0002612194512039423,-6.303959526121616e-05,0.006973279640078545,-0.003153786063194275,-0.0005407062126323581,0.418479323387146,0.6935690641403198,0.464939683675766,1.411231279373169,-0.20091795921325684,1.7644424438476562,0.39379817247390747,0.684286892414093,0.42000001668930054,-0.5280653238296509,-2.9999115467071533,-1.3850045204162598,-2.999990463256836,-0.15249675512313843,-0.1557745784521103,-0.16214264929294586,-0.16589519381523132,-0.36443349719047546,-0.21636947989463806,-0.04469837620854378,0.11631198227405548
0.75,0.06103644147515297,0.03206862136721611,0.0,0.5961612462997437,0.0,0.0,-0.8028647303581238,0.7103607058525085,0.08160565793514252,0.0,0.0,0.0,-2.2790262699127197,0.4054545760154724,0.6800860166549683,0.41999998688697815,0.565799355506897,-3.054133912883117e-06,-4.173717115918407e-06,-0.8245429396629333,-7.120822374417912e-06,-0.00034180740476585925,-9.659002535045147e-05,0.008655067533254623,-0.0033660943154245615,-0.0007016152376309037,0.44347620010375977,0.694757342338562,0.49630552530288696,1.5011942386627197,0.29754042625427246,1.9678435325622559,0.39379817247390747,0.684286892414093,0.42000001668930054,-0.549738347530365,0.1398918181657791,-1.4350228309631348,-3.000000238418579,-0.15620407462120056,-0.1581595242023468,-0.162715345621109,-0.16484659910202026,-0.11640674620866776,-0.09290411323308945,-0.037093304097652435,0.005411898251622915
0.7666666666666666,0.06926416605710983,0.03491005674004555,0.0,0.5999290943145752,0.0,0.0,-0.8000531792640686,0.41648268699645996,0.2144366055727005,0.0,0.0,0.0,1.4468902349472046,0.4054545760154724,0.6800860166549683,0.41999998688697815,0.5657994151115417,-3.0864048312650993e-06,-4.215618446323788e-06,-0.8245429396629333,-5.2179666454321705e-06,-0.00034199803485535085,-9.606289677321911e-05,0.008663000538945198,-0.003350155195221305,-0.0007057104958221316,0.46493446826934814,0.7018004059791565,0.5236847400665283,1.0077908039093018,0.5235074758529663,1.3573248386383057,0.39379817247390747,0.684286892414093,0.42000001668930054,-0.5270202159881592,2.3732972145080566,-1.467935562133789,-1.0884519815444946,-0.15649926662445068,-0.15830707550048828,-0.16211757063865662,-0.16373300552368164,0.0472131073474884,0.047221895307302475,0.08393937349319458,0.10522551089525223
0.7833333333333333,0.07353097945451736,0.0336802639067173,0.0,0.5922424793243408,0.0,0.0,-0.8057597875595093,0.2101840227842331,-0.15417011082172394,0.0,0.0,0.0,-2.076493740081787,0.4054545760154724,0.6800860166549683,0.41999998688697815,0.5657992959022522,-3.111467776761856e-06,-4.094493306183722e-06,-0.8245429396629333,-6.705583928123815e-06,-0.00034190918086096644,-9.6501549705863e-05,0.008657865226268768,-0.0033607659861445427,-0.0007024971419014037,0.4740952253341675,0.7109198570251465,0.539576530456543,0.07725024223327637,0.5795204043388367,0.7515446543693542,0.39379817247390747,0.684286892414093,0.42000001668930054,-0.4924216866493225,1.7975358963012695,-1.4229693412780762,3.0000009536743164,-0.15521785616874695,-0.15701109170913696,-0.16021212935447693,-0.16151027381420135,0.061473749577999115,0.0718352198600769,0.1151110976934433,0.1377687305212021
0.8,0.07456269860267639,0.03716997802257538,0.0,0.5973338484764099,0.0,0.0,-0.8019927144050598,0.013760517351329327,0.34884440898895264,0.0,0.0,0.0,1.6355352401733398,0.4054545760154724,0.6800860166549683,0.41999998688697815,0.5657992959022522,-3.0931380479159998e-06,-4.15259864894324e-06,-0.8245429992675781,-5.469350981002208e-06,-0.0003419811255298555,-9.614857845008373e-05,0.008661783300340176,-0.0033516637049615383,-0.0007052065338939428,0.4695972800254822,0.7198314666748047,0.549379289150238,-0.5470644235610962,0.5759127140045166,0.44306284189224243,0.39379817247390747,0.684286892414093,0.42000001668930054,-0.4551825523376465,2.5745725631713867,-1.4119733572006226,-1.3159124851226807,-0.15958736836910248,-0.16005375981330872,-0.1615099012851715,-0.1615440994501114,-0.3256734311580658,-0.23653899133205414,-0.1256369799375534,-0.04538249969482422
0.8166666666666667,0.07339626550674438,0.037358175963163376,0.0,0.5909348726272583,0.0,0.0,-0.8067193031311035,-0.14626139402389526,0.0020658597350120544,0.0,0.0,0.0,-1.6999318599700928,0.4054545760154724,0.6800860166549683,0.41999998688697815,0.565799355506897,-3.0730764137842925e-06,-4.244822775945067e-06,-0.8245429992675781,-7.83181531005539e-06,-0.0003418714040890336,-9.680306538939476e-05,0.008655932731926441,-0.0033692114520817995,-0.0007002837373875082,0.4550393223762512,0.7276839017868042,0.5504887104034424,-1.265760898590088,0.35978108644485474,-0.10811260342597961,0.39379817247390747,0.684286892414093,0.42000001668930054,-0.4531426429748535,-1.9427205324172974,-1.3677133321762085,3.000000476837158,-0.16282787919044495,-0.16211900115013123,-0.16201692819595337,-0.16093218326568604,-0.27293887734413147,-0.1806650161743164,-0.0677930936217308,0.018649674952030182
0.8333333333333334,0.07381710410118103,0.035801053047180176,0.0,0.5972504019737244,0.0,0.0,-0.8020548224449158,0.07728476077318192,-0.15583749115467072,0.0,0.0,0.0,1.7481616735458374,0.4054545760154724,0.6800860166549683,0.41999998688697815,0.565799355506897,-3.0797302770224633e-06,-4.276685558579629e-06,-0.8245428800582886,-5.063608114141971e-06,-0.00034201410016976297,-9.600701741874218e-05,0.008664023131132126,-0.0033492702059447765,-0.0007060286006890237,0.4377034604549408,0.7332183122634888,0.5479615330696106,-0.8283106088638306,0.32645654678344727,-0.1453428864479065,0.39379817247390747,0.684286892414093,0.42000001668930054,-0.4709431827068329,-0.31888699531555176,-1.3864290714263916,-3.0,-0.16836558282375336,-0.16569800674915314,-0.16324938833713531,-0.16016653180122375,-0.29995521903038025,-0.18042075634002686,-0.03479539602994919,0.09621267765760422
0.85,0.07673767954111099,0.03168326988816261,0.0,0.5912822484970093,0.0,0.0,-0.806464672088623,0.21730908751487732,-0.3018507957458496,0.0,0.0,0.0,-1.7678183317184448,0.4054545760154724,0.6800860166549683,0.41999998688697815,0.5657992959022522,-3.110998932243092e-06,-4.147105300944531e-06,-0.8245429992675781,-6.551718342961976e-06,-0.000341927632689476,-9.64475329965353e-05,0.008659102953970432,-0.0033597396686673164,-0.0007027983665466309,0.4269355535507202,0.7352116107940674,0.5421912670135498,-0.4243696928024292,-0.041748009622097015,-0.34331321716308594,0.39379817247390747,0.684286892414093,0.42000001668930054,-0.5096904039382935,-3.0,-1.3485196828842163,2.999999523162842,-0.1742999255657196,-0.16940370202064514,-0.16424280405044556,-0.15858685970306396,-0.33454933762550354,-0.19506500661373138,-0.025186657905578613,0.14124995470046997
0.8666666666666667,0.08347444981336594,0.029133666306734085,0.0,0.5622245073318481,0.0,0.0,-0.8269846439361572,0.34878501296043396,-0.2537761926651001,0.0,0.0,0.0,-5.101940631866455,0.4054545760154724,0.6800860166549683,0.41999998688697815,0.565799355506897,-3.0894264000380645e-06,-4.234363586874679e-06,-0.8245429992675781,-7.736365660093725e-06,-0.0003418757696636021,-9.67725645750761e-05,0.008656211197376251,-0.0033690251875668764,-0.0007005079532973468,0.4240718185901642,0.7280260324478149,0.5397107005119324,0.20053401589393616,-0.546233057975769,0.21465526521205902,0.39379817247390747,0.684286892414093,0.42000001668930054,-0.5596944689750671,-2.999903678894043,-1.3675974607467651,-2.9998323917388916,-0.18388868868350983,-0.17608289420604706,-0.1675719916820526,-0.1586378961801529,-0.26688849925994873,-0.1695144772529602,-0.03913915157318115,0.09847061336040497
0.8833333333333333,0.09129549562931061,0.027728836983442307,0.0,0.5501610636711121,0.0,0.0,-0.8350585699081421,0.512169361114502,-0.0357590913772583,0.0,0.0,0.0,-0.6566473245620728,0.4054546058177948,0.6800860166549683,0.41999998688697815,0.565799355506897,-3.0958458410168532e-06,-4.262989932612982e-06,-0.8245428800582886,-4.966738288203487e-06,-0.0003420313005335629,-9.598187170922756e-05,0.008664778433740139,-0.0033491086214780807,-0.0007062655640766025,0.4305903911590576,0.7244889736175537,0.5465056896209717,0.5527684688568115,0.014695679768919945,0.5466175079345703,0.39379817247390747,0.684286892414093,0.42000001668930054,-0.5801140069961548,0.28165745735168457,-1.4176157712936401,-2.999999761581421,-0.18649150431156158,-0.17828130722045898,-0.1688690036535263,-0.15888215601444244,-0.019954577088356018,-0.060958415269851685,-0.07666382938623428,-0.08277192711830139
0.9,0.09595168381929398,0.02222958207130432,0.0,0.5638062357902527,0.0,0.0,-0.8259071111679077,0.2131125032901764,-0.36645984649658203,0.0,0.0,0.0,2.6038291454315186,0.4054545760154724,0.6800860166549683,0.41999998688697815,0.565799355506897,-3.0884111765772104e-06,-4.162215645919787e-06,-0.8245429396629333,-5.366760888136923e-06,-0.0003421474830247462,-9.614205919206142e-05,0.008666948415338993,-0.003354438114911318,-0.0007058106129989028,0.43977826833724976,0.7262122631072998,0.5509002208709717,0.46557581424713135,0.05473289638757706,-0.023597203195095062,0.39379817247390747,0.684286892414093,0.42000001668930054,-0.5676060318946838,1.133622169494629,-1.3791179656982422,3.0,-0.18335840106010437,-0.17604433000087738,-0.16722093522548676,-0.15771383047103882,0.11003406345844269,0.08499424159526825,0.06966087967157364,0.05454656481742859
0.9166666666666666,0.09726223349571228,0.019196700304746628,0.0,0.5624131560325623,0.0,0.0,-0.8268563747406006,0.03155425563454628,-0.06910981237888336,0.0,0.0,0.0,-1.164546251296997,0.4054545760154724,0.6800860166549683,0.41999998688697815,0.5657992362976074,-3.1132888125284808e-06,-4.220861683279509e-06,-0.8245430588722229,-6.294497325143311e-06,-0.00034200178924947977,-9.63723286986351e-05,0.008661912754178047,-0.003359499853104353,-0.0007034782902337611,0.44623011350631714,0.7228437662124634,0.5470554828643799,0.338420569896698,-0.35721680521965027,-0.2615983188152313,0.39379817247390747,0.684286892414093,0.42000001668930054,-0.5789554119110107,-2.1978745460510254,-1.3290653228759766,3.0000009536743164,-0.18494367599487305,-0.17740343511104584,-0.16827981173992157,-0.15852460265159607,-0.15873360633850098,-0.13233816623687744,-0.10492775589227676,-0.08188285678625107
