vladlanda/robotic-transformer/data/env_000_episode_0010.csv
sim_time_s,robot_box_x,robot_box_y,robot_box_z,robot_box_quat_w,robot_box_quat_x,robot_box_quat_y,robot_box_quat_z,robot_box_linvel_x,robot_box_linvel_y,robot_box_linvel_z,robot_box_angvel_x,robot_box_angvel_y,robot_box_angvel_z,cube_world_x,cube_world_y,cube_world_z,cube_quat_w,cube_quat_x,cube_quat_y,cube_quat_z,cube_linvel_x,cube_linvel_y,cube_linvel_z,cube_angvel_x,cube_angvel_y,cube_angvel_z,endpoint_world_x,endpoint_world_y,endpoint_world_z,endpoint_linvel_x,endpoint_linvel_y,endpoint_linvel_z,target_cube_world_x,target_cube_world_y,target_cube_world_z,gripper_actual_pos_rad_gp_leftgearjoint,gripper_actual_vel_rad_s_gp_leftgearjoint,gripper_actual_pos_rad_gp_rotatingjoint,gripper_actual_vel_rad_s_gp_rotatingjoint,motor_angle_rad_joint1,motor_angle_rad_joint2,motor_angle_rad_joint3,motor_angle_rad_joint4,motor_speed_rad_s_joint1,motor_speed_rad_s_joint2,motor_speed_rad_s_joint3,motor_speed_rad_s_joint4
0.0,0.0,0.0,0.0,1.0,0.0,0.0,0.0,0.0,0.0,0.0,0.0,0.0,0.0,-0.44464561343193054,0.6320750713348389,0.41999998688697815,1.0,0.0,0.0,0.0,0.0,0.0,0.0,0.0,0.0,0.0,3.42540442943573e-06,-0.005000244826078415,1.313499927520752,0.0,0.0,0.0,0.3363889157772064,0.624086320400238,0.42000001668930054,-1.5707999467849731,0.0,0.0,0.0,0.0,0.0,0.0,0.0,0.0,0.0,0.0,0.0
0.016666666666666666,0.0028778850100934505,0.0021806680597364902,0.0,0.9998081922531128,0.0,0.0,0.019586581736803055,0.24087215960025787,0.18240931630134583,0.0,0.0,0.0,3.1418697834014893,-0.4446457326412201,0.632074773311615,0.41999998688697815,1.0,3.2799914606584935e-06,-8.339814598912199e-07,8.465387679734704e-08,-1.9833554688375443e-05,0.00017983050202019513,-6.133061833679676e-05,0.0009432226070202887,-0.004689437802881002,-0.0003198152990080416,-0.007110234349966049,0.003379564033821225,1.3159373998641968,-0.8143353462219238,0.9868683815002441,0.18095196783542633,0.3363889157772064,0.624086320400238,0.42000001668930054,-1.5301095247268677,3.0000011920928955,-0.04584788903594017,-2.9999992847442627,0.0008691533003002405,0.0007963840034790337,0.0007110277656465769,0.0006108740926720202,0.11094217747449875,0.09756709635257721,0.08334315568208694,0.06823883205652237
0.03333333333333333,0.008960911072790623,0.006801646202802658,0.0,0.9997960329055786,0.0,0.0,0.020196817815303802,0.4070138931274414,0.31529122591018677,0.0,0.0,0.0,-0.8691316843032837,-0.44464585185050964,0.6320747137069702,0.4200000464916229,1.0,3.390885240150965e-06,-2.1324319732229924e-06,-3.711133800265998e-08,0.00026357753085903823,0.00026937859365716577,-0.00010509602725505829,-0.0017706351354718208,0.004130707122385502,-0.00013548039714805782,-0.0275309719145298,0.025396008044481277,1.3167188167572021,-1.590029239654541,1.5729968547821045,-0.07014286518096924,0.3363889157772064,0.624086320400238,0.42000001668930054,-1.4800904989242554,3.0000011920928955,-0.09588772058486938,-3.0000009536743164,0.0029902758542448282,0.0026529612950980663,0.0022776008117944,0.0018611181294545531,0.16424325108528137,0.13979333639144897,0.11385834217071533,0.0863458514213562
0.05,0.01775932125747204,0.01377242524176836,0.0,0.9993746876716614,0.0,0.0,0.03535870835185051,0.5939612984657288,0.4651387929916382,0.0,0.0,0.0,2.6474218368530273,-0.44464588165283203,0.632074773311615,0.4200000464916229,1.0,3.7651666389137972e-06,-2.2119106688478496e-06,5.6201381326559385e-09,0.00026530789909884334,0.00026691396487876773,-0.0001044049859046936,-0.0017242879839614034,0.004177392926067114,-0.00012949586380273104,-0.05964269861578941,0.05214132368564606,1.3121464252471924,-2.187305450439453,1.6736505031585693,-0.44053220748901367,0.3363889157772064,0.624086320400238,0.42000001668930054,-1.4300721883773804,3.0000033378601074,-0.14592638611793518,-3.0000007152557373,0.005715291481465101,0.004923355299979448,0.004059245344251394,0.0031185224652290344,0.19306901097297668,0.15618173778057098,0.117416612803936,0.07668053358793259
0.06666666666666667,0.029076792299747467,0.023066693916916847,0.0,0.999447226524353,0.0,0.0,0.03324552997946739,0.7204901576042175,0.5952464938163757,0.0,0.0,0.0,-1.211909294128418,-0.44464588165283203,0.6320747137069702,0.4200000464916229,0.9999999403953552,3.406765927138622e-06,-2.285584969285992e-06,4.3010237504859106e-07,0.0002670253161340952,0.00026791723212227225,-0.00010437797755002975,-0.0017405577236786485,0.004211726598441601,-0.0001285084872506559,-0.09861057996749878,0.08457055687904358,1.3002450466156006,-2.4887535572052,2.1069235801696777,-0.9595184326171875,0.3363889157772064,0.624086320400238,0.42000001668930054,-1.3800538778305054,2.9999992847442627,-0.19592684507369995,-3.0000016689300537,0.008372929878532887,0.006912452634423971,0.005340969655662775,0.0036533805541694164,0.15858352184295654,0.10920479148626328,0.05779281631112099,0.004246482625603676
0.08333333333333333,0.03534591943025589,0.03569560870528221,0.0,0.9989498853683472,0.0,0.0,0.045816048979759216,0.17650392651557922,0.8368396759033203,0.0,0.0,0.0,2.6105144023895264,-0.44464588165283203,0.6320747137069702,0.4200000464916229,1.0,3.697324700624449e-06,-2.1889497929805657e-06,-2.6323201041122957e-07,0.00026389677077531815,0.0002658632874954492,-0.00010433816350996494,-0.001708115916699171,0.004150166176259518,-0.0001299091090913862,-0.1438964158296585,0.1178479790687561,1.2783236503601074,-2.847736358642578,1.9386399984359741,-1.5840857028961182,0.3363889157772064,0.624086320400238,0.42000001668930054,-1.3300246000289917,2.9999959468841553,-0.16277402639389038,3.0,0.006219489965587854,0.004281646106392145,0.002184685319662094,-8.096016972558573e-05,-0.2557440400123596,-0.2821720242500305,-0.3112243115901947,-0.34324952960014343
0.1,0.04424184188246727,0.04838522523641586,0.0,0.9990723729133606,0.0,0.0,0.043062545359134674,0.6697268486022949,0.7855792045593262,0.0,0.0,0.0,-1.2938028573989868,-0.44464588165283203,0.6320747137069702,0.4200000464916229,0.9999999403953552,3.6204476145940134e-06,-2.2652093321084976e-06,1.746138025282562e-07,0.00026676998822949827,0.0002674069837667048,-0.00010407832451164722,-0.0017385098617523909,0.0042091780342161655,-0.00012775610957760364,-0.18629348278045654,0.1545044481754303,1.253174066543579,-2.3722848892211914,2.329537868499756,-1.4709420204162598,0.3363889157772064,0.624086320400238,0.42000001668930054,-1.2800203561782837,3.000000476837158,-0.19450116157531738,-3.000000238418579,0.006386367604136467,0.0030462811700999737,-0.00045380668598227203,-0.004125203005969524,0.0891144722700119,-0.024591634050011635,-0.1371658742427826,-0.24858517944812775
0.11666666666666667,0.05166187137365341,0.059303224086761475,0.0,0.999924898147583,0.0,0.0,0.01225510984659195,0.4228229522705078,0.6065830588340759,0.0,0.0,0.0,-4.351558685302734,-0.44464588165283203,0.6320747137069702,0.4200000464916229,1.0,3.7984607388352742e-06,-2.2627837097388692e-06,-1.502189377333707e-07,0.0002637402794789523,0.000265660259174183,-0.00010428996756672859,-0.001705392962321639,0.004147498402744532,-0.0001297990238526836,-0.22597789764404297,0.19875657558441162,1.2255319356918335,-2.4306764602661133,2.7625668048858643,-1.7943401336669922,0.3363889157772064,0.624086320400238,0.42000001668930054,-1.2299996614456177,2.9999897480010986,-0.1607392281293869,2.9999990463256836,0.005964323412626982,0.0007881248602643609,-0.004515576176345348,-0.009959072805941105,0.00580068351700902,-0.1110566258430481,-0.22491879761219025,-0.33569538593292236
0.13333333333333333,0.05601437762379646,0.06836982071399689,0.0,0.9997437596321106,0.0,0.0,-0.02263694442808628,0.19587266445159912,0.4974328279495239,0.0,0.0,0.0,-4.169713973999023,-0.44464588165283203,0.632074773311615,0.4200000464916229,0.9999999403953552,3.5505347568687284e-06,-2.22979360842146e-06,2.929032234533224e-07,0.00026703241746872663,0.0002677922893781215,-0.00010416889563202858,-0.0017439969815313816,0.004213562235236168,-0.00012800225522369146,-0.2671189308166504,0.24404266476631165,1.194490671157837,-2.3686695098876953,2.8868861198425293,-1.9914841651916504,0.3363889157772064,0.624086320400238,0.42000001668930054,-1.1800099611282349,2.999999761581421,-0.19245566427707672,-3.000000476837158,0.004863526672124863,-0.002312077907845378,-0.009550351649522781,-0.01686147227883339,-0.13836105167865753,-0.2528025209903717,-0.3632028102874756,-0.46944913268089294
0.15,0.05673952028155327,0.07877954840660095,0.0,0.9970822334289551,0.0,0.0,-0.07633498311042786,-0.02398633025586605,0.6798942685127258,0.0,0.0,0.0,-7.311047077178955,-0.44464588165283203,0.6320747137069702,0.4200000464916229,0.9999999403953552,3.3381270441168454e-06,-2.242865321022691e-06,-2.8034685684019678e-08,0.00026674428954720497,0.00026758096646517515,-0.00010427669622004032,-0.001736762817017734,0.004206823650747538,-0.00012831517960876226,-0.30698680877685547,0.2970922291278839,1.156092643737793,-2.255859375,3.478374481201172,-2.5843207836151123,0.3363889157772064,0.624086320400238,0.42000001668930054,-1.1299965381622314,2.999993085861206,-0.1586969941854477,3.0000007152557373,0.0006722398102283478,-0.008281784132122993,-0.01722029410302639,-0.02615181915462017,-0.34126582741737366,-0.4331275522708893,-0.5203996896743774,-0.6030417084693909
0.16666666666666666,0.06263834983110428,0.08671122044324875,0.0,0.993737518787384,0.0,0.0,-0.11173945665359497,0.39256998896598816,0.4651317894458771,0.0,0.0,0.0,-2.973813772201538,-0.44464588165283203,0.632074773311615,0.4200000464916229,0.9999999403953552,3.6478829770203447e-06,-2.3072709609550657e-06,3.525496694578578e-08,0.0002672694972716272,0.00026801449712365866,-0.0001041849609464407,-0.0017472092295065522,0.0042175669223070145,-0.00012798579700756818,-0.347334623336792,0.35093700885772705,1.1080340147018433,-2.2285923957824707,3.401333808898926,-3.2618565559387207,0.3363889157772064,0.624086320400238,0.42000001668930054,-1.0835349559783936,2.574129581451416,-0.1904047727584839,-3.0000014305114746,-0.00232989271171391,-0.01276944950222969,-0.023108122870326042,-0.033356066793203354,-0.38201475143432617,-0.42855578660964966,-0.47213834524154663,-0.5130027532577515
0.18333333333333332,0.06362109631299973,0.09715460240840912,0.0,0.9873483180999756,0.0,0.0,-0.15856637060642242,0.02782355435192585,0.6143923997879028,0.0,0.0,0.0,-6.36452054977417,-0.44464588165283203,0.6320747137069702,0.4200000464916229,0.9999999403953552,3.2905975331232185e-06,-2.1938601548754377e-06,-2.792509121718467e-07,0.00026677976711653173,0.000267760653514415,-0.00010434305295348167,-0.0017391698202118278,0.004207034129649401,-0.00012845548917539418,-0.3823589086532593,0.40987223386764526,1.0463905334472656,-1.8897172212600708,3.7235054969787598,-3.9264330863952637,0.3363889157772064,0.624086320400238,0.42000001668930054,-1.0341044664382935,3.000000238418579,-0.24043405055999756,-3.000000476837158,-0.015090063214302063,-0.025714976713061333,-0.03623330593109131,-0.04665827751159668,-0.7071167230606079,-0.7375800013542175,-0.767167866230011,-0.7968533039093018
0.2,0.06362652033567429,0.10431496053934097,0.0,0.9829204082489014,0.0,0.0,-0.18403132259845734,-0.0803159773349762,0.3511304557323456,0.0,0.0,0.0,-2.0042459964752197,-0.44464588165283203,0.6320747137069702,0.4200000464916229,1.0,3.2808072774059838e-06,-2.2191500193002867e-06,1.5945313691645424e-07,0.0002662790648173541,0.00026740203611552715,-0.00010425224900245667,-0.0017357355682179332,0.00419772369787097,-0.00012865342432633042,-0.41562148928642273,0.46482086181640625,0.9752505421638489,-1.7217519283294678,3.238924026489258,-4.605666160583496,0.3363889157772064,0.624086320400238,0.42000001668930054,-0.984101414680481,2.999999523162842,-0.29046276211738586,-3.0000007152557373,-0.02689717896282673,-0.03763389214873314,-0.04824584722518921,-0.05876586586236954,-0.7867342233657837,-0.7675828337669373,-0.7479691505432129,-0.7291216850280762
0.21666666666666667,0.058937206864356995,0.11291790008544922,0.0,0.9754223227500916,0.0,0.0,-0.22034358978271484,-0.3560561239719391,0.5469062328338623,0.0,0.0,0.0,-5.189253330230713,-0.44464588165283203,0.632074773311615,0.4200000464916229,1.0,3.6132007608102867e-06,-2.27001987695985e-06,2.209884542025975e-07,0.00026712543331086636,0.000267817173153162,-0.00010414118878543377,-0.0017445571720600128,0.0042151594534516335,-0.00012786350271198899,-0.44181525707244873,0.5189211964607239,0.8924959897994995,-1.2942023277282715,3.199939727783203,-5.166447639465332,0.3363889157772064,0.624086320400238,0.42000001668930054,-0.9340918660163879,2.999997854232788,-0.34049323201179504,-3.000000476837158,-0.04263449087738991,-0.0534813217818737,-0.06416051834821701,-0.0745905414223671,-0.9877887964248657,-0.9904001355171204,-0.9924148321151733,-0.9940133690834045
0.23333333333333334,0.05902647227048874,0.11766394227743149,0.0,0.9712120890617371,0.0,0.0,-0.23821638524532318,0.07526038587093353,0.2727918028831482,0.0,0.0,0.0,-0.9218748807907104,-0.44464588165283203,0.6320747137069702,0.4200000464916229,1.0,3.3819155760284048e-06,-2.2908357095730025e-06,2.72774286713684e-07,0.0002669130335561931,0.00026779918698593974,-0.00010433373972773552,-0.0017396233743056655,0.004209747537970543,-0.0001284362078877166,-0.46514737606048584,0.5637648105621338,0.8044618964195251,-1.1055054664611816,2.369401693344116,-5.466902732849121,0.3363889157772064,0.624086320400238,0.42000001668930054,-0.8840811848640442,3.000002384185791,-0.39052489399909973,-3.000002145767212,-0.05692430958151817,-0.06767233461141586,-0.07799745351076126,-0.08810379356145859,-0.988217294216156,-0.9899156093597412,-0.9285461902618408,-0.8667653203010559
0.25,0.05439230799674988,0.12040632218122482,0.0,0.9638440012931824,0.0,0.0,-0.2664671540260315,-0.39672327041625977,0.11082714051008224,0.0,0.0,0.0,-4.365449905395508,-0.44464585185050964,0.6320747137069702,0.4200000464916229,0.9999999403953552,3.7066249660711037e-06,-2.222870307377889e-06,-2.2553399503522087e-07,0.00026424837415106595,0.0002665679494384676,-0.00010457751341164112,-0.0017169459024444222,0.004155553411692381,-0.00013062948710285127,-0.47706055641174316,0.5957338809967041,0.7081499099731445,-0.21015320718288422,1.454695224761963,-5.802646636962891,0.3363889157772064,0.624086320400238,0.42000001668930054,-0.8340708613395691,3.0,-0.4405565559864044,-2.999999761581421,-0.07476425170898438,-0.08518394827842712,-0.09526437520980835,-0.10518383234739304,-1.0030755996704102,-1.002293586730957,-1.001699686050415,-1.0012332201004028
0.26666666666666666,0.05245545879006386,0.12007148563861847,0.0,0.9613502621650696,0.0,0.0,-0.27532821893692017,-0.050657957792282104,-0.057078003883361816,0.0,0.0,0.0,-0.043202608823776245,-0.44464588165283203,0.6320747137069702,0.4200000464916229,0.9999999403953552,3.719741698660073e-06,-2.40333838519291e-06,-1.8310879568161909e-07,0.00026623293524608016,0.00026729016099125147,-0.00010425737127661705,-0.0017326247179880738,0.004196592606604099,-0.00012851442443206906,-0.4809917211532593,0.6151642799377441,0.6151483058929443,0.004155751317739487,0.9023511409759521,-5.380931854248047,0.3363889157772064,0.624086320400238,0.42000001668930054,-0.7840620875358582,3.000000238418579,-0.49058738350868225,-3.0000009536743164,-0.09134574979543686,-0.10171643644571304,-0.11174909770488739,-0.12165700644254684,-1.009210467338562,-1.006892442703247,-1.0051265954971313,-1.00373113155365
0.2833333333333333,0.047769758850336075,0.11757152527570724,0.0,0.9552021026611328,0.0,0.0,-0.29595425724983215,-0.27580204606056213,-0.21219123899936676,0.0,0.0,0.0,-3.3718531131744385,-0.44464588165283203,0.632074773311615,0.4200000464916229,0.9999999403953552,3.5841662793245632e-06,-2.315337951586116e-06,7.401188639732936e-08,0.0002652204711921513,0.00026455201441422105,-0.00010317075066268444,-0.001702053239569068,0.004185079596936703,-0.0001249972265213728,-0.4736124873161316,0.6263734102249146,0.5278877019882202,0.7959986925125122,0.6096994876861572,-5.061104774475098,0.3363889157772064,0.624086320400238,0.42000001668930054,-0.7340533137321472,2.999994993209839,-0.540617048740387,-3.0000033378601074,-0.10867633670568466,-0.11883211880922318,-0.1287354826927185,-0.13856032490730286,-0.88348388671875,-0.9021681547164917,-0.9223117828369141,-0.9412656426429749
0.3,0.041456446051597595,0.1125463917851448,0.0,0.9543997049331665,0.0,0.0,-0.2985316812992096,-0.41639402508735657,-0.33901432156562805,0.0,0.0,0.0,0.6167818903923035,-0.44464588165283203,0.6320747137069702,0.4200000464916229,1.0,3.724338057509158e-06,-2.2718145373801235e-06,9.632610442622536e-08,0.0002631258394103497,0.00026525926659815013,-0.00010438263416290283,-0.0016961469082161784,0.00413482217118144,-0.00013027766544837505,-0.4602884352207184,0.6379213333129883,0.4468124806880951,0.9823977947235107,0.676331102848053,-4.6265459060668945,0.3363889157772064,0.624086320400238,0.42000001668930054,-0.68404620885849,3.0000016689300537,-0.5906448364257812,-2.999999523162842,-0.125435471534729,-0.1355469971895218,-0.1454528123140335,-0.15530097484588623,-1.0133048295974731,-1.0100492238998413,-1.0075591802597046,-1.0055674314498901
0.31666666666666665,0.03277021273970604,0.10533896833658218,0.0,0.9493719935417175,0.0,0.0,-0.3141540586948395,-0.5730852484703064,-0.47622182965278625,0.0,0.0,0.0,-2.8095755577087402,-0.44239091873168945,0.6379227638244629,0.4200000464916229,0.9968595504760742,9.678452670414117e-07,2.4147736894519767e-06,-0.07918915152549744,0.13073739409446716,0.34131577610969543,-3.5653356462717056e-06,-0.00018676997569855303,0.00024018026306293905,-8.830987930297852,-0.4528818130493164,0.6424646377563477,0.42088377475738525,0.4008353650569916,0.13390326499938965,-0.1292515993118286,0.3363889157772064,0.624086320400238,0.42000001668930054,-0.6342247128486633,2.980292797088623,-0.6412246227264404,-2.807959794998169,-0.13602879643440247,-0.1459680050611496,-0.15548543632030487,-0.16468721628189087,-0.40824517607688904,-0.36594176292419434,-0.2998475432395935,-0.206129252910614
0.3333333333333333,0.02172725461423397,0.09585811197757721,0.0,0.9496670365333557,0.0,0.0,-0.31326112151145935,-0.7023525834083557,-0.6078566908836365,0.0,0.0,0.0,1.049500823020935,-0.4406445026397705,0.6427760720252991,0.4200000464916229,0.9910206198692322,1.1352879027981544e-06,2.41865109273931e-06,-0.13370835781097412,0.09633133560419083,0.2742791473865509,-1.1457595974206924e-06,-4.621536390914116e-06,-5.402876195148565e-05,-5.8750529289245605,-0.4491538405418396,0.6495127081871033,0.4224809408187866,0.3080437481403351,0.5526862740516663,-0.12413433939218521,0.3363889157772064,0.624086320400238,0.42000001668930054,-0.5842187404632568,2.9999771118164062,-0.6912727355957031,-2.9999983310699463,-0.14328496158123016,-0.15209880471229553,-0.16012196242809296,-0.16741061210632324,-0.4701370894908905,-0.38546812534332275,-0.28282254934310913,-0.15974384546279907
0.35,0.00841533113270998,0.08413092792034149,0.0,0.9451265931129456,0.0,0.0,-0.32670435309410095,-0.8442421555519104,-0.7431883811950684,0.0,0.0,0.0,-2.6212360858917236,-0.43630242347717285,0.6500837206840515,0.4200003445148468,0.9866880774497986,-5.9272801991028246e-06,2.612452590255998e-06,-0.1626238226890564,0.34914347529411316,0.5302194356918335,-0.00041360192699357867,0.012302165850996971,-0.013166145421564579,-2.559065341949463,-0.4424610137939453,0.6564679145812988,0.42066484689712524,0.5405263304710388,0.4140016436576843,-0.11444786190986633,0.3363889157772064,0.624086320400238,0.42000001668930054,-0.5342139005661011,2.9999773502349854,-0.7413249015808105,-2.999980926513672,-0.1518029272556305,-0.15876148641109467,-0.16459941864013672,-0.16934750974178314,-0.5194682478904724,-0.38409438729286194,-0.23009420931339264,-0.05670096352696419
0.36666666666666664,-0.002346519846469164,0.0696692243218422,0.0,0.9308412075042725,0.0,0.0,-0.3654239773750305,-0.5729585886001587,-0.9212620258331299,0.0,0.0,0.0,-5.766655445098877,-0.4279395639896393,0.661328136920929,0.42011600732803345,0.9833900928497314,-0.0028541875071823597,0.0004703257291112095,-0.18148164451122284,0.6815069317817688,0.8741779923439026,0.05255286395549774,-2.4882521629333496,0.9203333258628845,-3.590670347213745,-0.4321678578853607,0.6656061410903931,0.42060762643814087,0.7371370792388916,0.7414165735244751,0.11230924725532532,0.3363889157772064,0.624086320400238,0.42000001668930054,-0.4841703176498413,2.999997138977051,-0.7913532257080078,-2.9999632835388184,-0.16021378338336945,-0.16469506919384003,-0.16769860684871674,-0.16925472021102905,-0.4474615454673767,-0.2959608733654022,-0.12254377454519272,0.07248970121145248
0.3833333333333333,-0.01593775860965252,0.053368840366601944,0.0,0.9032182097434998,0.0,0.0,-0.42918160557746887,-0.8978307843208313,-1.004506230354309,0.0,0.0,0.0,-9.233474731445312,-0.4060736894607544,0.68562251329422,0.4211895167827606,0.9747641682624817,-0.01645604893565178,-0.013535413891077042,-0.22221779823303223,2.049015522003174,2.1114563941955566,0.07353843748569489,-2.148355484008789,-1.724755883216858,-7.2789812088012695,-0.40752363204956055,0.6865969896316528,0.42278268933296204,2.368948459625244,1.8811721801757812,0.2001664638519287,0.3363889157772064,0.624086320400238,0.42000001668930054,-0.4341418147087097,3.0000016689300537,-0.8413696885108948,-2.9998066425323486,-0.17161430418491364,-0.17247699201107025,-0.17154470086097717,-0.16888925433158875,-0.7644413709640503,-0.5077080130577087,-0.2352745234966278,0.048973869532346725
0.4,-0.02617814764380455,0.034659966826438904,0.0,0.8589053750038147,0.0,0.0,-0.512134313583374,-0.5642243027687073,-1.1701546907424927,0.0,0.0,0.0,-11.93204116821289,-0.34236764907836914,0.7243911027908325,0.4251493811607361,0.9581072926521301,0.028045913204550743,-0.05307198315858841,-0.2800482511520386,5.2693047523498535,2.8444888591766357,0.13943421840667725,27.4642391204834,-18.423707962036133,4.496927261352539,-0.34418147802352905,0.7265448570251465,0.426487535238266,4.95273494720459,2.798455238342285,0.3386586308479309,0.3363889157772064,0.624086320400238,0.42000001668930054,-0.39655742049217224,1.301798939704895,-0.804537296295166,2.999842643737793,-0.18640252947807312,-0.1822206825017929,-0.1757887303829193,-0.16765807569026947,-0.9298951625823975,-0.6288395524024963,-0.2891894578933716,0.04036831110715866
0.4166666666666667,-0.03360224515199661,0.020735805854201317,0.0,0.7948864102363586,0.0,0.0,-0.6067582368850708,-0.36967962980270386,-0.8560426831245422,0.0,0.0,0.0,-14.432862281799316,-0.23624703288078308,0.7681549191474915,0.432301789522171,0.9313433170318604,0.10144446790218353,-0.09718234091997147,-0.33595260977745056,7.676259517669678,2.233611822128296,0.5887270569801331,10.386656761169434,-13.217188835144043,18.449195861816406,-0.2382122427225113,0.771364688873291,0.43392306566238403,7.395614147186279,2.7306408882141113,0.6165517568588257,0.3363889157772064,0.624086320400238,0.42000001668930054,-0.3789806067943573,0.8517823815345764,-0.754509687423706,2.9973385334014893,-0.2010967880487442,-0.19705796241760254,-0.1874322146177292,-0.1727762669324875,-0.5592334866523743,-0.6413804888725281,-0.6865387558937073,-0.36473897099494934
0.43333333333333335,-0.04285352677106857,0.01089106872677803,0.0,0.7370337843894958,0.0,0.0,-0.6758558750152588,-0.5513390898704529,-0.5531052947044373,0.0,0.0,0.0,-9.508458137512207,-0.11628486961126328,0.7953018546104431,0.44266489148139954,0.8775231838226318,0.13085368275642395,-0.11318723112344742,-0.44723471999168396,7.04697847366333,0.5098727345466614,0.5816420912742615,0.2670265734195709,-7.859350681304932,10.098535537719727,-0.12019653618335724,0.8014469146728516,0.44376420974731445,7.034579753875732,1.0929992198944092,0.6564463376998901,0.3363889157772064,0.624086320400238,0.42000001668930054,-0.3617981970310211,1.1294533014297485,-0.7819506525993347,-2.999999523162842,-0.21599550545215607,-0.21164527535438538,-0.2012275755405426,-0.18018771708011627,-0.7596760988235474,-0.7711050510406494,-0.7696911096572876,-0.4365205764770508
0.45,-0.04890824481844902,0.004517875611782074,0.0,0.7016567587852478,0.0,0.0,-0.712515115737915,-0.30910953879356384,-0.3237145245075226,0.0,0.0,0.0,-4.988910675048828,-0.0031056664884090424,0.8016266226768494,0.452265202999115,0.8129380941390991,0.14633461833000183,-0.1054130420088768,-0.5537199974060059,6.840609550476074,-0.44318413734436035,0.43858450651168823,-0.5601917505264282,-9.936286926269531,11.159435272216797,-0.00815658550709486,0.809927225112915,0.4526875615119934,6.390312671661377,-0.25546619296073914,0.5829404592514038,0.3363889157772064,0.624086320400238,0.42000001668930054,-0.34323886036872864,0.8367530703544617,-0.8319765329360962,-3.0000014305114746,-0.23176267743110657,-0.22571082413196564,-0.21359629929065704,-0.18677854537963867,-0.9114963412284851,-0.7680986523628235,-0.6319971680641174,-0.319953978061676
0.4666666666666667,-0.050790052860975266,-0.006713725160807371,0.0,0.689335286617279,0.0,0.0,-0.7244424223899841,-0.041685573756694794,-0.8488064408302307,0.0,0.0,0.0,-1.12827467918396,0.09653912484645844,0.7913320660591125,0.45905745029449463,0.7490337491035461,0.1416773647069931,-0.09455107152462006,-0.6402624249458313,5.729416370391846,-1.5898243188858032,0.5017871260643005,-0.9627329111099243,-17.31603240966797,1.0101743936538696,0.09180788695812225,0.8011530637741089,0.4598349332809448,5.4108476638793945,-1.0450818538665771,0.34341099858283997,0.3363889157772064,0.624086320400238,0.42000001668930054,-0.33326664566993713,0.35076209902763367,-0.8820024728775024,-3.0000035762786865,-0.24003612995147705,-0.23384228348731995,-0.21947817504405975,-0.18848875164985657,-0.022886671125888824,-0.3246419131755829,-0.1897704303264618,0.00818683858960867
0.48333333333333334,-0.05208650603890419,-0.01572670228779316,0.0,0.6672266721725464,0.0,0.0,-0.744854748249054,-0.06432659178972244,-0.40933936834335327,0.0,0.0,0.0,-4.529513359069824,0.17882627248764038,0.7677084803581238,0.4605209231376648,0.6916118264198303,0.12016230821609497,-0.0678945928812027,-0.7089599967002869,4.589125633239746,-2.338547468185425,-0.006535561289638281,-2.5543951988220215,1.7971066236495972,7.706559658050537,0.17426878213882446,0.7787513732910156,0.4619898796081543,4.444509506225586,-1.7126442193984985,-0.02524818666279316,0.3363889157772064,0.624086320400238,0.42000001668930054,-0.32788944244384766,0.181022509932518,-0.9320265054702759,-3.0000009536743164,-0.24001328647136688,-0.2399972379207611,-0.22349250316619873,-0.18994636833667755,-0.09896296262741089,-0.005269238259643316,-0.24237443506717682,-0.13912834227085114
0.5,-0.05131830275058746,-0.018867438659071922,0.0,0.6591470241546631,0.0,0.0,-0.7520141005516052,0.09620443731546402,-0.14095929265022278,0.0,0.0,0.0,-0.26132750511169434,0.24565395712852478,0.7376367449760437,0.4561430811882019,0.6513714790344238,0.09411322325468063,-0.04486570507287979,-0.75156170129776,3.589182138442993,-2.1288747787475586,-0.5134286880493164,-2.4633538722991943,-4.781068801879883,1.6246967315673828,0.24213513731956482,0.7476402521133423,0.4579545259475708,3.6636853218078613,-2.0162136554718018,-0.3811717629432678,0.3363889157772064,0.624086320400238,0.42000001668930054,-0.3187161982059479,0.6908667087554932,-0.9820505380630493,-3.0000011920928955,-0.2395741194486618,-0.23962783813476562,-0.22722074389457703,-0.19293729960918427,0.10299684852361679,0.09975580126047134,-0.09385190159082413,-0.12470006197690964
0.5166666666666666,-0.04776669293642044,-0.024290503934025764,0.0,0.6415647268295288,0.0,0.0,-0.7670689225196838,0.26381227374076843,-0.37917184829711914,0.0,0.0,0.0,-3.5153281688690186,0.2991098463535309,0.7068237066268921,0.44381168484687805,0.6131824254989624,0.07004284858703613,-0.03134024888277054,-0.786205530166626,2.7503669261932373,-1.987549066543579,-0.9822399020195007,-1.2266403436660767,-3.6224114894866943,-3.106588363647461,0.29557132720947266,0.7158207297325134,0.4461134672164917,2.707036018371582,-1.9682416915893555,-0.8579444885253906,0.3363889157772064,0.624086320400238,0.42000001668930054,-0.30384624004364014,1.0081363916397095,-1.0320733785629272,-2.9989380836486816,-0.2346864491701126,-0.23506061732769012,-0.22603484988212585,-0.19364222884178162,0.2493790090084076,0.2637169063091278,0.09733535349369049,-0.04921456053853035
0.5333333333333333,-0.041477471590042114,-0.026373403146862984,0.0,0.6382420659065247,0.0,0.0,-0.7698357105255127,0.40387946367263794,-0.07252269238233566,0.0,0.0,0.0,0.4094460904598236,0.3366934657096863,0.6747629046440125,0.42592552304267883,0.583878219127655,0.03274241089820862,-0.011160386726260185,-0.8111039400100708,1.7797085046768188,-2.353411912918091,-1.1714842319488525,3.015732765197754,7.042624473571777,7.279530048370361,0.33354490995407104,0.6826926469802856,0.4285602569580078,1.846167802810669,-1.9077959060668945,-1.157002329826355,0.3363889157772064,0.624086320400238,0.42000001668930054,-0.2876518666744232,0.8217244744300842,-1.0820955038070679,-2.998915195465088,-0.23233598470687866,-0.23203438520431519,-0.22519324719905853,-0.19562461972236633,0.2175562083721161,0.24364148080348969,0.11078611016273499,-0.10421591997146606
0.55,-0.03362781181931496,-0.02735160104930401,0.0,0.6243152618408203,0.0,0.0,-0.7811724543571472,0.5413601994514465,-0.0028134954627603292,0.0,0.0,0.0,-3.0679054260253906,0.35610467195510864,0.6555265784263611,0.42089223861694336,0.5853770971298218,-0.012794490903615952,0.01846918836236,-0.8104497790336609,0.5653054714202881,-0.8158420324325562,0.036833688616752625,1.0149232149124146,2.146333694458008,2.9367260932922363,0.35193103551864624,0.6615747809410095,0.4217407703399658,0.5925452709197998,-0.8305870294570923,0.15200373530387878,0.3363889157772064,0.624086320400238,0.42000001668930054,-0.2710043489933014,1.337334156036377,-1.1320874691009521,-3.000795602798462,-0.22520072758197784,-0.22538171708583832,-0.22123031318187714,-0.19609497487545013,0.5150668025016785,0.4666900634765625,0.30398184061050415,0.012674284167587757
0.5666666666666667,-0.0281695444136858,-0.03231367468833923,0.0,0.6229053735733032,0.0,0.0,-0.7822971940040588,0.28912636637687683,-0.3104541301727295,0.0,0.0,0.0,0.6798583269119263,0.3610896170139313,0.6427574753761292,0.42086800932884216,0.6093120574951172,-0.013190609402954578,-0.007416234351694584,-0.7927861213684082,0.019339166581630707,-1.0329662561416626,-0.11713075637817383,-0.3387397825717926,-5.804967403411865,5.80408239364624,0.35756707191467285,0.6481234431266785,0.42163753509521484,0.03516121581196785,-0.8241395950317383,-0.11565129458904266,0.3363889157772064,0.624086320400238,0.42000001668930054,-0.25420159101486206,0.6514272093772888,-1.0949897766113281,2.9980013370513916,-0.21430745720863342,-0.2152373343706131,-0.21358248591423035,-0.19352367520332336,0.5139338970184326,0.5095547437667847,0.4071268141269684,0.12585362792015076
0.5833333333333334,-0.025225646793842316,-0.03250953555107117,0.0,0.6105449199676514,0.0,0.0,-0.79198157787323,0.10673394054174423,0.010144367814064026,0.0,0.0,0.0,-2.727309465408325,0.3583969473838806,0.633003830909729,0.42167118191719055,0.6263025403022766,-0.02881355583667755,0.013769622892141342,-0.7789257168769836,-0.2834242880344391,-0.7167669534683228,0.032511841505765915,-1.352965235710144,1.590108871459961,9.562746047973633,0.35401564836502075,0.6376782655715942,0.4228084087371826,-0.3573616147041321,-0.44653305411338806,0.12425851821899414,0.3363889157772064,0.624086320400238,0.42000001668930054,-0.2627083361148834,-1.2350891828536987,-1.1176276206970215,-3.0000040531158447,-0.20834779739379883,-0.20907750725746155,-0.20861589908599854,-0.19288678467273712,0.43787306547164917,0.423258900642395,0.3399743139743805,0.06639174371957779
0.6,-0.02229156903922558,-0.033129237592220306,0.0,0.6120988130569458,0.0,0.0,-0.7907812595367432,0.20709474384784698,-0.007621263153851032,0.0,0.0,0.0,1.0614527463912964,0.35212618112564087,0.625691294670105,0.4216514229774475,0.6422743797302246,-0.02769075706601143,0.03303668648004532,-0.7652616500854492,-0.4703652858734131,-0.34415775537490845,0.02005498670041561,0.21260903775691986,1.0734713077545166,2.189082622528076,0.34780678153038025,0.6331548690795898,0.4244682788848877,-0.41504886746406555,-0.14623425900936127,0.1483982503414154,0.3363889157772064,0.624086320400238,0.42000001668930054,-0.2817384600639343,-1.0472701787948608,-1.167601227760315,-2.998995542526245,-0.19962230324745178,-0.20092839002609253,-0.20193883776664734,-0.19079995155334473,0.49123138189315796,0.4627486765384674,0.3909580409526825,0.13380970060825348
0.6166666666666667,-0.017523130401968956,-0.035609252750873566,0.0,0.602194607257843,0.0,0.0,-0.7983493208885193,0.3285888135433197,-0.21701227128505707,0.0,0.0,0.0,-2.3920669555664062,0.34636983275413513,0.6253976225852966,0.42041006684303284,0.6735488772392273,-0.006749600637704134,0.006125261075794697,-0.739086389541626,-0.3604127764701843,0.029941825196146965,-0.14890368282794952,-1.1797438859939575,-8.105710983276367,6.351129055023193,0.3413681387901306,0.6312776803970337,0.4243776202201843,-0.3248174488544464,-0.06321105360984802,-0.016236335039138794,0.3363889157772064,0.624086320400238,0.42000001668930054,-0.3232482373714447,-2.999783992767334,-1.1351310014724731,2.9998042583465576,-0.19162513315677643,-0.1934068202972412,-0.19543850421905518,-0.18829171359539032,0.48851385712623596,0.46106454730033875,0.40894022583961487,0.1857367306947708
0.6333333333333333,-0.010455729439854622,-0.03558926284313202,0.0,0.6054008603096008,0.0,0.0,-0.795920729637146,0.45385921001434326,0.0603557825088501,0.0,0.0,0.0,1.3475185632705688,0.34227555990219116,0.6255874037742615,0.41999995708465576,0.6926776766777039,1.3431379102257779e-06,-2.4231685529230163e-06,-0.7212472558021545,-0.2126712203025818,0.009382719174027443,-3.692181780934334e-05,0.004321359563618898,0.001976999454200268,2.7304253578186035,0.3371821641921997,0.6324403285980225,0.4261792302131653,-0.27466970682144165,0.1940506398677826,0.14850345253944397,0.3363889157772064,0.624086320400238,0.42000001668930054,-0.37326228618621826,-2.9994869232177734,-1.1573435068130493,-2.9999260902404785,-0.18545620143413544,-0.1878201961517334,-0.19068032503128052,-0.18700425326824188,0.3729575574398041,0.3166302442550659,0.2522534728050232,0.041052188724279404
0.65,-0.003870415035635233,-0.0394153818488121,0.0,0.6316350102424622,0.0,0.0,-0.7752658724784851,0.3835867643356323,-0.2599569857120514,0.0,0.0,0.0,4.6219305992126465,0.33972060680389404,0.6256667375564575,0.4200000464916229,0.702591598033905,2.6048667223221855e-07,1.2203138339828001e-06,-0.7115932703018188,-0.13310422003269196,0.0033023247960954905,-2.255261642858386e-05,-0.0001574223570059985,-0.0012225743848830462,1.341732382774353,0.33381518721580505,0.6363289952278137,0.42947056889533997,-0.21905802190303802,0.1756555289030075,0.2572968900203705,0.3363889157772064,0.624086320400238,0.42000001668930054,-0.42328590154647827,-3.000009059906006,-1.2073298692703247,-2.99973201751709,-0.17741051316261292,-0.18038561940193176,-0.1837865710258484,-0.1827838271856308,0.33451005816459656,0.35550758242607117,0.3885418772697449,0.3072953522205353
0.6666666666666666,0.00420042872428894,-0.0459619015455246,0.0,0.6410848498344421,0.0,0.0,-0.7674700021743774,0.5196713209152222,-0.43272367119789124,0.0,0.0,0.0,0.43582382798194885,0.3380914628505707,0.6257435083389282,0.4200000464916229,0.7024786472320557,5.99924234734317e-08,-1.2180831276964454e-07,-0.711704671382904,-0.08597846329212189,0.004607636481523514,-4.86976932734251e-06,-0.000252496829489246,2.0333691281848587e-05,-0.270058274269104,0.3325578570365906,0.6390070915222168,0.4344029426574707,0.011123787611722946,0.1146451085805893,0.3152596056461334,0.3363889157772064,0.624086320400238,0.42000001668930054,-0.47329628467559814,-3.0,-1.257341742515564,-3.0,-0.17346055805683136,-0.1755606234073639,-0.1777498871088028,-0.1771574467420578,0.2058538794517517,0.2754175066947937,0.37020349502563477,0.3820599615573883
0.6833333333333333,0.01428444217890501,-0.05506125092506409,0.0,0.6274430155754089,0.0,0.0,-0.7786624431610107,0.6409526467323303,-0.607025682926178,0.0,0.0,0.0,-3.0128910541534424,0.33763930201530457,0.6257679462432861,0.42000001668930054,0.7021034955978394,-1.0486096471140627e-06,3.1005454275145894e-06,-0.7120748162269592,-0.00445477943867445,0.00024356522771995515,-8.104968583211303e-05,-0.0007228867616504431,-0.004704150836914778,-0.007617732509970665,0.33645349740982056,0.64082932472229,0.44668224453926086,0.4672991633415222,0.10023176670074463,1.2591679096221924,0.3363889157772064,0.624086320400238,0.42000001668930054,-0.5233086347579956,-2.999983072280884,-1.307360053062439,-2.999999761581421,-0.1723874807357788,-0.1731446534395218,-0.17353962361812592,-0.17232581973075867,0.002665627282112837,0.08621106296777725,0.19759836792945862,0.24988627433776855
0.7,0.028372731059789658,-0.05896970257163048,0.0,0.591195285320282,0.0,0.0,-0.8065284490585327,0.7823739051818848,-0.22466830909252167,0.0,0.0,0.0,-6.347114086151123,0.33763882517814636,0.6257683038711548,0.4200000464916229,0.7021034359931946,7.369436616500025e-07,-4.228266789141344e-06,-0.7120749354362488,0.0002619622100610286,-0.0002969909692183137,-0.00010161101818084717,0.004955806769430637,0.0015160392504185438,-0.00012050146324327216,0.35420602560043335,0.6348328590393066,0.4728662669658661,1.7397661209106445,-0.5655370950698853,1.9906091690063477,0.3363889157772064,0.624086320400238,0.42000001668930054,-0.5733203291893005,-2.9999756813049316,-1.357378363609314,-2.999999523162842,-0.1798769235610962,-0.17783226072788239,-0.17503584921360016,-0.1715395748615265,-0.33913153409957886,-0.20036539435386658,-0.03367502987384796,0.09350081533193588
0.7166666666666667,0.03855394944548607,-0.06157324090600014,0.0,0.5702514052391052,0.0,0.0,-0.8214702010154724,0.5404136180877686,-0.16706052422523499,0.0,0.0,0.0,-1.9420431852340698,0.33763882517814636,0.62576824426651,0.4200000464916229,0.7021033763885498,1.0149001354875509e-06,-4.064713721163571e-06,-0.7120749950408936,0.00026662202435545623,-0.00026957617956213653,-0.00010578520596027374,0.004306421615183353,0.0016095282044261694,-0.00016468697867821902,0.38318395614624023,0.6304258108139038,0.5065871477127075,1.6569278240203857,-0.03265805542469025,2.031425952911377,0.3363889157772064,0.624086320400238,0.42000001668930054,-0.59332275390625,0.3263261318206787,-1.407396674156189,-3.0000014305114746,-0.18287397921085358,-0.17957644164562225,-0.1751270741224289,-0.1705060750246048,-0.003621928859502077,0.00670591788366437,0.037476204335689545,0.04410398751497269
0.7333333333333333,0.04395357519388199,-0.06242529675364494,0.0,0.5760045647621155,0.0,0.0,-0.8174464702606201,0.24986939132213593,-0.006359682884067297,0.0,0.0,0.0,1.679291009902954,0.33763885498046875,0.62576824426651,0.4200000464916229,0.7021034359931946,8.708714744898316e-07,-4.124828137719305e-06,-0.7120749354362488,0.00026188185438513756,-0.00026696870918385684,-0.00010427925735712051,0.004266347270458937,0.0015510248485952616,-0.00015972288383636624,0.4068918228149414,0.6320309042930603,0.5353808403015137,1.095089316368103,0.17606496810913086,1.4724912643432617,0.3363889157772064,0.624086320400238,0.42000001668930054,-0.5663947463035583,2.6775379180908203,-1.3762528896331787,2.999999761581421,-0.18119469285011292,-0.17799389362335205,-0.17335133254528046,-0.1688372939825058,0.17697565257549286,0.1622621715068817,0.16021904349327087,0.14385974407196045
0.75,0.0455731563270092,-0.06169182062149048,0.0,0.5693383812904358,0.0,0.0,-0.8221033215522766,0.05544881522655487,0.08974674344062805,0.0,0.0,0.0,-1.912813663482666,0.33763882517814636,0.62576824426651,0.4200000464916229,0.7021033763885498,9.61681848821172e-07,-4.282775989850052e-06,-0.7120749950408936,0.0002667885855771601,-0.00026941701071336865,-0.00010592304170131683,0.004301594104617834,0.0016099304193630815,-0.00016528216656297445,0.4170784652233124,0.6338033080101013,0.5530147552490234,0.16674138605594635,0.07106702774763107,0.8299415707588196,0.3363889157772064,0.624086320400238,0.42000001668930054,-0.5177705883979797,3.0000009536743164,-1.3262155055999756,3.0,-0.17975640296936035,-0.1764664649963379,-0.1716241091489792,-0.16713380813598633,0.06948087364435196,0.08150488138198853,0.094754159450531,0.09596821665763855
0.7666666666666666,0.045042797923088074,-0.061995793133974075,0.0,0.5751824378967285,0.0,0.0,-0.8180251717567444,-0.06879584491252899,-0.08588273823261261,0.0,0.0,0.0,1.6868609189987183,0.33763885498046875,0.62576824426651,0.4200000464916229,0.7021034359931946,9.598485348760732e-07,-4.348780748841818e-06,-0.712074875831604,0.0002669966488610953,-0.0002697283634915948,-0.00010586623102426529,0.004308146424591541,0.0016150028677657247,-0.0001651014172239229,0.41557660698890686,0.6355894804000854,0.5657987594604492,-0.36694395542144775,0.16243216395378113,0.7347118258476257,0.3363889157772064,0.624086320400238,0.42000001668930054,-0.4677661061286926,2.999999761581421,-1.3456411361694336,-3.000000476837158,-0.17865923047065735,-0.17494633793830872,-0.16972380876541138,-0.16502180695533752,0.1180945336818695,0.13665825128555298,0.1507507860660553,0.15828055143356323
0.7833333333333333,0.04255069047212601,-0.05906437337398529,0.0,0.5687028169631958,0.0,0.0,-0.8225430846214294,-0.18407383561134338,0.2054143100976944,0.0,0.0,0.0,-1.8328675031661987,0.33763882517814636,0.6257683038711548,0.4200000464916229,0.7021034955978394,9.491205901213107e-07,-4.041220563522074e-06,-0.7120748162269592,0.00026480850647203624,-0.000268551375484094,-0.0001052801962941885,0.004289167933166027,0.0015842510620132089,-0.00016295493696816266,0.4050523042678833,0.6376762390136719,0.5734591484069824,-0.7743452787399292,0.17621594667434692,0.35658541321754456,0.3363889157772064,0.624086320400238,0.42000001668930054,-0.42499271035194397,2.1713292598724365,-1.3073524236679077,3.000000476837158,-0.17908883094787598,-0.17483723163604736,-0.16914309561252594,-0.16400744020938873,0.06678557395935059,0.072605200111866,0.07754750549793243,0.08751875907182693
0.8,0.037431713193655014,-0.059318527579307556,0.0,0.5746986269950867,0.0,0.0,-0.8183651566505432,-0.33777549862861633,-0.018841376528143883,0.0,0.0,0.0,1.6606355905532837,0.33763885498046875,0.62576824426651,0.4200000464916229,0.7021035552024841,9.595032679499127e-07,-3.971068963437574e-06,-0.7120748162269592,0.00026343815261498094,-0.00026756382430903614,-0.00010476983152329922,0.004274447914212942,0.0015720735536888242,-0.0001617045927559957,0.3908348083496094,0.6413976550102234,0.5806498527526855,-1.0071980953216553,0.2199624925851822,0.5053449273109436,0.3363889157772064,0.624086320400238,0.42000001668930054,-0.4035046398639679,0.5297442674636841,-1.2573264837265015,3.0,-0.17721404135227203,-0.17284958064556122,-0.16707229614257812,-0.16173668205738068,0.019520848989486694,0.042277298867702484,0.06152651831507683,0.08804433047771454
0.8166666666666667,0.03506167605519295,-0.060291584581136703,0.0,0.5680248141288757,0.0,0.0,-0.8230114579200745,-0.0932939425110817,-0.15070262551307678,0.0,0.0,0.0,-1.8748018741607666,0.33763885498046875,0.62576824426651,0.4200000464916229,0.7021037340164185,9.060640309144219e-07,-4.160778189543635e-06,-0.7120746374130249,0.00026263162726536393,-0.0002682493650354445,-0.00010427134111523628,0.00429123779758811,0.0015618170145899057,-0.00015917170094326138,0.37654176354408264,0.6431108713150024,0.5852330327033997,-0.671096682548523,0.01587100140750408,0.2519943416118622,0.3363889157772064,0.624086320400238,0.42000001668930054,-0.4226395785808563,-2.541820526123047,-1.207281470298767,2.9999992847442627,-0.17798686027526855,-0.17307673394680023,-0.16672442853450775,-0.16058777272701263,-0.006791827268898487,0.028151266276836395,0.06818503886461258,0.12638543546199799
0.8333333333333334,0.035829126834869385,-0.05947957560420036,0.0,0.573234498500824,0.0,0.0,-0.8193913698196411,0.09932119399309158,0.11624468863010406,0.0,0.0,0.0,1.5654582977294922,0.33763885498046875,0.62576824426651,0.4200000464916229,0.7021037936210632,9.153956739282876e-07,-4.196460849925643e-06,-0.7120745778083801,0.00026168892509303987,-0.0002669866953510791,-0.00010424782522022724,0.004266766365617514,0.0015467328485101461,-0.00015949059161357582,0.36986657977104187,0.643888533115387,0.5912671089172363,-0.18537646532058716,0.035937655717134476,0.4927828907966614,0.3363889157772064,0.624086320400238,0.42000001668930054,-0.46070221066474915,-2.038632392883301,-1.228646159172058,-3.0000009536743164,-0.17813700437545776,-0.17280951142311096,-0.1658519208431244,-0.1587003469467163,0.02880859375,0.04767071455717087,0.0803774893283844,0.1406920850276947
0.85,0.03879694268107414,-0.06246957182884216,0.0,0.5659119486808777,0.0,0.0,-0.8244656920433044,0.20194187760353088,-0.18674516677856445,0.0,0.0,0.0,-1.9145601987838745,0.33763885498046875,0.62576824426651,0.4200000464916229,0.7021035552024841,9.523794233246008e-07,-3.982371708843857e-06,-0.7120747566223145,0.00026381172938272357,-0.0002680141187738627,-0.0001049102284014225,0.0042821383103728294,0.0015743561089038849,-0.00016183139814529568,0.37152156233787537,0.6428567171096802,0.5952624082565308,0.26714006066322327,-0.2537807524204254,0.17545375227928162,0.3363889157772064,0.624086320400238,0.42000001668930054,-0.5065165758132935,-3.0000007152557373,-1.278667688369751,-2.9999992847442627,-0.17381274700164795,-0.16864341497421265,-0.16154325008392334,-0.1537093222141266,0.16217902302742004,0.19452962279319763,0.2413422018289566,0.3159891963005066
0.8666666666666667,0.044509757310152054,-0.06174513325095177,0.0,0.536186933517456,0.0,0.0,-0.8440992832183838,0.3967494070529938,0.09315496683120728,0.0,0.0,0.0,-5.0661444664001465,0.33763885498046875,0.62576824426651,0.4200000464916229,0.7021037340164185,8.994880431600905e-07,-4.172018179815495e-06,-0.7120745778083801,0.0002626276691444218,-0.0002682484919205308,-0.0001042722724378109,0.004291255958378315,0.0015617628814652562,-0.00015916577831376344,0.3812600374221802,0.6350611448287964,0.5979341268539429,0.9729876518249512,-0.5594961047172546,0.3086300194263458,0.3363889157772064,0.624086320400238,0.42000001668930054,-0.5288988351821899,0.06924597173929214,-1.328685998916626,-2.999999761581421,-0.1731639951467514,-0.16752956807613373,-0.15980218350887299,-0.15096019208431244,0.1270439326763153,0.114217609167099,0.11054668575525284,0.12934355437755585
0.8833333333333333,0.04767833650112152,-0.05883545055985451,0.0,0.5232570767402649,0.0,0.0,-0.8521748781204224,0.10710471123456955,0.20822617411613464,0.0,0.0,0.0,-0.7581237554550171,0.33763885498046875,0.62576824426651,0.4200000464916229,0.7021033763885498,8.864644200912153e-07,-3.996903615188785e-06,-0.7120749354362488,0.0002631761890370399,-0.0002686050720512867,-0.0001043898519128561,0.004297322127968073,0.0015698432689532638,-0.0001595154171809554,0.39491283893585205,0.6299811601638794,0.6044161915779114,0.6217631697654724,-0.16620126366615295,0.39779630303382874,0.3363889157772064,0.624086320400238,0.42000001668930054,-0.5079606771469116,2.236630439758301,-1.2904419898986816,3.000000476837158,-0.1682804375886917,-0.16348931193351746,-0.15652377903461456,-0.14813783764839172,0.38440030813217163,0.31097403168678284,0.2369088977575302,0.17576995491981506
