vladlanda/robotic-transformer/data/env_000_episode_0192.csv
sim_time_s,robot_box_x,robot_box_y,robot_box_z,robot_box_quat_w,robot_box_quat_x,robot_box_quat_y,robot_box_quat_z,robot_box_linvel_x,robot_box_linvel_y,robot_box_linvel_z,robot_box_angvel_x,robot_box_angvel_y,robot_box_angvel_z,cube_world_x,cube_world_y,cube_world_z,cube_quat_w,cube_quat_x,cube_quat_y,cube_quat_z,cube_linvel_x,cube_linvel_y,cube_linvel_z,cube_angvel_x,cube_angvel_y,cube_angvel_z,endpoint_world_x,endpoint_world_y,endpoint_world_z,endpoint_linvel_x,endpoint_linvel_y,endpoint_linvel_z,target_cube_world_x,target_cube_world_y,target_cube_world_z,gripper_actual_pos_rad_gp_leftgearjoint,gripper_actual_vel_rad_s_gp_leftgearjoint,gripper_actual_pos_rad_gp_rotatingjoint,gripper_actual_vel_rad_s_gp_rotatingjoint,motor_angle_rad_joint1,motor_angle_rad_joint2,motor_angle_rad_joint3,motor_angle_rad_joint4,motor_speed_rad_s_joint1,motor_speed_rad_s_joint2,motor_speed_rad_s_joint3,motor_speed_rad_s_joint4
0.0,0.0,0.0,0.0,1.0,0.0,0.0,0.0,0.0,0.0,0.0,0.0,0.0,0.0,-0.4717705249786377,0.6584248542785645,0.41999998688697815,1.0,0.0,0.0,0.0,0.0,0.0,0.0,0.0,0.0,0.0,3.42540442943573e-06,-0.005000244826078415,1.313499927520752,0.0,0.0,0.0,0.3559797704219818,0.7320367693901062,0.42000001668930054,-1.5707999467849731,0.0,0.0,0.0,0.0,0.0,0.0,0.0,0.0,0.0,0.0,0.0
0.016666666666666666,0.0028778850100934505,0.0021806680597364902,0.0,0.9998081922531128,0.0,0.0,0.019586581736803055,0.24087215960025787,0.18240931630134583,0.0,0.0,0.0,3.1418697834014893,-0.47177064418792725,0.6584245562553406,0.41999998688697815,1.0,3.2799832752061775e-06,-8.339598593920527e-07,8.465660528145236e-08,-1.9833856640616432e-05,0.00017983021098189056,-6.132945418357849e-05,0.0009432561928406358,-0.004689492750912905,-0.0003198107879143208,-0.007110234349966049,0.003379564033821225,1.3159373998641968,-0.8143353462219238,0.9868683815002441,0.18095196783542633,0.3559797704219818,0.7320367693901062,0.42000001668930054,-1.5301095247268677,3.0000011920928955,-0.04584788903594017,-2.9999992847442627,0.0008691533003002405,0.0007963840034790337,0.0007110277656465769,0.0006108740926720202,0.11094217747449875,0.09756709635257721,0.08334315568208694,0.06823883205652237
0.03333333333333333,0.008963517844676971,0.006816694512963295,0.0,0.9997934699058533,0.0,0.0,0.020324010401964188,0.40720874071121216,0.31542712450027466,0.0,0.0,0.0,-0.8733996152877808,-0.4717707633972168,0.6584244966506958,0.4200000464916229,1.0,3.3908236218849197e-06,-2.1324740373529494e-06,-3.7087911408661967e-08,0.0002635786950122565,0.00026937879738397896,-0.00010509719140827656,-0.0017707741353660822,0.004130927845835686,-0.00013548358401749283,-0.02754426747560501,0.025742333382368088,1.3166661262512207,-1.5911331176757812,1.5999548435211182,-0.07672940194606781,0.3559797704219818,0.7320367693901062,0.42000001668930054,-1.4800904989242554,3.0000016689300537,-0.0958876982331276,-3.000000476837158,0.0029905224218964577,0.002653236500918865,0.002277901628986001,0.001861442462541163,0.1642894744873047,0.1398342251777649,0.11389362066984177,0.08637560904026031
0.05,0.01776319555938244,0.013789890334010124,0.0,0.9993711709976196,0.0,0.0,0.0354570671916008,0.5940370559692383,0.46527719497680664,0.0,0.0,0.0,2.644089937210083,-0.4717707931995392,0.6584245562553406,0.4200000464916229,1.0,3.7651166167051997e-06,-2.2119024833955336e-06,5.637348365894468e-09,0.0002653102274052799,0.00026691530365496874,-0.0001044049859046936,-0.0017243424663320184,0.004177475813776255,-0.00012949523807037622,-0.059681035578250885,0.05329470336437225,1.3118221759796143,-2.1879405975341797,1.7406615018844604,-0.46601295471191406,0.3559797704219818,0.7320367693901062,0.42000001668930054,-1.4300721883773804,3.0000007152557373,-0.1459263563156128,-2.999999761581421,0.0057138120755553246,0.0049217031337320805,0.004057438112795353,0.0031165797263383865,0.19285249710083008,0.1559537649154663,0.11717906594276428,0.07643534243106842
0.06666666666666667,0.029082076624035835,0.023086365312337875,0.0,0.999444842338562,0.0,0.0,0.033317532390356064,0.7205963134765625,0.5953585505485535,0.0,0.0,0.0,-1.215027928352356,-0.4717707931995392,0.6584244966506958,0.4200000464916229,0.9999999403953552,3.4067338674503844e-06,-2.2856738723930903e-06,4.301002434203838e-07,0.0002670263347681612,0.0002679180761333555,-0.00010437914170324802,-0.001740648876875639,0.004211838357150555,-0.00012851078645326197,-0.09855803847312927,0.08671689033508301,1.2994029521942139,-2.4777567386627197,2.1602368354797363,-0.9950737953186035,0.3559797704219818,0.7320367693901062,0.42000001668930054,-1.3800538778305054,3.0000011920928955,-0.19596369564533234,-2.999999761581421,0.008366735652089119,0.006904785521328449,0.005331892054527998,0.0036417862866073847,0.1582532674074173,0.10875542461872101,0.05722643435001373,0.00358932395465672
0.08333333333333333,0.04261472076177597,0.034750234335660934,0.0,0.9989208579063416,0.0,0.0,0.04644463211297989,0.8720830082893372,0.7427161931991577,0.0,0.0,0.0,2.5305380821228027,-0.4717707931995392,0.6584244966506958,0.4200000464916229,1.0,3.6972542147850618e-06,-2.189012548114988e-06,-2.632233417898533e-07,0.0002638970036059618,0.00026586418971419334,-0.00010433932766318321,-0.0017081733094528317,0.004150197375565767,-0.0001299117284361273,-0.14385473728179932,0.12066163122653961,1.2786965370178223,-2.860778570175171,1.9959888458251953,-1.4563162326812744,0.3559797704219818,0.7320367693901062,0.42000001668930054,-1.3300355672836304,3.0000014305114746,-0.24597080051898956,-3.0,0.010084551759064198,0.007810982409864664,0.00538743007928133,0.0028061403427273035,0.09535392373800278,0.04046552628278732,-0.016412492841482162,-0.07528644800186157
0.1,0.05041411891579628,0.04953889548778534,0.0,0.9990560412406921,0.0,0.0,0.043440163135528564,0.3363144099712372,0.9434102773666382,0.0,0.0,0.0,-1.3081783056259155,-0.4717707931995392,0.6584244966506958,0.4200000464916229,0.9999999403953552,3.620308916651993e-06,-2.2652425286651123e-06,1.7463578672050062e-07,0.00026676832931116223,0.0002674081770237535,-0.0001040799543261528,-0.0017385705141350627,0.004209125880151987,-0.0001277521369047463,-0.1878218948841095,0.15972813963890076,1.250136375427246,-2.4813809394836426,2.515367031097412,-1.8706179857254028,0.3559797704219818,0.7320367693901062,0.42000001668930054,-1.2800053358078003,2.999994993209839,-0.21194148063659668,3.000000476837158,0.005590035114437342,0.002639348851516843,-0.0005096347886137664,-0.0038678746204823256,-0.3870900273323059,-0.43690916895866394,-0.489092081785202,-0.5438529253005981
0.11666666666666667,0.054464247077703476,0.06505175679922104,0.0,0.9999261498451233,0.0,0.0,0.01215444691479206,0.256777822971344,0.9216986894607544,0.0,0.0,0.0,-4.5064311027526855,-0.4717707931995392,0.6584244966506958,0.4200000464916229,1.0,3.798331817961298e-06,-2.2628737497143447e-06,-1.5019459453924355e-07,0.0002637395809870213,0.00026566043379716575,-0.00010428996756672859,-0.0017054103082045913,0.0041475603356957436,-0.0001298010174650699,-0.22819116711616516,0.20275868475437164,1.2215080261230469,-2.4314708709716797,2.534179210662842,-1.6416447162628174,0.3559797704219818,0.7320367693901062,0.42000001668930054,-1.2300132513046265,3.000000476837158,-0.24333181977272034,-2.999999761581421,0.0003157822648063302,-0.003951078746467829,-0.00841512717306614,-0.013088981620967388,-0.22602200508117676,-0.32609835267066956,-0.4242793619632721,-0.5205631256103516
0.13333333333333333,0.057280369102954865,0.08021116256713867,0.0,0.9999983906745911,0.0,0.0,0.0017875542398542166,0.11768007278442383,0.8829500675201416,0.0,0.0,0.0,-0.20402105152606964,-0.4717707931995392,0.6584245562553406,0.4200000464916229,0.9999999403953552,3.5504490369930863e-06,-2.2298452222457854e-06,2.929317872713e-07,0.0002670326502993703,0.00026779386098496616,-0.00010417005978524685,-0.0017441416857764125,0.004213591571897268,-0.00012799994146917015,-0.27146467566490173,0.24371230602264404,1.1925208568572998,-2.536703586578369,2.6171746253967285,-1.82661771774292,0.3559797704219818,0.7320367693901062,0.42000001668930054,-1.1799901723861694,2.9999992847442627,-0.2363661527633667,3.0000007152557373,-0.002186742378398776,-0.00845557451248169,-0.01485263928771019,-0.021388674154877663,-0.1569562703371048,-0.2819965183734894,-0.4020865559577942,-0.5170695781707764
0.15,0.06496956944465637,0.09172949939966202,0.0,0.9997335076332092,0.0,0.0,-0.02308361418545246,0.6747101545333862,0.6075617671012878,0.0,0.0,0.0,-3.954476833343506,-0.4717707931995392,0.6584244966506958,0.4200000464916229,0.9999999403953552,3.338018132126308e-06,-2.242906248284271e-06,-2.799748166637528e-08,0.0002667450753506273,0.00026758169406093657,-0.00010427739471197128,-0.0017367200925946236,0.004206815734505653,-0.0001283115561818704,-0.3114296793937683,0.2919161915779114,1.1610878705978394,-2.2870421409606934,3.100729465484619,-1.9963200092315674,0.3559797704219818,0.7320367693901062,0.42000001668930054,-1.1300044059753418,3.0000016689300537,-0.2675723433494568,-3.0000007152557373,-0.0019012046977877617,-0.010573141276836395,-0.019267452880740166,-0.02799147367477417,0.05990775302052498,-0.08203379064798355,-0.2175903618335724,-0.3465590476989746
0.16666666666666666,0.07201815396547318,0.10011182725429535,0.0,0.9971050024032593,0.0,0.0,-0.07603710144758224,0.23707441985607147,0.4961533546447754,0.0,0.0,0.0,-7.103911876678467,-0.4717707931995392,0.6584245562553406,0.4200000464916229,0.9999999403953552,3.6477504181675613e-06,-2.3073262127581984e-06,3.529927994350146e-08,0.0002672697592061013,0.00026801438070833683,-0.00010418915189802647,-0.0017472587060183287,0.004217675421386957,-0.0001279834541492164,-0.3468586802482605,0.35103243589401245,1.121298909187317,-1.8986748456954956,3.8738198280334473,-2.7223424911499023,0.3559797704219818,0.7320367693901062,0.42000001668930054,-1.089690923690796,1.896133542060852,-0.23342573642730713,3.000000238418579,-0.006109703332185745,-0.016502559185028076,-0.02683211676776409,-0.037107065320014954,-0.5762232542037964,-0.6314917206764221,-0.6838163733482361,-0.7335048913955688
0.18333333333333332,0.07173831015825272,0.11191759258508682,0.0,0.9939378499984741,0.0,0.0,-0.10994325578212738,0.035515449941158295,0.6116646528244019,0.0,0.0,0.0,-2.67032527923584,-0.4717707931995392,0.6584244966506958,0.4200000464916229,0.9999999403953552,3.290481799922418e-06,-2.1939410999038955e-06,-2.792170334942057e-07,0.0002667806693352759,0.000267760653514415,-0.0001043418888002634,-0.0017390813445672393,0.004206993617117405,-0.00012845630408264697,-0.38115185499191284,0.4095780849456787,1.067327618598938,-2.031282424926758,3.613065719604492,-3.527188301086426,0.3559797704219818,0.7320367693901062,0.42000001668930054,-1.0451412200927734,3.000001907348633,-0.26461926102638245,-3.0000009536743164,-0.019715357571840286,-0.03040507063269615,-0.04098939895629883,-0.05148450285196304,-0.5862302184104919,-0.6414889097213745,-0.6908066868782043,-0.734253466129303
0.2,0.06986219435930252,0.1239275187253952,0.0,0.9883469343185425,0.0,0.0,-0.15221811830997467,-0.17644910514354706,0.7632759809494019,0.0,0.0,0.0,-5.969761848449707,-0.4717707931995392,0.6584244966506958,0.4200000464916229,1.0,3.2807049592520343e-06,-2.2192427877598675e-06,1.5948727138948016e-07,0.00026627813349477947,0.0002674008428584784,-0.00010425341315567493,-0.001735740341246128,0.0041978247463703156,-0.00012865380267612636,-0.41531750559806824,0.4704132378101349,1.0010292530059814,-1.8339378833770752,3.7351884841918945,-4.362795829772949,0.3559797704219818,0.7320367693901062,0.42000001668930054,-0.9951474070549011,2.995776414871216,-0.3146471083164215,-2.999999523162842,-0.03227816894650459,-0.04343826323747635,-0.054401446133852005,-0.065187968313694,-0.8540946841239929,-0.8559596538543701,-0.8534325361251831,-0.8468661308288574
0.21666666666666667,0.0731746032834053,0.1332707405090332,0.0,0.9841609597206116,0.0,0.0,-0.17727714776992798,0.3342391550540924,0.4090031683444977,0.0,0.0,0.0,-2.076019048690796,-0.4717707931995392,0.6584245562553406,0.4200000464916229,1.0,3.613112085076864e-06,-2.270147660965449e-06,2.2102811669810762e-07,0.00026712531689554453,0.00026781708584167063,-0.00010414118878543377,-0.0017444660188630223,0.004215197172015905,-0.00012786770821548998,-0.4474670886993408,0.525118350982666,0.9232496023178101,-1.6821683645248413,3.148179769515991,-4.968009948730469,0.3559797704219818,0.7320367693901062,0.42000001668930054,-0.9451424479484558,2.9999990463256836,-0.3646763861179352,-3.000000476837158,-0.043575506657361984,-0.05448983609676361,-0.06516150385141373,-0.0756211131811142,-0.6383879780769348,-0.6054959297180176,-0.5714638829231262,-0.5369786024093628
0.23333333333333334,0.07264313101768494,0.14456087350845337,0.0,0.9766477942466736,0.0,0.0,-0.21484671533107758,-0.10136152058839798,0.6606993675231934,0.0,0.0,0.0,-5.249447822570801,-0.4717707931995392,0.6584244966506958,0.4200000464916229,1.0,3.3818200790847186e-06,-2.2909732706466457e-06,2.7281285497338104e-07,0.0002669145178515464,0.000267800351139158,-0.00010433257557451725,-0.0017395960167050362,0.004209770355373621,-0.00012843783770222217,-0.4710230827331543,0.5753207206726074,0.8347023725509644,-1.135164499282837,2.935915470123291,-5.408834934234619,0.3559797704219818,0.7320367693901062,0.42000001668930054,-0.8951317667961121,2.9999828338623047,-0.41470715403556824,-2.999995231628418,-0.059028830379247665,-0.06997886300086975,-0.08067622780799866,-0.09112943708896637,-0.8789854049682617,-0.8964226841926575,-0.9156442880630493,-0.9341898560523987
0.25,0.07431407272815704,0.1514507383108139,0.0,0.9730959534645081,0.0,0.0,-0.23040015995502472,0.1831180602312088,0.31556543707847595,0.0,0.0,0.0,-0.8525179028511047,-0.4717707633972168,0.6584244966506958,0.4200000464916229,0.9999999403953552,3.7065428841742687e-06,-2.2230481135920854e-06,-2.255024185160437e-07,0.000264246977167204,0.0002665663487277925,-0.00010457751341164112,-0.0017169496277347207,0.0041555920615792274,-0.0001306297053815797,-0.49006396532058716,0.6134237051010132,0.7409160137176514,-0.8556568622589111,1.922074556350708,-5.835241317749023,0.3559797704219818,0.7320367693901062,0.42000001668930054,-0.8451212048530579,3.0,-0.46473878622055054,-3.000002384185791,-0.0754462257027626,-0.08630027621984482,-0.09685689955949783,-0.10701164603233337,-0.9912974238395691,-0.9924712181091309,-0.9780022501945496,-0.9578484892845154
0.26666666666666666,0.07202611863613129,0.15481755137443542,0.0,0.9659751653671265,0.0,0.0,-0.2586347758769989,-0.24774233996868134,0.15137380361557007,0.0,0.0,0.0,-4.382328510284424,-0.4717707931995392,0.6584244966506958,0.4200000464916229,0.9999999403953552,3.719666437973501e-06,-2.403525968475151e-06,-1.8307196114619728e-07,0.00026623360463418067,0.00026729219825938344,-0.00010425853542983532,-0.0017326456727460027,0.004196504596620798,-0.00012850768689531833,-0.4972881078720093,0.6353045701980591,0.6411696076393127,0.052334003150463104,0.8351467847824097,-5.9523210525512695,0.3559797704219818,0.7320367693901062,0.42000001668930054,-0.795112133026123,3.000002145767212,-0.5147700309753418,-3.0000009536743164,-0.09346996992826462,-0.10396634787321091,-0.11425233632326126,-0.12419573217630386,-1.00226891040802,-1.0016989707946777,-1.0012658834457397,-1.0009244680404663
0.2833333333333333,0.06726040691137314,0.15521599352359772,0.0,0.9635063409805298,0.0,0.0,-0.2676856219768524,-0.2936011850833893,-0.024776438251137733,0.0,0.0,0.0,-0.11959443986415863,-0.4717707931995392,0.6584245562553406,0.4200000464916229,0.9999999403953552,3.584083515306702e-06,-2.3155100734584266e-06,7.405373736446563e-08,0.0002652202092576772,0.00026455355691723526,-0.00010317121632397175,-0.001702261040918529,0.004185176454484463,-0.0001249932829523459,-0.4955556392669678,0.6468499302864075,0.5489847660064697,0.26412928104400635,0.6552072167396545,-5.250200271606445,0.3559797704219818,0.7320367693901062,0.42000001668930054,-0.7451033592224121,3.0000011920928955,-0.5647997856140137,-3.000002384185791,-0.10911247134208679,-0.11981900781393051,-0.13034726679325104,-0.14051848649978638,-0.9947237968444824,-1.0010662078857422,-1.0007725954055786,-1.0005515813827515
0.3,0.06026319041848183,0.15300822257995605,0.0,0.9573956727981567,0.0,0.0,-0.2887793481349945,-0.47159937024116516,-0.17823593318462372,0.0,0.0,0.0,-3.4916603565216064,-0.4717707931995392,0.6584244966506958,0.4200000464916229,1.0,3.7243050883262185e-06,-2.2719725620845566e-06,9.636089259856817e-08,0.0002631232200656086,0.0002652576076798141,-0.00010438100434839725,-0.0016960796201601624,0.004134746268391609,-0.00013027872773818672,-0.4860145151615143,0.6563931107521057,0.459896981716156,0.9318501949310303,0.4456050992012024,-5.257998466491699,0.3559797704219818,0.7320367693901062,0.42000001668930054,-0.6950955986976624,3.0000007152557373,-0.614827573299408,-2.999999761581421,-0.12646432220935822,-0.1370019018650055,-0.1474008858203888,-0.15746909379959106,-1.0038634538650513,-1.0029211044311523,-1.002202033996582,-1.0016249418258667
0.31666666666666665,0.05087338387966156,0.14840349555015564,0.0,0.9563338756561279,0.0,0.0,-0.29227641224861145,-0.5970163941383362,-0.3170531392097473,0.0,0.0,0.0,0.5093905925750732,-0.4717707931995392,0.6584244966506958,0.4200000464916229,1.0,3.6662634101958247e-06,-2.392624537606025e-06,1.6800159130525572e-07,0.0002660219615790993,0.0002670693211257458,-0.00010418472811579704,-0.0017311072442680597,0.004193564876914024,-0.00012849668564740568,-0.47801077365875244,0.661065936088562,0.42658132314682007,0.04408184438943863,-0.0486580915749073,-0.13662070035934448,0.3559797704219818,0.7320367693901062,0.42000001668930054,-0.6451473236083984,2.9975273609161377,-0.6652905344963074,-2.9681458473205566,-0.13537120819091797,-0.14639881253242493,-0.15705114603042603,-0.1670771688222885,-0.2264235019683838,-0.25290578603744507,-0.2555052936077118,-0.22904124855995178
0.3333333333333333,0.039157066494226456,0.14150039851665497,0.0,0.9509683847427368,0.0,0.0,-0.3092881441116333,-0.7536013126373291,-0.456371009349823,0.0,0.0,0.0,-3.0379817485809326,-0.47170892357826233,0.6588491797447205,0.4200003743171692,0.9999775290489197,-1.6397987565142103e-05,1.077703564078547e-05,-0.0066995457746088505,0.030183354392647743,0.09100216627120972,-0.000443851575255394,0.023805689066648483,-0.0019009626703336835,-2.372164726257324,-0.4788195490837097,0.6627455949783325,0.42425745725631714,0.06891617923974991,0.09327429533004761,-0.18827833235263824,0.3559797704219818,0.7320367693901062,0.42000001668930054,-0.5951414704322815,2.9999771118164062,-0.7153413891792297,-2.999992609024048,-0.14026588201522827,-0.15119722485542297,-0.1613750010728836,-0.1704886555671692,-0.35701265931129456,-0.31797081232070923,-0.25981348752975464,-0.180477112531662
0.35,0.026656948029994965,0.13235017657279968,0.0,0.9506891965866089,0.0,0.0,-0.3101452887058258,-0.790357768535614,-0.5844215154647827,0.0,0.0,0.0,0.8428728580474854,-0.46966925263404846,0.662907063961029,0.4200000762939453,0.9982063174247742,-1.970075572899077e-06,5.635496563627385e-06,-0.05986637622117996,0.21503308415412903,0.4065355956554413,-0.00016899565525818616,0.006059118080884218,-0.0031611903104931116,-11.844987869262695,-0.47630906105041504,0.6678823232650757,0.42159414291381836,0.21283361315727234,0.48620349168777466,-0.12163998186588287,0.3559797704219818,0.7320367693901062,0.42000001668930054,-0.5451365113258362,2.9999892711639404,-0.7653792500495911,-2.999901294708252,-0.14800584316253662,-0.15747779607772827,-0.1659102886915207,-0.17298756539821625,-0.4976670444011688,-0.3865049481391907,-0.25937655568122864,-0.11697549372911453
0.36666666666666664,0.016909070312976837,0.12069206684827805,0.0,0.94603031873703,0.0,0.0,-0.32407814264297485,-0.5033846497535706,-0.7462515234947205,0.0,0.0,0.0,-2.6070425510406494,-0.46556520462036133,0.6701849102973938,0.42000436782836914,0.9933069944381714,7.542766979895532e-05,0.00014163696323521435,-0.11550387740135193,0.3490402400493622,0.5571541786193848,-0.001757290679961443,0.05740050598978996,-0.20408864319324493,-2.565911054611206,-0.4708985388278961,0.6745600700378418,0.41993916034698486,0.46114879846572876,0.4636918604373932,-0.0779154822230339,0.3559797704219818,0.7320367693901062,0.42000001668930054,-0.49513179063796997,2.9999961853027344,-0.8154345154762268,-2.9999840259552,-0.15784291923046112,-0.16470667719841003,-0.1702328324317932,-0.17414730787277222,-0.5791825652122498,-0.40034374594688416,-0.20377229154109955,0.0069796242751181126
0.3833333333333333,0.005331558175384998,0.10700677335262299,0.0,0.9310282468795776,0.0,0.0,-0.3649470806121826,-0.7220553159713745,-0.8688270449638367,0.0,0.0,0.0,-6.103618621826172,-0.45631155371665955,0.6843453049659729,0.4208793342113495,0.9894500374794006,-0.014497488737106323,-0.005819374229758978,-0.14402934908866882,0.793340802192688,1.2297625541687012,0.14514176547527313,-1.7612128257751465,-3.1217665672302246,-4.842806816101074,-0.4613438844680786,0.686825156211853,0.42127490043640137,0.7456453442573547,1.13262140750885,0.11902095377445221,0.3559797704219818,0.7320367693901062,0.42000001668930054,-0.4450671970844269,3.0000150203704834,-0.8654376864433289,-2.9999966621398926,-0.16789861023426056,-0.17174014449119568,-0.1738981008529663,-0.1741681843996048,-0.4713178873062134,-0.3156863749027252,-0.13720916211605072,0.06017102301120758
0.4,-0.0034049274399876595,0.09044327586889267,0.0,0.9035716652870178,0.0,0.0,-0.4284369647502899,-0.4600738286972046,-1.0386183261871338,0.0,0.0,0.0,-9.007960319519043,-0.4306582510471344,0.7128693461418152,0.42488616704940796,0.981878399848938,0.019662803038954735,-0.04053709656000137,-0.18407845497131348,2.4707040786743164,2.260308027267456,0.36333146691322327,18.190317153930664,-8.826447486877441,-0.3802463114261627,-0.43563681840896606,0.7156587839126587,0.42489421367645264,2.354769229888916,2.340850830078125,0.4840156137943268,0.3559797704219818,0.7320367693901062,0.42000001668930054,-0.39800742268562317,2.1309046745300293,-0.8398640751838684,2.9978857040405273,-0.17732682824134827,-0.17782051861286163,-0.17628304660320282,-0.1726086288690567,-0.618462085723877,-0.3836895227432251,-0.1314646303653717,0.13094863295555115
0.4166666666666667,-0.00958292931318283,0.07845830917358398,0.0,0.8603218197822571,0.0,0.0,-0.5097512602806091,-0.2840954661369324,-0.7090724110603333,0.0,0.0,0.0,-11.708370208740234,-0.3659589886665344,0.760684609413147,0.4320226311683655,0.9614856243133545,0.09034418314695358,-0.08025221526622772,-0.2468658685684204,5.407806873321533,2.8654377460479736,0.5032213926315308,9.845362663269043,-10.622770309448242,26.017770767211914,-0.3706214427947998,0.763756513595581,0.43209752440452576,4.943763732910156,3.5470101833343506,0.5259934067726135,0.3559797704219818,0.7320367693901062,0.42000001668930054,-0.3772244155406952,0.9329227805137634,-0.7898270487785339,2.997539758682251,-0.19227029383182526,-0.18965348601341248,-0.1827462613582611,-0.17388571798801422,-0.6429152488708496,-0.6381477117538452,-0.365750253200531,-0.1093873605132103
0.43333333333333335,-0.011663340963423252,0.06926298141479492,0.0,0.8235810995101929,0.0,0.0,-0.5671985149383545,-0.06886807829141617,-0.490376740694046,0.0,0.0,0.0,-6.886781692504883,-0.28236982226371765,0.8149489164352417,0.44215667247772217,0.9300051927566528,0.12744170427322388,-0.10843178629875183,-0.32724809646606445,5.617271423339844,2.5014679431915283,0.6638902425765991,8.900785446166992,-12.935733795166016,12.353267669677734,-0.28626492619514465,0.8197476863861084,0.4419240355491638,5.322004318237305,3.0636696815490723,0.6620651483535767,0.3559797704219818,0.7320367693901062,0.42000001668930054,-0.36181434988975525,0.9422252178192139,-0.8169965744018555,-3.0000011920928955,-0.20348599553108215,-0.200193852186203,-0.18924035131931305,-0.17672419548034668,-0.6633338332176208,-0.5935570001602173,-0.3712487816810608,-0.17693065106868744
0.45,-0.017262857407331467,0.06547003984451294,0.0,0.8050678372383118,0.0,0.0,-0.5931828022003174,-0.2771407961845398,-0.1886366754770279,0.0,0.0,0.0,-2.2853150367736816,-0.18920445442199707,0.8551031947135925,0.45473501086235046,0.8668434619903564,0.14957784116268158,-0.11953117698431015,-0.460348904132843,5.919103622436523,1.1430938243865967,0.6486218571662903,-17.7366943359375,-3.6998672485351562,7.084273338317871,-0.19410115480422974,0.8606942892074585,0.45303791761398315,5.914066314697266,2.098008871078491,0.8211312294006348,0.3559797704219818,0.7320367693901062,0.42000001668930054,-0.34496259689331055,0.9234739542007446,-0.8670206069946289,-3.0000009536743164,-0.21831119060516357,-0.21307742595672607,-0.19753460586071014,-0.18097607791423798,-0.716758131980896,-0.6671422719955444,-0.4225703775882721,-0.20268388092517853
0.4666666666666667,-0.01737360469996929,0.055927980691194534,0.0,0.7794385552406311,0.0,0.0,-0.6264786720275879,-0.049608636647462845,-0.5975475907325745,0.0,0.0,0.0,-5.721621513366699,-0.09006927907466888,0.876855731010437,0.46369096636772156,0.8013678193092346,0.13707144558429718,-0.11333908885717392,-0.5711174607276917,6.1759934425354,0.4333253800868988,0.4748271107673645,3.095482349395752,-21.43998146057129,-1.6646040678024292,-0.09524966031312943,0.8850224018096924,0.46179434657096863,5.969681739807129,0.6561488509178162,0.5187641382217407,0.3559797704219818,0.7320367693901062,0.42000001668930054,-0.33172178268432617,0.6059848070144653,-0.9170446395874023,-3.0000033378601074,-0.22480520606040955,-0.2184920459985733,-0.19939976930618286,-0.17956051230430603,-0.529388964176178,-0.3709355294704437,-0.11163110285997391,0.129828542470932
0.48333333333333334,-0.02104230783879757,0.05174262449145317,0.0,0.7652318477630615,0.0,0.0,-0.6437547206878662,-0.2063497006893158,-0.21350452303886414,0.0,0.0,0.0,-1.2867352962493896,0.007731501013040543,0.880081295967102,0.4713015556335449,0.7511324882507324,0.1169411689043045,-0.11205398291349411,-0.6399754881858826,5.643517971038818,-0.9968410730361938,0.3024928569793701,-12.620976448059082,-13.56134033203125,23.31474494934082,0.004882844164967537,0.8888773322105408,0.470092236995697,6.154421806335449,-0.07716183364391327,0.553945779800415,0.3559797704219818,0.7320367693901062,0.42000001668930054,-0.3206864595413208,0.46524831652641296,-0.9670687913894653,-3.000002384185791,-0.23753392696380615,-0.22753216326236725,-0.20401711761951447,-0.18026664853096008,-0.5819041132926941,-0.40492844581604004,-0.21941666305065155,-0.06027287617325783
0.5,-0.021609371528029442,0.044043004512786865,0.0,0.7447977662086487,0.0,0.0,-0.6672902703285217,0.019537072628736496,-0.4730337858200073,0.0,0.0,0.0,-4.454996585845947,0.10081624239683151,0.8683826923370361,0.4738588035106659,0.669630229473114,0.07372671365737915,-0.1413639634847641,-0.7253797650337219,5.053246974945068,-1.7422350645065308,-0.160194531083107,-27.80191421508789,6.464113235473633,-7.029377460479736,0.09720928221940994,0.8792674541473389,0.47501009702682495,5.196844100952148,-1.1502467393875122,0.2679590880870819,0.3559797704219818,0.7320367693901062,0.42000001668930054,-0.31351742148399353,0.34887272119522095,-1.017092227935791,-2.9999804496765137,-0.24003192782402039,-0.23230570554733276,-0.20603112876415253,-0.17989201843738556,-0.028243249282240868,-0.323772132396698,-0.14578020572662354,0.009517190977931023
0.5166666666666666,-0.019464612007141113,0.040999434888362885,0.0,0.7368896007537842,0.0,0.0,-0.6760131120681763,0.13858647644519806,-0.14875079691410065,0.0,0.0,0.0,-0.3765295147895813,0.17984190583229065,0.8412102460861206,0.47157928347587585,0.5836264491081238,0.013397673144936562,-0.15522697567939758,-0.7969349026679993,4.341884613037109,-1.9783064126968384,-0.5138434767723083,-17.067235946655273,10.604206085205078,-16.30586814880371,0.17591217160224915,0.8539471626281738,0.4748666286468506,4.334539413452148,-1.7584328651428223,-0.10856848955154419,0.3559797704219818,0.7320367693901062,0.42000001668930054,-0.3047296106815338,0.6821504235267639,-1.0671143531799316,-2.9994704723358154,-0.23993170261383057,-0.2387949824333191,-0.20980863273143768,-0.18143217265605927,0.01551812794059515,-0.15220396220684052,-0.07203519344329834,-0.014151415787637234
0.5333333333333333,-0.01450233906507492,0.034984055906534195,0.0,0.7205109596252441,0.0,0.0,-0.6934435367584229,0.34720712900161743,-0.43560585379600525,0.0,0.0,0.0,-3.585789918899536,0.24508482217788696,0.8127004504203796,0.4619852900505066,0.536431610584259,-0.023318203166127205,-0.13222959637641907,-0.8331941962242126,3.526278257369995,-2.4202194213867188,-0.5587895512580872,-15.330726623535156,0.8026533722877502,9.56803035736084,0.24289456009864807,0.8259379267692566,0.4664040505886078,3.567737102508545,-1.7974752187728882,-0.7272956371307373,0.3559797704219818,0.7320367693901062,0.42000001668930054,-0.2905215620994568,0.6593882441520691,-1.1171364784240723,-3.0000014305114746,-0.23634204268455505,-0.23764973878860474,-0.20870134234428406,-0.1806352287530899,0.1998528093099594,0.11255139112472534,0.07649461925029755,0.02382640913128853
0.55,-0.01152796484529972,0.03162054717540741,0.0,0.7173072695732117,0.0,0.0,-0.6967569589614868,0.10283153504133224,-0.12322402000427246,0.0,0.0,0.0,0.3201597332954407,0.29655101895332336,0.7793827056884766,0.44806692004203796,0.499407023191452,-0.059920601546764374,-0.11495187133550644,-0.8566144108772278,2.5494208335876465,-2.3246634006500244,-0.8298985362052917,-0.7244532704353333,7.499432563781738,-1.1969290971755981,0.2950853407382965,0.7919169068336487,0.4527323246002197,2.675142526626587,-2.0990374088287354,-0.9173706769943237,0.3559797704219818,0.7320367693901062,0.42000001668930054,-0.2808525562286377,0.5007086992263794,-1.167158603668213,-2.9990713596343994,-0.23397713899612427,-0.2359921634197235,-0.20819441974163055,-0.18151117861270905,0.2141062170267105,0.18075348436832428,0.05747295916080475,-0.07437342405319214
0.5666666666666667,-0.008040924556553364,0.03178427740931511,0.0,0.7051836252212524,0.0,0.0,-0.7090246677398682,0.2579081356525421,0.08122171461582184,0.0,0.0,0.0,-2.935467481613159,0.33596527576446533,0.7493258714675903,0.4273826479911804,0.47322967648506165,-0.09879475831985474,-0.102688267827034,-0.8693379163742065,1.9639781713485718,-1.9206475019454956,-1.2781203985214233,-1.6411678791046143,6.77967643737793,1.4416576623916626,0.33519482612609863,0.7614812254905701,0.4322962760925293,2.0878703594207764,-1.6847069263458252,-1.3942967653274536,0.3559797704219818,0.7320367693901062,0.42000001668930054,-0.27129000425338745,0.6125742197036743,-1.2171807289123535,-2.999570608139038,-0.2278771996498108,-0.23113949596881866,-0.20681339502334595,-0.1835164874792099,0.450168639421463,0.3645738363265991,0.1051628515124321,-0.14296235144138336
0.5833333333333334,-0.0009619031916372478,0.026978561654686928,0.0,0.7049080729484558,0.0,0.0,-0.7092986702919006,0.3814053237438202,-0.2581848204135895,0.0,0.0,0.0,0.8648907542228699,0.36056309938430786,0.7334344983100891,0.4221022427082062,0.4319204092025757,-0.01848331093788147,-0.031462833285331726,-0.9011732339859009,1.078616738319397,-0.717997133731842,0.020589208230376244,1.4223809242248535,-8.597761154174805,-12.089363098144531,0.3571186363697052,0.7438827157020569,0.42726361751556396,0.7452268600463867,-0.6702165603637695,0.11401699483394623,0.3559797704219818,0.7320367693901062,0.42000001668930054,-0.2565385699272156,1.3045004606246948,-1.2671250104904175,-2.9999873638153076,-0.21497108042240143,-0.21916857361793518,-0.20045965909957886,-0.1823541671037674,0.609438419342041,0.6758701205253601,0.3457087278366089,0.04018441587686539
0.6,0.006937097758054733,0.026980534195899963,0.0,0.6944586634635925,0.0,0.0,-0.7195326089859009,0.5381938815116882,0.009980104863643646,0.0,0.0,0.0,-2.5603933334350586,0.3717142343521118,0.7297056317329407,0.4203486144542694,0.5045574307441711,-0.007142176851630211,-0.004793358035385609,-0.8633351922035217,0.5042803287506104,-0.4138827919960022,0.020815428346395493,-1.6337907314300537,0.3751301169395447,5.109518051147461,0.36831241846084595,0.7365036010742188,0.4261228144168854,0.5215933322906494,-0.2451200783252716,-0.0925314649939537,0.3559797704219818,0.7320367693901062,0.42000001668930054,-0.26323410868644714,-1.4621849060058594,-1.229003667831421,3.000540256500244,-0.20522813498973846,-0.20883417129516602,-0.19580933451652527,-0.1829138696193695,0.6908984780311584,0.6824488639831543,0.32021692395210266,-0.009008679538965225
0.6166666666666667,0.012815671041607857,0.029156703501939774,0.0,0.6964251399040222,0.0,0.0,-0.7176294326782227,0.2820511758327484,0.18276342749595642,0.0,0.0,0.0,1.1997321844100952,0.3777039349079132,0.7241158485412598,0.4200153946876526,0.5206851959228516,0.00021541905880440027,-0.0005587241030298173,-0.8537485003471375,0.14524970948696136,-0.28448760509490967,-0.0018018247792497277,0.00778531190007925,0.09896276891231537,1.5725438594818115,0.37208813428878784,0.731216311454773,0.42736387252807617,0.0459006205201149,-0.26671910285949707,0.14670367538928986,0.3559797704219818,0.7320367693901062,0.42000001668930054,-0.30990397930145264,-2.999993324279785,-1.2496838569641113,-2.9987995624542236,-0.19487062096595764,-0.19856268167495728,-0.19106854498386383,-0.1831520050764084,0.5945877432823181,0.5889391303062439,0.2806665599346161,0.003169731702655554
0.6333333333333333,0.01916511170566082,0.027146564796566963,0.0,0.6877771615982056,0.0,0.0,-0.7259218692779541,0.3991670608520508,-0.13470298051834106,0.0,0.0,0.0,-2.178980588912964,0.3780066668987274,0.7225779294967651,0.41999995708465576,0.5453807711601257,-6.393453077180311e-06,-2.2358737624017522e-05,-0.8381884098052979,-0.051193539053201675,-0.002300043124705553,-0.0004486460820771754,0.058900803327560425,0.003827454522252083,3.728156805038452,0.37345415353775024,0.7331787943840027,0.4299641251564026,0.05104412883520126,0.1883879005908966,0.15062828361988068,0.3559797704219818,0.7320367693901062,0.42000001668930054,-0.34518730640411377,-1.3816195726394653,-1.2996454238891602,-2.9986987113952637,-0.180332750082016,-0.18523874878883362,-0.1834598332643509,-0.18066871166229248,0.7165921926498413,0.6689547300338745,0.374997079372406,0.11041103303432465
0.65,0.027809573337435722,0.029846081510186195,0.0,0.6917119026184082,0.0,0.0,-0.7221735715866089,0.544471800327301,0.15436877310276031,0.0,0.0,0.0,1.5033420324325562,0.3767995238304138,0.7225987911224365,0.4200684130191803,0.5576714277267456,0.0009355804650112987,-0.0014396404149010777,-0.8300599455833435,-0.06688842177391052,0.002245620358735323,-0.010251481086015701,0.19968636333942413,0.4742656648159027,1.0670214891433716,0.37106406688690186,0.733919084072113,0.432571679353714,-0.15300849080085754,0.08141309767961502,0.18030662834644318,0.3559797704219818,0.7320367693901062,0.42000001668930054,-0.3912806212902069,-2.9978506565093994,-1.3496272563934326,-2.9986984729766846,-0.17299023270606995,-0.17792865633964539,-0.1798601597547531,-0.180428147315979,0.49840259552001953,0.4734240472316742,0.2572639286518097,0.0617767795920372
0.6666666666666666,0.03817969188094139,0.028180569410324097,0.0,0.6868680119514465,0.0,0.0,-0.7267822027206421,0.6420807838439941,-0.12025407701730728,0.0,0.0,0.0,-2.2190351486206055,0.3758018910884857,0.7229810953140259,0.4200000464916229,0.5656494498252869,5.775487466053164e-07,4.0771021758700954e-07,-0.8246458172798157,-0.05942012742161751,0.02682608924806118,-7.301312052732101e-06,-0.00034210519515909255,0.0001698813575785607,0.8100907206535339,0.37001240253448486,0.7380104660987854,0.4359250068664551,-0.04223323240876198,0.24555976688861847,0.22298501431941986,0.3559797704219818,0.7320367693901062,0.42000001668930054,-0.4413076937198639,-2.999906063079834,-1.3995898962020874,-2.999208450317383,-0.16257645189762115,-0.1683216243982315,-0.17374122142791748,-0.17745660245418549,0.501532793045044,0.47947242856025696,0.3201344609260559,0.1756325215101242
0.6833333333333333,0.05059223622083664,0.02901301719248295,0.0,0.6907486915588379,0.0,0.0,-0.7230948805809021,0.7617329955101013,0.1217682808637619,0.0,0.0,0.0,1.5286169052124023,0.37403032183647156,0.7236045002937317,0.4202452301979065,0.5819321870803833,0.003513794159516692,-0.005030050408095121,-0.8132141828536987,-0.14878001809120178,0.051747359335422516,0.046149998903274536,-0.7866706252098083,-2.169133186340332,2.358931541442871,0.36755359172821045,0.740761399269104,0.4438522458076477,-0.17022031545639038,0.18138621747493744,0.7390455007553101,0.3559797704219818,0.7320367693901062,0.42000001668930054,-0.4913214445114136,-3.0000009536743164,-1.4496082067489624,-3.000000476837158,-0.15776042640209198,-0.1631682813167572,-0.17003755271434784,-0.17494167387485504,0.25595420598983765,0.2774771749973297,0.220994234085083,0.18415294587612152
0.7,0.06424406170845032,0.02741704322397709,0.0,0.6834060549736023,0.0,0.0,-0.7300384640693665,0.8555837869644165,-0.15552586317062378,0.0,0.0,0.0,-2.1745455265045166,0.37206771969795227,0.724253237247467,0.42013442516326904,0.5928191542625427,0.002007954753935337,-0.0026769335381686687,-0.8053286671638489,-0.10690099000930786,0.03491349518299103,-0.02384980209171772,0.374050110578537,1.1538801193237305,1.4176902770996094,0.36975330114364624,0.7442111968994141,0.4538203477859497,0.3653293251991272,0.14943838119506836,0.6348797082901001,0.3559797704219818,0.7320367693901062,0.42000001668930054,-0.5413340330123901,-2.999999523162842,-1.4996265172958374,-3.0000009536743164,-0.15375037491321564,-0.1585640013217926,-0.16571663320064545,-0.17055612802505493,0.16367049515247345,0.2272072434425354,0.25824612379074097,0.3087705969810486
0.7166666666666667,0.07971417158842087,0.021790064871311188,0.0,0.6555297374725342,0.0,0.0,-0.7551693916320801,0.9658975601196289,-0.4096396267414093,0.0,0.0,0.0,-5.3919196128845215,0.37134453654289246,0.7244757413864136,0.42000001668930054,0.5960989594459534,-2.049495151368319e-06,2.6208253984805197e-06,-0.8029109835624695,-0.019538093358278275,0.005570997484028339,-0.00010039506014436483,-0.0014261476462706923,-0.004719797987490892,0.1579263061285019,0.3813346028327942,0.7468796372413635,0.4712349474430084,1.028059959411621,0.15387572348117828,1.5859403610229492,0.3559797704219818,0.7320367693901062,0.42000001668930054,-0.5913456678390503,-2.99993896484375,-1.5496448278427124,-2.9999947547912598,-0.15406349301338196,-0.15736840665340424,-0.1632990688085556,-0.16666878759860992,-0.12083921581506729,-0.014772290363907814,0.0866905078291893,0.19876761734485626
0.7333333333333333,0.09276629984378815,0.02102084271609783,0.0,0.6403994560241699,0.0,0.0,-0.7680420279502869,0.7153143882751465,-0.10179921984672546,0.0,0.0,0.0,-1.3134372234344482,0.37134411931037903,0.7244759798049927,0.42000001668930054,0.5960990190505981,7.473284426851023e-07,-3.5600560295279138e-06,-0.8029108643531799,0.00019562768284231424,-0.00025152292801067233,-8.943583816289902e-05,0.005418772809207439,0.00025501783238723874,-0.0007345243939198554,0.397661954164505,0.7522971630096436,0.5024287104606628,1.0748488903045654,0.590727686882019,2.036625862121582,0.3559797704219818,0.7320367693901062,0.42000001668930054,-0.6106727719306946,0.40255045890808105,-1.5996605157852173,-3.000000476837158,-0.1611902117729187,-0.16240273416042328,-0.1662992388010025,-0.16769464313983917,-0.1887209564447403,-0.15788687765598297,-0.1195482686161995,-0.08407189697027206
0.75,0.10151401162147522,0.021531933918595314,0.0,0.649486243724823,0.0,0.0,-0.7603733539581299,0.4570862352848053,0.08212332427501678,0.0,0.0,0.0,2.276137590408325,0.37134411931037903,0.7244759798049927,0.4200000464916229,0.5960992574691772,3.848516882953845e-07,-3.3758617519197287e-06,-0.8029106259346008,0.00012957830040249974,-0.000273455458227545,-9.382888674736023e-05,0.006201873533427715,-0.0011886332649737597,-0.000649665598757565,0.41361361742019653,0.7603033781051636,0.5300794839859009,0.7679959535598755,0.4188872277736664,1.34885835647583,0.3559797704219818,0.7320367693901062,0.42000001668930054,-0.5818662643432617,2.8186757564544678,-1.5606465339660645,2.9999990463256836,-0.1641625016927719,-0.16473443806171417,-0.16774579882621765,-0.16836552321910858,-0.14262616634368896,-0.1014372780919075,-0.0412001758813858,0.00829774234443903
0.7666666666666666,0.10608351230621338,0.018479129299521446,0.0,0.6463918089866638,0.0,0.0,-0.7630056142807007,0.22137050330638885,-0.26317310333251953,0.0,0.0,0.0,-1.4114209413528442,0.37134411931037903,0.7244759798049927,0.4200000464916229,0.5960990786552429,3.9156452658062335e-07,-3.06136348626751e-06,-0.8029108643531799,0.0001272669469472021,-0.00027464493177831173,-9.320210665464401e-05,0.006244797725230455,-0.0012193258153274655,-0.0006453096284531057,0.4197964668273926,0.7659867405891418,0.5457102060317993,-0.04691158980131149,0.22182369232177734,0.7013751268386841,0.3559797704219818,0.7320367693901062,0.42000001668930054,-0.5543533563613892,0.6480632424354553,-1.5105900764465332,3.0000009536743164,-0.16531692445278168,-0.16521796584129333,-0.16719521582126617,-0.167021244764328,-0.0849408283829689,-0.029694173485040665,0.04754859581589699,0.10529373586177826
0.7833333333333333,0.10712065547704697,0.02007255144417286,0.0,0.6545447707176208,0.0,0.0,-0.7560232281684875,0.03666035830974579,0.08472000807523727,0.0,0.0,0.0,2.001335620880127,0.37134411931037903,0.7244759798049927,0.4200000464916229,0.596099317073822,3.750340056285495e-07,-3.1570548344461713e-06,-0.8029106259346008,0.0001281011791434139,-0.00027374931960366666,-9.341049008071423e-05,0.006218397989869118,-0.0012050657533109188,-0.0006464503821916878,0.4173513650894165,0.7671022415161133,0.5541161298751831,-0.11932109296321869,0.11640100926160812,0.33094435930252075,0.3559797704219818,0.7320367693901062,0.42000001668930054,-0.5302438139915466,2.1008596420288086,-1.4605908393859863,3.0,-0.1714244931936264,-0.1694379597902298,-0.16919825971126556,-0.16724750399589539,-0.1915818154811859,-0.12435069680213928,-0.031080570071935654,0.04091203212738037
0.8,0.10608374327421188,0.017672691494226456,0.0,0.6496386528015137,0.0,0.0,-0.7602431178092957,-0.08923184871673584,-0.21885722875595093,0.0,0.0,0.0,-1.7005048990249634,0.37134411931037903,0.7244759798049927,0.4200000464916229,0.5960994362831116,3.897387159668142e-07,-3.263276539655635e-06,-0.8029106259346008,0.00012865169264841825,-0.0002737288305070251,-9.356578812003136e-05,0.006214690860360861,-0.0011991570936515927,-0.0006477117422036827,0.410514235496521,0.7680965662002563,0.5542604923248291,-0.7036815881729126,-0.03767772391438484,-0.14911440014839172,0.3559797704219818,0.7320367693901062,0.42000001668930054,-0.5221558809280396,-0.8782657384872437,-1.4105364084243774,3.0,-0.17283762991428375,-0.17003002762794495,-0.16851873695850372,-0.1656377911567688,-0.060455478727817535,-0.01107441820204258,0.06396865099668503,0.1173243448138237
0.8166666666666667,0.10723820328712463,0.019308848306536674,0.0,0.6562055945396423,0.0,0.0,-0.7545821666717529,-0.010718708857893944,0.10628154873847961,0.0,0.0,0.0,1.6368536949157715,0.37134411931037903,0.7244759798049927,0.4200000464916229,0.5960990190505981,3.772236141230678e-07,-3.126133151454269e-06,-0.8029108643531799,0.00012754168710671365,-0.0002746128593571484,-9.325635619461536e-05,0.0062424978241324425,-0.0012157640885561705,-0.000645883206743747,0.40298992395401,0.7670927047729492,0.5521645545959473,-0.18387165665626526,0.16845020651817322,-0.07327455282211304,0.3559797704219818,0.7320367693901062,0.42000001668930054,-0.5144177079200745,1.5852141380310059,-1.4284685850143433,-3.000000476837158,-0.17688046395778656,-0.1728902906179428,-0.1697426736354828,-0.16555321216583252,-0.012777112424373627,-0.007849546149373055,0.03349321708083153,0.06719005107879639
0.8333333333333334,0.10891059786081314,0.018126947805285454,0.0,0.6507858633995056,0.0,0.0,-0.7592613101005554,0.15497836470603943,-0.11657416075468063,0.0,0.0,0.0,-1.6349613666534424,0.37134411931037903,0.7244759798049927,0.4200000464916229,0.5960992574691772,3.838022735180857e-07,-3.2272221233142773e-06,-0.8029106259346008,0.00012835093366447836,-0.00027370359748601913,-9.347288869321346e-05,0.006215851288288832,-0.0012019171845167875,-0.0006469680811278522,0.40056368708610535,0.7680507898330688,0.5483025312423706,-0.09774141013622284,-0.09193355590105057,-0.22455309331417084,0.3559797704219818,0.7320367693901062,0.42000001668930054,-0.5321579575538635,-3.000000238418579,-1.3899447917938232,3.000000476837158,-0.17745210230350494,-0.17329047620296478,-0.16934354603290558,-0.1644282341003418,-0.10549186915159225,-0.07466677576303482,-0.007790716364979744,0.05526256188750267
0.85,0.11349900811910629,0.015759777277708054,0.0,0.6280316710472107,0.0,0.0,-0.7781877517700195,0.3263649642467499,-0.1612657606601715,0.0,0.0,0.0,-4.836460113525391,0.37134411931037903,0.7244759798049927,0.4200000464916229,0.5960993766784668,3.748967003502912e-07,-3.146438302792376e-06,-0.8029106259346008,0.0001281669974559918,-0.00027376355137676,-9.34419222176075e-05,0.006218307185918093,-0.0012047179043293,-0.0006466411869041622,0.40370792150497437,0.7658351063728333,0.5452018976211548,0.48383432626724243,-0.23843717575073242,-0.02409079670906067,0.3559797704219818,0.7320367693901062,0.42000001668930054,-0.5817855596542358,-2.922243118286133,-1.4082719087600708,-2.9999942779541016,-0.17952358722686768,-0.17489376664161682,-0.1698201596736908,-0.16373634338378906,-0.14575766026973724,-0.10641329735517502,-0.028052084147930145,0.05523619428277016
0.8666666666666667,0.12062371522188187,0.01591126061975956,0.0,0.6181231141090393,0.0,0.0,-0.7860813140869141,0.4612835943698883,0.08077296614646912,0.0,0.0,0.0,-0.5160629153251648,0.37134411931037903,0.7244759798049927,0.4200000464916229,0.5960992574691772,3.980227347710752e-07,-3.2479633773618843e-06,-0.8029106259346008,0.00012850837083533406,-0.00027366451104171574,-9.351526387035847e-05,0.006213953718543053,-0.0011999905109405518,-0.0006472975946962833,0.4100044071674347,0.7645493745803833,0.5466634631156921,0.26761525869369507,0.03981141373515129,0.1872192770242691,0.3559797704219818,0.7320367693901062,0.42000001668930054,-0.6003609299659729,0.4158763587474823,-1.4582902193069458,-3.000000476837158,-0.1814517229795456,-0.1767486333847046,-0.1710369884967804,-0.16424934566020966,-0.06419912725687027,-0.08947683125734329,-0.08759710937738419,-0.08420676738023758
0.8833333333333333,0.1250811666250229,0.012830158695578575,0.0,0.6321190595626831,0.0,0.0,-0.774871289730072,0.20043542981147766,-0.2652027904987335,0.0,0.0,0.0,2.7689332962036133,0.37134411931037903,0.7244759798049927,0.4200000464916229,0.5960993766784668,4.0071492435345135e-07,-3.1698878046881873e-06,-0.8029106259346008,0.0001282927842112258,-0.0002737393951974809,-9.347102604806423e-05,0.006216994021087885,-0.0012031876249238849,-0.0006469021318480372,0.4131782650947571,0.7662526369094849,0.5458060503005981,0.043202102184295654,0.08237113058567047,-0.27327248454093933,0.3559797704219818,0.7320367693901062,0.42000001668930054,-0.5821446776390076,1.646264672279358,-1.4196780920028687,3.0,-0.1795179694890976,-0.1754591464996338,-0.17004923522472382,-0.16358131170272827,0.04654175043106079,0.032269641757011414,0.030201401561498642,0.02156614325940609
0.9,0.1261403113603592,0.01328225526958704,0.0,0.632077693939209,0.0,0.0,-0.7749050259590149,0.026904549449682236,0.05448957905173302,0.0,0.0,0.0,-0.8340153694152832,0.37134411931037903,0.7244759798049927,0.4200000464916229,0.5960992574691772,3.9556454112243955e-07,-3.2722221021685982e-06,-0.8029106259346008,0.00012864010932389647,-0.00027363625122234225,-9.354832582175732e-05,0.006212633568793535,-0.0011983297299593687,-0.0006475611589848995,0.41079235076904297,0.7651776671409607,0.5381412506103516,-0.21723702549934387,-0.08937405049800873,-0.5126549601554871,0.3559797704219818,0.7320367693901062,0.42000001668930054,-0.5804380774497986,-1.1949119567871094,-1.3696308135986328,3.000000476837158,-0.18220248818397522,-0.17792631685733795,-0.17217200994491577,-0.1655033379793167,-0.07029613107442856,-0.08439110219478607,-0.09064065665006638,-0.1017543226480484
