vladlanda/robotic-transformer/data/env_000_episode_0159.csv
sim_time_s,robot_box_x,robot_box_y,robot_box_z,robot_box_quat_w,robot_box_quat_x,robot_box_quat_y,robot_box_quat_z,robot_box_linvel_x,robot_box_linvel_y,robot_box_linvel_z,robot_box_angvel_x,robot_box_angvel_y,robot_box_angvel_z,cube_world_x,cube_world_y,cube_world_z,cube_quat_w,cube_quat_x,cube_quat_y,cube_quat_z,cube_linvel_x,cube_linvel_y,cube_linvel_z,cube_angvel_x,cube_angvel_y,cube_angvel_z,endpoint_world_x,endpoint_world_y,endpoint_world_z,endpoint_linvel_x,endpoint_linvel_y,endpoint_linvel_z,target_cube_world_x,target_cube_world_y,target_cube_world_z,gripper_actual_pos_rad_gp_leftgearjoint,gripper_actual_vel_rad_s_gp_leftgearjoint,gripper_actual_pos_rad_gp_rotatingjoint,gripper_actual_vel_rad_s_gp_rotatingjoint,motor_angle_rad_joint1,motor_angle_rad_joint2,motor_angle_rad_joint3,motor_angle_rad_joint4,motor_speed_rad_s_joint1,motor_speed_rad_s_joint2,motor_speed_rad_s_joint3,motor_speed_rad_s_joint4
0.0,0.0,0.0,0.0,1.0,0.0,0.0,0.0,0.0,0.0,0.0,0.0,0.0,0.0,-0.3711138665676117,0.7018125057220459,0.41999998688697815,1.0,0.0,0.0,0.0,0.0,0.0,0.0,0.0,0.0,0.0,3.42540442943573e-06,-0.005000244826078415,1.313499927520752,0.0,0.0,0.0,0.38395416736602783,0.6527525186538696,0.42000001668930054,-1.5707999467849731,0.0,0.0,0.0,0.0,0.0,0.0,0.0,0.0,0.0,0.0,0.0
0.016666666666666666,0.0028805905021727085,0.002177543705329299,0.0,0.9998143911361694,0.0,0.0,0.01926497370004654,0.24095113575458527,0.18229587376117706,0.0,0.0,0.0,3.141807794570923,-0.37111398577690125,0.701812207698822,0.41999998688697815,1.0,3.279964630564791e-06,-8.339746386809566e-07,8.465587342243452e-08,-1.9833529222523794e-05,0.00017983045836444944,-6.132945418357849e-05,0.0009432713268324733,-0.004689474124461412,-0.00031981561915017664,-0.007109224796295166,0.0033879175316542387,1.3159382343292236,-0.8140553832054138,0.9871804118156433,0.18095993995666504,0.38395416736602783,0.6527525186538696,0.42000001668930054,-1.5301094055175781,3.000002384185791,-0.045848697423934937,-3.000000476837158,0.0008700660546310246,0.0007967189885675907,0.0007112876628525555,0.0006111416150815785,0.11094814538955688,0.09758608788251877,0.08336294442415237,0.06825751066207886
0.03333333333333333,0.00896423775702715,0.006797083653509617,0.0,0.9998024702072144,0.0,0.0,0.01987495832145214,0.4070543944835663,0.31520360708236694,0.0,0.0,0.0,-0.8690909743309021,-0.3711141049861908,0.7018121480941772,0.4200000464916229,1.0,3.3908179375430336e-06,-2.132458348569344e-06,-3.7097745320124886e-08,0.00026357852038927376,0.00026937833172269166,-0.00010509369894862175,-0.0017707126680761576,0.004130884539335966,-0.0001354814594378695,-0.027539394795894623,0.026238851249217987,1.3165931701660156,-1.5904490947723389,1.6171684265136719,-0.0854601189494133,0.38395416736602783,0.6527525186538696,0.42000001668930054,-1.4800902605056763,3.000002384185791,-0.09588852524757385,-3.0000007152557373,0.0029904451221227646,0.0026527210138738155,0.0022772718220949173,0.001860756310634315,0.16417236626148224,0.13973015546798706,0.11379275470972061,0.08627648651599884
0.05,0.018476009368896484,0.013901758939027786,0.0,0.9999745488166809,0.0,0.0,-0.007132096216082573,0.6362631916999817,0.4723740518093109,0.0,0.0,0.0,-4.07335901260376,-0.3711141347885132,0.701812207698822,0.4200000464916229,1.0,3.7651902857760433e-06,-2.2119197637948673e-06,5.609367637049445e-09,0.00026530938339419663,0.00026691678795032203,-0.00010440615005791187,-0.0017243892652913928,0.004177466034889221,-0.00012949809024576098,-0.05716465786099434,0.057421982288360596,1.3119175434112549,-1.9511194229125977,2.0520179271698,-0.4574921727180481,0.38395416736602783,0.6527525186538696,0.42000001668930054,-1.4300719499588013,2.999999523162842,-0.1459195911884308,-3.000001907348633,0.00601348327472806,0.0051741390489041805,0.004262479953467846,0.0032741727773100138,0.20709753036499023,0.16676120460033417,0.12450036406517029,0.08024004846811295
0.06666666666666667,0.030797967687249184,0.023392725735902786,0.0,0.9998762607574463,0.0,0.0,-0.015731368213891983,0.7726891040802002,0.6162611842155457,0.0,0.0,0.0,-0.03643377870321274,-0.3711141347885132,0.7018121480941772,0.4200000464916229,0.9999999403953552,3.406832092878176e-06,-2.28558906201215e-06,4.300801492718165e-07,0.0002670248504728079,0.0002679176686797291,-0.0001043803058564663,-0.00174071139190346,0.00421183044090867,-0.00012850876373704523,-0.09281584620475769,0.0907713770866394,1.3017553091049194,-2.185497522354126,2.1112723350524902,-0.7508174777030945,0.38395416736602783,0.6527525186538696,0.42000001668930054,-1.3800441026687622,2.9999983310699463,-0.11982567608356476,2.999999761581421,0.00853984709829092,0.006917888298630714,0.005183330737054348,0.003330380190163851,0.12737049162387848,0.0698309913277626,0.01011209562420845,-0.051817938685417175
0.08333333333333333,0.03694121539592743,0.03637652099132538,0.0,0.999211311340332,0.0,0.0,-0.03970794379711151,0.2242533266544342,0.8774322271347046,0.0,0.0,0.0,-3.8070766925811768,-0.3711141347885132,0.7018121480941772,0.4200000464916229,1.0,3.6973397072870284e-06,-2.18897503145854e-06,-2.6324283908252255e-07,0.00026389575214125216,0.000265863083768636,-0.00010433816350996494,-0.001708182506263256,0.004150256514549255,-0.00012991153926122934,-0.12392140924930573,0.1299009919166565,1.28749680519104,-1.5879225730895996,2.587082862854004,-0.8853605389595032,0.38395416736602783,0.6527525186538696,0.42000001668930054,-1.3300408124923706,3.0,-0.1518123745918274,-3.0000016689300537,0.00451258197426796,0.002055540680885315,-0.0005674765561707318,-0.003365566721186042,-0.38373422622680664,-0.44571471214294434,-0.5105487108230591,-0.5784499049186707
0.1,0.0466729998588562,0.05139203742146492,0.0,0.9958344101905823,0.0,0.0,-0.09118019789457321,0.7351483106613159,0.9052530527114868,0.0,0.0,0.0,-6.96592903137207,-0.3711141347885132,0.7018121480941772,0.4200000464916229,0.9999999403953552,3.6204189655109076e-06,-2.2651970539300237e-06,1.7461321988321288e-07,0.00026676736888475716,0.0002674079150892794,-0.0001040794886648655,-0.001738528604619205,0.004209060221910477,-0.00012775698269251734,-0.15266099572181702,0.17519956827163696,1.271941900253296,-1.8473538160324097,2.868317127227783,-1.0282920598983765,0.38395416736602783,0.6527525186538696,0.42000001668930054,-1.2800281047821045,3.000002861022949,-0.16073055565357208,1.5473824739456177,0.0024944634642452,-0.0014895936474204063,-0.0056462362408638,-0.009983970783650875,-0.018158039078116417,-0.11765488982200623,-0.216182678937912,-0.31368115544319153
0.11666666666666667,0.055240485817193985,0.06347895413637161,0.0,0.9924231171607971,0.0,0.0,-0.12286738306283951,0.5362540483474731,0.6857620477676392,0.0,0.0,0.0,-2.5811407566070557,-0.3711141347885132,0.7018121480941772,0.4200000464916229,1.0,3.798416400968563e-06,-2.2627416456089122e-06,-1.5020985699720768e-07,0.00026374010485596955,0.00026566069573163986,-0.00010429113171994686,-0.001705370144918561,0.00414750212803483,-0.0001298012211918831,-0.18673014640808105,0.2203035205602646,1.2531185150146484,-1.9871591329574585,2.914506673812866,-1.1450257301330566,0.38395416736602783,0.6527525186538696,0.42000001668930054,-1.230035424232483,3.0000014305114746,-0.20025324821472168,-2.999999761581421,0.0001195519434986636,-0.005472769495099783,-0.011211303062736988,-0.017104193568229675,-0.06402701884508133,-0.17949238419532776,-0.2917059659957886,-0.400500625371933
0.13333333333333333,0.06155950576066971,0.07268641144037247,0.0,0.9864139556884766,0.0,0.0,-0.16427859663963318,0.3286951780319214,0.4801296889781952,0.0,0.0,0.0,-5.806680679321289,-0.3711141347885132,0.701812207698822,0.4200000464916229,0.9999999403953552,3.5505045161698945e-06,-2.2297124360193266e-06,2.9290509928614483e-07,0.0002670330286491662,0.000267792638624087,-0.00010417005978524685,-0.0017440036172047257,0.004213502164930105,-0.00012799850082956254,-0.2179887592792511,0.27452147006988525,1.2302839756011963,-1.7114861011505127,3.6392662525177,-1.5641210079193115,0.38395416736602783,0.6527525186538696,0.42000001668930054,-1.180022120475769,2.999990701675415,-0.1664550006389618,3.0,-0.0024205397348850965,-0.009835737757384777,-0.01733420044183731,-0.024922167882323265,-0.19913247227668762,-0.30235880613327026,-0.4014960527420044,-0.4964357316493988
0.15,0.06400825083255768,0.08277232944965363,0.0,0.9753977060317993,0.0,0.0,-0.22045253217220306,0.07310902327299118,0.6664859056472778,0.0,0.0,0.0,-7.39723539352417,-0.3711141347885132,0.7018121480941772,0.4200000464916229,0.9999999403953552,3.3380476907041157e-06,-2.2427855128626106e-06,-2.8018968478704664e-08,0.00026674478431232274,0.00026758163585327566,-0.00010427623055875301,-0.0017367067048326135,0.004206846933811903,-0.00012831886124331504,-0.24982950091362,0.33522501587867737,1.1991848945617676,-1.8381919860839844,3.8752171993255615,-2.194077968597412,0.38395416736602783,0.6527525186538696,0.42000001668930054,-1.148695707321167,0.91472989320755,-0.19814953207969666,-3.0000009536743164,-0.007421246729791164,-0.016304101794958115,-0.025190813466906548,-0.03408646956086159,-0.3786894977092743,-0.4469600319862366,-0.5106306672096252,-0.5697187185287476
0.16666666666666666,0.07025457173585892,0.08998081088066101,0.0,0.9671266674995422,0.0,0.0,-0.2542952299118042,0.42382967472076416,0.3370378911495209,0.0,0.0,0.0,-2.9051778316497803,-0.3711141347885132,0.701812207698822,0.4200000464916229,0.9999999403953552,3.6477515550359385e-06,-2.3071481791703263e-06,3.528846903577687e-08,0.00026726751821115613,0.0002680142060853541,-0.00010418612509965897,-0.0017472724430263042,0.004217501729726791,-0.00012797869567293674,-0.2861313819885254,0.3981896638870239,1.1549878120422363,-2.0611424446105957,4.044560432434082,-3.0942635536193848,0.38395416736602783,0.6527525186538696,0.42000001668930054,-1.1054024696350098,3.0000014305114746,-0.24816536903381348,-3.0,-0.012876860797405243,-0.0225484911352396,-0.03215787187218666,-0.04171205684542656,-0.45376259088516235,-0.46713986992836,-0.47813883423805237,-0.4869527816772461
0.18333333333333332,0.07111693918704987,0.0997571349143982,0.0,0.9540862441062927,0.0,0.0,-0.29953211545944214,0.003314938396215439,0.5840073227882385,0.0,0.0,0.0,-6.395129203796387,-0.3711141347885132,0.7018121480941772,0.4200000464916229,0.9999999403953552,3.290458380433847e-06,-2.193713044107426e-06,-2.7921399237129663e-07,0.00026677967980504036,0.00026776117738336325,-0.0001043418888002634,-0.0017391219735145569,0.004206927493214607,-0.00012845566379837692,-0.31707680225372314,0.46538394689559937,1.0951817035675049,-1.5593489408493042,4.179943084716797,-3.83443021774292,0.38395416736602783,0.6527525186538696,0.42000001668930054,-1.0553994178771973,3.0000014305114746,-0.2981751263141632,-2.999997854232788,-0.026536470279097557,-0.036122314631938934,-0.045621685683727264,-0.055043499916791916,-0.6811902523040771,-0.726950466632843,-0.7698507308959961,-0.8089739680290222
0.2,0.07735466212034225,0.10496919602155685,0.0,0.9455026388168335,0.0,0.0,-0.32561439275741577,0.37154945731163025,0.2313324213027954,0.0,0.0,0.0,-2.0544686317443848,-0.3711141347885132,0.7018121480941772,0.4200000464916229,1.0,3.280689952589455e-06,-2.219024509031442e-06,1.594884366795668e-07,0.0002662799961399287,0.0002674008719623089,-0.00010425224900245667,-0.0017357695614919066,0.004197873640805483,-0.00012865354074165225,-0.34458011388778687,0.5309604406356812,1.024113416671753,-1.3620679378509521,3.9200029373168945,-4.723896026611328,0.38395416736602783,0.6527525186538696,0.42000001668930054,-1.0054001808166504,2.999994993209839,-0.34820058941841125,-3.0000007152557373,-0.0356060154736042,-0.04563464596867561,-0.05554143711924553,-0.06532647460699081,-0.7657606601715088,-0.7404988408088684,-0.7157197594642639,-0.691290020942688
0.21666666666666667,0.07802627980709076,0.11316805332899094,0.0,0.931892454624176,0.0,0.0,-0.36273467540740967,0.03371559455990791,0.48836153745651245,0.0,0.0,0.0,-5.42676305770874,-0.3711141347885132,0.701812207698822,0.4200000464916229,1.0,3.6130954867985565e-06,-2.269954165967647e-06,2.210255729551136e-07,0.0002671264810487628,0.0002678182499948889,-0.00010414235293865204,-0.001744590001180768,0.004215233027935028,-0.00012786359002348036,-0.3635045886039734,0.5910863876342773,0.9367316961288452,-0.837357223033905,3.449672222137451,-5.506117820739746,0.38395416736602783,0.6527525186538696,0.42000001668930054,-0.9553909301757812,2.999997138977051,-0.39822855591773987,-3.0000016689300537,-0.05136600509285927,-0.06139276549220085,-0.07130623608827591,-0.08109866827726364,-0.7672253847122192,-0.7916433811187744,-0.8189443945884705,-0.8456554412841797
0.23333333333333334,0.07995077967643738,0.11710528284311295,0.0,0.9245864152908325,0.0,0.0,-0.38097241520881653,0.07109182327985764,0.1999855488538742,0.0,0.0,0.0,-1.2065370082855225,-0.3711141347885132,0.7018121480941772,0.4200000464916229,1.0,3.3818200790847186e-06,-2.290785687364405e-06,2.728022536757635e-07,0.0002669146633706987,0.0002677999727893621,-0.00010433373972773552,-0.00173960963729769,0.004209722857922316,-0.0001284381141886115,-0.37919509410858154,0.6393027305603027,0.8416404724121094,-0.6376698613166809,2.4938302040100098,-5.965143203735352,0.38395416736602783,0.6527525186538696,0.42000001668930054,-0.9053802490234375,2.9999985694885254,-0.44825875759124756,-3.0000009536743164,-0.06434750556945801,-0.07427067309617996,-0.08400788903236389,-0.09366040676832199,-0.9742763638496399,-0.9587225914001465,-0.8944405913352966,-0.8358888030052185
0.25,0.0774451494216919,0.12402737140655518,0.0,0.9126158952713013,0.0,0.0,-0.40881815552711487,-0.21781867742538452,0.4356310963630676,0.0,0.0,0.0,-4.340090751647949,-0.3711141049861908,0.7018121480941772,0.4200000464916229,0.9999999403953552,3.706541974679567e-06,-2.2228152829484316e-06,-2.2551301981366123e-07,0.0002642470644786954,0.000266568036749959,-0.00010457867756485939,-0.0017170833889394999,0.00415569543838501,-0.00013063359074294567,-0.3867158889770508,0.6751744747161865,0.7373581528663635,-0.2277061492204666,1.7787437438964844,-6.343243598937988,0.38395416736602783,0.6527525186538696,0.42000001668930054,-0.8553695678710938,2.999995231628418,-0.49828946590423584,-3.0000038146972656,-0.08114562928676605,-0.09101442247629166,-0.10071513801813126,-0.11033686250448227,-0.9959999918937683,-0.9968725442886353,-0.9975593686103821,-0.9981157779693604
0.26666666666666666,0.0786496177315712,0.12576992809772491,0.0,0.9079475402832031,0.0,0.0,-0.4190838634967804,0.043537963181734085,0.077445849776268,0.0,0.0,0.0,-0.10407198220491409,-0.3711141347885132,0.7018121480941772,0.4200000464916229,0.9999999403953552,3.719688493220019e-06,-2.403317694188445e-06,-1.8309575011699053e-07,0.00026623302255757153,0.00026729193632490933,-0.00010425853542983532,-0.0017327427631244063,0.00419660797342658,-0.00012851154315285385,-0.3929266929626465,0.69667649269104,0.6323438882827759,-0.15681733191013336,0.6928760409355164,-6.313960075378418,0.38395416736602783,0.6527525186538696,0.42000001668930054,-0.8053604364395142,2.999997854232788,-0.5483194589614868,-2.999997138977051,-0.09575990587472916,-0.10564765334129333,-0.11515782028436661,-0.12462121248245239,-0.9936239719390869,-0.994615375995636,-0.9953956604003906,-0.9957615733146667
0.2833333333333333,0.07505322992801666,0.1280735433101654,0.0,0.9115328192710876,0.0,0.0,-0.411227285861969,-0.30289050936698914,0.13790786266326904,0.0,0.0,0.0,1.6047338247299194,-0.3711141347885132,0.701812207698822,0.4200000464916229,0.9999999403953552,3.584116939236992e-06,-2.3153263555286685e-06,7.402376667187127e-08,0.00026522012194618583,0.0002645518397912383,-0.00010317075066268444,-0.0017020788509398699,0.004185091704130173,-0.00012499977310653776,-0.39367419481277466,0.7007933855056763,0.5338528752326965,0.14779339730739594,-0.17564800381660461,-5.468794822692871,0.38395416736602783,0.6527525186538696,0.42000001668930054,-0.7553516626358032,3.0000016689300537,-0.5983481407165527,-2.9999969005584717,-0.11383388191461563,-0.12338925153017044,-0.13265027105808258,-0.1419181376695633,-1.0125666856765747,-1.0095038414001465,-1.0071707963943481,-1.0053088665008545
0.3,0.06981424987316132,0.12771408259868622,0.0,0.9076792001724243,0.0,0.0,-0.4196646809577942,-0.3471568524837494,-0.0743449404835701,0.0,0.0,0.0,-1.9682948589324951,-0.3711141347885132,0.7018121480941772,0.4200000464916229,1.0,3.7243148653942626e-06,-2.2717647425452014e-06,9.633560438260247e-08,0.00026312581030651927,0.00026525743305683136,-0.00010438100434839725,-0.001696073217317462,0.0041348133236169815,-0.00013027583190705627,-0.3859558701515198,0.700904369354248,0.4441303014755249,0.7618895769119263,0.003194317687302828,-5.156838417053223,0.38395416736602783,0.6527525186538696,0.42000001668930054,-0.7053438425064087,3.0000007152557373,-0.6483749747276306,-3.00000262260437,-0.13048994541168213,-0.14006951451301575,-0.1493837982416153,-0.1587112993001938,-1.0158376693725586,-1.0120246410369873,-1.0091139078140259,-1.0067744255065918
0.31666666666666665,0.06268536299467087,0.12470127642154694,0.0,0.9106356501579285,0.0,0.0,-0.41321027278900146,-0.48126691579818726,-0.23096100986003876,0.0,0.0,0.0,1.5941144227981567,-0.3711141347885132,0.7018121480941772,0.4200000464916229,1.0,3.6662484035332454e-06,-2.3923957996885292e-06,1.6798234980797133e-07,0.0002660209429450333,0.00026706972857937217,-0.00010418822057545185,-0.0017310596304014325,0.004193526227027178,-0.00012849683116655797,-0.38058269023895264,0.7030501365661621,0.4169963002204895,0.28947630524635315,0.38775545358657837,-0.016782984137535095,0.38395416736602783,0.6527525186538696,0.42000001668930054,-0.6554797291755676,2.950709581375122,-0.698758065700531,-2.8039331436157227,-0.13766759634017944,-0.14802826941013336,-0.157954141497612,-0.16765393316745758,-0.04986313730478287,-0.13887137174606323,-0.20392458140850067,-0.23735465109348297
0.3333333333333333,0.05320650339126587,0.11912009119987488,0.0,0.9066240787506104,0.0,0.0,-0.42193934321403503,-0.6134534478187561,-0.37580522894859314,0.0,0.0,0.0,-2.0544590950012207,-0.3686159551143646,0.7051715850830078,0.4205262064933777,0.999589741230011,0.013168971054255962,2.958935874630697e-05,-0.02543472871184349,0.3339586853981018,0.42461836338043213,0.07079287618398666,3.539868116378784,-0.000204410360311158,-5.374304294586182,-0.37707585096359253,0.7100077867507935,0.42343777418136597,0.377718061208725,0.4578310251235962,-0.1411488801240921,0.38395416736602783,0.6527525186538696,0.42000001668930054,-0.6054685115814209,2.9999868869781494,-0.7488065958023071,-3.000002384185791,-0.1393754631280899,-0.15056286752223969,-0.16090400516986847,-0.1704944223165512,-0.26022276282310486,-0.26064369082450867,-0.24180372059345245,-0.19809038937091827
0.35,0.04156791418790817,0.11119356006383896,0.0,0.9094101190567017,0.0,0.0,-0.4159005582332611,-0.7376524806022644,-0.5153417587280273,0.0,0.0,0.0,1.7151036262512207,-0.3617323338985443,0.7142122387886047,0.4206734299659729,0.9944429993629456,0.017022641375660896,-0.0018005843739956617,-0.10387520492076874,0.4742562770843506,0.6241764426231384,0.0014209127984941006,0.12466080486774445,-0.04810689389705658,-11.928650856018066,-0.36937087774276733,0.7198573350906372,0.42105633020401,0.569757342338562,0.6858706474304199,-0.12439228594303131,0.38395416736602783,0.6527525186538696,0.42000001668930054,-0.5554635524749756,2.999990463256836,-0.7988362312316895,-2.9999916553497314,-0.1460634171962738,-0.1563129872083664,-0.1654072105884552,-0.17337290942668915,-0.45719966292381287,-0.3658778965473175,-0.2570902407169342,-0.12756985425949097
0.36666666666666664,0.027896689251065254,0.10092651844024658,0.0,0.9056000113487244,0.0,0.0,-0.424132764339447,-0.8684413433074951,-0.6568256616592407,0.0,0.0,0.0,-2.0360331535339355,-0.3533540368080139,0.7249709963798523,0.42001447081565857,0.9814658761024475,-0.0003883890458382666,-0.00010614377242745832,-0.19163623452186584,0.6467642188072205,0.7766930460929871,0.012126791290938854,-0.5861297249794006,0.20733287930488586,-4.229480266571045,-0.3573567271232605,0.7303130030632019,0.4198359549045563,0.8097447156906128,0.6158294677734375,0.052470363676548004,0.38395416736602783,0.6527525186538696,0.42000001668930054,-0.5054346323013306,2.998613119125366,-0.8488624691963196,-2.9999399185180664,-0.15466797351837158,-0.16289851069450378,-0.16966266930103302,-0.1749509572982788,-0.5088964700698853,-0.37205806374549866,-0.2168562263250351,-0.04171917960047722
0.3833333333333333,0.016857536509633064,0.08783697336912155,0.0,0.8892320394515991,0.0,0.0,-0.45745646953582764,-0.5883285999298096,-0.8387757539749146,0.0,0.0,0.0,-5.298555374145508,-0.33907550573349,0.7411900162696838,0.4206514358520508,0.9736338257789612,-0.016038795933127403,0.003482328960672021,-0.22752536833286285,1.1085981130599976,1.1938272714614868,0.07343767583370209,-3.4191901683807373,1.5726399421691895,-5.9947075843811035,-0.34101030230522156,0.7436665296554565,0.42130202054977417,1.217111349105835,1.0306365489959717,0.11608101427555084,0.38395416736602783,0.6527525186538696,0.42000001668930054,-0.45538216829299927,2.9999873638153076,-0.8988699316978455,-2.9999735355377197,-0.1628909409046173,-0.16859610378742218,-0.17246773838996887,-0.17448407411575317,-0.4475560486316681,-0.2873806953430176,-0.10425232350826263,0.10195278376340866
0.4,0.00796646997332573,0.07198473066091537,0.0,0.8579549789428711,0.0,0.0,-0.5137248635292053,-0.48073965311050415,-1.0057590007781982,0.0,0.0,0.0,-8.577371597290039,-0.3075805902481079,0.7666661143302917,0.4228529930114746,0.9590965509414673,-0.0284365676343441,-0.01722951978445053,-0.2811196744441986,2.719917058944702,1.5444267988204956,0.15524990856647491,30.965913772583008,-15.669377326965332,5.199946880340576,-0.30908191204071045,0.7679901719093323,0.4236280024051666,2.7310218811035156,1.9269795417785645,0.36007988452911377,0.38395416736602783,0.6527525186538696,0.42000001668930054,-0.4067533016204834,2.3418467044830322,-0.948890209197998,-3.000000238418579,-0.17192009091377258,-0.17443767189979553,-0.17477700114250183,-0.17293959856033325,-0.5903112888336182,-0.37399497628211975,-0.14070463180541992,0.10699329525232315
0.4166666666666667,0.0014339699409902096,0.06123429164290428,0.0,0.8085325360298157,0.0,0.0,-0.5884515047073364,-0.3421153426170349,-0.5030680894851685,0.0,0.0,0.0,-11.558782577514648,-0.23601117730140686,0.8012270331382751,0.42830365896224976,0.9379968047142029,0.03866853564977646,-0.05951814353466034,-0.33929961919784546,5.8571271896362305,1.8728702068328857,0.4750397801399231,12.59616756439209,-12.726420402526855,21.170642852783203,-0.23724326491355896,0.8029292821884155,0.4292893707752228,5.540989875793457,2.4527993202209473,0.46968966722488403,0.38395416736602783,0.6527525186538696,0.42000001668930054,-0.3839152455329895,0.9159027934074402,-0.9116886258125305,2.9983668327331543,-0.18769624829292297,-0.1873083859682083,-0.18225866556167603,-0.17517337203025818,-0.9186068773269653,-0.8906165957450867,-0.5637897253036499,-0.25711849331855774
0.43333333333333335,-0.0017047818982973695,0.05362994968891144,0.0,0.7684988975524902,0.0,0.0,-0.6398511528968811,-0.14227110147476196,-0.3812861740589142,0.0,0.0,0.0,-6.575599193572998,-0.1448116898536682,0.8356772065162659,0.438599556684494,0.8973585367202759,0.07450352609157562,-0.08040747791528702,-0.427470862865448,5.640538215637207,1.3824912309646606,0.7439824342727661,14.418498992919922,-5.341909408569336,10.372260093688965,-0.14636406302452087,0.8382958173751831,0.43922173976898193,5.544617652893066,1.8035204410552979,0.7111555933952332,0.38395416736602783,0.6527525186538696,0.42000001668930054,-0.3685981035232544,1.0576421022415161,-0.9376375675201416,-3.000002861022949,-0.1996646672487259,-0.1999194622039795,-0.19154658913612366,-0.1800987422466278,-0.6616243124008179,-0.6793584227561951,-0.5163929462432861,-0.30132970213890076
0.45,-0.007452786900103092,0.041585009545087814,0.0,0.7487233281135559,0.0,0.0,-0.6628826260566711,-0.2870844304561615,-0.628298819065094,0.0,0.0,0.0,-2.4085185527801514,-0.05069126933813095,0.8565455079078674,0.45100414752960205,0.8364905714988708,0.09202804416418076,-0.0753273293375969,-0.5349206328392029,5.725176811218262,-0.19042864441871643,0.7978651523590088,-5.188104629516602,5.423737525939941,6.857167720794678,-0.05371594429016113,0.8598513603210449,0.4506479501724243,5.818343162536621,0.599284827709198,0.7684187889099121,0.38395416736602783,0.6527525186538696,0.42000001668930054,-0.34815993905067444,1.2254059314727783,-0.9876613616943359,-2.9998490810394287,-0.20854449272155762,-0.2078016698360443,-0.19619563221931458,-0.18089953064918518,-0.8796154856681824,-0.674501895904541,-0.3802720904350281,-0.06984920054674149
0.4666666666666667,-0.013641439378261566,0.029468046501278877,0.0,0.7213557362556458,0.0,0.0,-0.6925647258758545,-0.38967210054397583,-0.8668891191482544,0.0,0.0,0.0,-5.728054523468018,0.04474327713251114,0.8520662188529968,0.45884162187576294,0.773133397102356,0.06017225980758667,-0.09363405406475067,-0.6244010329246521,5.460932731628418,-1.676511287689209,0.49853211641311646,-10.199372291564941,3.250582695007324,17.48248291015625,0.04089154303073883,0.8581244349479675,0.4603842496871948,5.789895534515381,-0.7090024948120117,0.5094260573387146,0.38395416736602783,0.6527525186538696,0.42000001668930054,-0.33012473583221436,0.8225206136703491,-1.0376839637756348,-3.000002861022949,-0.22444725036621094,-0.21903225779533386,-0.20187784731388092,-0.1810002475976944,-0.8681960701942444,-0.5572492480278015,-0.22323088347911835,0.10379522293806076
0.48333333333333334,-0.018058663234114647,0.021455714479088783,0.0,0.7069033980369568,0.0,0.0,-0.7073100805282593,-0.250528484582901,-0.41795843839645386,0.0,0.0,0.0,-1.2507743835449219,0.13245385885238647,0.8296312689781189,0.46435847878456116,0.6980201005935669,0.01804152876138687,-0.10241525620222092,-0.708486795425415,4.632567405700684,-2.1997878551483154,0.16108059883117676,-21.428058624267578,9.414151191711426,4.6096391677856445,0.12831801176071167,0.8375840783119202,0.46756333112716675,4.965550899505615,-1.5655856132507324,0.4149787724018097,0.38395416736602783,0.6527525186538696,0.42000001668930054,-0.31787586212158203,0.5285760760307312,-1.0877060890197754,-2.9993479251861572,-0.23767229914665222,-0.23170623183250427,-0.20939309895038605,-0.18315379321575165,-0.4987531304359436,-0.5651702880859375,-0.3802584707736969,-0.14330941438674927
0.5,-0.019145844504237175,0.009233239106833935,0.0,0.6836729645729065,0.0,0.0,-0.7297884821891785,-0.041598860174417496,-0.795079231262207,0.0,0.0,0.0,-4.73484992980957,0.20766419172286987,0.800691545009613,0.4646213948726654,0.6509274840354919,-0.017660314217209816,-0.07183890789747238,-0.7555267810821533,4.161754608154297,-2.071446180343628,-0.16208933293819427,-0.7564995288848877,1.7774770259857178,0.15115678310394287,0.20390820503234863,0.8095254898071289,0.46862345933914185,4.118027687072754,-1.995473027229309,-0.0686732828617096,0.38395416736602783,0.6527525186538696,0.42000001668930054,-0.30943071842193604,0.6822335124015808,-1.137728214263916,-2.9999985694885254,-0.2396453320980072,-0.23496563732624054,-0.21096397936344147,-0.18237091600894928,-0.08313903212547302,-0.10574527829885483,-0.02008260414004326,0.08611305058002472
0.5166666666666666,-0.01704605482518673,0.0007037518080323935,0.0,0.6741644740104675,0.0,0.0,-0.7385812401771545,0.16486482322216034,-0.41642823815345764,0.0,0.0,0.0,-0.540830671787262,0.26976585388183594,0.7651892900466919,0.45994940400123596,0.6029031276702881,-0.04725171998143196,-0.04917120561003685,-0.7948945164680481,3.3891727924346924,-2.174978494644165,-0.48055151104927063,1.1383365392684937,3.2934749126434326,-7.677043437957764,0.2670818865299225,0.7738481163978577,0.46448999643325806,3.428889513015747,-2.241919994354248,-0.3564836382865906,0.38395416736602783,0.6527525186538696,0.42000001668930054,-0.29823753237724304,0.8174970149993896,-1.1877503395080566,-2.9977383613586426,-0.23991650342941284,-0.2375905066728592,-0.21257194876670837,-0.1829090565443039,0.0391700454056263,-0.01631411723792553,-0.018497873097658157,-0.027077633887529373
0.5333333333333333,-0.012510721571743488,-0.003489276859909296,0.0,0.6564877033233643,0.0,0.0,-0.7543367147445679,0.3238697946071625,-0.18578869104385376,0.0,0.0,0.0,-3.7386112213134766,0.31957492232322693,0.7307716608047485,0.44782060384750366,0.5695925951004028,-0.07954399287700653,-0.034847911447286606,-0.8173264861106873,2.6229517459869385,-2.1165390014648438,-0.9154103994369507,-3.004760503768921,-1.550087571144104,-2.0689570903778076,0.3176736831665039,0.7387956380844116,0.4530850052833557,2.612612247467041,-2.059666156768799,-0.8404768705368042,0.38395416736602783,0.6527525186538696,0.42000001668930054,-0.28059884905815125,1.1410865783691406,-1.2377724647521973,-3.0000016689300537,-0.2372448593378067,-0.2361728698015213,-0.21240168809890747,-0.18413642048835754,0.276794970035553,0.19682066142559052,0.06841112673282623,-0.0748983696103096
0.55,-0.0062205190770328045,-0.003997105173766613,0.0,0.6527054309844971,0.0,0.0,-0.7576118111610413,0.43474191427230835,0.039358846843242645,0.0,0.0,0.0,0.3039625883102417,0.3562035858631134,0.6976699829101562,0.4317619800567627,0.5474610328674316,-0.08782930672168732,-0.03973736986517906,-0.8312600255012512,1.7311992645263672,-2.336885929107666,-0.8222752809524536,0.02529582381248474,2.6910595893859863,9.520829200744629,0.3544471859931946,0.7049052715301514,0.43720924854278564,1.7542178630828857,-1.9263150691986084,-1.0302467346191406,0.38395416736602783,0.6527525186538696,0.42000001668930054,-0.2643057405948639,0.7255814075469971,-1.2048360109329224,2.9997053146362305,-0.23228535056114197,-0.2324325442314148,-0.21136674284934998,-0.18615052103996277,0.3551032543182373,0.27920597791671753,0.07996375858783722,-0.1445135474205017
0.5666666666666667,-0.002903608838096261,-0.010277886874973774,0.0,0.6371104121208191,0.0,0.0,-0.7707725763320923,0.11525235325098038,-0.520294189453125,0.0,0.0,0.0,-3.4963467121124268,0.37757107615470886,0.6768720149993896,0.42422276735305786,0.5586053729057312,-0.0758901834487915,0.010524807497859001,-0.8258872628211975,0.4969555139541626,-1.0672636032104492,0.10986252874135971,-1.9890471696853638,3.7347347736358643,25.5305118560791,0.37627679109573364,0.6825878620147705,0.4282408654689789,0.8356822729110718,-0.8391501903533936,0.14900116622447968,0.38395416736602783,0.6527525186538696,0.42000001668930054,-0.2515256106853485,0.940230667591095,-1.225938320159912,-2.997097969055176,-0.21837228536605835,-0.22071440517902374,-0.20453843474388123,-0.18446555733680725,0.954640805721283,0.8581386208534241,0.5410571098327637,0.21047130227088928
0.5833333333333334,0.0036250187549740076,-0.013350567780435085,0.0,0.6337724328041077,0.0,0.0,-0.7735195159912109,0.4950375258922577,-0.06350291520357132,0.0,0.0,0.0,0.41565006971359253,0.39065977931022644,0.662091076374054,0.4232273995876312,0.5559189319610596,-0.05833100900053978,0.012659560889005661,-0.8290907144546509,0.5788342952728271,-1.1608059406280518,-0.002622470259666443,-9.000445365905762,-3.4256696701049805,14.090868949890137,0.38761043548583984,0.667133629322052,0.42754921317100525,0.5749538540840149,-0.782311201095581,0.031853221356868744,0.38395416736602783,0.6527525186538696,0.42000001668930054,-0.2428324818611145,0.2362409383058548,-1.1879644393920898,3.0000033378601074,-0.20796193182468414,-0.21095509827136993,-0.19924747943878174,-0.18405018746852875,0.5338000655174255,0.5057916641235352,0.24916821718215942,-0.03493120148777962
0.6,0.006978222168982029,-0.013971373438835144,0.0,0.62152099609375,0.0,0.0,-0.7833974957466125,0.12818661332130432,0.023598629981279373,0.0,0.0,0.0,-2.7297093868255615,0.39655759930610657,0.6546003818511963,0.422029048204422,0.5731316208839417,-0.03537283465266228,0.010199947282671928,-0.818635880947113,0.015574301593005657,-0.3557271361351013,-0.05494515597820282,2.0729990005493164,-1.3185383081436157,4.605015277862549,0.392549991607666,0.6589328050613403,0.42609903216362,0.010647433809936047,-0.3186492323875427,-0.1194896399974823,0.38395416736602783,0.6527525186538696,0.42000001668930054,-0.2411295771598816,0.08981058746576309,-1.1406303644180298,2.663564443588257,-0.1952999085187912,-0.1998436152935028,-0.1932200789451599,-0.1833997517824173,0.7548823356628418,0.6609272956848145,0.3635088801383972,0.0481332428753376
0.6166666666666667,0.010495146736502647,-0.016480816528201103,0.0,0.6226327419281006,0.0,0.0,-0.7825141549110413,0.2486482411623001,-0.1223205029964447,0.0,0.0,0.0,1.0405066013336182,0.39471766352653503,0.6504156589508057,0.4211338460445404,0.5954166054725647,-0.017722824588418007,0.02048090659081936,-0.8029604554176331,-0.31262364983558655,-0.25286388397216797,-0.05844518914818764,-0.16387169063091278,-2.5087146759033203,3.727848529815674,0.3905320167541504,0.6555267572402954,0.4265022277832031,-0.30026865005493164,-0.1710989624261856,0.10152294486761093,0.38395416736602783,0.6527525186538696,0.42000001668930054,-0.2599136233329773,-2.129201650619507,-1.1655570268630981,-2.9997708797454834,-0.18444107472896576,-0.1899227648973465,-0.1874670386314392,-0.18217535316944122,0.4107999801635742,0.40936875343322754,0.22251029312610626,0.00828328263014555
0.6333333333333333,0.016142012551426888,-0.015398113057017326,0.0,0.6133066415786743,0.0,0.0,-0.7898449301719666,0.3720519244670868,0.11142563074827194,0.0,0.0,0.0,-2.355581760406494,0.39285609126091003,0.6486762166023254,0.4210156500339508,0.610395610332489,-0.01639149896800518,0.015851464122533798,-0.7917683720588684,-0.033657096326351166,-0.04223649576306343,0.015405657701194286,-0.09365624934434891,0.6130856871604919,1.2874287366867065,0.3895726203918457,0.6552515029907227,0.4287317395210266,0.033140312880277634,0.09461800009012222,0.17032143473625183,0.38395416736602783,0.6527525186538696,0.42000001668930054,-0.30574652552604675,-2.998678207397461,-1.2155004739761353,-2.9987738132476807,-0.17730098962783813,-0.18329474329948425,-0.18404901027679443,-0.18226838111877441,0.5018550157546997,0.44948965311050415,0.2534155547618866,0.04399489983916283
0.65,0.023697683587670326,-0.017559507861733437,0.0,0.6166626811027527,0.0,0.0,-0.7872275114059448,0.4707949757575989,-0.16038399934768677,0.0,0.0,0.0,1.4283424615859985,0.39223384857177734,0.648370087146759,0.4201720356941223,0.6123577356338501,-0.0025190585292875767,0.0032323957420885563,-0.7905701398849487,-0.04793579876422882,-0.008447712287306786,-0.06760070472955704,-0.8842192888259888,-3.4009273052215576,0.2026182860136032,0.3883247971534729,0.6575558185577393,0.43153703212738037,-0.20182743668556213,0.13495439291000366,0.17786899209022522,0.38395416736602783,0.6527525186538696,0.42000001668930054,-0.3557552993297577,-3.000000238418579,-1.2655014991760254,-2.999985456466675,-0.16837044060230255,-0.17506033182144165,-0.17868292331695557,-0.1800251454114914,0.4208741784095764,0.41233330965042114,0.28424063324928284,0.13672243058681488
0.6666666666666666,0.033809904009103775,-0.017476579174399376,0.0,0.6419454216957092,0.0,0.0,-0.7667503356933594,0.6440305113792419,0.06453662365674973,0.0,0.0,0.0,4.686159133911133,0.3920741677284241,0.6484115123748779,0.4199998676776886,0.6123572587966919,-2.603246457510977e-06,-9.800124644243624e-06,-0.7905810475349426,9.54001079662703e-05,-0.00047156307846307755,-1.9541708752512932e-05,0.0004418877069838345,-0.01949077658355236,-0.0011599925346672535,0.3861447274684906,0.659127950668335,0.4353853762149811,-0.13006186485290527,0.09938418865203857,0.2981511652469635,0.38395416736602783,0.6527525186538696,0.42000001668930054,-0.40576961636543274,-2.9999773502349854,-1.3154876232147217,-2.999971628189087,-0.16353870928287506,-0.16966880857944489,-0.17429997026920319,-0.17681869864463806,0.27750974893569946,0.3318655490875244,0.31390196084976196,0.2936926782131195
0.6833333333333333,0.04562985524535179,-0.01965317688882351,0.0,0.6527352929115295,0.0,0.0,-0.7575860619544983,0.7368692755699158,-0.18066106736660004,0.0,0.0,0.0,0.6516067981719971,0.39171499013900757,0.6483681797981262,0.4200001060962677,0.6075707674026489,1.611649349797517e-05,-1.3170219972380437e-05,-0.7942655682563782,0.002301293658092618,-0.009464996866881847,-0.0005644559278152883,0.0010761364828795195,0.030579498037695885,0.3393532335758209,0.3858880400657654,0.6605198383331299,0.4412473440170288,0.022743739187717438,-0.004333376884460449,0.3941214382648468,0.38395416736602783,0.6527525186538696,0.42000001668930054,-0.4557814300060272,-2.9999899864196777,-1.3655014038085938,-3.0,-0.15966954827308655,-0.16445928812026978,-0.16867056488990784,-0.17075124382972717,0.1627058982849121,0.2700049579143524,0.3352062404155731,0.402321994304657
0.7,0.05902298912405968,-0.024967849254608154,0.0,0.6401562690734863,0.0,0.0,-0.768244743347168,0.833854079246521,-0.3840741813182831,0.0,0.0,0.0,-2.9088075160980225,0.39171549677848816,0.6483683586120605,0.4200000464916229,0.6075712442398071,7.326165700760612e-07,-3.5663820199260954e-06,-0.7942651510238647,0.00014932533667888492,-0.00011582746083149686,-6.455904804170132e-05,-0.0007435272564180195,-0.0017416899790987372,-0.0006380258710123599,0.39230039715766907,0.6610525250434875,0.4545699954032898,0.7072151303291321,0.048418812453746796,1.291887640953064,0.38395416736602783,0.6527525186538696,0.42000001668930054,-0.5057940483093262,-2.9999797344207764,-1.4155197143554688,-3.0,-0.1591559499502182,-0.16202370822429657,-0.16482393443584442,-0.16546018421649933,-0.02502533793449402,0.09153476357460022,0.18687006831169128,0.28393661975860596
0.7166666666666667,0.07529497146606445,-0.026130618527531624,0.0,0.6049562692642212,0.0,0.0,-0.7962586879730225,0.9914162158966064,-0.0981188639998436,0.0,0.0,0.0,-6.180322647094727,0.39171552658081055,0.6483683586120605,0.4200000464916229,0.6075711250305176,3.9379645500048355e-07,-3.391927293705521e-06,-0.7942652702331543,0.00014951347839087248,-0.0002776104083750397,-9.67725645750761e-05,0.006068219430744648,-0.0009322274127043784,-0.0006175021990202367,0.41336730122566223,0.6577125787734985,0.481607049703598,1.8794933557510376,-0.29666513204574585,2.0443403720855713,0.38395416736602783,0.6527525186538696,0.42000001668930054,-0.5558065176010132,-2.9999914169311523,-1.4655380249023438,-2.9999990463256836,-0.16486756503582,-0.16507107019424438,-0.16543994843959808,-0.16366544365882874,-0.24162250757217407,-0.11682643741369247,0.005837945267558098,0.13189484179019928
0.7333333333333333,0.08847793936729431,-0.02621687389910221,0.0,0.5845545530319214,0.0,0.0,-0.811354398727417,0.7090280055999756,0.04064304381608963,0.0,0.0,0.0,-2.027276039123535,0.39171552658081055,0.6483683586120605,0.4200000464916229,0.6075711250305176,4.706639913365507e-07,-3.4939339457196184e-06,-0.7942652702331543,0.00014664368063677102,-0.00027794684865511954,-9.635789319872856e-05,0.0060936990194022655,-0.0009732265607453883,-0.0006117498269304633,0.4436267018318176,0.6577259302139282,0.5175649523735046,1.6575233936309814,0.2338225394487381,2.2218401432037354,0.38395416736602783,0.6527525186538696,0.42000001668930054,-0.5765575170516968,0.24498073756694794,-1.5155563354492188,-2.9999985694885254,-0.1667589396238327,-0.16582486033439636,-0.16505035758018494,-0.16213250160217285,-0.004831270314753056,0.013671674765646458,0.03351975977420807,0.05002739280462265
0.75,0.09660110622644424,-0.024038735777139664,0.0,0.5898950695991516,0.0,0.0,-0.8074799180030823,0.4094773530960083,0.17443425953388214,0.0,0.0,0.0,1.6645046472549438,0.39171552658081055,0.6483683586120605,0.4200000464916229,0.6075711250305176,4.900261956208851e-07,-3.4140341540478403e-06,-0.7942651510238647,0.0001480543869547546,-0.0002782037481665611,-9.666825644671917e-05,0.006092321593314409,-0.0009570100228302181,-0.0006149496766738594,0.46602684259414673,0.663617730140686,0.5502908825874329,0.9635137915611267,0.4343019723892212,1.7346665859222412,0.38395416736602783,0.6527525186538696,0.42000001668930054,-0.5514183640480042,2.5505173206329346,-1.4767849445343018,3.0,-0.16499195992946625,-0.16403712332248688,-0.1631743311882019,-0.1602572649717331,0.17177781462669373,0.1643187552690506,0.16139082610607147,0.14991207420825958
0.7666666666666666,0.10068323463201523,-0.025873221457004547,0.0,0.5832412838935852,0.0,0.0,-0.8122989535331726,0.19687940180301666,-0.1930146962404251,0.0,0.0,0.0,-1.919095754623413,0.39171552658081055,0.6483683586120605,0.4200000464916229,0.6075711846351624,4.867304710387543e-07,-3.3283988614130067e-06,-0.7942651510238647,0.00014781288336962461,-0.0002782333758659661,-9.660841897130013e-05,0.006094194483011961,-0.0009600819321349263,-0.0006144388462416828,0.4749394655227661,0.6702613830566406,0.5718958377838135,0.07769477367401123,0.37406355142593384,1.0661977529525757,0.38395416736602783,0.6527525186538696,0.42000001668930054,-0.5182856321334839,1.487897276878357,-1.4267323017120361,2.999999523162842,-0.16160991787910461,-0.1607539802789688,-0.15991979837417603,-0.15723015367984772,0.19450660049915314,0.1972220242023468,0.20227697491645813,0.19117003679275513
0.7833333333333333,0.1015491858124733,-0.022945301607251167,0.0,0.5892655253410339,0.0,0.0,-0.8079394698143005,0.0059843119233846664,0.312637060880661,0.0,0.0,0.0,1.7651900053024292,0.39171552658081055,0.6483683586120605,0.4200000464916229,0.6075710654258728,4.4159511958241637e-07,-3.412413889236632e-06,-0.7942652702331543,0.00014735372678842396,-0.0002782594528980553,-9.647896513342857e-05,0.006097530480474234,-0.0009651981526985765,-0.0006133989081718028,0.4703609347343445,0.6754724979400635,0.5854924917221069,-0.5715612173080444,0.32327789068222046,0.5938594937324524,0.38395416736602783,0.6527525186538696,0.42000001668930054,-0.47827622294425964,2.999997854232788,-1.3766834735870361,2.999999761581421,-0.16371677815914154,-0.16159892082214355,-0.15957647562026978,-0.15613077580928802,-0.18385040760040283,-0.09607694298028946,-0.01433052308857441,0.038633279502391815
0.8,0.1001485139131546,-0.023145856335759163,0.0,0.5834227800369263,0.0,0.0,-0.8121686577796936,-0.1553255170583725,-0.024481087923049927,0.0,0.0,0.0,-1.5784380435943604,0.39171552658081055,0.6483683586120605,0.4200000464916229,0.6075711250305176,4.729647287149419e-07,-3.3268484003201593e-06,-0.7942652702331543,0.00014781186473555863,-0.00027824132121168077,-9.660935029387474e-05,0.006094465032219887,-0.0009601911297068,-0.0006144446670077741,0.45567548274993896,0.6792318820953369,0.5890645980834961,-1.267622470855713,0.11655545979738235,0.04008311778306961,0.38395416736602783,0.6527525186538696,0.42000001668930054,-0.4631846249103546,-0.8692954182624817,-1.3266308307647705,2.9999992847442627,-0.1645127385854721,-0.16130848228931427,-0.1582283079624176,-0.15413127839565277,-0.1179681196808815,-0.03556301072239876,0.04543815553188324,0.10192546993494034
0.8166666666666667,0.10140120983123779,-0.017786195501685143,0.0,0.5917092561721802,0.0,0.0,-0.8061514496803284,-0.002836893079802394,0.35709255933761597,0.0,0.0,0.0,1.8616927862167358,0.39171552658081055,0.6483683586120605,0.4200000464916229,0.6075711250305176,4.884254849457648e-07,-3.4268973649886902e-06,-0.7942652702331543,0.00014825182734057307,-0.0002781743532977998,-9.67276282608509e-05,0.006090328097343445,-0.0009548701345920563,-0.0006154009606689215,0.43747714161872864,0.6809097528457642,0.5893212556838989,-0.893144965171814,0.2893829941749573,0.029244504868984222,0.38395416736602783,0.6527525186538696,0.42000001668930054,-0.45760345458984375,1.3428466320037842,-1.3460627794265747,-3.0000016689300537,-0.170353963971138,-0.1652355194091797,-0.160257026553154,-0.15466608107089996,-0.10120151191949844,-0.0566924624145031,-0.002754255197942257,0.039072681218385696
0.8333333333333334,0.10315763205289841,-0.017567181959748268,0.0,0.5901485681533813,0.0,0.0,-0.8072946667671204,0.16591161489486694,-0.013972066342830658,0.0,0.0,0.0,-1.2832090854644775,0.39171552658081055,0.6483683586120605,0.4200000464916229,0.6075711250305176,4.849628680858586e-07,-3.341256160638295e-06,-0.7942651510238647,0.00014781460049562156,-0.0002782354422379285,-9.661028161644936e-05,0.006094282027333975,-0.0009600765188224614,-0.0006144407670944929,0.42556098103523254,0.6843469738960266,0.5870161056518555,-0.6225969791412354,0.027107879519462585,-0.16958843171596527,0.38395416736602783,0.6527525186538696,0.42000001668930054,-0.4799201190471649,-3.000000238418579,-1.3077694177627563,3.0,-0.16796964406967163,-0.16293124854564667,-0.15773744881153107,-0.15196241438388824,0.019257375970482826,0.042005669325590134,0.08271525055170059,0.12228522449731827
0.85,0.10732758790254593,-0.020075013861060143,0.0,0.5987715721130371,0.0,0.0,-0.8009198904037476,0.29411736130714417,-0.21501880884170532,0.0,0.0,0.0,2.1963281631469727,0.39171552658081055,0.6483683586120605,0.4200000464916229,0.6075713038444519,4.573258820528281e-07,-3.4484999105188763e-06,-0.7942650318145752,0.0001472715230192989,-0.0002778888156171888,-9.6537871286273e-05,0.006088859401643276,-0.0009661525255069137,-0.0006131599075160921,0.42044034600257874,0.6847649216651917,0.5872097015380859,-0.0292365625500679,0.016510870307683945,0.21601493656635284,0.38395416736602783,0.6527525186538696,0.42000001668930054,-0.5282074213027954,-2.7741167545318604,-1.3275357484817505,-3.000000476837158,-0.16862179338932037,-0.16285161674022675,-0.156602680683136,-0.14975303411483765,-0.02625429816544056,0.020091410726308823,0.08746791630983353,0.15906406939029694
0.8666666666666667,0.1137213259935379,-0.02528156153857708,0.0,0.5950661897659302,0.0,0.0,-0.8036766648292542,0.41988420486450195,-0.365837961435318,0.0,0.0,0.0,-1.4819306135177612,0.39171552658081055,0.6483683586120605,0.4200000464916229,0.607571005821228,4.980446419722284e-07,-3.2806312901811907e-06,-0.7942653894424438,0.00014579819981008768,-0.0002778322668746114,-9.615370072424412e-05,0.0060953316278755665,-0.0009829556802287698,-0.0006098074954934418,0.42442840337753296,0.6811871528625488,0.5848129987716675,0.49014896154403687,-0.40711599588394165,-0.26797807216644287,0.38395416736602783,0.6527525186538696,0.42000001668930054,-0.5778417587280273,-2.999997615814209,-1.3775426149368286,-2.999999761581421,-0.1703488826751709,-0.16332900524139404,-0.15545904636383057,-0.14688321948051453,-0.09457118809223175,-0.00300435908138752,0.11096304655075073,0.23245061933994293
0.8833333333333333,0.12271170318126678,-0.028280802071094513,0.0,0.5701126456260681,0.0,0.0,-0.8215665221214294,0.5883362293243408,-0.10866447538137436,0.0,0.0,0.0,-4.5532121658325195,0.39171552658081055,0.6483683586120605,0.4200000464916229,0.6075711250305176,4.838593667955138e-07,-3.3810601962613873e-06,-0.7942651510238647,0.0001469676208216697,-0.0002778764464892447,-9.646103717386723e-05,0.006090126466006041,-0.000969625310972333,-0.0006124695064499974,0.43635520339012146,0.6727944612503052,0.5812649726867676,0.9112648963928223,-0.5462353229522705,0.0058759236708283424,0.38395416736602783,0.6527525186538696,0.42000001668930054,-0.6053261160850525,-0.4941151738166809,-1.4275609254837036,-3.000000238418579,-0.17170029878616333,-0.1639717072248459,-0.1550258994102478,-0.14521612226963043,-0.022531703114509583,-0.018493523821234703,0.00459042564034462,0.03666660189628601
0.9,0.1289718747138977,-0.028630778193473816,0.0,0.560337483882904,0.0,0.0,-0.8282643556594849,0.2877179980278015,0.02077241614460945,0.0,0.0,0.0,-0.42227861285209656,0.39171552658081055,0.6483683586120605,0.4200000464916229,0.6075709462165833,4.748007143007271e-07,-3.4206307191197993e-06,-0.7942652702331543,0.0001457862526876852,-0.0002787655685096979,-9.612762369215488e-05,0.006118018180131912,-0.0009874089155346155,-0.0006102608749642968,0.44977128505706787,0.669012188911438,0.5841645002365112,0.6818100214004517,-0.027755526825785637,0.26802074909210205,0.38395416736602783,0.6527525186538696,0.42000001668930054,-0.5893229842185974,2.1701128482818604,-1.3890396356582642,3.000000476837158,-0.16893674433231354,-0.16206732392311096,-0.1537199169397354,-0.14436951279640198,0.2734718918800354,0.18417765200138092,0.10565921664237976,0.033194538205862045
