vladlanda/robotic-transformer/data/env_000_episode_0083.csv
sim_time_s,robot_box_x,robot_box_y,robot_box_z,robot_box_quat_w,robot_box_quat_x,robot_box_quat_y,robot_box_quat_z,robot_box_linvel_x,robot_box_linvel_y,robot_box_linvel_z,robot_box_angvel_x,robot_box_angvel_y,robot_box_angvel_z,cube_world_x,cube_world_y,cube_world_z,cube_quat_w,cube_quat_x,cube_quat_y,cube_quat_z,cube_linvel_x,cube_linvel_y,cube_linvel_z,cube_angvel_x,cube_angvel_y,cube_angvel_z,endpoint_world_x,endpoint_world_y,endpoint_world_z,endpoint_linvel_x,endpoint_linvel_y,endpoint_linvel_z,target_cube_world_x,target_cube_world_y,target_cube_world_z,gripper_actual_pos_rad_gp_leftgearjoint,gripper_actual_vel_rad_s_gp_leftgearjoint,gripper_actual_pos_rad_gp_rotatingjoint,gripper_actual_vel_rad_s_gp_rotatingjoint,motor_angle_rad_joint1,motor_angle_rad_joint2,motor_angle_rad_joint3,motor_angle_rad_joint4,motor_speed_rad_s_joint1,motor_speed_rad_s_joint2,motor_speed_rad_s_joint3,motor_speed_rad_s_joint4
0.0,0.0,0.0,0.0,1.0,0.0,0.0,0.0,0.0,0.0,0.0,0.0,0.0,0.0,-0.36596179008483887,0.7702816128730774,0.41999998688697815,1.0,0.0,0.0,0.0,0.0,0.0,0.0,0.0,0.0,0.0,3.42540442943573e-06,-0.005000244826078415,1.313499927520752,0.0,0.0,0.0,0.4385850727558136,0.6311565637588501,0.42000001668930054,-1.5707999467849731,0.0,0.0,0.0,0.0,0.0,0.0,0.0,0.0,0.0,0.0,0.0
0.016666666666666666,0.00289243645966053,0.0021604839712381363,0.0,0.9998410940170288,0.0,0.0,0.017827974632382393,0.24122397601604462,0.181797057390213,0.0,0.0,0.0,3.1417534351348877,-0.3659619092941284,0.7702813148498535,0.41999998688697815,1.0,3.279964630564791e-06,-8.339746386809566e-07,8.465587342243452e-08,-1.9833529222523794e-05,0.00017983045836444944,-6.132945418357849e-05,0.0009432713268324733,-0.004689474124461412,-0.00031981561915017664,-0.007103104144334793,0.0034235650673508644,1.3159410953521729,-0.8129875063896179,0.9883416891098022,0.18097257614135742,0.4385850727558136,0.6311565637588501,0.42000001668930054,-1.5301094055175781,3.0000035762786865,-0.04585163667798042,-2.9999985694885254,0.000871703727170825,0.000798333203420043,0.0007128021097742021,0.0006130519323050976,0.1108551099896431,0.09749246388673782,0.08327026665210724,0.06815271824598312
0.03333333333333333,0.008978546597063541,0.0067728436551988125,0.0,0.9998300075531006,0.0,0.0,0.01843928173184395,0.4072408080101013,0.31478217244148254,0.0,0.0,0.0,-0.8686624765396118,-0.36596202850341797,0.7702812552452087,0.4200000464916229,1.0,3.3908477234945167e-06,-2.1324151475710096e-06,-3.7116176798690503e-08,0.00026357846218161285,0.0002693776914384216,-0.00010509602725505829,-0.0017706857761368155,0.004130810499191284,-0.0001354778796667233,-0.025414887815713882,0.02649635821580887,1.3168665170669556,-1.3541425466537476,1.633923053741455,-0.05204511806368828,0.4385850727558136,0.6311565637588501,0.42000001668930054,-1.4800899028778076,3.000002861022949,-0.09589148312807083,-3.0000007152557373,0.002765737473964691,0.0023489808663725853,0.001894429326057434,0.0013992016902193427,0.1371144950389862,0.10446479916572571,0.07031993567943573,0.03459629416465759
0.05,0.018489975482225418,0.013874335214495659,0.0,0.9999617338180542,0.0,0.0,-0.008750975131988525,0.6360798478126526,0.4719504415988922,0.0,0.0,0.0,-4.072633743286133,-0.36596205830574036,0.7702813148498535,0.4200000464916229,1.0,3.7651484490197618e-06,-2.211842684118892e-06,5.60227420010051e-09,0.00026531011098995805,0.000266915129031986,-0.0001044049859046936,-0.0017243394395336509,0.004177437163889408,-0.00012949485972058028,-0.049968551844358444,0.0582771897315979,1.3136653900146484,-1.6112700700759888,2.108130693435669,-0.3292524516582489,0.4385850727558136,0.6311565637588501,0.42000001668930054,-1.4300715923309326,3.000000476837158,-0.14592483639717102,-2.999999761581421,0.005099629983305931,0.004028312861919403,0.002884672721847892,0.001665048417635262,0.15344631671905518,0.10436701774597168,0.05336873233318329,-1.8932041712105274e-08
0.06666666666666667,0.02537674270570278,0.024300936609506607,0.0,0.9998047947883606,0.0,0.0,-0.019756650552153587,0.28167542815208435,0.7011926770210266,0.0,0.0,0.0,-0.08969087153673172,-0.36596205830574036,0.7702812552452087,0.4200000464916229,0.9999999403953552,3.40674955623399e-06,-2.2855595034343423e-06,4.3007116801163647e-07,0.00026702447212301195,0.00026791708660311997,-0.0001043803058564663,-0.0017406379338353872,0.004211765248328447,-0.00012851084466092288,-0.08016249537467957,0.09298219531774521,1.3048738241195679,-1.8848211765289307,2.1802282333374023,-0.6715881824493408,0.4385850727558136,0.6311565637588501,0.42000001668930054,-1.3800479173660278,2.999999523162842,-0.1130228042602539,3.0000007152557373,0.003944289404898882,0.0022330195643007755,0.00040343982982449234,-0.0015564182540401816,-0.16835984587669373,-0.20915013551712036,-0.2524963915348053,-0.2988991439342499
0.08333333333333333,0.03381035849452019,0.03671395406126976,0.0,0.999100923538208,0.0,0.0,-0.04239492118358612,0.5985926389694214,0.7708290219306946,0.0,0.0,0.0,-3.5661728382110596,-0.36596205830574036,0.7702812552452087,0.4200000464916229,0.9999999403953552,3.6261044442653656e-06,-2.33528248827497e-06,3.0319426969072083e-07,0.00026613858062773943,0.00026685057673603296,-0.00010405061766505241,-0.0017283286433666945,0.004196317866444588,-0.0001279078860534355,-0.10626689344644547,0.13297879695892334,1.2936985492706299,-1.3020799160003662,2.641767978668213,-0.6855825781822205,0.4385850727558136,0.6311565637588501,0.42000001668930054,-1.3300479650497437,3.000002145767212,-0.1450529843568802,-3.0000016689300537,0.001889035920612514,-0.001014324021525681,-0.004066068679094315,-0.007283049635589123,-0.13169702887535095,-0.22348017990589142,-0.3163503408432007,-0.4104774594306946
0.1,0.0407787561416626,0.05128061771392822,0.0,0.9957869052886963,0.0,0.0,-0.09169717133045197,0.42416611313819885,0.9403192400932312,0.0,0.0,0.0,-6.558394908905029,-0.36596205830574036,0.7702812552452087,0.4200000464916229,1.0,3.4221338864881545e-06,-2.3085876819095574e-06,1.796027504497033e-07,0.00026681541930884123,0.0002680059114936739,-0.00010440708138048649,-0.001743128290399909,0.004207063931971788,-0.0001289125211769715,-0.12892375886440277,0.17902663350105286,1.2824842929840088,-1.392857551574707,2.9273509979248047,-0.6693702936172485,0.4385850727558136,0.6311565637588501,0.42000001668930054,-1.2800511121749878,2.9904794692993164,-0.11155527085065842,3.0000011920928955,-0.0006155729643069208,-0.005173024721443653,-0.009870138950645924,-0.014725352637469769,-0.06815927475690842,-0.1800786256790161,-0.28975099325180054,-0.3971407413482666
0.11666666666666667,0.04561363533139229,0.06439764052629471,0.0,0.9928103685379028,0.0,0.0,-0.11969782412052155,0.23550014197826385,0.7017077207565308,0.0,0.0,0.0,-2.1863884925842285,-0.36596205830574036,0.7702813148498535,0.4200000464916229,1.0,3.711474846568308e-06,-2.3326983864535578e-06,2.574058726168005e-07,0.0002648566442076117,0.00026635400718078017,-0.00010423525236546993,-0.0017183306626975536,0.004170096945017576,-0.00012915683328174055,-0.15671497583389282,0.22631683945655823,1.2695884704589844,-1.6899992227554321,2.9924416542053223,-0.8730639219284058,0.4385850727558136,0.6311565637588501,0.42000001668930054,-1.2389792203903198,1.9935308694839478,-0.14354906976222992,-3.0,-0.0020625819452106953,-0.008510095998644829,-0.015040808357298374,-0.021671423688530922,-0.126874640583992,-0.23416461050510406,-0.3377653658390045,-0.43755897879600525
0.13333333333333333,0.0542919747531414,0.0775962844491005,0.0,0.9872155785560608,0.0,0.0,-0.15939079225063324,0.5300683379173279,0.801013708114624,0.0,0.0,0.0,-5.576234817504883,-0.36596205830574036,0.7702812552452087,0.4200000464916229,0.9999999403953552,3.424648184591206e-06,-2.30197656492237e-06,1.5597707658798754e-07,0.0002670702524483204,0.0002681133337318897,-0.00010444503277540207,-0.0017433364409953356,0.0042120302096009254,-0.0001287761697312817,-0.18457230925559998,0.2820982336997986,1.2513256072998047,-1.6170086860656738,3.730720043182373,-1.3289668560028076,0.4385850727558136,0.6311565637588501,0.42000001668930054,-1.1917214393615723,2.999993324279785,-0.11004963517189026,2.9999985694885254,-0.0027566051576286554,-0.011010535061359406,-0.019278509542346,-0.027573643252253532,-0.19556890428066254,-0.2752516567707062,-0.35204920172691345,-0.42580345273017883
0.15,0.059102557599544525,0.08924124389886856,0.0,0.9743984341621399,0.0,0.0,-0.22482822835445404,0.2771000564098358,0.6327399611473083,0.0,0.0,0.0,-8.860090255737305,-0.36596205830574036,0.7702812552452087,0.4200000464916229,1.0,3.7137983781576622e-06,-2.207822262789705e-06,-1.6912022715587227e-07,0.00026353259454481304,0.0002653595001902431,-0.00010421662591397762,-0.0017011979361996055,0.004144062753766775,-0.00012960298045072705,-0.21230629086494446,0.3449210226535797,1.2255475521087646,-1.5745117664337158,3.9398245811462402,-1.6880255937576294,0.4385850727558136,0.6311565637588501,0.42000001668930054,-1.1602016687393188,0.9338428378105164,-0.14210203289985657,-3.0000011920928955,-0.009844466112554073,-0.018965059891343117,-0.02806619554758072,-0.037161100655794144,-0.4251655042171478,-0.4749836325645447,-0.5222476124763489,-0.5669101476669312
0.16666666666666666,0.060604747384786606,0.1019943580031395,0.0,0.9631116986274719,0.0,0.0,-0.26910194754600525,0.025866486132144928,0.790468156337738,0.0,0.0,0.0,-4.336034774780273,-0.36596205830574036,0.7702812552452087,0.4200000464916229,0.9999999403953552,3.638302587205544e-06,-2.2787849047745112e-06,2.700390098198113e-07,0.0002668272063601762,0.00026750180404633284,-0.00010409974493086338,-0.0017399356001988053,0.0042100450955331326,-0.00012781673285644501,-0.24758762121200562,0.4104023575782776,1.1899937391281128,-2.080843448638916,4.283238410949707,-2.5544004440307617,0.4385850727558136,0.6311565637588501,0.42000001668930054,-1.1174958944320679,2.999998092651367,-0.19213366508483887,-3.000002145767212,-0.018840288743376732,-0.02834678441286087,-0.03778466954827309,-0.04716889560222626,-0.5664308071136475,-0.5734333992004395,-0.5774272084236145,-0.578564465045929
0.18333333333333332,0.06551997363567352,0.11578076332807541,0.0,0.9458962678909302,0.0,0.0,-0.3244692087173462,0.27203088998794556,0.9262758493423462,0.0,0.0,0.0,-7.8692240715026855,-0.36596205830574036,0.7702812552452087,0.4200000464916229,1.0,3.3863352655316703e-06,-2.300278083566809e-06,1.4389989644314483e-07,0.00026674530818127096,0.0002678712480701506,-0.00010436796583235264,-0.0017412264132872224,0.0042059896513819695,-0.00012878300913143903,-0.28079110383987427,0.4832386076450348,1.142465353012085,-1.6825758218765259,4.592032432556152,-3.179959774017334,0.4385850727558136,0.6311565637588501,0.42000001668930054,-1.0674936771392822,3.0000052452087402,-0.24216341972351074,-3.000002145767212,-0.02734784595668316,-0.03702029585838318,-0.04657604917883873,-0.05603368580341339,-0.7190893292427063,-0.6981191635131836,-0.6763579845428467,-0.6541845202445984
0.2,0.06728605926036835,0.1276068091392517,0.0,0.9323554635047913,0.0,0.0,-0.3615429997444153,0.06471385061740875,0.6497095227241516,0.0,0.0,0.0,-3.5702192783355713,-0.36596205830574036,0.7702813148498535,0.4200000464916229,1.0,3.6754631764779333e-06,-2.3266181869985303e-06,2.2109479402843135e-07,0.0002648438676260412,0.0002663126797415316,-0.00010421546176075935,-0.0017176977125927806,0.004169917199760675,-0.00012910606164950877,-0.31137728691101074,0.5569847822189331,1.079186201095581,-1.5085046291351318,4.609450340270996,-4.327756881713867,0.4385850727558136,0.6311565637588501,0.42000001668930054,-1.0192979574203491,2.7630786895751953,-0.2921910583972931,-3.000000476837158,-0.041111692786216736,-0.04980861395597458,-0.05840321630239487,-0.06692696362733841,-0.8764978647232056,-0.8001688718795776,-0.7253692746162415,-0.6529142260551453
0.21666666666666667,0.06517203897237778,0.14095281064510345,0.0,0.9197746515274048,0.0,0.0,-0.39244696497917175,-0.2091730684041977,0.839433491230011,0.0,0.0,0.0,-4.217865467071533,-0.36596205830574036,0.7702812552452087,0.4200000464916229,1.0,3.3222122510778718e-06,-2.20804554373899e-06,2.742411027156777e-07,0.00026662787422537804,0.00026749519747681916,-0.00010426202788949013,-0.0017358181066811085,0.004204723052680492,-0.0001283369492739439,-0.3370806574821472,0.6289865970611572,0.9988915324211121,-1.2587064504623413,4.234881401062012,-5.247744560241699,0.4385850727558136,0.6311565637588501,0.42000001668930054,-0.9693725109100342,3.0000011920928955,-0.34221717715263367,-3.0,-0.056449804455041885,-0.06510598212480545,-0.0726688876748085,-0.0796213373541832,-0.942909300327301,-0.9277987480163574,-0.8633589148521423,-0.768367350101471
0.23333333333333334,0.06682232767343521,0.14912575483322144,0.0,0.9156115055084229,0.0,0.0,-0.40206414461135864,0.119896799325943,0.38396263122558594,0.0,0.0,0.0,-0.20709383487701416,-0.36596205830574036,0.7702812552452087,0.4200000464916229,1.0,3.656415628938703e-06,-2.3734403384878533e-06,-4.077129176494054e-07,0.0002661167527548969,0.0002672596601769328,-0.00010423315688967705,-0.0017335204174742103,0.004194542765617371,-0.0001285481994273141,-0.3605498671531677,0.6907351016998291,0.9061083793640137,-1.1775566339492798,3.340043067932129,-5.934700965881348,0.4385850727558136,0.6311565637588501,0.42000001668930054,-0.9193641543388367,2.999995470046997,-0.39224594831466675,-2.9999990463256836,-0.06976782530546188,-0.07792506366968155,-0.0842842310667038,-0.08966667205095291,-0.9608461856842041,-0.8999829292297363,-0.7949160933494568,-0.6762994527816772
0.25,0.06282639503479004,0.1615566611289978,0.0,0.905046820640564,0.0,0.0,-0.42531201243400574,-0.24254688620567322,0.8297851085662842,0.0,0.0,0.0,-3.873257637023926,-0.36596205830574036,0.7702813148498535,0.4200000464916229,1.0,3.6304120385466376e-06,-2.2426145278586773e-06,1.1181708003960011e-08,0.00026680054725147784,0.00026706064818426967,-0.00010390975512564182,-0.0017342400969937444,0.004210646729916334,-0.00012703398533631116,-0.3745865821838379,0.7362362146377563,0.800159215927124,-0.5095272064208984,2.2606639862060547,-6.515617847442627,0.4385850727558136,0.6311565637588501,0.42000001668930054,-0.8693540692329407,3.0000009536743164,-0.44227686524391174,-2.9999663829803467,-0.0869223028421402,-0.0948837623000145,-0.10110745579004288,-0.10630286484956741,-0.8121323585510254,-0.8493208289146423,-0.8830523490905762,-0.9128421545028687
0.26666666666666666,0.06346890330314636,0.1678404062986374,0.0,0.9018161296844482,0.0,0.0,-0.4321199357509613,0.06027922406792641,0.2650284171104431,0.0,0.0,0.0,0.03248007968068123,-0.36596202850341797,0.7702812552452087,0.4200000464916229,0.9999999403953552,3.739990006579319e-06,-2.2363544758263743e-06,4.4994595782554825e-07,0.00026479660300537944,0.000266730145085603,-0.00010453932918608189,-0.0017189461505040526,0.004166724160313606,-0.00013016641605645418,-0.3860950469970703,0.7652064561843872,0.6910355687141418,-0.5064166784286499,1.162276268005371,-6.638091087341309,0.4385850727558136,0.6311565637588501,0.42000001668930054,-0.8193447589874268,2.9999895095825195,-0.49230852723121643,-3.000001907348633,-0.09796939790248871,-0.10626205801963806,-0.11285080015659332,-0.11841336637735367,-0.9103199243545532,-0.8697382211685181,-0.837786078453064,-0.8119696974754333
0.2833333333333333,0.060796599835157394,0.17068812251091003,0.0,0.8928996920585632,0.0,0.0,-0.4502556324005127,-0.24143017828464508,0.1380826085805893,0.0,0.0,0.0,-3.3725249767303467,-0.36596205830574036,0.7702812552452087,0.4200000464916229,1.0,3.391518930584425e-06,-2.2911697215022286e-06,1.2456727915832744e-07,0.00026677147252485156,0.00026789188268594444,-0.00010437238961458206,-0.0017411535372957587,0.004206198733299971,-0.00012877908011432737,-0.3898564279079437,0.7782369256019592,0.5803275108337402,0.10557752847671509,0.2663588523864746,-6.408479690551758,0.4385850727558136,0.6311565637588501,0.42000001668930054,-0.769335925579071,3.000001907348633,-0.5423390865325928,-2.9999992847442627,-0.11523760110139847,-0.12337508797645569,-0.1298486739397049,-0.13528719544410706,-1.0150973796844482,-1.0113849639892578,-1.0085585117340088,-1.0063046216964722
0.3,0.05456394702196121,0.1717199981212616,0.0,0.8917241096496582,0.0,0.0,-0.4525793790817261,-0.4134998619556427,0.023749131709337234,0.0,0.0,0.0,0.6037102341651917,-0.36596205830574036,0.7702813148498535,0.4200000464916229,1.0,3.680642066683504e-06,-2.3191096261143684e-06,2.0105352405153099e-07,0.00026479020016267896,0.00026625703321769834,-0.00010421290062367916,-0.00171678327023983,0.004168916493654251,-0.00012909506040159613,-0.38713061809539795,0.7756291627883911,0.48046597838401794,0.3398699164390564,-0.616270899772644,-5.69971227645874,0.4385850727558136,0.6311565637588501,0.42000001668930054,-0.7193276882171631,3.000002145767212,-0.5923677682876587,-2.9999990463256836,-0.1327459216117859,-0.14066679775714874,-0.1469796597957611,-0.15229368209838867,-1.0043516159057617,-1.0032991170883179,-1.0024961233139038,-1.0018510818481445
0.31666666666666665,0.04604708030819893,0.17044277489185333,0.0,0.8950884342193604,0.0,0.0,-0.44588860869407654,-0.4816526472568512,-0.15891893208026886,0.0,0.0,0.0,1.0364574193954468,-0.36596205830574036,0.7702812552452087,0.4200000464916229,1.0,3.304140818727319e-06,-2.2214426280697808e-06,2.535191754304833e-07,0.00026660627918317914,0.00026745020295493305,-0.00010424340143799782,-0.0017351501155644655,0.004204238764941692,-0.00012828496983274817,-0.38287588953971863,0.7728593349456787,0.43048208951950073,0.19253432750701904,-0.04088393971323967,-0.3015733063220978,0.4385850727558136,0.6311565637588501,0.42000001668930054,-0.669322669506073,2.999793529510498,-0.6427698135375977,-3.0002713203430176,-0.14559940993785858,-0.15360493957996368,-0.15991419553756714,-0.16507908701896667,-0.2371903657913208,-0.30686068534851074,-0.3612976372241974,-0.39346250891685486
0.3333333333333333,0.03647114336490631,0.16605424880981445,0.0,0.8888581395149231,0.0,0.0,-0.4581824839115143,-0.6210554242134094,-0.30489304661750793,0.0,0.0,0.0,-2.550541639328003,-0.36476752161979675,0.7720510363578796,0.42000138759613037,0.9998733997344971,2.1563137124758214e-05,5.3879983170190826e-05,-0.015909677371382713,0.20597095787525177,0.2913343906402588,-0.0012644496746361256,-0.0011981152929365635,-0.0571979321539402,-4.947595596313477,-0.37956342101097107,0.7773786187171936,0.42756617069244385,0.28847789764404297,0.304172158241272,-0.1989554464817047,0.4385850727558136,0.6311565637588501,0.42000001668930054,-0.6193169951438904,2.9999752044677734,-0.6928685307502747,-2.9998679161071777,-0.14983296394348145,-0.15852206945419312,-0.16528454422950745,-0.1705559343099594,-0.3036104738712311,-0.31686538457870483,-0.3209756314754486,-0.30906713008880615
0.35,0.02481198124587536,0.15922918915748596,0.0,0.8901825547218323,0.0,0.0,-0.4556039571762085,-0.7364780902862549,-0.45080894231796265,0.0,0.0,0.0,1.283226728439331,-0.3615186810493469,0.7768471837043762,0.4200000464916229,0.9980485439300537,4.098867066204548e-06,4.0524835043243e-08,-0.06244214251637459,0.22123286128044128,0.34082797169685364,-5.014592534280382e-05,-0.0022202508989721537,0.002886951668187976,-7.8072404861450195,-0.37308868765830994,0.7834748029708862,0.4239806532859802,0.49450159072875977,0.36195793747901917,-0.2040306031703949,0.4385850727558136,0.6311565637588501,0.42000001668930054,-0.5693119764328003,2.9999706745147705,-0.7429139018058777,-2.9999985694885254,-0.15710975229740143,-0.16491857171058655,-0.1706942617893219,-0.17478151619434357,-0.4774567782878876,-0.3863338530063629,-0.29071474075317383,-0.18585780262947083
0.36666666666666664,0.011009211651980877,0.150020033121109,0.0,0.8845930099487305,0.0,0.0,-0.4663638174533844,-0.8755024075508118,-0.5950000286102295,0.0,0.0,0.0,-2.3316805362701416,-0.356509804725647,0.7838671207427979,0.4200003445148468,0.9897226095199585,-9.169541044684593e-06,1.1391050065867603e-05,-0.14300009608268738,0.2949501574039459,0.4074408710002899,-0.0005087921163067222,0.01903722621500492,-0.00839893240481615,-9.312867164611816,-0.36333101987838745,0.7885041236877441,0.42125648260116577,0.708458423614502,0.3584230840206146,-0.13825733959674835,0.4385850727558136,0.6311565637588501,0.42000001668930054,-0.5193071961402893,2.9999804496765137,-0.7929695248603821,-2.999993085861206,-0.16593655943870544,-0.17182762920856476,-0.17559503018856049,-0.17751874029636383,-0.5202929973602295,-0.3968677222728729,-0.267814040184021,-0.12971091270446777
0.3833333333333333,-0.004943882115185261,0.13844850659370422,0.0,0.8861513733863831,0.0,0.0,-0.4633958637714386,-0.9960778951644897,-0.7342017889022827,0.0,0.0,0.0,1.5039650201797485,-0.34728994965553284,0.7949607968330383,0.4204610288143158,0.9772685766220093,0.011396563611924648,-0.0022299098782241344,-0.2116866558790207,0.8064419031143188,0.9002369046211243,0.03912273421883583,1.9587287902832031,-0.8949808478355408,-5.04307222366333,-0.35001662373542786,0.7983039021492004,0.4196866750717163,0.9149695038795471,0.7770551443099976,-0.04776090383529663,0.4385850727558136,0.6311565637588501,0.42000001668930054,-0.4693029522895813,2.999807834625244,-0.8430097103118896,-2.999180316925049,-0.17519664764404297,-0.17856493592262268,-0.17967967689037323,-0.1787848174571991,-0.5079160332679749,-0.3503478467464447,-0.18342792987823486,-0.005475533660501242
0.4,-0.017577465623617172,0.12395142763853073,0.0,0.8812131881713867,0.0,0.0,-0.47271913290023804,-0.6741663813591003,-0.920563817024231,0.0,0.0,0.0,-2.1985738277435303,-0.3304804265499115,0.8088842630386353,0.42135247588157654,0.9649354219436646,-0.008299139328300953,-0.006619575899094343,-0.26227250695228577,1.3221019506454468,0.6340645551681519,-0.20412173867225647,22.397611618041992,-5.334577560424805,-2.657003402709961,-0.3319542407989502,0.8106215596199036,0.4206652343273163,1.3563544750213623,0.8577035665512085,0.12551140785217285,0.4385850727558136,0.6311565637588501,0.42000001668930054,-0.41931769251823425,2.8420796394348145,-0.8930363655090332,-3.0004560947418213,-0.18289314210414886,-0.18342630565166473,-0.18148334324359894,-0.17730122804641724,-0.3986280858516693,-0.21979069709777832,-0.02672445774078369,0.18015532195568085
0.4166666666666667,-0.026062173768877983,0.10665144771337509,0.0,0.861822247505188,0.0,0.0,-0.507210373878479,-0.4154271185398102,-1.0927213430404663,0.0,0.0,0.0,-5.6233625411987305,-0.3031117916107178,0.8253743052482605,0.4236336648464203,0.944360077381134,-0.019327426329255104,-0.02812734991312027,-0.32713785767555237,2.422619581222534,0.8815555572509766,0.012137175537645817,28.534378051757812,-22.76584815979004,13.093085289001465,-0.3039820194244385,0.8270888328552246,0.42269814014434814,1.9352984428405762,1.0632550716400146,0.35534459352493286,0.4385850727558136,0.6311565637588501,0.42000001668930054,-0.3874363899230957,1.021134853363037,-0.9430567622184753,-3.0000016689300537,-0.18912510573863983,-0.18683041632175446,-0.18181800842285156,-0.174355611205101,-0.34654611349105835,-0.18090885877609253,-0.0026317164301872253,0.18520957231521606
0.43333333333333335,-0.03558167815208435,0.08704975992441177,0.0,0.8255091309547424,0.0,0.0,-0.5643887519836426,-0.6572445034980774,-1.2016699314117432,0.0,0.0,0.0,-9.064390182495117,-0.2572360932826996,0.8453739285469055,0.428856760263443,0.923815906047821,-0.011076869443058968,-0.05840662121772766,-0.3781932592391968,3.73508358001709,0.9109143614768982,0.4759618043899536,10.668509483337402,-13.077609062194824,10.428709983825684,-0.2577807605266571,0.8466799259185791,0.42797034978866577,3.6211862564086914,1.4061369895935059,0.5316333770751953,0.4385850727558136,0.6311565637588501,0.42000001668930054,-0.3719310760498047,1.0040262937545776,-0.9930788278579712,-3.000002145767212,-0.19756488502025604,-0.1918400377035141,-0.18334463238716125,-0.17241975665092468,-0.5785071849822998,-0.34789231419563293,-0.12134691327810287,0.09594739973545074
0.45,-0.044589877128601074,0.07376956194639206,0.0,0.7694295048713684,0.0,0.0,-0.6387317776679993,-0.482932448387146,-0.6570627689361572,0.0,0.0,0.0,-12.04014778137207,-0.172336146235466,0.8647019863128662,0.43745157122612,0.8927432298660278,0.048635903745889664,-0.1009359210729599,-0.4364125728607178,6.367181777954102,0.8507733345031738,0.5475560426712036,6.387609958648682,-13.63188362121582,8.288983345031738,-0.17324577271938324,0.8671804666519165,0.43644535541534424,6.297529220581055,1.2827177047729492,0.6547173261642456,0.4385850727558136,0.6311565637588501,0.42000001668930054,-0.3512989282608032,1.4276986122131348,-0.9556613564491272,2.9985263347625732,-0.21309193968772888,-0.20413437485694885,-0.19051647186279297,-0.1750084012746811,-0.8898703455924988,-0.822618305683136,-0.5243819355964661,-0.2681313753128052
0.4666666666666667,-0.0499056801199913,0.06526420265436172,0.0,0.722845196723938,0.0,0.0,-0.6910099387168884,-0.3040010333061218,-0.5363553762435913,0.0,0.0,0.0,-7.069034099578857,-0.07018371671438217,0.8759554028511047,0.4500184953212738,0.8398298621177673,0.06521476060152054,-0.12131746858358383,-0.52508544921875,6.100374698638916,-0.4044307470321655,0.992121160030365,-7.795088768005371,5.015048980712891,8.774171829223633,-0.07124260812997818,0.8811426162719727,0.4491863250732422,6.122524261474609,0.47080469131469727,0.838911771774292,0.4385850727558136,0.6311565637588501,0.42000001668930054,-0.32927829027175903,1.029545545578003,-0.9809514284133911,-3.000002145767212,-0.22563815116882324,-0.217218816280365,-0.200659841299057,-0.1811925619840622,-0.547802746295929,-0.5975489020347595,-0.4888724684715271,-0.3227770924568176
0.48333333333333334,-0.05844854936003685,0.050157930701971054,0.0,0.698681652545929,0.0,0.0,-0.7154326438903809,-0.6051722168922424,-1.038651466369629,0.0,0.0,0.0,-3.15474796295166,0.030149012804031372,0.8741974234580994,0.4633074998855591,0.772226870059967,0.06091226264834404,-0.10898995399475098,-0.6229577660560608,5.7849812507629395,-1.6102403402328491,0.7721583247184753,5.719003677368164,-8.4376220703125,24.223417282104492,0.028274063020944595,0.8798812627792358,0.4621369242668152,6.003878593444824,-0.7184517979621887,0.851689338684082,0.4385850727558136,0.6311565637588501,0.42000001668930054,-0.31555840373039246,0.5316569805145264,-1.030974268913269,-3.000002384185791,-0.2311600148677826,-0.22256004810333252,-0.2038646787405014,-0.18155892193317413,-0.283994197845459,-0.20576657354831696,-0.04598880559206009,0.1415790170431137
0.5,-0.06234163045883179,0.04043055325746536,0.0,0.6657744646072388,0.0,0.0,-0.7461529970169067,-0.22402533888816833,-0.6250438094139099,0.0,0.0,0.0,-5.951022148132324,0.12549374997615814,0.8505190014839172,0.4715464413166046,0.7292236089706421,0.04997294396162033,-0.09430374205112457,-0.6759011149406433,5.429325103759766,-2.3327603340148926,0.3403927981853485,3.3190267086029053,-2.8678956031799316,13.325867652893066,0.12484372407197952,0.8562569618225098,0.4707825779914856,5.712563514709473,-1.7993881702423096,0.3097965717315674,0.4385850727558136,0.6311565637588501,0.42000001668930054,-0.307660311460495,0.516839325428009,-1.0809963941574097,-3.0000009536743164,-0.24002043902873993,-0.2323722541332245,-0.20960690081119537,-0.18319442868232727,-0.025790855288505554,-0.378261536359787,-0.20390456914901733,-0.02639327012002468
0.5166666666666666,-0.06331471353769302,0.03340129554271698,0.0,0.6501831412315369,0.0,0.0,-0.7597775459289551,0.0034050990361720324,-0.33853206038475037,0.0,0.0,0.0,-1.3345667123794556,0.21210744976997375,0.8154417276382446,0.4723137319087982,0.6401352286338806,0.002277547726407647,-0.10359885543584824,-0.761241614818573,4.500905513763428,-2.6927876472473145,-0.24446448683738708,-18.024465560913086,7.802020072937012,-4.608839511871338,0.21044424176216125,0.8222981691360474,0.4729843735694885,4.713335990905762,-2.346470594406128,0.07041504979133606,0.4385850727558136,0.6311565637588501,0.42000001668930054,-0.2953394651412964,0.8297078013420105,-1.1310185194015503,-2.9999992847442627,-0.23995018005371094,-0.23821333050727844,-0.21305473148822784,-0.18440265953540802,-0.00903023686259985,-0.23077966272830963,-0.1324692815542221,-0.05305839702486992
0.5333333333333333,-0.06088293343782425,0.022658612579107285,0.0,0.6252351403236389,0.0,0.0,-0.7804363965988159,0.1609347015619278,-0.6606374382972717,0.0,0.0,0.0,-4.713972568511963,0.28411656618118286,0.7753170728683472,0.4648624658584595,0.5640118718147278,-0.06298362463712692,-0.11919482052326202,-0.8146877884864807,3.6192760467529297,-2.739731788635254,-0.7161129713058472,-9.837580680847168,14.678566932678223,0.5064622759819031,0.2821132242679596,0.7838685512542725,0.46818089485168457,3.911595344543457,-2.5185189247131348,-0.4241969585418701,0.4385850727558136,0.6311565637588501,0.42000001668930054,-0.28066620230674744,0.7981739640235901,-1.181040644645691,-2.9988596439361572,-0.23516608774662018,-0.23685960471630096,-0.21152347326278687,-0.18303874135017395,0.21788349747657776,0.09724152088165283,0.09556030482053757,0.06215383857488632
0.55,-0.056156303733587265,0.016741961240768433,0.0,0.6146727204322815,0.0,0.0,-0.7887822389602661,0.3256470859050751,-0.3207986056804657,0.0,0.0,0.0,-0.5228610038757324,0.3406399190425873,0.7322759628295898,0.45204800367355347,0.49781641364097595,-0.10766402631998062,-0.12059994786977768,-0.8520814776420593,2.8699851036071777,-3.4578511714935303,-0.8074649572372437,-13.618215560913086,-4.341433525085449,14.983197212219238,0.33903980255126953,0.7406104207038879,0.4574684500694275,2.993945837020874,-2.578091859817505,-0.7630261778831482,0.4385850727558136,0.6311565637588501,0.42000001668930054,-0.2642803490161896,0.6471503973007202,-1.2310627698898315,-3.000002384185791,-0.23420941829681396,-0.2365606129169464,-0.21132202446460724,-0.18360479176044464,0.1606464684009552,0.13183310627937317,0.07196199148893356,-0.02562420442700386
0.5666666666666667,-0.04875834286212921,0.014371474273502827,0.0,0.5962554216384888,0.0,0.0,-0.8027948141098022,0.4962027370929718,-0.07610984891653061,0.0,0.0,0.0,-3.676863193511963,0.3846758306026459,0.6909098029136658,0.43317919969558716,0.48358213901519775,-0.12649638950824738,-0.11491471529006958,-0.8584530353546143,2.2961361408233643,-2.5800180435180664,-1.292830467224121,-6.026128768920898,1.962464690208435,7.910068511962891,0.38325071334838867,0.6994578838348389,0.4388020634651184,2.2279248237609863,-2.343813419342041,-1.2564189434051514,0.4385850727558136,0.6311565637588501,0.42000001668930054,-0.25516843795776367,0.5363776087760925,-1.2037162780761719,2.999676465988159,-0.22991834580898285,-0.2331056147813797,-0.2100439965724945,-0.1849919855594635,0.33306384086608887,0.28346771001815796,0.10788287222385406,-0.09419211745262146
0.5833333333333334,-0.03907766938209534,0.015540937893092632,0.0,0.5922311544418335,0.0,0.0,-0.8057681322097778,0.6125584840774536,0.15451303124427795,0.0,0.0,0.0,0.3384751081466675,0.41241946816444397,0.6610320806503296,0.4239737093448639,0.4953175187110901,-0.07736209034919739,-0.005145516712218523,-0.8652451634407043,1.1402007341384888,-1.5164170265197754,0.07478795945644379,-33.91016387939453,-2.7858972549438477,13.500475883483887,0.41204577684402466,0.6668506860733032,0.42692750692367554,1.0955297946929932,-1.366504430770874,0.13963280618190765,0.4385850727558136,0.6311565637588501,0.42000001668930054,-0.24394841492176056,0.8574960231781006,-1.2252449989318848,-2.9949982166290283,-0.22408579289913177,-0.2281535416841507,-0.208591029047966,-0.18736667931079865,0.4130510091781616,0.3485930860042572,0.10396533459424973,-0.15265756845474243
0.6,-0.03346160799264908,0.011232199147343636,0.0,0.5757920742034912,0.0,0.0,-0.8175961375236511,0.23841795325279236,-0.3997011184692383,0.0,0.0,0.0,-3.521421432495117,0.43072736263275146,0.6444504261016846,0.42316389083862305,0.49707385897636414,-0.06253662705421448,-0.004957746248692274,-0.8654375076293945,0.7523972988128662,-0.7599210739135742,0.18804924190044403,8.015507698059082,9.585371017456055,1.431032657623291,0.4286995530128479,0.6498634815216064,0.4264482259750366,0.8000681400299072,-0.8144632577896118,-0.053081732243299484,0.4385850727558136,0.6311565637588501,0.42000001668930054,-0.2329557090997696,0.6893182992935181,-1.1872007846832275,2.9999260902404785,-0.2096043825149536,-0.21527795493602753,-0.20116552710533142,-0.18542763590812683,0.9696075916290283,0.9146036505699158,0.5710643529891968,0.22623446583747864
0.6166666666666667,-0.024812400341033936,0.009716428816318512,0.0,0.5721288323402405,0.0,0.0,-0.8201637864112854,0.6249109506607056,0.021098047494888306,0.0,0.0,0.0,0.4092664420604706,0.44207996129989624,0.6309596300125122,0.4228023886680603,0.5050217509269714,-0.05639994889497757,-0.010477311909198761,-0.8611980676651001,0.5206478834152222,-1.3880802392959595,-0.01527431420981884,-9.202073097229004,-3.5034732818603516,15.458434104919434,0.4394044876098633,0.6360894441604614,0.42613112926483154,0.5171107649803162,-0.7039570212364197,-0.033433783799409866,0.4385850727558136,0.6311565637588501,0.42000001668930054,-0.2321901023387909,-0.8127347230911255,-1.1643056869506836,-0.013201293535530567,-0.19965879619121552,-0.20524266362190247,-0.1958428919315338,-0.1849634200334549,0.46764129400253296,0.48580050468444824,0.2221362292766571,-0.05262652039527893
0.6333333333333333,-0.019416693598031998,0.010746723040938377,0.0,0.5582839250564575,0.0,0.0,-0.8296499848365784,0.2344246655702591,0.11187353730201721,0.0,0.0,0.0,-3.003422498703003,0.4477885663509369,0.6257537603378296,0.42215198278427124,0.5339022874832153,-0.04153914377093315,-0.006178569979965687,-0.8445025682449341,0.10308079421520233,-0.18591934442520142,-0.0893932431936264,0.27033182978630066,-3.3506557941436768,6.762630939483643,0.44410887360572815,0.6299645304679871,0.4250388741493225,0.10263803601264954,-0.13640740513801575,-0.07670029252767563,0.4385850727558136,0.6311565637588501,0.42000001668930054,-0.2377001941204071,0.10926805436611176,-1.1420718431472778,2.431300640106201,-0.18777641654014587,-0.19424062967300415,-0.19000490009784698,-0.18427281081676483,0.7233802676200867,0.6642506122589111,0.36487504839897156,0.06830639392137527
0.65,-0.014522143639624119,0.00918204803019762,0.0,0.5572938323020935,0.0,0.0,-0.830315351486206,0.3315345346927643,-0.032665736973285675,0.0,0.0,0.0,0.6145384907722473,0.44908377528190613,0.6244023442268372,0.42097175121307373,0.5564969778060913,-0.01909574680030346,-0.008338055573403835,-0.8305883407592773,-0.03525126352906227,-0.09897034615278244,-0.1763933300971985,0.44649186730384827,-6.922046661376953,1.6233904361724854,0.44530683755874634,0.6291656494140625,0.42612117528915405,-0.07965483516454697,-0.07927597314119339,0.11430325359106064,0.4385850727558136,0.6311565637588501,0.42000001668930054,-0.2587875723838806,-2.3932137489318848,-1.1688672304153442,-2.999581813812256,-0.17563265562057495,-0.18295355141162872,-0.18326261639595032,-0.18203312158584595,0.3828693926334381,0.4038867950439453,0.21749944984912872,0.026519861072301865
0.6666666666666666,-0.006670612376183271,0.01258011069148779,0.0,0.5790973901748657,0.0,0.0,-0.8152583837509155,0.49348554015159607,0.24236978590488434,0.0,0.0,0.0,3.9384841918945312,0.44812339544296265,0.6232803463935852,0.42000001668930054,0.5659928321838379,2.9487851861631498e-05,-7.10646133939008e-07,-0.8244101405143738,-0.04181981459259987,0.014911584556102753,-0.0010458106407895684,-0.05337189510464668,0.055897295475006104,-0.906360924243927,0.44407254457473755,0.6300172805786133,0.42826545238494873,-0.062096595764160156,0.19774053990840912,0.1589253693819046,0.4385850727558136,0.6311565637588501,0.42000001668930054,-0.30676594376564026,-2.999898910522461,-1.2188316583633423,-2.99865460395813,-0.1713068038225174,-0.17815838754177094,-0.18104799091815948,-0.1824297308921814,0.3448706865310669,0.3440884053707123,0.18409615755081177,0.026771647855639458
0.6833333333333333,0.0024508710484951735,0.011882970109581947,0.0,0.5861058831214905,0.0,0.0,-0.8102344870567322,0.5493571162223816,-0.07300305366516113,0.0,0.0,0.0,-0.010114499367773533,0.4480630159378052,0.6232985854148865,0.4200000464916229,0.5656403303146362,4.728769454231951e-06,-6.401933205779642e-06,-0.8246520161628723,0.0006167263491079211,-0.00011807009286712855,-0.00024081976152956486,-0.004185347817838192,0.0013356995768845081,-0.002118826610967517,0.44417205452919006,0.634929358959198,0.43198272585868835,-0.04368960112333298,0.2966969609260559,0.2659454941749573,0.4385850727558136,0.6311565637588501,0.42000001668930054,-0.3567735552787781,-3.0000007152557373,-1.2688063383102417,-2.9999892711639404,-0.1620890498161316,-0.16939722001552582,-0.1749308854341507,-0.17878441512584686,0.48976752161979675,0.49363958835601807,0.3860286474227905,0.2882642447948456
0.7,0.013048865832388401,0.00871890876442194,0.0,0.5797881484031677,0.0,0.0,-0.8147672414779663,0.6760360598564148,-0.23386795818805695,0.0,0.0,0.0,-1.3845371007919312,0.4476395547389984,0.6233358979225159,0.4199996888637543,0.5704140067100525,4.951767186867073e-05,3.236860095512384e-07,-0.8213573098182678,0.02886257879436016,-0.013073472306132317,-0.001046753372065723,-0.05294915661215782,0.06532410532236099,-1.8857401609420776,0.4447760581970215,0.6385746002197266,0.4391402006149292,0.10899023711681366,0.16106873750686646,0.7012670636177063,0.4385850727558136,0.6311565637588501,0.42000001668930054,-0.40678802132606506,-3.000001907348633,-1.3188247680664062,-2.9999985694885254,-0.15766701102256775,-0.16406331956386566,-0.17019245028495789,-0.17447622120380402,0.14411494135856628,0.22978006303310394,0.24370387196540833,0.2678186297416687
0.7166666666666667,0.025609327480196953,0.0026718182489275932,0.0,0.5535997152328491,0.0,0.0,-0.8327829241752625,0.7905088067054749,-0.4194783866405487,0.0,0.0,0.0,-4.7793803215026855,0.44764864444732666,0.6233395338058472,0.4200000464916229,0.5702939629554749,2.916320681833895e-06,-4.424701728567015e-06,-0.8214406967163086,0.0004020016058348119,-0.00022803214960731566,-0.000182699179276824,0.003628344973549247,0.0014224824262782931,-0.001412323210388422,0.4528459906578064,0.6396924257278442,0.4548805356025696,0.8806517124176025,-0.04084554314613342,1.3335551023483276,0.4385850727558136,0.6311565637588501,0.42000001668930054,-0.4568014442920685,-2.9999194145202637,-1.3688430786132812,-2.9999938011169434,-0.1579364538192749,-0.16258926689624786,-0.16788412630558014,-0.17117220163345337,-0.10261300951242447,0.01329487469047308,0.08921495079994202,0.1739111989736557
0.7333333333333333,0.04238206520676613,0.0016836603172123432,0.0,0.5406320691108704,0.0,0.0,-0.8412591814994812,0.9551861882209778,-0.11795146018266678,0.0,0.0,0.0,-0.831256091594696,0.4476489722728729,0.6233395338058472,0.4200000464916229,0.5702937841415405,2.501707285773591e-07,-3.311030241093249e-06,-0.8214407563209534,8.528643957106397e-05,-0.00026075885398313403,-8.553825318813324e-05,0.006379030644893646,-0.001656699925661087,-0.0006992273265495896,0.4666978120803833,0.6410634517669678,0.4812778830528259,0.9590343236923218,0.3095875680446625,1.7679529190063477,0.4385850727558136,0.6311565637588501,0.42000001668930054,-0.5065531730651855,-2.938274383544922,-1.4188613891601562,-2.999999761581421,-0.16458760201931,-0.16691243648529053,-0.1704249382019043,-0.17191582918167114,-0.12198087573051453,-0.07951480150222778,-0.05248428136110306,-0.01774683967232704
0.75,0.05423765629529953,0.0010817269794642925,0.0,0.5541179776191711,0.0,0.0,-0.8324381709098816,0.623676598072052,0.004668175242841244,0.0,0.0,0.0,2.808624505996704,0.4476489722728729,0.6233395338058472,0.4200000464916229,0.570293664932251,2.846151687663223e-07,-3.032824452020577e-06,-0.8214408159255981,8.539238478988409e-05,-0.00026123522548004985,-8.571241050958633e-05,0.006391177885234356,-0.0016608217265456915,-0.0007006936939433217,0.4845817983150482,0.6477290391921997,0.504173755645752,1.046818494796753,0.4766876697540283,1.0435808897018433,0.4385850727558136,0.6311565637588501,0.42000001668930054,-0.5281277298927307,0.1018889918923378,-1.4688796997070312,-3.0,-0.1643354445695877,-0.16626934707164764,-0.169498011469841,-0.17061404883861542,0.0845065489411354,0.10310227423906326,0.12054074555635452,0.13915550708770752
0.7666666666666666,0.0613275021314621,-0.003628436243161559,0.0,0.5538710951805115,0.0,0.0,-0.8326024413108826,0.32064327597618103,-0.26016005873680115,0.0,0.0,0.0,-1.0321234464645386,0.4476489722728729,0.6233395338058472,0.4200000464916229,0.570293664932251,3.1116570653466624e-07,-2.7936557671637274e-06,-0.8214408159255981,8.242086914833635e-05,-0.0002609450020827353,-8.508702740073204e-05,0.006400746759027243,-0.001694022910669446,-0.000693230889737606,0.4972565770149231,0.654224693775177,0.5145707130432129,0.3977879285812378,0.27153342962265015,0.4039160907268524,0.4385850727558136,0.6311565637588501,0.42000001668930054,-0.5470448136329651,-2.162437677383423,-1.4302397966384888,2.9999544620513916,-0.1617254912853241,-0.16333428025245667,-0.16619987785816193,-0.16701576113700867,-0.027550257742404938,0.03813902288675308,0.10576988011598587,0.16109967231750488
0.7833333333333333,0.07116321474313736,-0.0015154688153415918,0.0,0.5666123628616333,0.0,0.0,-0.8239844441413879,0.533548891544342,0.18444634974002838,0.0,0.0,0.0,2.675337553024292,0.4476489722728729,0.6233395338058472,0.4200000464916229,0.570293664932251,2.6558740273685544e-07,-3.1026424949232023e-06,-0.8214408159255981,8.530454215360805e-05,-0.00026136223459616303,-8.569099009037018e-05,0.006394991651177406,-0.0016623107949271798,-0.0007004258222877979,0.5005835890769958,0.6573313474655151,0.5197449922561646,0.09751447290182114,0.3202574849128723,0.2503071427345276,0.4385850727558136,0.6311565637588501,0.42000001668930054,-0.5651646852493286,-0.17036588490009308,-1.447782278060913,-2.9999988079071045,-0.16830210387706757,-0.1676577478647232,-0.16826529800891876,-0.16717588901519775,-0.22687648236751556,-0.1372821033000946,-0.039328742772340775,0.042034149169921875
0.8,0.07662057131528854,-0.0042662289924919605,0.0,0.6005255579948425,0.0,0.0,-0.7996055483818054,0.30018916726112366,-0.20469249784946442,0.0,0.0,0.0,5.827977180480957,0.4476489722728729,0.6233394742012024,0.4200000464916229,0.570293664932251,3.188063715242606e-07,-2.864152293113875e-06,-0.8214408159255981,8.266093209385872e-05,-0.0002608724753372371,-8.513964712619781e-05,0.006397651974111795,-0.0016908871475607157,-0.0006936473655514419,0.4997949004173279,0.6605004072189331,0.5203958749771118,-0.2753317058086395,0.024955518543720245,-0.1447662115097046,0.4385850727558136,0.6311565637588501,0.42000001668930054,-0.5965127944946289,-3.0000009536743164,-1.4092024564743042,2.999999761581421,-0.16845697164535522,-0.16650822758674622,-0.1656051129102707,-0.1632632166147232,-0.14840225875377655,-0.03020118735730648,0.100614033639431,0.21268817782402039
0.8166666666666667,0.08347596228122711,-0.009920787997543812,0.0,0.617697536945343,0.0,0.0,-0.7864157557487488,0.4466741681098938,-0.3944099545478821,0.0,0.0,0.0,1.481397271156311,0.4476489722728729,0.6233395338058472,0.4200000464916229,0.5702934265136719,3.5039326462538156e-07,-3.1792612844583346e-06,-0.8214410543441772,8.242137846536934e-05,-0.0002614882541820407,-8.514290675520897e-05,0.006413321942090988,-0.001698864158242941,-0.0006941411993466318,0.49658334255218506,0.659679114818573,0.5144375562667847,-0.15437181293964386,-0.14192929863929749,-0.4627510905265808,0.4385850727558136,0.6311565637588501,0.42000001668930054,-0.6465255618095398,-2.9999964237213135,-1.427134394645691,-2.9999988079071045,-0.17159460484981537,-0.1675139218568802,-0.16415385901927948,-0.1595858633518219,-0.15838764607906342,-0.03038531169295311,0.12172863632440567,0.2641230523586273
0.8333333333333334,0.09243813157081604,-0.018035026267170906,0.0,0.6098213791847229,0.0,0.0,-0.7925388813018799,0.5728510618209839,-0.541551411151886,0.0,0.0,0.0,-2.129084587097168,0.4476489722728729,0.6233395338058472,0.4200000464916229,0.570293664932251,1.712614050575212e-07,-2.9333259590202942e-06,-0.8214409351348877,8.11992576927878e-05,-0.0002649852540344,-8.482392877340317e-05,0.006509296130388975,-0.0017290081596001983,-0.0006974632269702852,0.4976077377796173,0.6568602919578552,0.5102346539497375,0.22797386348247528,-0.22196123003959656,0.0633537769317627,0.4385850727558136,0.6311565637588501,0.42000001668930054,-0.6965330839157104,-2.9999918937683105,-1.477152705192566,-2.9999992847442627,-0.17528872191905975,-0.1691967397928238,-0.1633596420288086,-0.15640977025032043,-0.2076900452375412,-0.09859006851911545,0.040711816400289536,0.17738302052021027
0.85,0.10500886291265488,-0.021316761150956154,0.0,0.5785928964614868,0.0,0.0,-0.8156164884567261,0.7125733494758606,-0.1613149642944336,0.0,0.0,0.0,-5.475249767303467,0.4476489722728729,0.6233395338058472,0.4200000464916229,0.5702933669090271,2.8541435881379584e-07,-3.0194903501978843e-06,-0.821441113948822,8.443928527412936e-05,-0.0002624109329190105,-8.551357313990593e-05,0.006426404695957899,-0.0016778334975242615,-0.0007000581244938076,0.5070812106132507,0.6508505940437317,0.5153582096099854,0.9708950519561768,-0.3552621603012085,0.6421428918838501,0.4385850727558136,0.6311565637588501,0.42000001668930054,-0.7239751815795898,-0.4903287887573242,-1.527171015739441,-2.999998092651367,-0.18325510621070862,-0.17504237592220306,-0.16666735708713531,-0.1572953313589096,-0.3326925039291382,-0.25907936692237854,-0.15866486728191376,-0.061021916568279266
0.8666666666666667,0.1138354167342186,-0.024029426276683807,0.0,0.5639234781265259,0.0,0.0,-0.8258270621299744,0.4472123682498932,-0.12498430162668228,0.0,0.0,0.0,-1.1042213439941406,0.4476489722728729,0.6233394742012024,0.4200000464916229,0.5702939033508301,2.669906109531439e-07,-3.14264684675436e-06,-0.8214407563209534,8.594812243245542e-05,-0.00026118895038962364,-8.584489114582539e-05,0.006387137342244387,-0.0016542806988582015,-0.0007018587784841657,0.5235705375671387,0.650239884853363,0.5280025005340576,0.8891041278839111,0.22910445928573608,0.8245757818222046,0.4385850727558136,0.6311565637588501,0.42000001668930054,-0.7034100294113159,2.6653199195861816,-1.577189326286316,-3.0,-0.1839992254972458,-0.17603689432144165,-0.16745372116565704,-0.1578502207994461,0.09348933398723602,0.02453908510506153,-0.020716898143291473,-0.0647694319486618
0.8833333333333333,0.11780238896608353,-0.024341637268662453,0.0,0.5745978951454163,0.0,0.0,-0.8184358477592468,0.17464570701122284,0.03150368854403496,0.0,0.0,0.0,2.3677420616149902,0.4476489722728729,0.6233395338058472,0.4200000464916229,0.5702936053276062,2.63223057572759e-07,-3.2616881071589887e-06,-0.8214408755302429,8.723591599846259e-05,-0.0002610328374430537,-8.61466396600008e-05,0.006374838761985302,-0.0016398336738348007,-0.0007045187521725893,0.5326788425445557,0.6569456458091736,0.5403857827186584,0.16528433561325073,0.5430962443351746,0.6699389219284058,0.4385850727558136,0.6311565637588501,0.42000001668930054,-0.6538912057876587,2.9999802112579346,-1.5382429361343384,2.999999523162842,-0.18046921491622925,-0.1741494983434677,-0.1668541133403778,-0.15851184725761414,0.2622268795967102,0.1502942442893982,0.055104322731494904,-0.040303848683834076
0.9,0.11856987327337265,-0.027824632823467255,0.0,0.5710475444793701,0.0,0.0,-0.8209169507026672,0.0030845359433442354,-0.3000609278678894,0.0,0.0,0.0,-1.453647494316101,0.4476489722728729,0.6233395338058472,0.4200000464916229,0.5702934265136719,1.532938824766461e-07,-3.0480243822239572e-06,-0.8214409947395325,7.987408025655895e-05,-0.00026536406949162483,-8.452543988823891e-05,0.006526200100779533,-0.0017461733659729362,-0.0006948671652935445,0.5288244485855103,0.6643121838569641,0.5462405681610107,-0.6353650689125061,0.3915429711341858,0.22607094049453735,0.4385850727558136,0.6311565637588501,0.42000001668930054,-0.6362088918685913,-0.5844201445579529,-1.4881864786148071,3.0,-0.17651896178722382,-0.1717279702425003,-0.16572511196136475,-0.15869180858135223,0.23129582405090332,0.15744002163410187,0.09425980597734451,0.028593748807907104
0.9166666666666666,0.11705973744392395,-0.02659428119659424,0.0,0.5797922611236572,0.0,0.0,-0.8147643804550171,-0.12966503202915192,0.20491531491279602,0.0,0.0,0.0,2.164564847946167,0.4476489722728729,0.6233395338058472,0.4200000464916229,0.5702939629554749,1.8652950473097007e-07,-3.3933074519154616e-06,-0.821440577507019,8.207502833101898e-05,-0.0002640032325871289,-8.501647971570492e-05,0.006479539908468723,-0.0017139352858066559,-0.000697982613928616,0.5194197297096252,0.6694835424423218,0.5483100414276123,-0.4812382757663727,0.3337938189506531,0.040356025099754333,0.4385850727558136,0.6311565637588501,0.42000001668930054,-0.6201211810112,2.2551791667938232,-1.5045695304870605,-2.999999761581421,-0.1780686229467392,-0.17334407567977905,-0.1673586368560791,-0.1604994833469391,-0.1556890457868576,-0.14782586693763733,-0.13944868743419647,-0.14101916551589966
