vladlanda/robotic-transformer/data/env_000_episode_0176.csv
sim_time_s,robot_box_x,robot_box_y,robot_box_z,robot_box_quat_w,robot_box_quat_x,robot_box_quat_y,robot_box_quat_z,robot_box_linvel_x,robot_box_linvel_y,robot_box_linvel_z,robot_box_angvel_x,robot_box_angvel_y,robot_box_angvel_z,cube_world_x,cube_world_y,cube_world_z,cube_quat_w,cube_quat_x,cube_quat_y,cube_quat_z,cube_linvel_x,cube_linvel_y,cube_linvel_z,cube_angvel_x,cube_angvel_y,cube_angvel_z,endpoint_world_x,endpoint_world_y,endpoint_world_z,endpoint_linvel_x,endpoint_linvel_y,endpoint_linvel_z,target_cube_world_x,target_cube_world_y,target_cube_world_z,gripper_actual_pos_rad_gp_leftgearjoint,gripper_actual_vel_rad_s_gp_leftgearjoint,gripper_actual_pos_rad_gp_rotatingjoint,gripper_actual_vel_rad_s_gp_rotatingjoint,motor_angle_rad_joint1,motor_angle_rad_joint2,motor_angle_rad_joint3,motor_angle_rad_joint4,motor_speed_rad_s_joint1,motor_speed_rad_s_joint2,motor_speed_rad_s_joint3,motor_speed_rad_s_joint4
0.0,0.0,0.0,0.0,1.0,0.0,0.0,0.0,0.0,0.0,0.0,0.0,0.0,0.0,-0.4593026638031006,0.7795067429542542,0.41999998688697815,1.0,0.0,0.0,0.0,0.0,0.0,0.0,0.0,0.0,0.0,3.42540442943573e-06,-0.005000244826078415,1.313499927520752,0.0,0.0,0.0,0.42303070425987244,0.7125648856163025,0.42000001668930054,-1.5707999467849731,0.0,0.0,0.0,0.0,0.0,0.0,0.0,0.0,0.0,0.0,0.0
0.016666666666666666,0.0028778850100934505,0.0021806680597364902,0.0,0.9998081922531128,0.0,0.0,0.019586581736803055,0.24087215960025787,0.18240931630134583,0.0,0.0,0.0,3.1418697834014893,-0.45930278301239014,0.7795064449310303,0.41999998688697815,1.0,3.2799832752061775e-06,-8.339598593920527e-07,8.465660528145236e-08,-1.9833856640616432e-05,0.00017983021098189056,-6.132945418357849e-05,0.0009432561928406358,-0.004689492750912905,-0.0003198107879143208,-0.007110234349966049,0.003379564033821225,1.3159373998641968,-0.8143353462219238,0.9868683815002441,0.18095196783542633,0.42303070425987244,0.7125648856163025,0.42000001668930054,-1.5301095247268677,3.0000011920928955,-0.04584788903594017,-2.9999992847442627,0.0008691533003002405,0.0007963840034790337,0.0007110277656465769,0.0006108740926720202,0.11094217747449875,0.09756709635257721,0.08334315568208694,0.06823883205652237
0.03333333333333333,0.008960993960499763,0.006802015006542206,0.0,0.9997960329055786,0.0,0.0,0.02019684389233589,0.40702199935913086,0.3153074085712433,0.0,0.0,0.0,-0.8691343069076538,-0.4593029022216797,0.7795063853263855,0.4200000464916229,1.0,3.3908784189407015e-06,-2.132447662006598e-06,-3.7113029094371086e-08,0.0002635781711433083,0.0002693779533728957,-0.00010509602725505829,-0.001770740025676787,0.004130825400352478,-0.00013548026618082076,-0.027555881068110466,0.02628673054277897,1.316582441329956,-1.591310977935791,1.6162980794906616,-0.0868055447936058,0.42303070425987244,0.7125648856163025,0.42000001668930054,-1.4800903797149658,3.0000007152557373,-0.09588772803544998,-3.0000014305114746,0.00299009308218956,0.002652693074196577,0.002277253894135356,0.00186070054769516,0.16421250998973846,0.13975553214550018,0.1138138622045517,0.08629537373781204
0.05,0.01772717759013176,0.01376842800527811,0.0,0.9993835091590881,0.0,0.0,0.035107970237731934,0.5933859348297119,0.46494260430336,0.0,0.0,0.0,2.651643991470337,-0.4593029320240021,0.7795064449310303,0.4200000464916229,1.0,3.7651825550710782e-06,-2.211884293501498e-06,5.609665620909254e-09,0.0002653094124980271,0.0002669155364856124,-0.0001044049859046936,-0.001724360859952867,0.00417743343859911,-0.00012949237134307623,-0.05968658626079559,0.0547674186527729,1.3113949298858643,-2.187631607055664,1.8276128768920898,-0.4991023540496826,0.42303070425987244,0.7125648856163025,0.42000001668930054,-1.4300720691680908,3.000002861022949,-0.145926371216774,-3.0000016689300537,0.005698421038687229,0.004906715825200081,0.004042911343276501,0.003102236893028021,0.192453995347023,0.15554246306419373,0.11675998568534851,0.07602117955684662
0.06666666666666667,0.02903597429394722,0.023060068488121033,0.0,0.9994543790817261,0.0,0.0,0.033029891550540924,0.7199781537055969,0.5951049327850342,0.0,0.0,0.0,-1.2075210809707642,-0.4593029320240021,0.7795063853263855,0.4200000464916229,0.9999999403953552,3.4068248169205617e-06,-2.2856320356368087e-06,4.300777334265149e-07,0.00026702528703026474,0.00026791737764142454,-0.00010437797755002975,-0.0017406486440449953,0.004211665131151676,-0.00012849978520534933,-0.09571927785873413,0.09075252711772919,1.2991423606872559,-2.171704053878784,2.3723721504211426,-0.9418840408325195,0.42303070425987244,0.7125648856163025,0.42000001668930054,-1.3800537586212158,3.0000014305114746,-0.19596369564533234,-3.0000009536743164,0.008010362274944782,0.006433418020606041,0.004746285732835531,0.0029409737326204777,0.11956028640270233,0.05862386152148247,-0.0044014668092131615,-0.06952095031738281
0.08333333333333333,0.034404922276735306,0.035697054117918015,0.0,0.9999999403953552,0.0,0.0,-0.0002871680189855397,0.18992026150226593,0.8246487975120544,0.0,0.0,0.0,-4.93056583404541,-0.4593029320240021,0.7795063853263855,0.4200000464916229,0.9999999403953552,3.626150828495156e-06,-2.3353632059297524e-06,3.0320998689603584e-07,0.00026613965746946633,0.00026685226475819945,-0.00010405294597148895,-0.0017284216592088342,0.004196350462734699,-0.0001279056741623208,-0.12907516956329346,0.13434869050979614,1.2800127267837524,-1.8988548517227173,2.7374637126922607,-1.2718658447265625,0.42303070425987244,0.7125648856163025,0.42000001668930054,-1.3300354480743408,3.0000011920928955,-0.22470863163471222,-0.6275039315223694,0.004321191925555468,0.0020106660667806864,-0.00046200837823562324,-0.0031078371684998274,-0.3228464722633362,-0.3728930354118347,-0.4255615472793579,-0.4810653328895569
0.1,0.044008009135723114,0.04964938014745712,0.0,0.9998873472213745,0.0,0.0,-0.015009777620434761,0.6753390431404114,0.8504305481910706,0.0,0.0,0.0,-0.6945762634277344,-0.4593029320240021,0.7795063853263855,0.4200000464916229,1.0,3.422215741011314e-06,-2.3086440705810674e-06,1.7961383491638117e-07,0.0002668150991667062,0.00026800442719832063,-0.00010440708138048649,-0.001743118860758841,0.004207138903439045,-0.0001289104257011786,-0.16351264715194702,0.17666754126548767,1.2603195905685425,-2.0630123615264893,2.6071243286132812,-1.184370994567871,0.42303070425987244,0.7125648856163025,0.42000001668930054,-1.2800309658050537,3.0000007152557373,-0.27196067571640015,-2.999999523162842,0.0038854789454489946,-2.7195632355869748e-05,-0.004099355079233646,-0.008341227658092976,-0.004621665924787521,-0.11035880446434021,-0.21521610021591187,-0.31908342242240906
0.11666666666666667,0.05159471184015274,0.06569770723581314,0.0,0.9991154074668884,0.0,0.0,-0.04205179959535599,0.45768222212791443,1.0242657661437988,0.0,0.0,0.0,-3.9279112815856934,-0.4593029320240021,0.7795064449310303,0.4200000464916229,1.0,3.711592853505863e-06,-2.332753865630366e-06,2.574192592419422e-07,0.0002648566442076117,0.0002663531631696969,-0.0001042329240590334,-0.0017181416042149067,0.004169980529695749,-0.00012915612023789436,-0.19367992877960205,0.22535385191440582,1.241264820098877,-1.571624755859375,3.248652458190918,-1.0869526863098145,0.42303070425987244,0.7125648856163025,0.42000001668930054,-1.2300070524215698,2.9999895095825195,-0.23779983818531036,2.9999990463256836,0.0016528364503756166,-0.004196345806121826,-0.010176660493016243,-0.01629599556326866,-0.09607350826263428,-0.2335720658302307,-0.3678797781467438,-0.49871212244033813
0.13333333333333333,0.05654561147093773,0.08455342799425125,0.0,0.9955413341522217,0.0,0.0,-0.09432605654001236,0.23212718963623047,1.1777492761611938,0.0,0.0,0.0,-7.095252513885498,-0.4593029320240021,0.7795063853263855,0.4200000464916229,1.0,3.3358085147483507e-06,-2.2319140953186434e-06,3.1129312105804274e-07,0.0002666973159648478,0.00026759272441267967,-0.00010428577661514282,-0.001737017184495926,0.004205896519124508,-0.00012840180716011673,-0.2199127972126007,0.2806488275527954,1.2237319946289062,-1.5468283891677856,3.4372758865356445,-1.097848653793335,0.42303070425987244,0.7125648856163025,0.42000001668930054,-1.198537826538086,0.9284341335296631,-0.2690093517303467,-3.000000476837158,-0.0011574334930628538,-0.009240582585334778,-0.017385773360729218,-0.025595569983124733,-0.24439014494419098,-0.3651391863822937,-0.48159006237983704,-0.5934581160545349
0.15,0.05834208056330681,0.1015167087316513,0.0,0.9919688701629639,0.0,0.0,-0.12648242712020874,0.06199293211102486,0.9196686744689941,0.0,0.0,0.0,-2.832789182662964,-0.4593029320240021,0.7795063853263855,0.4200000464916229,1.0,3.5190378184779547e-06,-2.283064759467379e-06,-3.625691817887855e-07,0.00026618439005687833,0.0002673580020200461,-0.00010425783693790436,-0.001735009253025055,0.004195804707705975,-0.00012860787683166564,-0.25491762161254883,0.33627280592918396,1.1997482776641846,-2.263524055480957,3.5485520362854004,-1.7416932582855225,0.42303070425987244,0.7125648856163025,0.42000001668930054,-1.1604896783828735,2.9999935626983643,-0.24059276282787323,3.0,-0.005831246264278889,-0.01552488747984171,-0.025199275463819504,-0.034854255616664886,-0.3216915726661682,-0.39388713240623474,-0.46140915155410767,-0.5242283940315247
0.16666666666666666,0.05665380507707596,0.11853164434432983,0.0,0.9853200316429138,0.0,0.0,-0.17071743309497833,-0.16409197449684143,1.060532569885254,0.0,0.0,0.0,-6.23592472076416,-0.4593029320240021,0.7795063853263855,0.4200000464916229,1.0,3.6667033782578073e-06,-2.339081675017951e-06,-3.150136080876109e-07,0.00026595877716317773,0.0002666739164851606,-0.00010403385385870934,-0.001725254813209176,0.00419270945712924,-0.00012778321979567409,-0.2897852063179016,0.39770931005477905,1.1703696250915527,-1.8263394832611084,3.9385337829589844,-1.8273394107818604,0.42303070425987244,0.7125648856163025,0.42000001668930054,-1.1159039735794067,2.366403818130493,-0.2717694640159607,-2.999999761581421,-0.01313274446874857,-0.024038923904299736,-0.034840602427721024,-0.0455365814268589,-0.5263030529022217,-0.5923848748207092,-0.6536276340484619,-0.7099674344062805
0.18333333333333332,0.059771839529275894,0.13754406571388245,0.0,0.9803137183189392,0.0,0.0,-0.19744637608528137,0.3056090772151947,1.182476282119751,0.0,0.0,0.0,-2.2701942920684814,-0.4593029320240021,0.7795063853263855,0.4200000464916229,1.0,3.8144380596349947e-06,-2.3994705315999454e-06,-2.702848291846749e-07,0.00026549192261882126,0.000266112299868837,-0.00010391208343207836,-0.001717865583486855,0.004184891004115343,-0.000127535909996368,-0.326154887676239,0.46116989850997925,1.1319516897201538,-2.155961275100708,3.990200996398926,-2.756822109222412,0.42303070425987244,0.7125648856163025,0.42000001668930054,-1.087337851524353,1.1452206373214722,-0.3217974007129669,-3.0000009536743164,-0.01940598338842392,-0.031144026666879654,-0.04269540682435036,-0.05406149476766586,-0.3753102719783783,-0.3992993235588074,-0.4192734956741333,-0.43554893136024475
0.2,0.05983232706785202,0.1537124067544937,0.0,0.9711201786994934,0.0,0.0,-0.23859097063541412,-0.07670844346284866,0.9228070974349976,0.0,0.0,0.0,-5.662443161010742,-0.4593029320240021,0.7795063853263855,0.4200000464916229,1.0,3.6001295029564062e-06,-2.291185865033185e-06,-2.2020017809154524e-07,0.0002657297591213137,0.0002664490893948823,-0.00010398216545581818,-0.0017226807540282607,0.004188799764961004,-0.00012773256457876414,-0.3614421486854553,0.5292812585830688,1.0797367095947266,-1.9181439876556396,4.332856178283691,-3.48970890045166,0.42303070425987244,0.7125648856163025,0.42000001668930054,-1.0433725118637085,3.0000007152557373,-0.37182292342185974,-3.0,-0.03086627833545208,-0.042137570679187775,-0.05320776253938675,-0.06409241259098053,-0.8462380170822144,-0.7945316433906555,-0.7427326440811157,-0.6916064023971558
0.21666666666666667,0.058277733623981476,0.17031525075435638,0.0,0.9658243060112,0.0,0.0,-0.2591976821422577,-0.10334140062332153,1.0353809595108032,0.0,0.0,0.0,-1.5498789548873901,-0.4593029320240021,0.7795063853263855,0.4200000464916229,0.9999999403953552,3.639737315097591e-06,-2.261905365230632e-06,2.224729200861475e-07,0.00026687447098083794,0.00026754679856821895,-0.00010411837138235569,-0.0017404091777279973,0.004210993647575378,-0.00012784003047272563,-0.3965114951133728,0.5959766507148743,1.0126736164093018,-1.9340234994888306,3.957148551940918,-4.469876289367676,0.42303070425987244,0.7125648856163025,0.42000001668930054,-0.9948342442512512,2.801199436187744,-0.4218474328517914,-3.0000016689300537,-0.04637272283434868,-0.05638623982667923,-0.06605681031942368,-0.07557852566242218,-0.9454996585845947,-0.8642529249191284,-0.7658612132072449,-0.670405387878418
0.23333333333333334,0.05926155298948288,0.18390190601348877,0.0,0.9565879702568054,0.0,0.0,-0.29144370555877686,0.1902177482843399,0.6672556400299072,0.0,0.0,0.0,-4.771221160888672,-0.4593029022216797,0.7795063853263855,0.4200000464916229,1.0,3.42076441484096e-06,-2.3167292511061532e-06,2.956030868972448e-07,0.0002668006345629692,0.00026803917717188597,-0.00010442500934004784,-0.0017438046634197235,0.00420692004263401,-0.0001289931678911671,-0.42700183391571045,0.6600238680839539,0.9309217929840088,-1.5881004333496094,3.7244913578033447,-5.233961582183838,0.42303070425987244,0.7125648856163025,0.42000001668930054,-0.9448705911636353,3.0,-0.4718747138977051,-3.000000238418579,-0.06212664023041725,-0.07205016165971756,-0.08090287446975708,-0.08842200040817261,-0.91654372215271,-0.9083613157272339,-0.9052776098251343,-0.7823269367218018
0.25,0.05617087706923485,0.1996738165616989,0.0,0.9519677758216858,0.0,0.0,-0.3061982989311218,-0.2428707480430603,0.9322198033332825,0.0,0.0,0.0,-0.859984815120697,-0.4593029320240021,0.7795063853263855,0.4200000464916229,0.9999999403953552,3.347640813444741e-06,-2.259107077406952e-06,1.8085022190916789e-07,0.00026687653735280037,0.0002679111494217068,-0.00010439427569508553,-0.0017405003309249878,0.004208215046674013,-0.00012870266800746322,-0.4515382945537567,0.7084013223648071,0.836505651473999,-1.2335164546966553,2.5009570121765137,-5.923952579498291,0.42303070425987244,0.7125648856163025,0.42000001668930054,-0.8948602080345154,2.9999828338623047,-0.5219039916992188,-2.9999985694885254,-0.07837562263011932,-0.08826340734958649,-0.0971079021692276,-0.10461435467004776,-0.7534498572349548,-0.7916210293769836,-0.8278999328613281,-0.8613856434822083
0.26666666666666666,0.05819273740053177,0.2104896456003189,0.0,0.9427990317344666,0.0,0.0,-0.3333616256713867,0.12890146672725677,0.5879926681518555,0.0,0.0,0.0,-4.070954322814941,-0.4593029320240021,0.7795063853263855,0.4200000464916229,0.9999999403953552,3.5357268188818125e-06,-2.3001737190497806e-06,-1.2685268302448094e-07,0.00026601794525049627,0.00026712287217378616,-0.0001041970681399107,-0.0017317483434453607,0.004192880354821682,-0.00012849216000176966,-0.46967893838882446,0.7470755577087402,0.7323800325393677,-0.7674556374549866,1.9387965202331543,-6.517800331115723,0.42303070425987244,0.7125648856163025,0.42000001668930054,-0.8448495864868164,2.9999992847442627,-0.5719337463378906,-3.000002145767212,-0.08995918929576874,-0.10008452087640762,-0.10918966680765152,-0.11698095500469208,-0.960200846195221,-0.9108708500862122,-0.8678314089775085,-0.8324698209762573
0.2833333333333333,0.05611193925142288,0.21797752380371094,0.0,0.9398682117462158,0.0,0.0,-0.34153735637664795,-0.20095765590667725,0.392108291387558,0.0,0.0,0.0,-0.07799297571182251,-0.4593029320240021,0.7795064449310303,0.4200000464916229,1.0,3.5934988318331307e-06,-2.2624899429501966e-06,-5.653167178820695e-08,0.0002670465619303286,0.0002677509910427034,-0.00010416633449494839,-0.0017431797459721565,0.004214051645249128,-0.0001278916170122102,-0.47946834564208984,0.7676531076431274,0.6244686245918274,-0.2685457468032837,0.6798409223556519,-6.392405033111572,0.42303070425987244,0.7125648856163025,0.42000001668930054,-0.794840395450592,3.00000262260437,-0.6219635009765625,-2.999997138977051,-0.1069469004869461,-0.11695989966392517,-0.12599125504493713,-0.13369852304458618,-1.0019441843032837,-1.0014634132385254,-1.0010981559753418,-1.0008081197738647
0.3,0.0503426231443882,0.22199921309947968,0.0,0.9324212670326233,0.0,0.0,-0.3613731861114502,-0.3523438274860382,0.16582918167114258,0.0,0.0,0.0,-3.3502721786499023,-0.4593029022216797,0.7795063853263855,0.4200000464916229,0.9999999403953552,3.7250752029649448e-06,-2.235918827864225e-06,3.828830017482687e-07,0.0002647972432896495,0.00026673058164305985,-0.00010453932918608189,-0.0017189180944114923,0.004166692495346069,-0.0001301649317611009,-0.4779718220233917,0.7735010385513306,0.5185515284538269,0.40503546595573425,0.103791743516922,-6.2594757080078125,0.42303070425987244,0.7125648856163025,0.42000001668930054,-0.7448316216468811,2.999997138977051,-0.671992301940918,-3.000000238418579,-0.12417259067296982,-0.13403324782848358,-0.1429525464773178,-0.1505746841430664,-0.9997227191925049,-0.9999926686286926,-1.0000007152557373,-1.0000005960464478
0.31666666666666665,0.042902592569589615,0.22303712368011475,0.0,0.9315028786659241,0.0,0.0,-0.3637339472770691,-0.4777383506298065,0.020939869806170464,0.0,0.0,0.0,0.6279003024101257,-0.4593029320240021,0.7795063853263855,0.4200000464916229,0.9999999403953552,3.5577868402469903e-06,-2.278708961966913e-06,2.2836172774987062e-07,0.00026598546537570655,0.0002665847132448107,-0.00010398868471384048,-0.0017240389715880156,0.0041935034096241,-0.0001276976545341313,-0.46821802854537964,0.7738470435142517,0.41886278986930847,0.8427792191505432,-0.16403728723526,-5.682056427001953,0.42303070425987244,0.7125648856163025,0.42000001668930054,-0.6948239803314209,3.0000016689300537,-0.7220191359519958,-2.9999983310699463,-0.14144600927829742,-0.15116137266159058,-0.159976065158844,-0.167518749833107,-1.009325385093689,-1.0070880651474,-1.0053825378417969,-1.0040124654769897
0.3333333333333333,0.033298999071121216,0.22145986557006836,0.0,0.9400787949562073,0.0,0.0,-0.3409573435783386,-0.6252226829528809,-0.1422596275806427,0.0,0.0,0.0,3.9484245777130127,-0.4595111608505249,0.7774726152420044,0.4207594096660614,0.9993970990180969,0.01929125003516674,-0.0005204279441386461,-0.028861574828624725,0.024417368695139885,-0.011744537390768528,0.013541711494326591,0.8074678182601929,-0.1599692553281784,-0.09172792732715607,-0.4699014723300934,0.7810262441635132,0.4281489849090576,-0.18591225147247314,0.40133267641067505,-0.19930420815944672,0.42303070425987244,0.7125648856163025,0.42000001668930054,-0.6447377800941467,2.999941825866699,-0.7724664807319641,-3.000009775161743,-0.1385621726512909,-0.15071173012256622,-0.1615508794784546,-0.17057786881923676,0.025372548028826714,-0.07245323061943054,-0.1537073254585266,-0.21295487880706787
0.35,0.02119317650794983,0.21736130118370056,0.0,0.9426106810569763,0.0,0.0,-0.33389392495155334,-0.764907956123352,-0.28830790519714355,0.0,0.0,0.0,-0.08176031708717346,-0.45921051502227783,0.7783583998680115,0.420186847448349,0.9990988373756409,0.004572603851556778,-0.00031219064840115607,-0.0421961210668087,0.04247171804308891,0.0966619998216629,-0.05040041357278824,-2.5952260494232178,0.15968480706214905,-2.3731536865234375,-0.4703451097011566,0.7840492725372314,0.4246513843536377,0.132272869348526,0.05884713679552078,-0.23503388464450836,0.42303070425987244,0.7125648856163025,0.42000001668930054,-0.594731867313385,2.9999876022338867,-0.8224958777427673,-2.9999988079071045,-0.14122165739536285,-0.15381702780723572,-0.16485027968883514,-0.17377445101737976,-0.2874206304550171,-0.2554722726345062,-0.21142980456352234,-0.15474310517311096
0.36666666666666664,0.007882418110966682,0.21087589859962463,0.0,0.9447842240333557,0.0,0.0,-0.32769304513931274,-0.857412576675415,-0.4350971579551697,0.0,0.0,0.0,1.202548861503601,-0.4566366672515869,0.7827689051628113,0.4200004041194916,0.9948729872703552,-1.3928254702477716e-05,1.0638693311193492e-05,-0.10113132745027542,0.28083452582359314,0.42185717821121216,-0.00096777209546417,0.04707222431898117,-0.013973281718790531,-11.421669960021973,-0.4654547870159149,0.7885655760765076,0.4211377501487732,0.4382243752479553,0.48471778631210327,-0.16932044923305511,0.42303070425987244,0.7125648856163025,0.42000001668930054,-0.5447269082069397,3.0000014305114746,-0.8725235462188721,-2.9999184608459473,-0.14818105101585388,-0.15937064588069916,-0.16880449652671814,-0.17595860362052917,-0.441421240568161,-0.3340262174606323,-0.21462482213974,-0.08564554899930954
0.3833333333333333,-0.0017179840942844748,0.20149309933185577,0.0,0.9409391283988953,0.0,0.0,-0.3385758697986603,-0.5858515501022339,-0.5957122445106506,0.0,0.0,0.0,-2.106501340866089,-0.4504678249359131,0.7912622094154358,0.4202449321746826,0.9850122332572937,-0.00607068557292223,0.0008352062432095408,-0.17237557470798492,0.5203612446784973,0.6653576493263245,0.06047213077545166,-2.8860409259796143,0.9009718894958496,-3.2024147510528564,-0.4577782154083252,0.7972291707992554,0.42107537388801575,0.551839292049408,0.5522621870040894,0.05782987177371979,0.42303070425987244,0.7125648856163025,0.42000001668930054,-0.4946748912334442,2.999986171722412,-0.9225274324417114,-2.999972105026245,-0.15502521395683289,-0.16410720348358154,-0.17120380699634552,-0.1758488267660141,-0.538641095161438,-0.3687244653701782,-0.18685755133628845,0.001842627883888781
0.4,-0.015666289255023003,0.1905442178249359,0.0,0.9268266558647156,0.0,0.0,-0.3754895329475403,-0.9273417592048645,-0.683878481388092,0.0,0.0,0.0,-5.653151988983154,-0.43768444657325745,0.8062423467636108,0.421342670917511,0.9781097173690796,-0.03387319669127464,0.006779423914849758,-0.20520247519016266,1.041232705116272,1.1619019508361816,0.07618145644664764,-3.7194149494171143,1.5098698139190674,-5.706564426422119,-0.4448665976524353,0.8104360103607178,0.4224773943424225,1.024397373199463,1.0861384868621826,0.09934502094984055,0.42303070425987244,0.7125648856163025,0.42000001668930054,-0.4446338415145874,2.999868392944336,-0.9725399017333984,-2.9999799728393555,-0.16662976145744324,-0.17218422889709473,-0.17554858326911926,-0.1763698011636734,-0.6934723258018494,-0.47123831510543823,-0.23636536300182343,0.0035071363672614098
0.4166666666666667,-0.026252346113324165,0.17653660476207733,0.0,0.8996293544769287,0.0,0.0,-0.43665435910224915,-0.6070588231086731,-0.8890066146850586,0.0,0.0,0.0,-8.753647804260254,-0.41010576486587524,0.8315190076828003,0.42373645305633545,0.9654092192649841,-0.04720969870686531,-0.016165006905794144,-0.2559199035167694,2.3967134952545166,1.6301720142364502,0.001630010548979044,35.4481201171875,-17.546993255615234,4.517484664916992,-0.41715455055236816,0.8366614580154419,0.4241483807563782,2.3767380714416504,1.9779765605926514,0.3140150308609009,0.42303070425987244,0.7125648856163025,0.42000001668930054,-0.39793500304222107,2.103452205657959,-1.022554636001587,-3.0000016689300537,-0.17682237923145294,-0.17853684723377228,-0.1778329461812973,-0.17449772357940674,-0.6936045289039612,-0.42420056462287903,-0.14377230405807495,0.1377849578857422
0.43333333333333335,-0.033294882625341415,0.15952202677726746,0.0,0.8569828867912292,0.0,0.0,-0.5153448581695557,-0.3491760492324829,-1.0703380107879639,0.0,0.0,0.0,-11.443364143371582,-0.3471817970275879,0.871245265007019,0.4275425970554352,0.9466953873634338,0.005316535942256451,-0.053870294243097305,-0.31754910945892334,5.2743730545043945,2.260995626449585,0.3867829740047455,14.788954734802246,-9.74111557006836,21.701677322387695,-0.35359251499176025,0.877020001411438,0.4279194474220276,4.941390037536621,2.9311695098876953,0.3595237731933594,0.42303070425987244,0.7125648856163025,0.42000001668930054,-0.376846045255661,0.854353129863739,-0.9850841760635376,2.9986369609832764,-0.19153116643428802,-0.1877169907093048,-0.1815444976091385,-0.17300081253051758,-0.9174395799636841,-0.5792566537857056,-0.2545813024044037,0.04440702497959137
0.45,-0.03767906501889229,0.14806190133094788,0.0,0.795124888420105,0.0,0.0,-0.6064457297325134,-0.21515622735023499,-0.5526836514472961,0.0,0.0,0.0,-14.059064865112305,-0.24285662174224854,0.9142249226570129,0.4355436861515045,0.9108879566192627,0.08282919228076935,-0.0914929211139679,-0.3937656581401825,7.505619525909424,1.8802014589309692,0.7653203010559082,-1.12735116481781,-3.614981174468994,11.035319328308105,-0.2499505877494812,0.9212624430656433,0.43598365783691406,7.405233383178711,2.5743398666381836,0.5858423709869385,0.42303070425987244,0.7125648856163025,0.42000001668930054,-0.3637939691543579,0.8258420825004578,-0.9350396394729614,2.999999761581421,-0.2077447921037674,-0.20322999358177185,-0.19268159568309784,-0.17800219357013702,-0.9401797652244568,-0.9267194867134094,-0.8062129020690918,-0.44373825192451477
0.4666666666666667,-0.04515529423952103,0.14251849055290222,0.0,0.7387199997901917,0.0,0.0,-0.6740124821662903,-0.3946250081062317,-0.3954591453075409,0.0,0.0,0.0,-9.030643463134766,-0.12319619953632355,0.9360405206680298,0.4462672472000122,0.8654332160949707,0.0918746292591095,-0.10898911207914352,-0.48031842708587646,7.1677680015563965,0.6000277996063232,0.8998680114746094,30.382469177246094,-2.220505475997925,15.84303092956543,-0.13027048110961914,0.9475243091583252,0.4472554922103882,7.172611236572266,0.9075592756271362,0.6455706357955933,0.42303070425987244,0.7125648856163025,0.42000001668930054,-0.3498513996601105,0.8315593004226685,-0.9604110717773438,-3.0000011920928955,-0.2220856249332428,-0.21777494251728058,-0.20745441317558289,-0.18847714364528656,-0.5869873762130737,-0.6513380408287048,-0.7162242531776428,-0.5245380997657776
0.48333333333333334,-0.047802411019802094,0.12931807339191437,0.0,0.7033341526985168,0.0,0.0,-0.7108593583106995,-0.06590273231267929,-0.9240519404411316,0.0,0.0,0.0,-5.182461261749268,-0.007734894752502441,0.942793071269989,0.45651841163635254,0.8226796984672546,0.0876840129494667,-0.08771847933530807,-0.5548108816146851,6.893324851989746,-1.0674467086791992,0.449868381023407,-8.770456314086914,-15.687925338745117,13.045451164245605,-0.012531743384897709,0.9544991850852966,0.4579089879989624,6.9276204109191895,-0.31018829345703125,0.7135297060012817,0.42303070425987244,0.7125648856163025,0.42000001668930054,-0.33602750301361084,0.6761384010314941,-1.0104347467422485,-3.0000033378601074,-0.2301042526960373,-0.22520631551742554,-0.21449273824691772,-0.19191928207874298,-0.4575752019882202,-0.3448268175125122,-0.25115957856178284,-0.020016459748148918
0.5,-0.053439535200595856,0.12019500881433487,0.0,0.6909770369529724,0.0,0.0,-0.7228767275810242,-0.2960283160209656,-0.458438515663147,0.0,0.0,0.0,-0.8411345481872559,0.09546047449111938,0.9269214868545532,0.46516817808151245,0.7641156315803528,0.07150942832231522,-0.07270079851150513,-0.6369680762290955,5.216627597808838,-2.4973394870758057,0.322945773601532,-8.776446342468262,-10.208133697509766,36.63109588623047,0.09252378344535828,0.9407187104225159,0.46761906147003174,5.7655029296875,-1.1726946830749512,0.5070900917053223,0.42303070425987244,0.7125648856163025,0.42000001668930054,-0.327537477016449,0.1707269251346588,-1.0604568719863892,-3.0000016689300537,-0.24000421166419983,-0.23514389991760254,-0.22145022451877594,-0.19468048214912415,-0.05875096470117569,-0.5896584987640381,-0.43049994111061096,-0.2356148511171341
0.5166666666666666,-0.055700622498989105,0.10992465913295746,0.0,0.671363890171051,0.0,0.0,-0.7411278486251831,-0.07435733079910278,-0.6340001225471497,0.0,0.0,0.0,-4.024130821228027,0.17906904220581055,0.9007394909858704,0.46729645133018494,0.6939579844474792,0.03901306912302971,-0.07130628079175949,-0.7154128551483154,4.276081085205078,-2.882601022720337,0.0029350104741752148,-6.756293773651123,-4.805810451507568,25.851463317871094,0.17634062469005585,0.9146093130111694,0.471047580242157,4.701229095458984,-2.0783743858337402,0.11401014775037766,0.42303070425987244,0.7125648856163025,0.42000001668930054,-0.32532915472984314,0.05695662647485733,-1.1104787588119507,-2.999992609024048,-0.24003289639949799,-0.24002499878406525,-0.22661489248275757,-0.19695374369621277,-0.0407106913626194,-0.027946483343839645,-0.29876163601875305,-0.12035983055830002
0.5333333333333333,-0.054668065160512924,0.10407483577728271,0.0,0.6657938361167908,0.0,0.0,-0.7461357712745667,0.09670022130012512,-0.2627076804637909,0.0,0.0,0.0,0.10414139926433563,0.24744577705860138,0.8633921146392822,0.464147686958313,0.6535124778747559,0.006854040082544088,-0.05654129758477211,-0.7547697424888611,3.3615336418151855,-2.9292542934417725,-0.3009902238845825,-0.4617616832256317,2.436551332473755,14.37102222442627,0.2464502453804016,0.8762098550796509,0.46864375472068787,3.8764734268188477,-2.4793009757995605,-0.3164653778076172,0.42303070425987244,0.7125648856163025,0.42000001668930054,-0.3201073706150055,0.4869508147239685,-1.1605008840560913,-2.9997942447662354,-0.2399386614561081,-0.2399347424507141,-0.2316613346338272,-0.19986937940120697,-0.016880659386515617,0.009421238675713539,-0.1435852199792862,-0.09037494659423828
0.55,-0.05086548253893852,0.09418439865112305,0.0,0.6501179337501526,0.0,0.0,-0.7598332762718201,0.24356965720653534,-0.6168086528778076,0.0,0.0,0.0,-3.3437743186950684,0.3037276864051819,0.8252509236335754,0.4523206651210785,0.6158728003501892,-0.042860791087150574,-0.05191121995449066,-0.7849642038345337,2.5862529277801514,-2.5942728519439697,-0.7411307692527771,-1.9240360260009766,4.181861877441406,28.06435203552246,0.30407434701919556,0.8376094102859497,0.4581146836280823,3.1169185638427734,-2.3917040824890137,-0.8509119749069214,0.42303070425987244,0.7125648856163025,0.42000001668930054,-0.30826321244239807,0.7817057371139526,-1.210523009300232,-2.9993412494659424,-0.23420684039592743,-0.23453177511692047,-0.22929607331752777,-0.1984536349773407,0.33473506569862366,0.3462965190410614,0.20330674946308136,0.10518216341733932
0.5666666666666667,-0.044895071536302567,0.08907494693994522,0.0,0.6473281383514404,0.0,0.0,-0.7622114419937134,0.3921087384223938,-0.2789071202278137,0.0,0.0,0.0,0.42140427231788635,0.34780168533325195,0.7859663367271423,0.4347226321697235,0.5451059341430664,-0.10973803699016571,-0.05723237618803978,-0.8291811347007751,2.386049747467041,-2.0873706340789795,-1.1479521989822388,-1.1302915811538696,4.59046745300293,-8.095868110656738,0.3476395606994629,0.7976440787315369,0.4424484968185425,2.3109629154205322,-2.354875087738037,-1.0748084783554077,0.42303070425987244,0.7125648856163025,0.42000001668930054,-0.2930367588996887,1.136392593383789,-1.2605451345443726,-2.999816656112671,-0.23105457425117493,-0.23063306510448456,-0.22703683376312256,-0.19824644923210144,0.34142038226127625,0.3445926904678345,0.22359073162078857,0.030070513486862183
0.5833333333333334,-0.03666139766573906,0.0842878445982933,0.0,0.633616030216217,0.0,0.0,-0.773647665977478,0.5408233404159546,-0.26339247822761536,0.0,0.0,0.0,-3.0656490325927734,0.3812620937824249,0.7586295008659363,0.4220641553401947,0.5030443668365479,-0.03178757429122925,0.0024160894099622965,-0.8636723756790161,1.646309494972229,-1.5027974843978882,-0.11731711030006409,8.98082447052002,-6.992856025695801,33.35640335083008,0.37943071126937866,0.7669764757156372,0.42594000697135925,1.1348772048950195,-1.1903988122940063,-0.09390343725681305,0.42303070425987244,0.7125648856163025,0.42000001668930054,-0.26858603954315186,1.3540500402450562,-1.2438770532608032,2.9847447872161865,-0.22208967804908752,-0.2227354496717453,-0.2218858003616333,-0.197605699300766,0.6579661965370178,0.5570416450500488,0.3771147131919861,0.06480468809604645
0.6,-0.03100971132516861,0.08038418740034103,0.0,0.6328455805778503,0.0,0.0,-0.7742780447006226,0.2715424597263336,-0.14434833824634552,0.0,0.0,0.0,0.7653728723526001,0.39865949749946594,0.7396050095558167,0.4220663607120514,0.5137271881103516,-0.03434702008962631,0.018255962058901787,-0.8570713400840759,0.9619830846786499,-1.038192868232727,0.6358540058135986,17.597171783447266,30.30628776550293,-10.171076774597168,0.3974967300891876,0.7477439641952515,0.426525354385376,0.7925376892089844,-1.0151335000991821,0.0737176388502121,0.42303070425987244,0.7125648856163025,0.42000001668930054,-0.24661312997341156,1.3762872219085693,-1.264519453048706,-3.0017030239105225,-0.21099095046520233,-0.21319064497947693,-0.21498757600784302,-0.1960276961326599,0.6232940554618835,0.5381172895431519,0.3980487883090973,0.07493514567613602
0.6166666666666667,-0.02441013790667057,0.07453189045190811,0.0,0.6208500862121582,0.0,0.0,-0.7839292883872986,0.4278653562068939,-0.33279210329055786,0.0,0.0,0.0,-2.63028621673584,0.4113721251487732,0.7287581562995911,0.42169389128685,0.5182883739471436,-0.027052944526076317,0.01810462586581707,-0.8545860648155212,0.543648362159729,-1.3055717945098877,-0.05686114728450775,-5.900596618652344,-5.155560493469238,22.4569091796875,0.4088084101676941,0.7351909875869751,0.42647209763526917,0.37991130352020264,-0.5228438377380371,0.04902169853448868,0.42303070425987244,0.7125648856163025,0.42000001668930054,-0.24133428931236267,-0.5405718088150024,-1.2264484167099,2.996413469314575,-0.19906827807426453,-0.20297904312610626,-0.20718194544315338,-0.19385644793510437,0.5367539525032043,0.47473496198654175,0.37873390316963196,0.0763125792145729
0.6333333333333333,-0.01691085286438465,0.07265666872262955,0.0,0.6224581003189087,0.0,0.0,-0.7826530933380127,0.46277838945388794,-0.06579270958900452,0.0,0.0,0.0,1.1191297769546509,0.41707807779312134,0.7174727320671082,0.42117661237716675,0.5327038168907166,-0.01634206622838974,0.024199670180678368,-0.8457977175712585,0.23382195830345154,-0.5242629647254944,-0.00993034616112709,-0.6677954196929932,-0.1916826218366623,8.01293659210205,0.4134201407432556,0.725721001625061,0.4261513352394104,0.13296803832054138,-0.3692607283592224,0.13795363903045654,0.42303070425987244,0.7125648856163025,0.42000001668930054,-0.27225807309150696,-2.7928004264831543,-1.2474228143692017,-2.995595932006836,-0.19208109378814697,-0.19667388498783112,-0.20193780958652496,-0.19313940405845642,0.4450400173664093,0.3983485698699951,0.34078267216682434,0.07980851829051971
0.65,-0.008004667237401009,0.07438351958990097,0.0,0.6125748753547668,0.0,0.0,-0.7904125452041626,0.5714182257652283,0.16485688090324402,0.0,0.0,0.0,-2.4604897499084473,0.41821780800819397,0.7139065265655518,0.4207194447517395,0.5525578260421753,-0.010708209127187729,0.012013762257993221,-0.8333190679550171,0.11636286973953247,0.00627267686650157,0.07104179263114929,0.07522750645875931,2.788439989089966,2.573866605758667,0.41535890102386475,0.7254111766815186,0.42878615856170654,0.16646115481853485,0.13570921123027802,0.17749708890914917,0.42303070425987244,0.7125648856163025,0.42000001668930054,-0.30633237957954407,-1.4416778087615967,-1.2973726987838745,-2.9978291988372803,-0.18348950147628784,-0.1895095407962799,-0.1961253434419632,-0.1918175369501114,0.5743435025215149,0.47479382157325745,0.38727065920829773,0.12092069536447525
0.6666666666666666,0.003374816384166479,0.07096364349126816,0.0,0.6153760552406311,0.0,0.0,-0.7882336378097534,0.6849144697189331,-0.1843070536851883,0.0,0.0,0.0,1.3439124822616577,0.4196377098560333,0.7147781848907471,0.4210716485977173,0.5617977380752563,-0.01664588786661625,0.008908241055905819,-0.8270590901374817,-0.06239422783255577,0.1269184648990631,0.023080484941601753,-2.9395313262939453,-4.10041618347168,2.7836318016052246,0.4159713387489319,0.7276561260223389,0.43222057819366455,-0.1409969925880432,0.09981489181518555,0.23036086559295654,0.42303070425987244,0.7125648856163025,0.42000001668930054,-0.35316357016563416,-2.9999358654022217,-1.3473618030548096,-2.999877691268921,-0.17036566138267517,-0.17833614349365234,-0.1866416186094284,-0.1868290901184082,0.593285322189331,0.5370975136756897,0.49352967739105225,0.28426358103752136
0.6833333333333333,0.016089605167508125,0.07250448316335678,0.0,0.640943169593811,0.0,0.0,-0.7675883769989014,0.8345574140548706,0.07964541018009186,0.0,0.0,0.0,4.748639106750488,0.4186427891254425,0.7165318131446838,0.420195072889328,0.5741446018218994,4.984772385796532e-05,-0.0034674068447202444,-0.8187465071678162,-0.05283963680267334,0.08667618781328201,-0.051984235644340515,2.515594720840454,-0.9662782549858093,1.2652467489242554,0.4150770902633667,0.7297382950782776,0.43611976504325867,-0.022152243182063103,0.169197678565979,0.2624552249908447,0.42303070425987244,0.7125648856163025,0.42000001668930054,-0.4031603932380676,-2.9896445274353027,-1.3973305225372314,-2.99529767036438,-0.1634669452905655,-0.17171861231327057,-0.1800503134727478,-0.18282043933868408,0.5024389028549194,0.4655647575855255,0.44951269030570984,0.2974903881549835
0.7,0.026465479284524918,0.06903936713933945,0.0,0.6524000763893127,0.0,0.0,-0.7578747868537903,0.5299906134605408,-0.19153150916099548,0.0,0.0,0.0,0.6758086085319519,0.4179829955101013,0.7171922326087952,0.4200393557548523,0.5692331790924072,0.0005643339827656746,-0.0007882348145358264,-0.8221755027770996,-0.06116815656423569,0.0404369980096817,0.010126966051757336,-0.2051222324371338,-0.5167471170425415,-2.44754695892334,0.41538578271865845,0.733151912689209,0.4414403438568115,-0.08259505033493042,0.10677141696214676,0.32271721959114075,0.42303070425987244,0.7125648856163025,0.42000001668930054,-0.45314159989356995,-2.9999890327453613,-1.4473023414611816,-2.9998531341552734,-0.1536424309015274,-0.16220295429229736,-0.1704477220773697,-0.1751260757446289,0.33629119396209717,0.3913434147834778,0.4682253897190094,0.43474793434143066
0.7166666666666667,0.0365179069340229,0.06357046961784363,0.0,0.6402403712272644,0.0,0.0,-0.7681746482849121,0.637173593044281,-0.39181897044181824,0.0,0.0,0.0,-2.8143177032470703,0.4176361560821533,0.7173875570297241,0.4200000464916229,0.5649690628051758,3.7127588825569546e-07,-9.946180767883561e-08,-0.825111985206604,-0.0017435954650864005,0.0008527106838300824,-2.0335661247372627e-05,-0.00031348865013569593,0.0005396801279857755,-0.03007880598306656,0.4190853238105774,0.7351419925689697,0.4506909251213074,0.4770922362804413,0.0893968939781189,0.8941535949707031,0.42303070425987244,0.7125648856163025,0.42000001668930054,-0.5031542181968689,-2.9999821186065674,-1.497320532798767,-2.9999988079071045,-0.15072040259838104,-0.15787526965141296,-0.16431257128715515,-0.1687493473291397,0.08616580814123154,0.19169801473617554,0.3221908509731293,0.37312063574790955
0.7333333333333333,0.05032568797469139,0.062424879521131516,0.0,0.6051294803619385,0.0,0.0,-0.7961270809173584,0.7826438546180725,-0.012769744731485844,0.0,0.0,0.0,-6.220601558685303,0.4176359474658966,0.7173877954483032,0.4200000464916229,0.5649693012237549,1.2955428019267856e-07,-3.0193775728548644e-06,-0.8251119256019592,7.561978418380022e-05,-0.00026796513702720404,-7.814867421984673e-05,0.006708878558129072,-0.0016401732573285699,-0.0007086774567142129,0.4346662163734436,0.7321585416793823,0.47236770391464233,1.498319149017334,-0.2983796298503876,1.8009257316589355,0.42303070425987244,0.7125648856163025,0.42000001668930054,-0.5531668066978455,-2.9999892711639404,-1.5473387241363525,-3.000000476837158,-0.1568479835987091,-0.16094936430454254,-0.163987398147583,-0.1662122905254364,-0.32203638553619385,-0.1577405482530594,0.030338404700160027,0.1637265533208847
0.75,0.06502679735422134,0.06455705314874649,0.0,0.5848694443702698,0.0,0.0,-0.8111274242401123,0.9344426989555359,0.1420290768146515,0.0,0.0,0.0,-1.9427576065063477,0.4176359474658966,0.7173877358436584,0.4200000464916229,0.5649690628051758,2.4751889782237413e-07,-2.9569066555268364e-06,-0.8251121044158936,7.32229818822816e-05,-0.00025943771470338106,-8.32828227430582e-05,0.00645781634375453,-0.0017886485438793898,-0.0007013420690782368,0.460676908493042,0.7318660020828247,0.5043129920959473,1.6173031330108643,0.21290042996406555,2.0196926593780518,0.42303070425987244,0.7125648856163025,0.42000001668930054,-0.5739572644233704,0.2414400428533554,-1.597353458404541,-3.0000007152557373,-0.1613924205303192,-0.16373048722743988,-0.16467426717281342,-0.1655472069978714,-0.14663730561733246,-0.10606808215379715,-0.04909700155258179,-0.026940299198031425
0.7666666666666666,0.07671118527650833,0.06783552467823029,0.0,0.5909348130226135,0.0,0.0,-0.8067193031311035,0.6177979707717896,0.25412631034851074,0.0,0.0,0.0,1.7969826459884644,0.4176359176635742,0.7173877358436584,0.4200000464916229,0.5649693608283997,1.725498464111297e-07,-2.8151418973720865e-06,-0.8251118659973145,7.680666021769866e-05,-0.00025790257495827973,-8.412497118115425e-05,0.006397868972271681,-0.00174195715226233,-0.0007070092251524329,0.4844984710216522,0.7367931604385376,0.5324457883834839,1.177771806716919,0.3678017854690552,1.4089787006378174,0.42303070425987244,0.7125648856163025,0.42000001668930054,-0.5488665699958801,2.547450304031372,-1.558347463607788,2.999999523162842,-0.16154097020626068,-0.16351346671581268,-0.16386207938194275,-0.16457252204418182,0.05330963432788849,0.06844276189804077,0.0931524708867073,0.09781527519226074
0.7833333333333333,0.08316145092248917,0.0662626102566719,0.0,0.5848987698554993,0.0,0.0,-0.8111063241958618,0.39143994450569153,-0.12081565707921982,0.0,0.0,0.0,-1.7104454040527344,0.4176359474658966,0.7173877358436584,0.4200000464916229,0.5649693012237549,2.515060089081089e-07,-2.9740103855147026e-06,-0.8251118063926697,7.158553489716724e-05,-0.00026047800201922655,-8.297176100313663e-05,0.006492974702268839,-0.001814063056372106,-0.0007000286132097244,0.49716466665267944,0.7455483675003052,0.5499969720840454,0.26649442315101624,0.4613743722438812,0.829897940158844,0.42303070425987244,0.7125648856163025,0.42000001668930054,-0.5145397186279297,1.62568998336792,-1.5082910060882568,3.000000238418579,-0.15617474913597107,-0.1585400253534317,-0.15917110443115234,-0.16037483513355255,0.10461679846048355,0.13181328773498535,0.15748675167560577,0.169193297624588
0.8,0.08706448972225189,0.06990476697683334,0.0,0.5921627283096313,0.0,0.0,-0.8058183789253235,0.16670911014080048,0.2224789708852768,0.0,0.0,0.0,1.843340516090393,0.4176359474658966,0.7173877358436584,0.4200000464916229,0.5649693012237549,2.283243958345338e-07,-3.1215420221997192e-06,-0.8251118063926697,7.443323556799442e-05,-0.00026111534680239856,-8.357269689440727e-05,0.0064931525848805904,-0.0017842265078797936,-0.0007075074245221913,0.494951069355011,0.7531932592391968,0.561899721622467,-0.36738836765289307,0.5987026691436768,0.6010540127754211,0.42303070425987244,0.7125648856163025,0.42000001668930054,-0.47479626536369324,2.9946773052215576,-1.4582879543304443,2.9999847412109375,-0.1592186540365219,-0.1602022349834442,-0.159620001912117,-0.1598878800868988,-0.04226379096508026,-5.029141902923584e-08,0.03266102820634842,0.05604265257716179
0.8166666666666667,0.08717402815818787,0.06859273463487625,0.0,0.5866455435752869,0.0,0.0,-0.8098437786102295,-0.04047474265098572,-0.1675325483083725,0.0,0.0,0.0,-1.7228032350540161,0.4176359474658966,0.7173877358436584,0.4200000464916229,0.5649690628051758,2.4970194090201403e-07,-3.00048441204126e-06,-0.8251120448112488,7.382003241218626e-05,-0.0002593174867797643,-8.343672379851341e-05,0.0064510321244597435,-0.001782150473445654,-0.0007025519735179842,0.4827237129211426,0.762179970741272,0.5655961632728577,-1.1192045211791992,0.4892597198486328,0.04041864722967148,0.42303070425987244,0.7125648856163025,0.42000001668930054,-0.4593978822231293,-0.8293195962905884,-1.4082353115081787,3.000000476837158,-0.15873074531555176,-0.15908284485340118,-0.1580239236354828,-0.1578781008720398,0.043950147926807404,0.0888819471001625,0.12304363399744034,0.15615233778953552
0.8333333333333334,0.09037492424249649,0.07303042709827423,0.0,0.594192624092102,0.0,0.0,-0.8043227791786194,0.2552407383918762,0.43307754397392273,0.0,0.0,0.0,2.0444743633270264,0.4176359176635742,0.7173877358436584,0.4200000464916229,0.5649693012237549,2.787148787319893e-07,-3.1207409847411327e-06,-0.8251118063926697,7.65987642807886e-05,-0.0002593016251921654,-8.406955748796463e-05,0.006434405688196421,-0.0017511936603114009,-0.0007090424187481403,0.46458983421325684,0.7687169313430786,0.5647602677345276,-1.0244780778884888,0.4192199110984802,-0.10785729438066483,0.42303070425987244,0.7125648856163025,0.42000001668930054,-0.4534604847431183,1.3486473560333252,-1.4262093305587769,-3.000000238418579,-0.16492459177970886,-0.16336819529533386,-0.1606777012348175,-0.15898433327674866,-0.4590722620487213,-0.34162434935569763,-0.2410210371017456,-0.14306578040122986
0.85,0.08938074856996536,0.07462237775325775,0.0,0.6199532151222229,0.0,0.0,-0.7846387624740601,-0.058124952018260956,0.043926551938056946,0.0,0.0,0.0,5.0247979164123535,0.4176359176635742,0.7173877358436584,0.4200000464916229,0.5649691224098206,2.2332915250444785e-07,-3.1495098937739385e-06,-0.825111985206604,7.549456495326012e-05,-0.00025963506777770817,-8.377013728022575e-05,0.006449880078434944,-0.001763589563779533,-0.0007069928105920553,0.44371742010116577,0.7752370834350586,0.5601992607116699,-1.501115083694458,0.1945953667163849,-0.42271360754966736,0.42303070425987244,0.7125648856163025,0.42000001668930054,-0.4759685695171356,-2.9999074935913086,-1.38768470287323,3.000000238418579,-0.16704924404621124,-0.16422924399375916,-0.16047804057598114,-0.15764865279197693,-0.2268713265657425,-0.12034467607736588,-0.027303017675876617,0.06938168406486511
0.8666666666666667,0.09030527621507645,0.07271064072847366,0.0,0.6310251951217651,0.0,0.0,-0.7757623195648193,0.09374267607927322,-0.16476303339004517,0.0,0.0,0.0,0.5719531774520874,0.4176359176635742,0.7173877358436584,0.4200000464916229,0.5649693012237549,2.666347427293658e-07,-3.1139259135670727e-06,-0.8251118063926697,7.621715485583991e-05,-0.0002593013923615217,-8.393218740820885e-05,0.006437146104872227,-0.0017539183609187603,-0.0007080365903675556,0.4247581362724304,0.7771933078765869,0.5477176904678345,-0.8327550888061523,0.00458899699151516,-0.8750938177108765,0.42303070425987244,0.7125648856163025,0.42000001668930054,-0.525972306728363,-2.999997854232788,-1.4060300588607788,-3.0000014305114746,-0.17110289633274078,-0.1663912683725357,-0.1608322113752365,-0.1559772938489914,-0.228456050157547,-0.1060519888997078,0.01634988933801651,0.15799841284751892
0.8833333333333333,0.09360292553901672,0.06768359988927841,0.0,0.6193589568138123,0.0,0.0,-0.7851079106330872,0.2439878135919571,-0.36377450823783875,0.0,0.0,0.0,-2.6624996662139893,0.4176359176635742,0.7173877358436584,0.4200000464916229,0.5649693012237549,2.637403895278112e-07,-3.145034725093865e-06,-0.8251118063926697,7.610605098307133e-05,-0.0002594673715066165,-8.388841524720192e-05,0.006442306563258171,-0.0017554345540702343,-0.0007080195937305689,0.4164811670780182,0.7749170064926147,0.5348265171051025,-0.1874861717224121,-0.2614901065826416,-0.5089011788368225,0.42303070425987244,0.7125648856163025,0.42000001668930054,-0.5759829878807068,-2.99998140335083,-1.4560483694076538,-2.999999523162842,-0.17589984834194183,-0.16920706629753113,-0.1615978479385376,-0.15431752800941467,-0.2785972058773041,-0.1677478700876236,-0.050088509917259216,0.09201444685459137
0.9,0.09957313537597656,0.05933906137943268,0.0,0.5868797302246094,0.0,0.0,-0.8096741437911987,0.40483540296554565,-0.5586188435554504,0.0,0.0,0.0,-5.815397262573242,0.4176359176635742,0.7173877358436584,0.4200000464916229,0.5649691224098206,2.1559685592364985e-07,-3.1731192393635865e-06,-0.825111985206604,7.571050809929147e-05,-0.0002596361155156046,-8.38213600218296e-05,0.006448650732636452,-0.0017613220261409879,-0.0007074967725202441,0.42211034893989563,0.7664855718612671,0.529903769493103,0.8415206670761108,-0.6940332055091858,0.06699980795383453,0.42303070425987244,0.7125648856163025,0.42000001668930054,-0.6145153045654297,-1.7055037021636963,-1.5060666799545288,-2.9999921321868896,-0.18214039504528046,-0.1734587550163269,-0.16374750435352325,-0.15398499369621277,-0.3801847994327545,-0.2676539719104767,-0.14836278557777405,-0.007361795753240585
0.9166666666666666,0.10876694321632385,0.05460681393742561,0.0,0.5690611600875854,0.0,0.0,-0.8222951889038086,0.5674502849578857,-0.25168702006340027,0.0,0.0,0.0,-1.4243876934051514,0.4176359176635742,0.7173877358436584,0.4200000464916229,0.5649693012237549,2.65327855686337e-07,-3.138017063974985e-06,-0.8251118063926697,7.620819087605923e-05,-0.0002593038370832801,-8.392659947276115e-05,0.00643713166937232,-0.001754074008204043,-0.0007080220966599882,0.4379725158214569,0.760644793510437,0.5356892347335815,1.0998787879943848,-0.04101826995611191,0.5369062423706055,0.42303070425987244,0.7125648856163025,0.42000001668930054,-0.6149131655693054,1.3898524045944214,-1.5560849905014038,-2.9999985694885254,-0.1886196881532669,-0.1789563149213791,-0.1682083010673523,-0.15711060166358948,-0.1777900606393814,-0.21019594371318817,-0.2379855513572693,-0.24603445827960968
