vladlanda/robotic-transformer/data/env_000_episode_0100.csv
sim_time_s,robot_box_x,robot_box_y,robot_box_z,robot_box_quat_w,robot_box_quat_x,robot_box_quat_y,robot_box_quat_z,robot_box_linvel_x,robot_box_linvel_y,robot_box_linvel_z,robot_box_angvel_x,robot_box_angvel_y,robot_box_angvel_z,cube_world_x,cube_world_y,cube_world_z,cube_quat_w,cube_quat_x,cube_quat_y,cube_quat_z,cube_linvel_x,cube_linvel_y,cube_linvel_z,cube_angvel_x,cube_angvel_y,cube_angvel_z,endpoint_world_x,endpoint_world_y,endpoint_world_z,endpoint_linvel_x,endpoint_linvel_y,endpoint_linvel_z,target_cube_world_x,target_cube_world_y,target_cube_world_z,gripper_actual_pos_rad_gp_leftgearjoint,gripper_actual_vel_rad_s_gp_leftgearjoint,gripper_actual_pos_rad_gp_rotatingjoint,gripper_actual_vel_rad_s_gp_rotatingjoint,motor_angle_rad_joint1,motor_angle_rad_joint2,motor_angle_rad_joint3,motor_angle_rad_joint4,motor_speed_rad_s_joint1,motor_speed_rad_s_joint2,motor_speed_rad_s_joint3,motor_speed_rad_s_joint4
0.0,0.0,0.0,0.0,1.0,0.0,0.0,0.0,0.0,0.0,0.0,0.0,0.0,0.0,-0.385010302066803,0.731280505657196,0.41999998688697815,1.0,0.0,0.0,0.0,0.0,0.0,0.0,0.0,0.0,0.0,3.42540442943573e-06,-0.005000244826078415,1.313499927520752,0.0,0.0,0.0,0.38208359479904175,0.7618977427482605,0.42000001668930054,-1.5707999467849731,0.0,0.0,0.0,0.0,0.0,0.0,0.0,0.0,0.0,0.0,0.0
0.016666666666666666,0.002878767903894186,0.002179673407226801,0.0,0.9998102784156799,0.0,0.0,0.019478153437376022,0.24089904129505157,0.1823711395263672,0.0,0.0,0.0,3.141846179962158,-0.38501042127609253,0.7312802076339722,0.41999998688697815,1.0,3.279964630564791e-06,-8.339746386809566e-07,8.465587342243452e-08,-1.9833529222523794e-05,0.00017983045836444944,-6.132945418357849e-05,0.0009432713268324733,-0.004689474124461412,-0.00031981561915017664,-0.007110368460416794,0.003382535418495536,1.3159376382827759,-0.8142408132553101,0.9869744777679443,0.18095529079437256,0.38208359479904175,0.7618977427482605,0.42000001668930054,-1.5301095247268677,3.0000016689300537,-0.04584816098213196,-2.999999761581421,0.0008698914898559451,0.0007964471587911248,0.0007111073937267065,0.0006109565729275346,0.11093462258577347,0.09757561981678009,0.08335068076848984,0.0682457685470581
0.03333333333333333,0.008962070569396019,0.006800406146794558,0.0,0.9997981786727905,0.0,0.0,0.020088471472263336,0.4070342183113098,0.3152722716331482,0.0,0.0,0.0,-0.8691105246543884,-0.3850105404853821,0.7312801480293274,0.4200000464916229,1.0,3.3908354453160428e-06,-2.1324485715012997e-06,-3.710144014235084e-08,0.00026357831666246057,0.00026937946677207947,-0.00010509486310184002,-0.0017707672668620944,0.004130808170884848,-0.000135478752781637,-0.027551377192139626,0.026307135820388794,1.3165805339813232,-1.5909786224365234,1.6167186498641968,-0.08708550035953522,0.38208359479904175,0.7618977427482605,0.42000001668930054,-1.4800902605056763,2.9999990463256836,-0.09588800370693207,-3.000000238418579,0.002990448148921132,0.0026526395231485367,0.002277220133692026,0.0018606745870783925,0.1641906499862671,0.139748215675354,0.1138063296675682,0.08628752082586288
0.05,0.01847206801176071,0.013901191763579845,0.0,0.9999770522117615,0.0,0.0,-0.00677516870200634,0.6362819075584412,0.47233137488365173,0.0,0.0,0.0,-4.074041366577148,-0.38501057028770447,0.7312802076339722,0.4200000464916229,1.0,3.7651125239790417e-06,-2.211879063906963e-06,5.622505128144439e-09,0.000265308452071622,0.0002669153327587992,-0.00010440615005791187,-0.001724260626360774,0.004177352879196405,-0.00012949221127200872,-0.05687038227915764,0.05797018110752106,1.3118348121643066,-1.9224684238433838,2.1064321994781494,-0.46607786417007446,0.38208359479904175,0.7618977427482605,0.42000001668930054,-1.4300719499588013,3.0,-0.14592668414115906,-3.0,0.005973988678306341,0.005122138652950525,0.004198021255433559,0.003197247860953212,0.20295488834381104,0.16159765422344208,0.11831281334161758,0.07303246110677719
0.06666666666666667,0.030786801129579544,0.023389913141727448,0.0,0.9998829364776611,0.0,0.0,-0.01530077587813139,0.7726067304611206,0.6161597371101379,0.0,0.0,0.0,-0.03847773000597954,-0.38501057028770447,0.7312801480293274,0.4200000464916229,0.9999999403953552,3.4066883927152958e-06,-2.285532218593289e-06,4.300976286231162e-07,0.0002670241810847074,0.00026791772688739,-0.00010438147000968456,-0.00174069800414145,0.00421178387477994,-0.00012850729399360716,-0.09186661243438721,0.09214460104703903,1.301491141319275,-2.145303964614868,2.1629977226257324,-0.7641311883926392,0.38208359479904175,0.7618977427482605,0.42000001668930054,-1.3800536394119263,3.0000014305114746,-0.19200217723846436,-2.535937547683716,0.008445091545581818,0.006801253650337458,0.005044294521212578,0.003169841133058071,0.12477632611989975,0.06711095571517944,0.007282685488462448,-0.05476529151201248
0.08333333333333333,0.037732578814029694,0.036558378487825394,0.0,0.9992378354072571,0.0,0.0,-0.039035260677337646,0.21647529304027557,0.8796259164810181,0.0,0.0,0.0,-3.8137407302856445,-0.38501057028770447,0.7312801480293274,0.4200000464916229,0.9999999403953552,3.626031229941873e-06,-2.3352447442448465e-06,3.032197639640799e-07,0.0002661392209120095,0.0002668500819709152,-0.00010405294597148895,-0.0017282416811212897,0.00419628107920289,-0.00012790791515726596,-0.12343490868806839,0.13298413157463074,1.286206603050232,-1.6426595449447632,2.72462797164917,-1.0169494152069092,0.38208359479904175,0.7618977427482605,0.42000001668930054,-1.3300278186798096,2.9999940395355225,-0.1571616381406784,3.0000007152557373,0.004793460946530104,0.002322625834494829,-0.0003141176712233573,-0.0031245574355125427,-0.3910147249698639,-0.4475118815898895,-0.5069215893745422,-0.5695061683654785
0.1,0.04710910841822624,0.05171095207333565,0.0,0.995879590511322,0.0,0.0,-0.09068505465984344,0.7402175068855286,0.9018293619155884,0.0,0.0,0.0,-6.966338634490967,-0.38501057028770447,0.7312801480293274,0.4200000464916229,1.0,3.4220790894323727e-06,-2.3084901386027923e-06,1.7962952369998675e-07,0.00026681559393182397,0.0002680041070561856,-0.00010440824553370476,-0.001743067754432559,0.004207110498100519,-0.0001289140636799857,-0.15036721527576447,0.17975308001041412,1.270308256149292,-1.610569953918457,2.917116165161133,-0.9301848411560059,0.38208359479904175,0.7618977427482605,0.42000001668930054,-1.2800376415252686,3.0000007152557373,-0.18893346190452576,-3.000000476837158,0.002166891936212778,-0.0018225301755592227,-0.005987399257719517,-0.010336031205952168,-0.021567698568105698,-0.13177353143692017,-0.2408590018749237,-0.3487396538257599
0.11666666666666667,0.055570442229509354,0.06391788274049759,0.0,0.9924672245979309,0.0,0.0,-0.12251023948192596,0.5423448085784912,0.6819882988929749,0.0,0.0,0.0,-2.57967209815979,-0.38501057028770447,0.7312802076339722,0.4200000464916229,1.0,3.7114921269676415e-06,-2.3325701477006078e-06,2.574244888364774e-07,0.0002648564986884594,0.0002663535706233233,-0.0001042329240590334,-0.0017182455630972981,0.004170000087469816,-0.00012915577099192888,-0.18264228105545044,0.22614669799804688,1.2520394325256348,-1.958545446395874,3.0068719387054443,-1.1562137603759766,0.38208359479904175,0.7618977427482605,0.42000001668930054,-1.2300200462341309,2.9999899864196777,-0.15516318380832672,2.999999761581421,-0.0005160186556167901,-0.006148143205791712,-0.011929349042475224,-0.017867742106318474,-0.059729162603616714,-0.17490829527378082,-0.2866719663143158,-0.3948585093021393
0.13333333333333333,0.061482612043619156,0.07685185968875885,0.0,0.9865648150444031,0.0,0.0,-0.16337046027183533,0.2852220833301544,0.8394855260848999,0.0,0.0,0.0,-5.694302082061768,-0.38501057028770447,0.7312801480293274,0.4200000464916229,0.9999999403953552,3.4247264011355583e-06,-2.301872882526368e-06,1.559877063073145e-07,0.0002670699032023549,0.000268113479251042,-0.0001044438686221838,-0.0017433533212170005,0.004212031606584787,-0.00012877589324489236,-0.21285036206245422,0.27965083718299866,1.231947898864746,-1.623337984085083,3.5163114070892334,-1.2654056549072266,0.38208359479904175,0.7618977427482605,0.42000001668930054,-1.1800340414047241,3.000000476837158,-0.1869325339794159,-3.0,-0.00327834440395236,-0.010838914662599564,-0.01847914420068264,-0.026204271242022514,-0.23302403092384338,-0.3458818197250366,-0.4542272388935089,-0.5578586459159851
0.15,0.06443221122026443,0.08811088651418686,0.0,0.9828028678894043,0.0,0.0,-0.18465785682201385,0.1308727115392685,0.554507851600647,0.0,0.0,0.0,-1.4677832126617432,-0.38501057028770447,0.7312801480293274,0.4200000464916229,1.0,3.7138852349016815e-06,-2.2076646928326227e-06,-1.690935107490077e-07,0.0002635338169056922,0.00026536203222349286,-0.00010422198101878166,-0.0017013110918924212,0.0041441041976213455,-0.00012960704043507576,-0.2466181516647339,0.3364304304122925,1.2031002044677734,-2.1121318340301514,3.541938543319702,-2.115924835205078,0.38208359479904175,0.7618977427482605,0.42000001668930054,-1.1504212617874146,0.7270305156707764,-0.15317155420780182,3.000000238418579,-0.0074550686404109,-0.01653052493929863,-0.025601893663406372,-0.03467347100377083,-0.2681489586830139,-0.33812785148620605,-0.40318113565444946,-0.46335369348526
0.16666666666666666,0.06971817463636398,0.09920169413089752,0.0,0.9758467674255371,0.0,0.0,-0.21845628321170807,0.32330676913261414,0.7124409675598145,0.0,0.0,0.0,-4.930758476257324,-0.38501057028770447,0.7312801480293274,0.4200000464916229,0.9999999403953552,3.638363523350563e-06,-2.278693045809632e-06,2.700642482977855e-07,0.0002668263914529234,0.00026750031975097954,-0.00010410090908408165,-0.0017399657517671585,0.004210122860968113,-0.00012781827535945922,-0.2799195945262909,0.399965763092041,1.1636507511138916,-1.8136119842529297,4.089170455932617,-2.653075695037842,0.38208359479904175,0.7618977427482605,0.42000001668930054,-1.1080946922302246,3.000000238418579,-0.18495480716228485,-3.000000238418579,-0.013641176745295525,-0.023519251495599747,-0.03333278372883797,-0.04308939725160599,-0.5566353797912598,-0.5742343068122864,-0.5898892879486084,-0.6038801074028015
0.18333333333333332,0.07184150069952011,0.11285935342311859,0.0,0.9628871083259583,0.0,0.0,-0.2699045240879059,0.06931905448436737,0.8766313791275024,0.0,0.0,0.0,-7.046550273895264,-0.38501057028770447,0.7312801480293274,0.4200000464916229,1.0,3.3864323540910846e-06,-2.300143023603596e-06,1.4392101377325162e-07,0.00026674565742723644,0.0002678720629774034,-0.00010437029413878918,-0.0017412372399121523,0.004205969627946615,-0.0001287883351324126,-0.3115450143814087,0.4693315029144287,1.1114821434020996,-1.687163233757019,4.424942970275879,-3.567206859588623,0.38208359479904175,0.7618977427482605,0.42000001668930054,-1.0639065504074097,2.32352352142334,-0.23498289287090302,-3.0000016689300537,-0.025362228974699974,-0.035150039941072464,-0.04484017938375473,-0.054448068141937256,-0.7419206500053406,-0.724412739276886,-0.7048063278198242,-0.68357914686203
0.2,0.07800578325986862,0.1228889748454094,0.0,0.9535382986068726,0.0,0.0,-0.3012719452381134,0.40184178948402405,0.5106942653656006,0.0,0.0,0.0,-2.748927116394043,-0.38501057028770447,0.7312802076339722,0.4200000464916229,1.0,3.6755022847501095e-06,-2.3264412902790355e-06,2.211315717204343e-07,0.00026484468253329396,0.00026631311629898846,-0.00010421779006719589,-0.0017176943365484476,0.0041699339635670185,-0.00012910230725537986,-0.34230858087539673,0.5384455919265747,1.0440239906311035,-1.5560410022735596,4.225537300109863,-4.53713321685791,0.38208359479904175,0.7618977427482605,0.42000001668930054,-1.0150361061096191,3.0000014305114746,-0.28500837087631226,-2.999999523162842,-0.03665754944086075,-0.04579593613743782,-0.05482424050569534,-0.06376907229423523,-0.8094624876976013,-0.738261342048645,-0.6682283282279968,-0.6001513600349426
0.21666666666666667,0.07846567779779434,0.13603299856185913,0.0,0.9386245012283325,0.0,0.0,-0.34494057297706604,0.0360720232129097,0.7682633399963379,0.0,0.0,0.0,-6.2548651695251465,-0.38501057028770447,0.7312801480293274,0.4200000464916229,1.0,3.322260681670741e-06,-2.2079154859966366e-06,2.7427799409451836e-07,0.0002666290965862572,0.0002674963907338679,-0.00010426202788949013,-0.0017359007615596056,0.004204810131341219,-0.00012833699292968959,-0.36425331234931946,0.6035531759262085,0.9592626094818115,-0.9834120273590088,3.8325681686401367,-5.355160236358643,0.38208359479904175,0.7618977427482605,0.42000001668930054,-0.9650267362594604,2.999993324279785,-0.3350362181663513,-2.999995708465576,-0.05250219255685806,-0.061662156134843826,-0.07065873593091965,-0.07919181138277054,-0.6487778425216675,-0.7042127251625061,-0.7559681534767151,-0.8030791282653809
0.23333333333333334,0.0842074602842331,0.14355537295341492,0.0,0.9290803074836731,0.0,0.0,-0.36987805366516113,0.34105902910232544,0.3754289448261261,0.0,0.0,0.0,-1.9993071556091309,-0.38501057028770447,0.7312801480293274,0.4200000464916229,1.0,3.656489070635871e-06,-2.3733603029540973e-06,-4.076755999449233e-07,0.0002661180915310979,0.0002672612317837775,-0.0001042359508574009,-0.0017336306627839804,0.004194698762148619,-0.00012855089153163135,-0.38210099935531616,0.6589442491531372,0.8652422428131104,-0.7471379637718201,3.01193904876709,-5.980188369750977,0.38208359479904175,0.7618977427482605,0.42000001668930054,-0.9150179624557495,3.000000238418579,-0.3850664496421814,-3.0000014305114746,-0.06261146813631058,-0.07207051664590836,-0.0813513770699501,-0.09015804529190063,-0.8565673828125,-0.8169324398040771,-0.7796143889427185,-0.7459930181503296
0.25,0.08422163128852844,0.15488781034946442,0.0,0.9313612580299377,0.0,0.0,-0.36409640312194824,0.006741540506482124,0.6327874660491943,0.0,0.0,0.0,1.7096761465072632,-0.38501057028770447,0.7312802076339722,0.4200000464916229,1.0,3.630435230661533e-06,-2.2425372208090266e-06,1.1225562701611125e-08,0.0002667999651748687,0.0002670606190804392,-0.00010390975512564182,-0.0017342327628284693,0.004210583865642548,-0.0001270299544557929,-0.3962126076221466,0.6923589706420898,0.763617217540741,-0.7534807920455933,1.367998719215393,-6.119764804840088,0.38208359479904175,0.7618977427482605,0.42000001668930054,-0.8650072813034058,2.999985933303833,-0.4350981116294861,-2.999999761581421,-0.07883673906326294,-0.08829496800899506,-0.09760243445634842,-0.10639487206935883,-0.6587961316108704,-0.7194697260856628,-0.7763818502426147,-0.8278977274894714
0.26666666666666666,0.08877018094062805,0.16021360456943512,0.0,0.928329586982727,0.0,0.0,-0.3717583119869232,0.2915394902229309,0.24261608719825745,0.0,0.0,0.0,-1.7075200080871582,-0.3850105404853821,0.7312801480293274,0.4200000464916229,0.9999999403953552,3.7400498058559606e-06,-2.2362221443472663e-06,4.499843271332793e-07,0.00026479526422917843,0.0002667304943315685,-0.00010454165749251842,-0.0017189675709232688,0.004166619386523962,-0.00013016564480494708,-0.4057181477546692,0.7147945165634155,0.6602256298065186,-0.33090269565582275,1.036558747291565,-6.183274269104004,0.38208359479904175,0.7618977427482605,0.42000001668930054,-0.8149975538253784,2.9999959468841553,-0.485129714012146,-2.9999985694885254,-0.09028014540672302,-0.10036151856184006,-0.11026570945978165,-0.11962122470140457,-0.9511791467666626,-0.9391618371009827,-0.9282772541046143,-0.9194417595863342
0.2833333333333333,0.08905468136072159,0.1623612344264984,0.0,0.9315005540847778,0.0,0.0,-0.36373987793922424,-0.0710112676024437,0.08994074910879135,0.0,0.0,0.0,1.8639559745788574,-0.38501057028770447,0.7312801480293274,0.4200000464916229,1.0,3.3915318908839254e-06,-2.2911408450454473e-06,1.2461448761769134e-07,0.00026677080313675106,0.0002678920573089272,-0.00010437588207423687,-0.0017412164015695453,0.004206300713121891,-0.00012878398410975933,-0.4080575108528137,0.7258565425872803,0.5623602867126465,0.11700421571731567,0.2798011302947998,-5.493613243103027,0.38208359479904175,0.7618977427482605,0.42000001668930054,-0.7649887800216675,3.0000011920928955,-0.5351596474647522,-3.0,-0.10793522000312805,-0.11777937412261963,-0.12750990688800812,-0.1367327719926834,-1.0155539512634277,-1.0117261409759521,-1.008815884590149,-1.0064992904663086
0.3,0.08563217520713806,0.16190092265605927,0.0,0.928693950176239,0.0,0.0,-0.37084704637527466,-0.1804555356502533,-0.10352244973182678,0.0,0.0,0.0,-1.7247984409332275,-0.38501057028770447,0.7312802076339722,0.4200000464916229,1.0,3.6806275147682754e-06,-2.319080067536561e-06,2.0109595766371058e-07,0.0002647907240316272,0.0002662569750100374,-0.00010421173647046089,-0.0017167399637401104,0.004168936051428318,-0.00012909939687233418,-0.3998302221298218,0.7287160158157349,0.47358983755111694,0.8077928423881531,0.09406481683254242,-5.114210605621338,0.38208359479904175,0.7618977427482605,0.42000001668930054,-0.71498042345047,2.9999940395355225,-0.5851882696151733,-2.9999990463256836,-0.12514828145503998,-0.13484986126422882,-0.14449383318424225,-0.15366046130657196,-0.843133807182312,-0.8768037557601929,-0.9084990620613098,-0.9371710419654846
0.31666666666666665,0.08106277883052826,0.1584937870502472,0.0,0.9318046569824219,0.0,0.0,-0.3629601299762726,-0.3195200264453888,-0.246563121676445,0.0,0.0,0.0,1.8568999767303467,-0.38489747047424316,0.7312113642692566,0.4200083613395691,0.9999977350234985,1.9237424567108974e-05,0.00022024371719453484,-0.002115135546773672,-0.010923582129180431,0.0042085908353328705,0.0002959581615868956,-0.008507159538567066,0.02585604414343834,0.35858023166656494,-0.3930813670158386,0.7314584255218506,0.4302048087120056,0.15665146708488464,-0.06436983495950699,-0.2632191777229309,0.38208359479904175,0.7618977427482605,0.42000001668930054,-0.6649754047393799,2.999966621398926,-0.635581374168396,-2.9983437061309814,-0.13643448054790497,-0.1464599221944809,-0.15628202259540558,-0.1654220074415207,-0.3450733423233032,-0.38132452964782715,-0.4011750817298889,-0.399666965007782
0.3333333333333333,0.07409490644931793,0.1528366357088089,0.0,0.9289562106132507,0.0,0.0,-0.3701896071434021,-0.46398240327835083,-0.3773006796836853,0.0,0.0,0.0,-1.8450837135314941,-0.38490670919418335,0.7312117218971252,0.41999998688697815,0.9999977350234985,4.820525191462366e-06,-4.428560259839287e-06,-0.002115036826580763,0.0004602278640959412,0.00034713512286543846,-0.00011279969476163387,-0.002049205359071493,0.00847871508449316,-5.321048229234293e-05,-0.39139360189437866,0.7328400015830994,0.4268916845321655,0.21545186638832092,0.11897533386945724,-0.19267790019512177,0.38208359479904175,0.7618977427482605,0.42000001668930054,-0.614969789981842,2.999978542327881,-0.6856698989868164,-2.9999680519104004,-0.14341531693935394,-0.15329736471176147,-0.1626531034708023,-0.17095862329006195,-0.47922661900520325,-0.42971721291542053,-0.3608810007572174,-0.2719830274581909
0.35,0.06491359323263168,0.14496943354606628,0.0,0.9319797158241272,0.0,0.0,-0.3625105023384094,-0.5911349058151245,-0.5104851722717285,0.0,0.0,0.0,1.8986879587173462,-0.38266050815582275,0.7339723706245422,0.42060261964797974,0.9995957016944885,0.015003249980509281,6.715185008943081e-05,-0.024151980876922607,0.19325794279575348,0.2281571477651596,0.028075244277715683,1.5596448183059692,-0.12563349306583405,-2.8512122631073,-0.38724496960639954,0.7353131771087646,0.4236665666103363,0.3105946481227875,0.18259823322296143,-0.17047347128391266,0.38208359479904175,0.7618977427482605,0.42000001668930054,-0.564964771270752,2.9999821186065674,-0.7357219457626343,-2.999912738800049,-0.1525178998708725,-0.16087612509727478,-0.16839313507080078,-0.1745680719614029,-0.5434181094169617,-0.4295845627784729,-0.29758694767951965,-0.15014907717704773
0.36666666666666664,0.05346769094467163,0.13492971658706665,0.0,0.9291470050811768,0.0,0.0,-0.36971044540405273,-0.7291500568389893,-0.6409102082252502,0.0,0.0,0.0,-1.8782497644424438,-0.37948551774024963,0.737479567527771,0.42000287771224976,0.9976213574409485,-3.6935687148798024e-06,-8.420943049713969e-05,-0.0689319297671318,0.2263682782649994,0.2757985591888428,-0.0002891152980737388,0.001264428487047553,0.014291604049503803,-9.032183647155762,-0.3806391954421997,0.7387819290161133,0.42147141695022583,0.49293988943099976,0.2781195640563965,-0.10959836840629578,0.38208359479904175,0.7618977427482605,0.42000001668930054,-0.5149599313735962,2.9999783039093018,-0.7857767343521118,-2.9999983310699463,-0.1616501659154892,-0.1678837537765503,-0.17294469475746155,-0.17639704048633575,-0.5121360421180725,-0.37761950492858887,-0.22366850078105927,-0.0549466609954834
0.3833333333333333,0.04150738567113876,0.12261388450860977,0.0,0.9153425097465515,0.0,0.0,-0.40267616510391235,-0.7296095490455627,-0.7856361269950867,0.0,0.0,0.0,-5.083404541015625,-0.3727707862854004,0.7449851632118225,0.42006322741508484,0.9844847321510315,0.0015153560088947415,-0.00024399414542131126,-0.17546328902244568,0.49104174971580505,0.5312309861183167,0.024978358298540115,1.3273231983184814,-0.41486096382141113,-15.417892456054688,-0.37114012241363525,0.7454347610473633,0.4207363724708557,0.7025210857391357,0.6011141538619995,0.00794975459575653,0.38208359479904175,0.7618977427482605,0.42000001668930054,-0.4649558365345001,2.999980926513672,-0.835833728313446,-2.999983310699463,-0.170272558927536,-0.1740458607673645,-0.1762741655111313,-0.17661766707897186,-0.4645864963531494,-0.3188328742980957,-0.14887334406375885,0.03900372236967087
0.4,0.032486848533153534,0.10736756771802902,0.0,0.8888665437698364,0.0,0.0,-0.4581662118434906,-0.46975550055503845,-0.9712673425674438,0.0,0.0,0.0,-8.192597389221191,-0.35269010066986084,0.7628669738769531,0.4218735098838806,0.9762367010116577,0.0019485625671222806,-0.01950913481414318,-0.21581824123859406,1.6467291116714478,1.8057340383529663,-0.05430387333035469,13.93529224395752,-17.997758865356445,-10.699923515319824,-0.3515012264251709,0.7626685500144958,0.4224664568901062,1.9720420837402344,1.605471134185791,0.1922798752784729,0.38208359479904175,0.7618977427482605,0.42000001668930054,-0.4150453507900238,2.920081853866577,-0.8858756422996521,-2.9996745586395264,-0.17822836339473724,-0.17926447093486786,-0.1783302277326584,-0.17520999908447266,-0.473375529050827,-0.2888168692588806,-0.08110783994197845,0.14145001769065857
0.4166666666666667,0.026170365512371063,0.09607890248298645,0.0,0.8457130193710327,0.0,0.0,-0.5336380004882812,-0.29699864983558655,-0.6649702787399292,0.0,0.0,0.0,-11.110227584838867,-0.29415082931518555,0.797917366027832,0.4259541630744934,0.9594510197639465,0.046329133212566376,-0.05831211432814598,-0.27185845375061035,5.011617183685303,2.3371098041534424,0.09217923134565353,27.58844566345215,-21.0401554107666,15.147781372070312,-0.29270318150520325,0.7976588010787964,0.42678409814834595,4.640177249908447,2.732880115509033,0.31808996200561523,0.38208359479904175,0.7618977427482605,0.42000001668930054,-0.3828785717487335,1.1862348318099976,-0.8490599393844604,3.000004768371582,-0.1919461488723755,-0.18941715359687805,-0.18355250358581543,-0.17557202279567719,-0.622525155544281,-0.5328011512756348,-0.2792210280895233,-0.03449877351522446
0.43333333333333335,0.023824820294976234,0.08754938095808029,0.0,0.8095117807388306,0.0,0.0,-0.5871036052703857,-0.0846257284283638,-0.4525628685951233,0.0,0.0,0.0,-6.395023345947266,-0.21562790870666504,0.8435742259025574,0.4329097867012024,0.933734655380249,0.08911565691232681,-0.09228292107582092,-0.3341881036758423,5.164260387420654,2.3636796474456787,0.5732704401016235,9.814159393310547,-12.525972366333008,4.942568302154541,-0.21425452828407288,0.8443922996520996,0.43380892276763916,4.854658126831055,2.639035224914551,0.545415997505188,0.38208359479904175,0.7618977427482605,0.42000001668930054,-0.36635440587997437,0.8968929052352905,-0.8755431771278381,-3.000001907348633,-0.2018931806087494,-0.1980830579996109,-0.18889789283275604,-0.17786040902137756,-0.5517109632492065,-0.479215532541275,-0.3161676228046417,-0.173666313290596
0.45,0.018242638558149338,0.08409839868545532,0.0,0.7932353019714355,0.0,0.0,-0.6089152097702026,-0.2791241705417633,-0.14854919910430908,0.0,0.0,0.0,-1.8582148551940918,-0.1304009109735489,0.8790919184684753,0.4441608190536499,0.8802663683891296,0.1069554015994072,-0.10315089672803879,-0.45061230659484863,5.355832099914551,1.1609294414520264,0.636559247970581,1.339090347290039,-10.914847373962402,13.48216724395752,-0.13038381934165955,0.8797926902770996,0.4435774087905884,5.314128398895264,1.7929229736328125,0.7191059589385986,0.38208359479904175,0.7618977427482605,0.42000001668930054,-0.34726420044898987,1.1832431554794312,-0.9255672097206116,-3.000001907348633,-0.21535280346870422,-0.20889176428318024,-0.19600717723369598,-0.18170066177845,-0.703885555267334,-0.5541481375694275,-0.3560709059238434,-0.1766827255487442
0.4666666666666667,0.017802521586418152,0.07536781579256058,0.0,0.7693676352500916,0.0,0.0,-0.6388062834739685,-0.05832494795322418,-0.5489358305931091,0.0,0.0,0.0,-5.287280559539795,-0.041833385825157166,0.8993697166442871,0.451801598072052,0.8438176512718201,0.09727714955806732,-0.10997486859560013,-0.5161533355712891,5.444746494293213,-0.004680026322603226,0.40335994958877563,-5.035955429077148,-21.053913116455078,13.10221004486084,-0.04131338745355606,0.9011075496673584,0.45192617177963257,5.4051923751831055,0.6607268452644348,0.5733386874198914,0.38208359479904175,0.7618977427482605,0.42000001668930054,-0.3278215825557709,1.015513300895691,-0.975591242313385,-3.00000262260437,-0.22159893810749054,-0.21290671825408936,-0.19719742238521576,-0.1802455335855484,-0.5133516788482666,-0.30954697728157043,-0.0877344161272049,0.12076301872730255
0.48333333333333334,0.014104890637099743,0.07188782840967178,0.0,0.7573100328445435,0.0,0.0,-0.6530554890632629,-0.20313921570777893,-0.16805055737495422,0.0,0.0,0.0,-0.8811694979667664,0.04852602630853653,0.9030805826187134,0.4600060284137726,0.7703086137771606,0.08866865187883377,-0.11707700788974762,-0.6205282807350159,5.326998233795166,-0.2599236071109772,0.3145958483219147,-8.709434509277344,-2.515404462814331,-5.065796375274658,0.04771605134010315,0.9051874279975891,0.4603676199913025,5.407683372497559,-0.007993564009666443,0.5460741519927979,0.38208359479904175,0.7618977427482605,0.42000001668930054,-0.3103133738040924,1.0949640274047852,-1.0256143808364868,-3.0000007152557373,-0.2333112359046936,-0.22071696817874908,-0.20126423239707947,-0.18098902702331543,-0.4958822727203369,-0.32952365279197693,-0.18389680981636047,-0.05934714525938034
0.5,0.013550693169236183,0.06485183537006378,0.0,0.7387048006057739,0.0,0.0,-0.6740291118621826,0.021748818457126617,-0.42970502376556396,0.0,0.0,0.0,-4.080966949462891,0.13120605051517487,0.8955894708633423,0.4631662368774414,0.7245399355888367,0.05010642856359482,-0.13134850561618805,-0.6747434735298157,4.27374267578125,-1.7710124254226685,0.2479935884475708,1.4211660623550415,-7.455288410186768,33.47328186035156,0.13096138834953308,0.8981696367263794,0.4652921259403229,4.778352737426758,-0.9301706552505493,0.1853756159543991,0.38208359479904175,0.7618977427482605,0.42000001668930054,-0.29369983077049255,0.6528661847114563,-1.0756365060806274,-3.000002384185791,-0.23887372016906738,-0.22359193861484528,-0.20191408693790436,-0.17970189452171326,-0.4150362014770508,-0.21499581634998322,-0.05283189192414284,0.0895516648888588
0.5166666666666666,0.015432579442858696,0.06250138580799103,0.0,0.7326967716217041,0.0,0.0,-0.6805552244186401,0.1581520289182663,-0.1318773776292801,0.0,0.0,0.0,-0.04282228648662567,0.2011236548423767,0.8738834857940674,0.4636736810207367,0.6849310398101807,0.026921140030026436,-0.10966136306524277,-0.7198048233985901,3.5952329635620117,-2.3479549884796143,-0.3618308901786804,-6.22007417678833,-20.664051055908203,31.130382537841797,0.2014208436012268,0.8767083883285522,0.4656369090080261,3.9331841468811035,-1.4348335266113281,0.018753748387098312,0.38208359479904175,0.7618977427482605,0.42000001668930054,-0.28218743205070496,0.37207892537117004,-1.125658631324768,-3.0000035762786865,-0.2398415207862854,-0.2292698174715042,-0.20508086681365967,-0.18077576160430908,0.02875191904604435,-0.14849506318569183,-0.07044808566570282,-0.012390142306685448
0.5333333333333333,0.016097448766231537,0.05665900930762291,0.0,0.7179174423217773,0.0,0.0,-0.696128249168396,-0.009984772652387619,-0.3689493238925934,0.0,0.0,0.0,-3.38156795501709,0.26163825392723083,0.8492242693901062,0.4562074542045593,0.6446673274040222,-0.014351061545312405,-0.09672724455595016,-0.7581833004951477,3.105015993118286,-1.9711905717849731,-0.606660783290863,-5.229093074798584,1.3718605041503906,8.526790618896484,0.26134440302848816,0.8521095514297485,0.45922303199768066,3.3389554023742676,-1.6388458013534546,-0.5315859317779541,0.38208359479904175,0.7618977427482605,0.42000001668930054,-0.27470630407333374,0.5456588268280029,-1.1756807565689087,-3.0000007152557373,-0.2359739989042282,-0.22834743559360504,-0.2040611207485199,-0.17993320524692535,0.1914805918931961,0.06172068044543266,0.04667849466204643,0.012812060303986073
0.55,0.017891544848680496,0.05408225581049919,0.0,0.7158201932907104,0.0,0.0,-0.6982846260070801,0.1425998955965042,-0.11391493678092957,0.0,0.0,0.0,0.5530461072921753,0.30918896198272705,0.8194293975830078,0.4419304132461548,0.5915569067001343,-0.09961818903684616,-0.11564721167087555,-0.7916831970214844,2.292125701904297,-1.8778419494628906,-0.866195023059845,-0.5188567042350769,4.491416931152344,-0.1831255555152893,0.30872589349746704,0.8230500221252441,0.44765692949295044,2.4780497550964355,-1.7829084396362305,-0.861221969127655,0.38208359479904175,0.7618977427482605,0.42000001668930054,-0.2609345316886902,1.07009756565094,-1.2257028818130493,-3.0000014305114746,-0.23297595977783203,-0.22716286778450012,-0.20371048152446747,-0.18067817389965057,0.30562642216682434,0.18636463582515717,0.07976328581571579,-0.03681541234254837
0.5666666666666667,0.022304115816950798,0.0482068732380867,0.0,0.7042316794395447,0.0,0.0,-0.709970235824585,0.3106609880924225,-0.39212122559547424,0.0,0.0,0.0,-2.7648818492889404,0.34622928500175476,0.7951222062110901,0.4232667088508606,0.5626972913742065,-0.13076218962669373,-0.09404795616865158,-0.8108192682266235,1.6438359022140503,-1.816351056098938,-1.062984585762024,-3.4035894870758057,9.325837135314941,15.192187309265137,0.34626951813697815,0.7979578375816345,0.4289153218269348,2.042742967605591,-1.4458303451538086,-1.2268519401550293,0.38208359479904175,0.7618977427482605,0.42000001668930054,-0.24491946399211884,0.6627774834632874,-1.2757235765457153,-2.9991915225982666,-0.2245875746011734,-0.22131431102752686,-0.2008356750011444,-0.18082424998283386,0.45527395606040955,0.32318559288978577,0.12778472900390625,-0.07069071382284164
0.5833333333333334,0.029191695153713226,0.0458800345659256,0.0,0.7046769261360168,0.0,0.0,-0.7095283269882202,0.43977317214012146,-0.1113552376627922,0.0,0.0,0.0,0.9100117683410645,0.3665933609008789,0.7826274633407593,0.42401012778282166,0.5483931303024292,-0.08820895105600357,-0.04167903587222099,-0.8305100202560425,0.5671791434288025,-0.9283625483512878,0.09922592341899872,0.18764251470565796,4.26515007019043,16.892494201660156,0.3650955259799957,0.7837211489677429,0.42796897888183594,0.9427130222320557,-0.6920197010040283,0.06662347912788391,0.38208359479904175,0.7618977427482605,0.42000001668930054,-0.23457001149654388,0.4732529819011688,-1.3253270387649536,-2.999988079071045,-0.21802692115306854,-0.21685059368610382,-0.19985227286815643,-0.18321707844734192,0.47360143065452576,0.3323518931865692,0.08910394459962845,-0.14216096699237823
0.6,0.03356228023767471,0.046317972242832184,0.0,0.6954079866409302,0.0,0.0,-0.7186151146888733,0.20525673031806946,0.09656408429145813,0.0,0.0,0.0,-2.40352725982666,0.37492072582244873,0.7744221687316895,0.42317312955856323,0.5994048118591309,-0.06125858053565025,-0.041508980095386505,-0.79701828956604,0.0012847818434238434,-0.8375341892242432,-0.037790413945913315,1.4537242650985718,-5.200538635253906,21.649499893188477,0.3752291798591614,0.7758873701095581,0.42622315883636475,0.3526325225830078,-0.32762008905410767,-0.1040552482008934,0.38208359479904175,0.7618977427482605,0.42000001668930054,-0.222516268491745,0.540743350982666,-1.2870330810546875,2.993772029876709,-0.2090095728635788,-0.21051818132400513,-0.19806194305419922,-0.18562786281108856,0.5448155999183655,0.3952443301677704,0.12281998246908188,-0.12730495631694794
0.6166666666666667,0.03918948769569397,0.04224611818790436,0.0,0.6980196237564087,0.0,0.0,-0.7160785794258118,0.3071390390396118,-0.26142844557762146,0.0,0.0,0.0,1.2592154741287231,0.3782549202442169,0.7699922323226929,0.4234759509563446,0.6089459657669067,-0.07036589831113815,-0.03190453350543976,-0.7894399762153625,-0.000131931112264283,-0.360027551651001,0.07988668978214264,-0.8939100503921509,3.7675235271453857,7.2339630126953125,0.3766876757144928,0.7716010808944702,0.42718493938446045,-0.0987524539232254,-0.1973593831062317,0.12622781097888947,0.38208359479904175,0.7618977427482605,0.42000001668930054,-0.24879015982151031,-2.9130496978759766,-1.3067210912704468,-2.998662233352661,-0.1964288353919983,-0.20056463778018951,-0.19288688898086548,-0.1848195493221283,0.6338038444519043,0.5264025926589966,0.28150659799575806,0.056411344558000565
0.6333333333333333,0.04649024456739426,0.042431607842445374,0.0,0.6897239089012146,0.0,0.0,-0.7240724563598633,0.4890179932117462,0.0026603408623486757,0.0,0.0,0.0,-2.180680513381958,0.3778935670852661,0.7657178044319153,0.4236420691013336,0.6419617533683777,-0.06975484639406204,-0.0182702224701643,-0.7633383274078369,0.13459567725658417,-0.12655054032802582,0.04379963502287865,3.0757436752319336,3.732999801635742,2.0454719066619873,0.3783738613128662,0.7721681594848633,0.42932143807411194,0.2315918207168579,0.19320432841777802,0.14846211671829224,0.38208359479904175,0.7618977427482605,0.42000001668930054,-0.2927510142326355,-2.3531312942504883,-1.356672763824463,-2.9989140033721924,-0.18742406368255615,-0.19323307275772095,-0.18946334719657898,-0.18492057919502258,0.6983134150505066,0.5642060041427612,0.30298301577568054,0.07085853070020676
0.65,0.055906958878040314,0.044117070734500885,0.0,0.6938557028770447,0.0,0.0,-0.7201140522956848,0.5898755788803101,0.22465673089027405,0.0,0.0,0.0,1.5752898454666138,0.37928348779678345,0.7646001577377319,0.42332544922828674,0.6466787457466125,-0.06152424216270447,0.0028220643289387226,-0.7602718472480774,0.009446494281291962,-0.006961306091398001,-0.027923675253987312,-0.7027677297592163,-1.861867070198059,-0.8427249193191528,0.37920260429382324,0.7742263078689575,0.4320615530014038,-0.05599626898765564,0.09544401615858078,0.18785887956619263,0.38208359479904175,0.7618977427482605,0.42000001668930054,-0.34225448966026306,-3.000002384185791,-1.4066648483276367,-2.999746322631836,-0.1767548769712448,-0.18445800244808197,-0.18463172018527985,-0.18358013033866882,0.5539656281471252,0.46530187129974365,0.25694340467453003,0.07202634960412979
0.6666666666666666,0.06256013363599777,0.04347122833132744,0.0,0.6878088712692261,0.0,0.0,-0.7258918285369873,0.3147841691970825,-0.10050183534622192,0.0,0.0,0.0,-1.995583176612854,0.3790844678878784,0.7644420266151428,0.4215635061264038,0.6418867111206055,-0.028637297451496124,-0.0070184823125600815,-0.766232430934906,-0.018779870122671127,-0.013224192894995213,-0.13103905320167542,2.207087516784668,-4.553999900817871,-0.8423480987548828,0.3792916536331177,0.7762534618377686,0.4358381927013397,-0.013025635853409767,0.08028407394886017,0.2622411847114563,0.38208359479904175,0.7618977427482605,0.42000001668930054,-0.3922356963157654,-2.999768018722534,-1.4566394090652466,-2.9964566230773926,-0.1667109876871109,-0.17548562586307526,-0.17855045199394226,-0.17998304963111877,0.48224908113479614,0.4724901616573334,0.3603857457637787,0.2689281702041626
0.6833333333333333,0.06905314326286316,0.03955935686826706,0.0,0.6910744905471802,0.0,0.0,-0.7227835655212402,0.4269471764564514,-0.2988753914833069,0.0,0.0,0.0,1.7089956998825073,0.37875092029571533,0.7640043497085571,0.42000117897987366,0.6396409273147583,-8.748537948122248e-05,-0.00017783870862331241,-0.7686737775802612,0.0014766613021492958,-0.022425992414355278,-0.006604088004678488,0.24088259041309357,0.06320454925298691,0.04747730866074562,0.3791038393974304,0.7767979502677917,0.4466072916984558,0.02296443097293377,0.05487508699297905,1.0655605792999268,0.38208359479904175,0.7618977427482605,0.42000001668930054,-0.44224944710731506,-2.9999990463256836,-1.506657600402832,-2.9999992847442627,-0.16233745217323303,-0.17030087113380432,-0.17410649359226227,-0.1759883016347885,0.1616421788930893,0.2394854724407196,0.2337782084941864,0.24406971037387848
0.7,0.07899246364831924,0.040625400841236115,0.0,0.6846391558647156,0.0,0.0,-0.7288821935653687,0.5490307211875916,0.06493141502141953,0.0,0.0,0.0,-1.9133089780807495,0.3787522614002228,0.7639833092689514,0.42000001668930054,0.6396529078483582,-2.55287176287311e-07,-3.1837751066632336e-06,-0.768663763999939,7.153136539272964e-05,-0.00010552239837124944,-2.3636268451809883e-05,-0.0009189669508486986,-0.001923215575516224,-0.0002470483013894409,0.384280264377594,0.7763000726699829,0.4626709222793579,0.6472526788711548,0.03166434168815613,0.967634379863739,0.38208359479904175,0.7618977427482605,0.42000001668930054,-0.49226275086402893,-2.999995470046997,-1.556675910949707,-2.9999897480010986,-0.1647554636001587,-0.17050045728683472,-0.17330171167850494,-0.17394937574863434,0.02830788493156433,0.12597130239009857,0.16740745306015015,0.2293345034122467
0.7166666666666667,0.0897882804274559,0.03699510544538498,0.0,0.6574508547782898,0.0,0.0,-0.7534974217414856,0.6770301461219788,-0.29375573992729187,0.0,0.0,0.0,-5.3033976554870605,0.37875211238861084,0.7639834880828857,0.41999998688697815,0.6396530270576477,-5.487935936798749e-07,-6.134790510259336e-06,-0.768663763999939,0.0002170446969103068,-0.00040983373764902353,-8.91457311809063e-05,0.008990274742245674,-0.001145437709055841,-0.0005684954230673611,0.3986434042453766,0.7783899307250977,0.48500359058380127,1.0356006622314453,0.11868315935134888,1.8339420557022095,0.38208359479904175,0.7618977427482605,0.42000001668930054,-0.5422753691673279,-2.9999759197235107,-1.606692910194397,-2.999999761581421,-0.16354674100875854,-0.16770455241203308,-0.16970610618591309,-0.16924692690372467,-0.004682271741330624,0.11213206499814987,0.18769730627536774,0.27696043252944946
0.7333333333333333,0.10348574072122574,0.03626691550016403,0.0,0.6434568762779236,0.0,0.0,-0.7654823660850525,0.8440029621124268,-0.0313129648566246,0.0,0.0,0.0,-1.1045725345611572,0.37875211238861084,0.7639834880828857,0.41999998688697815,0.6396532654762268,-6.29723729161924e-07,-5.965169293631334e-06,-0.7686635255813599,0.0002163686731364578,-0.0004102157545275986,-8.925260044634342e-05,0.008991014212369919,-0.0011418171925470233,-0.0005661126924678683,0.41664624214172363,0.7831135988235474,0.5192226767539978,1.1711030006408691,0.5223628878593445,2.2491512298583984,0.38208359479904175,0.7618977427482605,0.42000001668930054,-0.5634469389915466,0.197987899184227,-1.6567074060440063,-3.0000011920928955,-0.16587257385253906,-0.16840368509292603,-0.16945061087608337,-0.16795997321605682,-0.005005028564482927,0.0245333481580019,0.01907815970480442,0.016009727492928505
0.75,0.11428024619817734,0.0378725528717041,0.0,0.6539555191993713,0.0,0.0,-0.7565330266952515,0.5773922204971313,0.1492728590965271,0.0,0.0,0.0,2.5240726470947266,0.37875211238861084,0.7639834880828857,0.41999998688697815,0.6396533250808716,-6.041008191459696e-07,-5.840214271302102e-06,-0.7686634659767151,0.0002173862885683775,-0.00041112740291282535,-8.939974941313267e-05,0.009014833718538284,-0.0011398997157812119,-0.0005687323864549398,0.43425145745277405,0.7892329692840576,0.5498195886611938,0.8925148248672485,0.28339409828186035,1.5059468746185303,0.38208359479904175,0.7618977427482605,0.42000001668930054,-0.5413328409194946,2.2558627128601074,-1.6175309419631958,2.9999992847442627,-0.1657327115535736,-0.16762393712997437,-0.1685347706079483,-0.16694653034210205,0.03904785215854645,0.08280400931835175,0.09911253303289413,0.10807554423809052
0.7666666666666666,0.12028482556343079,0.03653494268655777,0.0,0.6521283388137817,0.0,0.0,-0.7581085562705994,0.27400508522987366,-0.14631187915802002,0.0,0.0,0.0,-1.225743293762207,0.37875208258628845,0.7639834880828857,0.41999998688697815,0.639653205871582,-5.867970571671322e-07,-5.9364765547798015e-06,-0.7686635255813599,0.00021655161981470883,-0.0004116195486858487,-8.941814303398132e-05,0.009025475941598415,-0.0011492514749988914,-0.0005666295764967799,0.440837025642395,0.7937389016151428,0.5677793025970459,-0.08771474659442902,0.22407624125480652,0.8203864097595215,0.38208359479904175,0.7618977427482605,0.42000001668930054,-0.5244340300559998,-0.04296873137354851,-1.5674744844436646,2.9999990463256836,-0.1652301400899887,-0.16617684066295624,-0.16656576097011566,-0.16466912627220154,0.00821065716445446,0.07903207093477249,0.12536628544330597,0.15332020819187164
0.7833333333333333,0.12221003323793411,0.03918452560901642,0.0,0.6611476540565491,0.0,0.0,-0.750255823135376,0.0769096314907074,0.15783469378948212,0.0,0.0,0.0,2.168642997741699,0.37875211238861084,0.7639834880828857,0.41999998688697815,0.6396534442901611,-6.278776254475815e-07,-5.90596300753532e-06,-0.7686634659767151,0.000216389395063743,-0.00041017174953594804,-8.923537097871304e-05,0.008991263806819916,-0.0011432882165536284,-0.0005662855110131204,0.43835508823394775,0.7947625517845154,0.5773633122444153,-0.10995703190565109,0.09755302220582962,0.38123148679733276,0.38208359479904175,0.7618977427482605,0.42000001668930054,-0.505084216594696,2.1577112674713135,-1.5550404787063599,-1.1586153507232666,-0.1687437891960144,-0.16783341765403748,-0.1667793095111847,-0.16384880244731903,-0.06514950096607208,0.005429096519947052,0.05758640170097351,0.08850228041410446
0.8,0.12166493386030197,0.0374283529818058,0.0,0.6567166447639465,0.0,0.0,-0.754137396812439,-0.05619162693619728,-0.1782667189836502,0.0,0.0,0.0,-1.652201533317566,0.37875208258628845,0.7639834880828857,0.41999998688697815,0.6396533250808716,-6.049324383639032e-07,-5.778658305644058e-06,-0.7686635255813599,0.00021606110385619104,-0.00041082873940467834,-8.935201913118362e-05,0.009003730490803719,-0.001148279057815671,-0.0005654393462464213,0.4304574728012085,0.7972173690795898,0.5784510374069214,-0.8279628157615662,0.10859069228172302,-0.08955098688602448,0.38208359479904175,0.7618977427482605,0.42000001668930054,-0.4973737299442291,-0.967134416103363,-1.510145902633667,2.999999523162842,-0.1675768494606018,-0.16593438386917114,-0.16437529027462006,-0.16127005219459534,0.07727669924497604,0.1215813010931015,0.1540355384349823,0.16522157192230225
0.8166666666666667,0.1224525049328804,0.04037700593471527,0.0,0.663244366645813,0.0,0.0,-0.7484028935432434,0.06909974664449692,0.15444441139698029,0.0,0.0,0.0,1.6137751340866089,0.37875208258628845,0.7639834880828857,0.41999998688697815,0.6396534442901611,-6.172587632136128e-07,-5.919003797316691e-06,-0.7686633467674255,0.00021533333347178996,-0.00041001872159540653,-8.920161053538322e-05,0.008984408341348171,-0.0011501378612592816,-0.0005636118003167212,0.41991308331489563,0.7972753047943115,0.5764859914779663,-0.32219868898391724,0.13705474138259888,-0.12294945865869522,0.38208359479904175,0.7618977427482605,0.42000001668930054,-0.4918293356895447,1.4221540689468384,-1.5261003971099854,-2.999999761581421,-0.1709042638540268,-0.16788652539253235,-0.16510693728923798,-0.16115358471870422,0.0030923718586564064,0.020565934479236603,0.04048309475183487,0.048706453293561935
0.8333333333333334,0.12500962615013123,0.03876587748527527,0.0,0.6568462252616882,0.0,0.0,-0.7540245652198792,0.20026962459087372,-0.11327093839645386,0.0,0.0,0.0,-1.8297089338302612,0.37875208258628845,0.7639834880828857,0.41999998688697815,0.6396533846855164,-5.944055487816513e-07,-5.7390002439206e-06,-0.7686634659767151,0.0002152922679670155,-0.0004102492821402848,-8.924026042222977e-05,0.008989062160253525,-0.001150760566815734,-0.0005634656990878284,0.4140440821647644,0.799853503704071,0.571518063545227,-0.4084717333316803,0.03047897480428219,-0.32389843463897705,0.38208359479904175,0.7618977427482605,0.42000001668930054,-0.5123528838157654,-3.000000476837158,-1.4872981309890747,2.999999761581421,-0.1687013804912567,-0.16582146286964417,-0.16304506361484528,-0.15920916199684143,0.005377704743295908,0.02645975351333618,0.05572783201932907,0.0766126811504364
0.85,0.130074143409729,0.04034914821386337,0.0,0.6623084545135498,0.0,0.0,-0.7492312788963318,0.3291545510292053,0.128899484872818,0.0,0.0,0.0,1.7938579320907593,0.37875208258628845,0.7639834880828857,0.41999998688697815,0.6396533846855164,-6.235711111912678e-07,-5.8603918660082854e-06,-0.7686634063720703,0.0002154545800294727,-0.0004095808253623545,-8.914456702768803e-05,0.008974376134574413,-0.0011458363151177764,-0.0005638073780573905,0.41164523363113403,0.799024224281311,0.5679108500480652,0.11635927855968475,-0.037750616669654846,-0.06934986263513565,0.38208359479904175,0.7618977427482605,0.42000001668930054,-0.5446627736091614,-1.0221710205078125,-1.503724455833435,-3.000000476837158,-0.17003557085990906,-0.16658823192119598,-0.16300611197948456,-0.15842077136039734,-0.011678262613713741,0.0069833677262067795,0.04636967554688454,0.08880668878555298
0.8666666666666667,0.13678479194641113,0.03848401457071304,0.0,0.6566057205200195,0.0,0.0,-0.7542339563369751,0.4299195110797882,-0.1489785760641098,0.0,0.0,0.0,-1.8170279264450073,0.37875208258628845,0.7639834880828857,0.41999998688697815,0.6396533250808716,-6.235758291950333e-07,-5.860970304638613e-06,-0.7686635255813599,0.00021507521159946918,-0.000410111912060529,-8.922303095459938e-05,0.00898522324860096,-0.0011516651138663292,-0.0005628936924040318,0.415006160736084,0.7974640130996704,0.5637146830558777,0.2704024910926819,-0.2398175448179245,-0.27284571528434753,0.38208359479904175,0.7618977427482605,0.42000001668930054,-0.5848602056503296,-3.000000476837158,-1.4649856090545654,2.999999523162842,-0.16887907683849335,-0.16520094871520996,-0.16099706292152405,-0.15568749606609344,-0.013379937969148159,0.03034570999443531,0.09611411392688751,0.16646361351013184
0.8833333333333333,0.14598187804222107,0.039943840354681015,0.0,0.6315088868141174,0.0,0.0,-0.7753686308860779,0.5857312679290771,0.10618822276592255,0.0,0.0,0.0,-5.1182475090026855,0.37875211238861084,0.7639834880828857,0.41999998688697815,0.6396533250808716,-6.403092811524402e-07,-5.808657533634687e-06,-0.7686634659767151,0.00021595947328023612,-0.0004098315257579088,-8.917809464037418e-05,0.008982173167169094,-0.0011439180234447122,-0.0005651608807966113,0.42328941822052,0.7948001623153687,0.5616626739501953,0.7713239192962646,-0.06652364879846573,0.12259293347597122,0.38208359479904175,0.7618977427482605,0.42000001668930054,-0.6107738614082336,-0.3184439539909363,-1.481902003288269,-2.9999959468841553,-0.17053036391735077,-0.16645455360412598,-0.16148057579994202,-0.15529915690422058,-0.00993582047522068,-0.02442150190472603,-0.015265801921486855,0.0028353636153042316
0.9,0.15259340405464172,0.04330432415008545,0.0,0.6186009049415588,0.0,0.0,-0.7857053279876709,0.32044360041618347,0.2425919473171234,0.0,0.0,0.0,-0.9680675268173218,0.37875211238861084,0.7639834880828857,0.41999998688697815,0.6396534442901611,-6.522619742099778e-07,-5.787678219348891e-06,-0.7686633467674255,0.0002157200942747295,-0.0004098655772395432,-8.920440450310707e-05,0.00898053403943777,-0.0011438484070822597,-0.0005644044140353799,0.43200942873954773,0.7962684631347656,0.5638455152511597,0.25998610258102417,0.20637211203575134,0.11412792652845383,0.38208359479904175,0.7618977427482605,0.42000001668930054,-0.5921511650085449,2.308793067932129,-1.531901240348816,-3.000000476837158,-0.16931624710559845,-0.16585376858711243,-0.16116861999034882,-0.1551744043827057,0.1343870609998703,0.07958559691905975,0.03876105323433876,2.5029294192790985e-08
