vladlanda/robotic-transformer/data/env_000_episode_0218.csv
sim_time_s,robot_box_x,robot_box_y,robot_box_z,robot_box_quat_w,robot_box_quat_x,robot_box_quat_y,robot_box_quat_z,robot_box_linvel_x,robot_box_linvel_y,robot_box_linvel_z,robot_box_angvel_x,robot_box_angvel_y,robot_box_angvel_z,cube_world_x,cube_world_y,cube_world_z,cube_quat_w,cube_quat_x,cube_quat_y,cube_quat_z,cube_linvel_x,cube_linvel_y,cube_linvel_z,cube_angvel_x,cube_angvel_y,cube_angvel_z,endpoint_world_x,endpoint_world_y,endpoint_world_z,endpoint_linvel_x,endpoint_linvel_y,endpoint_linvel_z,target_cube_world_x,target_cube_world_y,target_cube_world_z,gripper_actual_pos_rad_gp_leftgearjoint,gripper_actual_vel_rad_s_gp_leftgearjoint,gripper_actual_pos_rad_gp_rotatingjoint,gripper_actual_vel_rad_s_gp_rotatingjoint,motor_angle_rad_joint1,motor_angle_rad_joint2,motor_angle_rad_joint3,motor_angle_rad_joint4,motor_speed_rad_s_joint1,motor_speed_rad_s_joint2,motor_speed_rad_s_joint3,motor_speed_rad_s_joint4
0.0,0.0,0.0,0.0,1.0,0.0,0.0,0.0,0.0,0.0,0.0,0.0,0.0,0.0,-0.34009820222854614,0.7761003971099854,0.41999998688697815,1.0,0.0,0.0,0.0,0.0,0.0,0.0,0.0,0.0,0.0,3.42540442943573e-06,-0.005000244826078415,1.313499927520752,0.0,0.0,0.0,0.36254820227622986,0.7222104668617249,0.42000001668930054,-1.5707999467849731,0.0,0.0,0.0,0.0,0.0,0.0,0.0,0.0,0.0,0.0,0.0
0.016666666666666666,0.002886615926399827,0.002131464658305049,0.0,0.999858021736145,0.0,0.0,-0.016850164160132408,0.2395915389060974,0.17955666780471802,0.0,0.0,0.0,-3.145651340484619,-0.3400983214378357,0.7761000990867615,0.41999998688697815,1.0,3.2799905511637917e-06,-8.339794135281409e-07,8.465515577427141e-08,-1.9833774786093272e-05,0.00017983047291636467,-6.132945418357849e-05,0.0009432245860807598,-0.004689525347203016,-0.00031981084612198174,-0.006990246474742889,0.004068202339112759,1.315932273864746,-0.7948729395866394,1.0438811779022217,0.17934858798980713,0.36254820227622986,0.7222104668617249,0.42000001668930054,-1.5301094055175781,3.0000014305114746,-0.045867130160331726,-3.0000009536743164,0.000870798307005316,0.0007969570579007268,0.0007109675207175314,0.000612009665928781,0.11048416048288345,0.09705012291669846,0.08275415748357773,0.06752849370241165
0.03333333333333333,0.00889681838452816,0.006706288084387779,0.0,0.9998447299003601,0.0,0.0,-0.017622187733650208,0.4031656086444855,0.3135092258453369,0.0,0.0,0.0,0.8642361164093018,-0.34009844064712524,0.7761000394821167,0.4200000464916229,1.0,3.390828396732104e-06,-2.1325054149201605e-06,-3.7090654103622e-08,0.00026357785100117326,0.00026937801158055663,-0.00010509602725505829,-0.0017707275692373514,0.004130777902901173,-0.0001354761334368959,-0.02447683736681938,0.025919772684574127,1.317026138305664,-1.2492103576660156,1.6032476425170898,-0.026349037885665894,0.36254820227622986,0.7222104668617249,0.42000001668930054,-1.4800901412963867,2.9999992847442627,-0.09590689837932587,-3.0,0.0027147599030286074,0.0022950023412704468,0.001837221090681851,0.0013394489651545882,0.1332339197397232,0.1006258949637413,0.06653445959091187,0.030840806663036346
0.05,0.017560455948114395,0.013498187065124512,0.0,0.9994654655456543,0.0,0.0,-0.03269181400537491,0.5823172330856323,0.45012056827545166,0.0,0.0,0.0,-2.639477491378784,-0.34009847044944763,0.7761000990867615,0.4200000464916229,1.0,3.7651443562936038e-06,-2.2119581899460172e-06,5.627543320230188e-09,0.0002653093251865357,0.00026691475068219006,-0.00010440428741276264,-0.0017243032343685627,0.004177392926067114,-0.00012949187657795846,-0.04559817537665367,0.0580865815281868,1.3142083883285522,-1.2783219814300537,2.209476947784424,-0.28930187225341797,0.36254820227622986,0.7222104668617249,0.42000001668930054,-1.4300718307495117,3.0000011920928955,-0.14594560861587524,-3.0000009536743164,0.004373317584395409,0.0032243914902210236,0.002003201749175787,0.0007069549174048007,0.09709521383047104,0.038751088082790375,-0.021446017548441887,-0.0836011990904808
0.06666666666666667,0.029755212366580963,0.022769328206777573,0.0,0.9972154498100281,0.0,0.0,-0.07457424700260162,0.7915922999382019,0.6011210083961487,0.0,0.0,0.0,-5.861469745635986,-0.34009847044944763,0.7761000394821167,0.4200000464916229,0.9999999403953552,3.406812083994737e-06,-2.285643404320581e-06,4.300833325032727e-07,0.00026702528703026474,0.00026791769778355956,-0.0001043803058564663,-0.001740696607157588,0.004211715888231993,-0.00012850147322751582,-0.0678858682513237,0.09784024953842163,1.3077478408813477,-1.3862217664718628,2.535371780395508,-0.48952049016952515,0.36254820227622986,0.7222104668617249,0.42000001668930054,-1.3800513744354248,2.9999947547912598,-0.1124405488371849,2.9999983310699463,0.005479095503687859,0.003332550870254636,0.00107579177711159,-0.0012955302372574806,0.054441314190626144,-0.010056069120764732,-0.07659836858510971,-0.14520595967769623
0.08333333333333333,0.0361175462603569,0.036748070269823074,0.0,0.9950798153877258,0.0,0.0,-0.09907633811235428,0.2484409064054489,0.9295929074287415,0.0,0.0,0.0,-1.9053386449813843,-0.34009847044944763,0.7761000394821167,0.4200000464916229,1.0,3.697316969919484e-06,-2.1889948129683034e-06,-2.6323385782234254e-07,0.00026389682898297906,0.00026586538297124207,-0.00010433932766318321,-0.0017081978730857372,0.004150201100856066,-0.0001299120340263471,-0.09444503486156464,0.13722270727157593,1.2972211837768555,-1.6006190776824951,2.4206929206848145,-0.6908826231956482,0.36254820227622986,0.7222104668617249,0.42000001668930054,-1.3300565481185913,3.0,-0.14443175494670868,-3.0000007152557373,0.00020181342551950365,-0.002590225078165531,-0.005545162595808506,-0.00867116916924715,-0.42239853739738464,-0.46301352977752686,-0.5062502026557922,-0.5523805618286133
0.1,0.047067638486623764,0.05117958411574364,0.0,0.9908794164657593,0.0,0.0,-0.13475152850151062,0.7332228422164917,0.8953006863594055,0.0,0.0,0.0,-5.154529094696045,-0.34009847044944763,0.7761000394821167,0.4200000464916229,0.9999999403953552,3.620435109041864e-06,-2.265243438159814e-06,1.746006148550805e-07,0.0002667687658686191,0.000267408526269719,-0.0001040794886648655,-0.001738605904392898,0.004209095146507025,-0.00012774739298038185,-0.11691790819168091,0.1802387833595276,1.2875912189483643,-1.1072347164154053,2.85356068611145,-0.5948854684829712,0.36254820227622986,0.7222104668617249,0.42000001668930054,-1.2800458669662476,3.000002384185791,-0.194461390376091,-3.0000009536743164,-0.0009672041051089764,-0.005467090290039778,-0.010115769691765308,-0.014920758083462715,-0.1143801137804985,-0.22346501052379608,-0.33140915632247925,-0.43812525272369385
0.11666666666666667,0.056144893169403076,0.06377074122428894,0.0,0.9879584908485413,0.0,0.0,-0.1547190397977829,0.49907946586608887,0.6775658130645752,0.0,0.0,0.0,-0.8472166657447815,-0.34009847044944763,0.7761000394821167,0.4200000464916229,1.0,3.7984009395586327e-06,-2.262809857711545e-06,-1.502175450696086e-07,0.00026373984292149544,0.00026566023007035255,-0.00010429113171994686,-0.0017054638592526317,0.00414752634242177,-0.00012979596795048565,-0.14141106605529785,0.22788460552692413,1.27437424659729,-1.6329090595245361,3.049818992614746,-0.9134516716003418,0.36254820227622986,0.7222104668617249,0.42000001668930054,-1.2376283407211304,2.13015079498291,-0.16066981852054596,2.9999990463256836,-0.0038914228789508343,-0.01001583319157362,-0.016255419701337814,-0.022616783156991005,-0.17327183485031128,-0.26537683606147766,-0.35464662313461304,-0.44096022844314575
0.13333333333333333,0.061332833021879196,0.07656510174274445,0.0,0.9833921790122986,0.0,0.0,-0.1814933717250824,0.2411167025566101,0.8144904971122742,0.0,0.0,0.0,-4.060163974761963,-0.34009847044944763,0.7761000990867615,0.4200000464916229,0.9999999403953552,3.550559767973027e-06,-2.2298067960946355e-06,2.928912579136522e-07,0.00026703201001510024,0.0002677933662198484,-0.00010416889563202858,-0.0017439561197534204,0.004213458392769098,-0.00012800224067177624,-0.16629965603351593,0.2832835018634796,1.2577855587005615,-1.3383924961090088,3.622872829437256,-1.1325430870056152,0.36254820227622986,0.7222104668617249,0.42000001668930054,-1.1899213790893555,3.000000238418579,-0.19241127371788025,-3.000000476837158,-0.0077774059027433395,-0.015489931218326092,-0.02325156144797802,-0.03106621652841568,-0.29524892568588257,-0.38444334268569946,-0.4694678485393524,-0.550183117389679
0.15,0.06991089135408401,0.09145662188529968,0.0,0.9717720746994019,0.0,0.0,-0.23592180013656616,0.5363763570785522,0.9319549202919006,0.0,0.0,0.0,-7.49642276763916,-0.34009844064712524,0.7761000394821167,0.4200000464916229,1.0,3.332266942379647e-06,-2.1019711766712135e-06,1.3129518094956438e-07,0.0002673064882401377,0.000268595467787236,-0.00010459520854055882,-0.0017497397493571043,0.004215703811496496,-0.00012928548676427454,-0.19147680699825287,0.34718891978263855,1.233755111694336,-1.5960224866867065,4.0554375648498535,-1.7475852966308594,0.36254820227622986,0.7222104668617249,0.42000001668930054,-1.1597970724105835,0.7794654965400696,-0.15866751968860626,2.9999985694885254,-0.011368444189429283,-0.020413370802998543,-0.02943314053118229,-0.03842964768409729,-0.33957439661026,-0.3856368064880371,-0.42854613065719604,-0.46828675270080566
0.16666666666666666,0.07540237158536911,0.1040308028459549,0.0,0.9626253843307495,0.0,0.0,-0.2708364725112915,0.3021432161331177,0.6900065541267395,0.0,0.0,0.0,-3.1702916622161865,-0.34009847044944763,0.7761000394821167,0.4200000464916229,1.0,3.737350198207423e-06,-2.2331155378196854e-06,-1.8765908293971734e-07,0.00026433056336827576,0.0002662677434273064,-0.00010445946827530861,-0.0017118776449933648,0.004157696384936571,-0.00013001573097426444,-0.22426067292690277,0.4133619964122772,1.1987833976745605,-1.8580739498138428,4.24708366394043,-2.402022361755371,0.36254820227622986,0.7222104668617249,0.42000001668930054,-1.11708664894104,3.0000014305114746,-0.1903781145811081,-3.0000011920928955,-0.019710203632712364,-0.029000530019402504,-0.038230422884225845,-0.047405969351530075,-0.5185949206352234,-0.5252737998962402,-0.5298084616661072,-0.5324447154998779
0.18333333333333332,0.07715858519077301,0.11802718043327332,0.0,0.9487890005111694,0.0,0.0,-0.31591054797172546,0.04026156663894653,0.8635352849960327,0.0,0.0,0.0,-6.459584712982178,-0.34009847044944763,0.7761000990867615,0.4200000464916229,0.9999999403953552,3.660316451714607e-06,-2.302264874742832e-06,2.528443587834772e-07,0.00026690890081226826,0.00026760261971503496,-0.00010412419214844704,-0.0017412195447832346,0.004211427178233862,-0.0001278665877180174,-0.2542060613632202,0.48601341247558594,1.1523103713989258,-1.5708112716674805,4.582236289978027,-3.0963284969329834,0.36254820227622986,0.7222104668617249,0.42000001668930054,-1.0670835971832275,2.999999523162842,-0.24040856957435608,-2.9999992847442627,-0.030869226902723312,-0.040016524493694305,-0.04906891658902168,-0.058039650321006775,-0.6862913370132446,-0.6762216091156006,-0.6637014150619507,-0.6491014361381531
0.2,0.08332575112581253,0.12735596299171448,0.0,0.9393436908721924,0.0,0.0,-0.3429773151874542,0.3612276017665863,0.4779529869556427,0.0,0.0,0.0,-2.23640513420105,-0.34009847044944763,0.7761000394821167,0.4200000464916229,1.0,3.5908831250708317e-06,-2.3004236027190927e-06,1.387233226068929e-07,0.00026654807152226567,0.0002673218259587884,-0.00010424060747027397,-0.0017326583620160818,0.004203581251204014,-0.00012820535630453378,-0.28238552808761597,0.5608235597610474,1.0914965867996216,-1.441518783569336,4.614917278289795,-4.190825462341309,0.36254820227622986,0.7222104668617249,0.42000001668930054,-1.0170886516571045,2.9974606037139893,-0.2904369831085205,-3.000001907348633,-0.039704661816358566,-0.04848524183034897,-0.05714736506342888,-0.06571297347545624,-0.7269209027290344,-0.6619434356689453,-0.5980854034423828,-0.5360563397407532
0.21666666666666667,0.08334621042013168,0.14021319150924683,0.0,0.924198567867279,0.0,0.0,-0.38191238045692444,-0.0022022465709596872,0.7424772381782532,0.0,0.0,0.0,-5.721009731292725,-0.34009847044944763,0.7761000990867615,0.4200000464916229,1.0,3.6070191526960116e-06,-2.2609888219449203e-06,1.9611301027566697e-08,0.00026447110576555133,0.0002655844727996737,-0.00010396447032690048,-0.0017087687738239765,0.004164246376603842,-0.00012832168431486934,-0.30396154522895813,0.6326726675033569,1.0106415748596191,-1.0395179986953735,4.249876976013184,-5.207059383392334,0.36254820227622986,0.7222104668617249,0.42000001668930054,-0.9670802354812622,2.9999985694885254,-0.3404637575149536,-3.0,-0.05487450212240219,-0.06372164189815521,-0.07202214747667313,-0.07978621870279312,-0.5863210558891296,-0.6535142064094543,-0.7128434777259827,-0.7656571865081787
0.23333333333333334,0.08831348270177841,0.14711590111255646,0.0,0.9154551029205322,0.0,0.0,-0.40242013335227966,0.29405295848846436,0.34172359108924866,0.0,0.0,0.0,-1.465991735458374,-0.34009844064712524,0.7761000394821167,0.4200000464916229,0.9999999403953552,3.7423060348373838e-06,-2.227485765615711e-06,4.589078628214338e-07,0.00026475157937966287,0.0002667118387762457,-0.00010453304275870323,-0.001718820189125836,0.004165745340287685,-0.00013018945173826069,-0.32249051332473755,0.6956350803375244,0.9173780083656311,-0.8124607801437378,3.4496755599975586,-6.003798007965088,0.36254820227622986,0.7222104668617249,0.42000001668930054,-0.9170751571655273,2.999999761581421,-0.39049166440963745,-3.000000238418579,-0.06365185976028442,-0.0729776918888092,-0.08170152455568314,-0.08985782414674759,-0.7681093811988831,-0.7379688620567322,-0.7091221809387207,-0.6832339763641357
0.25,0.08758930116891861,0.15829911828041077,0.0,0.9071052074432373,0.0,0.0,-0.4209040105342865,-0.04355475306510925,0.6187343001365662,0.0,0.0,0.0,-2.6783246994018555,-0.34009847044944763,0.7761000394821167,0.4200000464916229,1.0,3.3945277664315654e-06,-2.2820947833679384e-06,1.3361305661874212e-07,0.0002667930966708809,0.0002679400204215199,-0.00010439474135637283,-0.0017418584320694208,0.004206620156764984,-0.0001288379862671718,-0.3346596360206604,0.7402812242507935,0.8102549314498901,-0.5151879787445068,2.2024953365325928,-6.6110734939575195,0.36254820227622986,0.7222104668617249,0.42000001668930054,-0.8670660257339478,2.9999921321868896,-0.44052189588546753,-3.000002145767212,-0.07973704487085342,-0.08907005190849304,-0.09777714312076569,-0.10589256137609482,-0.6173573732376099,-0.6905873417854309,-0.7573695778846741,-0.8166771531105042
0.26666666666666666,0.09011691063642502,0.16351398825645447,0.0,0.907454788684845,0.0,0.0,-0.4201497435569763,0.16647464036941528,0.23916374146938324,0.0,0.0,0.0,0.7730727195739746,-0.34009847044944763,0.7761000990867615,0.4200000464916229,1.0,3.6835906485066516e-06,-2.3101322312868433e-06,2.1008021633406315e-07,0.0002647916553542018,0.00026625857572071254,-0.00010421173647046089,-0.001716896891593933,0.004168967716395855,-0.00012909203360322863,-0.3467307686805725,0.7664031982421875,0.6999473571777344,-0.6498345732688904,0.8949202299118042,-6.683786869049072,0.36254820227622986,0.7222104668617249,0.42000001668930054,-0.8170571327209473,2.9999988079071045,-0.4905533194541931,-2.9999992847442627,-0.09056683629751205,-0.10029176622629166,-0.10937590897083282,-0.11784577369689941,-0.9123153686523438,-0.8751686215400696,-0.841541051864624,-0.8116132616996765
0.2833333333333333,0.08839558809995651,0.16831126809120178,0.0,0.9005014896392822,0.0,0.0,-0.4348529875278473,-0.10258212685585022,0.2035355269908905,0.0,0.0,0.0,-2.7817156314849854,-0.34009847044944763,0.7761000394821167,0.4200000464916229,1.0,3.307126462459564e-06,-2.2125600480649155e-06,2.6254156182403676e-07,0.0002666085201781243,0.0002674504357855767,-0.00010424456559121609,-0.001735339523293078,0.0042045144364237785,-0.0001282824232475832,-0.3521277904510498,0.7756732702255249,0.5908224582672119,-0.038948290050029755,0.16766993701457977,-6.133859157562256,0.36254820227622986,0.7222104668617249,0.42000001668930054,-0.7670483589172363,2.9999001026153564,-0.5405837893486023,-2.99992036819458,-0.10818444192409515,-0.11768854409456253,-0.12661345303058624,-0.1349477618932724,-0.8386721611022949,-0.8733777403831482,-0.9060974717140198,-0.9357248544692993
0.3,0.0845564529299736,0.16956372559070587,0.0,0.9014685750007629,0.0,0.0,-0.4328445494174957,-0.2707621455192566,0.0334937609732151,0.0,0.0,0.0,1.1387932300567627,-0.34009847044944763,0.7761000394821167,0.4200000464916229,1.0,3.6565893424267415e-06,-2.2970264126342954e-06,-2.449943394822185e-07,0.0002653300471138209,0.0002659510646481067,-0.00010384945198893547,-0.0017163523007184267,0.004181903786957264,-0.00012745888670906425,-0.353104829788208,0.776909351348877,0.49443376064300537,0.08537894487380981,-0.17422686517238617,-5.395963191986084,0.36254820227622986,0.7222104668617249,0.42000001668930054,-0.7170400619506836,3.000000238418579,-0.590612530708313,-3.00000262260437,-0.12528733909130096,-0.1347021758556366,-0.143558070063591,-0.15183676779270172,-1.0159530639648438,-1.0120799541473389,-1.009129285812378,-1.0067667961120605
0.31666666666666665,0.0784342810511589,0.16828583180904388,0.0,0.8961753249168396,0.0,0.0,-0.4437001049518585,-0.41683781147003174,-0.12185268104076385,0.0,0.0,0.0,-2.347012996673584,-0.34009847044944763,0.7761000990867615,0.4200000464916229,0.9999999403953552,3.6509966321318643e-06,-2.3046329715725733e-06,1.9764988223869295e-07,0.00026691556558944285,0.0002675954019650817,-0.00010411976836621761,-0.0017412161687389016,0.00421172147616744,-0.00012784797581844032,-0.3466297388076782,0.7720178365707397,0.40507906675338745,0.6844800710678101,-0.48001575469970703,-5.229916572570801,0.36254820227622986,0.7222104668617249,0.42000001668930054,-0.6670331358909607,3.0000016689300537,-0.6406393051147461,-2.9999990463256836,-0.14259786903858185,-0.15185463428497314,-0.16059234738349915,-0.16877847909927368,-1.0058212280273438,-1.0044294595718384,-1.003365397453308,-1.0025067329406738
0.3333333333333333,0.07021869719028473,0.16445325314998627,0.0,0.8981815576553345,0.0,0.0,-0.43962469696998596,-0.53236985206604,-0.27031299471855164,0.0,0.0,0.0,1.4428811073303223,-0.34145820140838623,0.7734233736991882,0.4209614098072052,0.9994024038314819,0.01704019121825695,-0.007603015284985304,-0.029096394777297974,0.0066055795177817345,-0.002937027020379901,0.03341922536492348,0.9538465142250061,-0.7658341526985168,0.6066142320632935,-0.3473431468009949,0.7770875096321106,0.4276565909385681,0.19508050382137299,0.5229345560073853,-0.14553974568843842,0.36254820227622986,0.7222104668617249,0.42000001668930054,-0.6171731352806091,3.0000009536743164,-0.6912882328033447,-2.9922499656677246,-0.14135882258415222,-0.15208888053894043,-0.1619202345609665,-0.17069828510284424,-0.15861935913562775,-0.18356192111968994,-0.19386398792266846,-0.18492314219474792
0.35,0.059826016426086426,0.15811696648597717,0.0,0.8934051394462585,0.0,0.0,-0.4492519199848175,-0.666886031627655,-0.42127224802970886,0.0,0.0,0.0,-2.205446481704712,-0.3380802869796753,0.7773850560188293,0.4215378761291504,0.9969598054885864,0.039996109902858734,-0.0026907348074018955,-0.06681494414806366,0.16381314396858215,0.19862812757492065,-0.003019416704773903,-0.16385990381240845,0.016559677198529243,-3.9406230449676514,-0.3442995548248291,0.7804217338562012,0.4250468909740448,0.27783194184303284,0.15145054459571838,-0.1591716706752777,0.36254820227622986,0.7222104668617249,0.42000001668930054,-0.5671681761741638,2.999986171722412,-0.7413342595100403,-2.9999756813049316,-0.14610134065151215,-0.15657541155815125,-0.165922611951828,-0.17393898963928223,-0.3602360785007477,-0.309765100479126,-0.24873869121074677,-0.1754792481660843
0.36666666666666664,0.047312166541814804,0.14943064749240875,0.0,0.8958800435066223,0.0,0.0,-0.44429606199264526,-0.7889992594718933,-0.561048686504364,0.0,0.0,0.0,1.5917189121246338,-0.3337689936161041,0.7826697826385498,0.4207867980003357,0.9910151958465576,0.019774533808231354,-0.003175454679876566,-0.13224086165428162,0.3409706652164459,0.4167865216732025,-0.042530566453933716,-2.172276020050049,0.3271440267562866,-11.067660331726074,-0.3383808434009552,0.7855555415153503,0.4225351810455322,0.44352224469184875,0.42576807737350464,-0.12154605239629745,0.36254820227622986,0.7222104668617249,0.42000001668930054,-0.5171632766723633,2.9999780654907227,-0.7913746237754822,-2.9999992847442627,-0.1537882685661316,-0.1626601666212082,-0.17021916806697845,-0.17625992000102997,-0.4763597249984741,-0.3567194640636444,-0.2256912887096405,-0.08400926738977432
0.3833333333333333,0.037499308586120605,0.13791969418525696,0.0,0.8914759755134583,0.0,0.0,-0.4530680179595947,-0.4634186923503876,-0.7482876181602478,0.0,0.0,0.0,-2.085887908935547,-0.3284163177013397,0.7892349362373352,0.41999882459640503,0.9781678318977356,0.00014549348270520568,-0.00010029959230450913,-0.2078160047531128,0.48059821128845215,0.5435114502906799,-0.0036481493152678013,-0.10300973802804947,0.3757118284702301,-4.769908428192139,-0.3296262323856354,0.7918723821640015,0.4213907718658447,0.6090017557144165,0.4104430377483368,-0.04489648714661598,0.36254820227622986,0.7222104668617249,0.42000001668930054,-0.4671591520309448,2.999997138977051,-0.8414269089698792,-3.000000476837158,-0.1618489921092987,-0.1683766394853592,-0.17336192727088928,-0.17662905156612396,-0.4381242096424103,-0.2897217869758606,-0.12717580795288086,0.047256771475076675
0.4,0.026775406673550606,0.12455587834119797,0.0,0.8727730512619019,0.0,0.0,-0.4881262183189392,-0.7123318910598755,-0.8277541399002075,0.0,0.0,0.0,-5.711893558502197,-0.3146434426307678,0.8017500042915344,0.42078933119773865,0.9708905220031738,0.0005804815446026623,-0.011591702699661255,-0.2392423450946808,1.056654691696167,0.9128003120422363,0.15800097584724426,-2.8139219284057617,-2.731294631958008,-6.7514543533325195,-0.31569725275039673,0.8027180433273315,0.42209529876708984,1.1217055320739746,0.965949296951294,0.12911590933799744,0.36254820227622986,0.7222104668617249,0.42000001668930054,-0.4173872768878937,2.7671658992767334,-0.8914808630943298,-3.0000946521759033,-0.17054009437561035,-0.1742161512374878,-0.17608492076396942,-0.17602507770061493,-0.48876333236694336,-0.31752198934555054,-0.12938199937343597,0.07209554314613342
0.4166666666666667,0.018573112785816193,0.1082073524594307,0.0,0.838148832321167,0.0,0.0,-0.5454415678977966,-0.43321263790130615,-1.031388759613037,0.0,0.0,0.0,-8.81682300567627,-0.28025129437446594,0.8231346011161804,0.4250135123729706,0.9551619291305542,0.0030004053842276335,-0.04013904929161072,-0.2933352291584015,3.33366322517395,1.6358795166015625,0.4235110282897949,6.7805023193359375,-7.9690165519714355,2.234518527984619,-0.28099524974823,0.824272871017456,0.42605048418045044,3.037653923034668,1.6660957336425781,0.46186989545822144,0.36254820227622986,0.7222104668617249,0.42000001668930054,-0.38723883032798767,0.9913028478622437,-0.9415032267570496,-2.9973301887512207,-0.17993666231632233,-0.18013007938861847,-0.17827478051185608,-0.17433710396289825,-0.6338328719139099,-0.3936111032962799,-0.14237749576568604,0.11334820836782455
0.43333333333333335,0.01318730041384697,0.09758511185646057,0.0,0.7855340838432312,0.0,0.0,-0.6188184022903442,-0.26817867159843445,-0.5003405809402466,0.0,0.0,0.0,-11.640387535095215,-0.20472581684589386,0.8537712097167969,0.4329192042350769,0.9349095821380615,0.06830625236034393,-0.07869613170623779,-0.3392421007156372,5.852138996124268,1.6720167398452759,0.5926729440689087,4.407206058502197,-10.21983528137207,12.745965957641602,-0.20565101504325867,0.855326771736145,0.4342859983444214,5.698920249938965,2.1883764266967773,0.6569132804870605,0.36254820227622986,0.7222104668617249,0.42000001668930054,-0.3706282377243042,1.061543345451355,-0.9060495495796204,2.998492479324341,-0.19563817977905273,-0.1928056925535202,-0.18572601675987244,-0.17683888971805573,-0.8892790675163269,-0.8467485904693604,-0.5497391819953918,-0.27867448329925537
0.45,0.005256850738078356,0.09177491068840027,0.0,0.7432799339294434,0.0,0.0,-0.6689804792404175,-0.4338867962360382,-0.35650354623794556,0.0,0.0,0.0,-6.469259738922119,-0.11248360574245453,0.8810898661613464,0.4462939500808716,0.8971437811851501,0.0974796786904335,-0.08775167167186737,-0.4218178391456604,5.677002906799316,0.8384224772453308,0.8517177700996399,2.3267099857330322,-8.66790771484375,8.809638977050781,-0.1130560114979744,0.8839174509048462,0.447192907333374,5.582788944244385,1.3765803575515747,0.8931028842926025,0.36254820227622986,0.7222104668617249,0.42000001668930054,-0.351155549287796,1.245172381401062,-0.9319014549255371,-2.999999761581421,-0.20806987583637238,-0.20598815381526947,-0.196659117937088,-0.1834385246038437,-0.5576609969139099,-0.6372438073158264,-0.5722130537033081,-0.37248530983924866
0.4666666666666667,0.0011239171726629138,0.07924976199865341,0.0,0.7231001853942871,0.0,0.0,-0.6907432079315186,-0.1052597165107727,-0.8913329243659973,0.0,0.0,0.0,-2.608114004135132,-0.018334772437810898,0.8972331881523132,0.45806047320365906,0.853945255279541,0.0971856340765953,-0.07979033887386322,-0.5049415230751038,5.790375709533691,-0.30104517936706543,0.6562345027923584,-4.127551078796387,-8.824671745300293,11.31378173828125,-0.01888638362288475,0.8994264602661133,0.4595510959625244,5.73095703125,0.36632344126701355,0.7594923973083496,0.36254820227622986,0.7222104668617249,0.42000001668930054,-0.32901665568351746,1.2460582256317139,-0.9819254875183105,-3.0,-0.21383880078792572,-0.21204568445682526,-0.20115701854228973,-0.18458214402198792,-0.3046635687351227,-0.25010421872138977,-0.11525175720453262,0.10164031386375427
0.48333333333333334,-0.0051869479939341545,0.06974279880523682,0.0,0.6926775574684143,0.0,0.0,-0.7212473750114441,-0.3885183334350586,-0.5492405295372009,0.0,0.0,0.0,-5.871293067932129,0.07486605644226074,0.8939708471298218,0.46820756793022156,0.7870501279830933,0.09513620287179947,-0.07718881219625473,-0.6046015024185181,5.30334997177124,-1.3141474723815918,0.46710142493247986,-16.144195556640625,5.810897350311279,13.143640518188477,0.07267018407583237,0.8971120119094849,0.4699290096759796,5.584062576293945,-0.4448060095310211,0.605246365070343,0.36254820227622986,0.7222104668617249,0.42000001668930054,-0.31104013323783875,0.7827625274658203,-1.0319483280181885,-2.999847173690796,-0.22265978157520294,-0.21871739625930786,-0.20495128631591797,-0.1846770942211151,-0.4057381749153137,-0.28841647505760193,-0.1496850550174713,0.021091125905513763
0.5,-0.008961625397205353,0.06405335664749146,0.0,0.6780266761779785,0.0,0.0,-0.7350372672080994,-0.15383322536945343,-0.250270813703537,0.0,0.0,0.0,-1.2475476264953613,0.16017918288707733,0.8791007399559021,0.4728364646434784,0.722593367099762,0.06043641269207001,-0.08794723451137543,-0.6829872131347656,4.393344879150391,-1.8367713689804077,0.14899948239326477,-8.355612754821777,-0.9769216179847717,19.29076385498047,0.15707851946353912,0.8833955526351929,0.4759290814399719,4.844418525695801,-1.2268298864364624,0.2372797429561615,0.36254820227622986,0.7222104668617249,0.42000001668930054,-0.2998467683792114,0.5368828773498535,-1.081970453262329,-3.000001907348633,-0.22976669669151306,-0.22351406514644623,-0.20751602947711945,-0.1848633885383606,-0.3946605622768402,-0.2432767003774643,-0.12025456130504608,-0.00911709014326334
0.5166666666666666,-0.00921205710619688,0.057104114443063736,0.0,0.655840277671814,0.0,0.0,-0.7548996806144714,0.0405234731733799,-0.4710555076599121,0.0,0.0,0.0,-4.4599409103393555,0.2316271960735321,0.852949857711792,0.4681554436683655,0.6442434191703796,-0.025329919531941414,-0.14091409742832184,-0.7513002157211304,3.698854923248291,-1.993175745010376,-0.5164117813110352,-17.293962478637695,9.17841911315918,-7.591371536254883,0.22646008431911469,0.8595946431159973,0.4754822850227356,3.751728057861328,-1.701221227645874,-0.17537400126457214,0.36254820227622986,0.7222104668617249,0.42000001668930054,-0.2887847423553467,0.8027516007423401,-1.1319925785064697,-2.9996237754821777,-0.2354395091533661,-0.22648972272872925,-0.2085653692483902,-0.18445348739624023,-0.27242955565452576,-0.1100602000951767,-0.008737255819141865,0.051555730402469635
0.5333333333333333,-0.006815122440457344,0.05334407091140747,0.0,0.6476539969444275,0.0,0.0,-0.7619345784187317,0.19415123760700226,-0.16812393069267273,0.0,0.0,0.0,-0.2345682680606842,0.2858092784881592,0.822156548500061,0.4602256119251251,0.6133228540420532,-0.06184883043169975,-0.1149294525384903,-0.7789742350578308,2.860124349594116,-2.282073736190796,-0.5468288660049438,-2.51641583442688,9.187203407287598,-0.21169522404670715,0.28197795152664185,0.8292065858840942,0.467943012714386,2.868849754333496,-1.8871872425079346,-0.6021960973739624,0.36254820227622986,0.7222104668617249,0.42000001668930054,-0.27508243918418884,0.7548004984855652,-1.1820147037506104,-2.9996509552001953,-0.23998065292835236,-0.22882384061813354,-0.20947082340717316,-0.184794083237648,-0.00992781575769186,-0.061100877821445465,-0.0191863551735878,-0.033283062279224396
0.55,-0.004079815000295639,0.046383555978536606,0.0,0.6293663382530212,0.0,0.0,-0.7771087884902954,0.15964195132255554,-0.4715724587440491,0.0,0.0,0.0,-3.5716965198516846,0.3270978033542633,0.7923275828361511,0.44484439492225647,0.5952841639518738,-0.10641300678253174,-0.09210047125816345,-0.7910944223403931,2.033493757247925,-2.016965389251709,-1.0565599203109741,-2.77471661567688,8.18520450592041,1.2436223030090332,0.3242177367210388,0.7990002632141113,0.4529847204685211,2.122864246368408,-1.8619799613952637,-1.0622622966766357,0.36254820227622986,0.7222104668617249,0.42000001668930054,-0.262749582529068,0.7129737734794617,-1.232036828994751,-2.999995470046997,-0.23555988073349,-0.22588106989860535,-0.20697951316833496,-0.18368448317050934,0.22998814284801483,0.16572070121765137,0.1308310180902481,0.034068796783685684
0.5666666666666667,0.0005491190822795033,0.04293714836239815,0.0,0.6255408525466919,0.0,0.0,-0.7801914215087891,0.30439475178718567,-0.1487361341714859,0.0,0.0,0.0,0.33229443430900574,0.35537418723106384,0.761891782283783,0.4249343276023865,0.575424313545227,-0.15287365019321442,-0.0677889883518219,-0.8005753755569458,1.281564712524414,-2.08738374710083,-1.1998285055160522,-3.9633405208587646,11.573118209838867,3.4671177864074707,0.3533935844898224,0.7679834365844727,0.43335801362991333,1.3958806991577148,-1.7652171850204468,-1.2410290241241455,0.36254820227622986,0.7222104668617249,0.42000001668930054,-0.2500157654285431,0.6760200262069702,-1.2820568084716797,-2.9997546672821045,-0.23319284617900848,-0.2244224101305008,-0.2063659429550171,-0.18496371805667877,0.23062723875045776,0.15111957490444183,0.05629841983318329,-0.09757790714502335
0.5833333333333334,0.007326326332986355,0.04060959443449974,0.0,0.6114084720611572,0.0,0.0,-0.7913151383399963,0.45586585998535156,-0.0973205491900444,0.0,0.0,0.0,-3.0660572052001953,0.36821481585502625,0.7462149858474731,0.4225795269012451,0.5993626117706299,-0.04382390156388283,0.02647174708545208,-0.7988385558128357,0.5815672874450684,-0.28725963830947876,-0.035807255655527115,7.916260719299316,1.783239722251892,2.9439148902893066,0.3648570775985718,0.7491909265518188,0.4265986979007721,0.4021824598312378,-0.8436541557312012,-0.10539788007736206,0.36254820227622986,0.7222104668617249,0.42000001668930054,-0.23356479406356812,1.270867109298706,-1.2438164949417114,3.000248432159424,-0.2256762832403183,-0.21940211951732635,-0.20415571331977844,-0.18625251948833466,0.5398887991905212,0.36390259861946106,0.1580013483762741,-0.08229033648967743
0.6,0.011343644000589848,0.034476298838853836,0.0,0.6101680397987366,0.0,0.0,-0.7922720313072205,0.22160261869430542,-0.37938112020492554,0.0,0.0,0.0,0.7143716812133789,0.3713933825492859,0.7319262623786926,0.4216792583465576,0.6306378841400146,-0.031146781519055367,-0.010967950336635113,-0.7753744125366211,-0.056135185062885284,-0.982348620891571,-0.11882250756025314,-6.1112141609191895,-9.389992713928223,6.658074378967285,0.3690805733203888,0.7377955913543701,0.4273807406425476,0.06365275382995605,-0.6890658140182495,0.10030338168144226,0.36254820227622986,0.7222104668617249,0.42000001668930054,-0.2478155791759491,-2.2355666160583496,-1.264362096786499,-2.999730348587036,-0.2145528793334961,-0.21101827919483185,-0.1992294192314148,-0.1853286474943161,0.4966968297958374,0.3872760832309723,0.22039219737052917,0.01739371195435524
0.6166666666666667,0.01732110232114792,0.032957084476947784,0.0,0.5991376042366028,0.0,0.0,-0.8006460666656494,0.3683508634567261,-0.06558127701282501,0.0,0.0,0.0,-2.578463077545166,0.37072479724884033,0.7224146127700806,0.4222922623157501,0.6514993906021118,-0.04386794567108154,-0.02484581060707569,-0.7569721341133118,-0.17828431725502014,-0.6511783599853516,0.01083079632371664,-10.350239753723145,-6.83140230178833,6.402174949645996,0.36796069145202637,0.7308193445205688,0.4293408989906311,-0.019485564902424812,-0.1325490027666092,0.12315326929092407,0.36254820227622986,0.7222104668617249,0.42000001668930054,-0.27994397282600403,-1.1691670417785645,-1.3143162727355957,-2.997426986694336,-0.20759491622447968,-0.2058706432580948,-0.19686390459537506,-0.1862013041973114,0.5356454253196716,0.4003397524356842,0.20804721117019653,1.1072376082665869e-07
0.6333333333333333,0.024732109159231186,0.03457310050725937,0.0,0.6014162302017212,0.0,0.0,-0.7989358901977539,0.47909998893737793,0.17339512705802917,0.0,0.0,0.0,1.2359764575958252,0.37192875146865845,0.7211581468582153,0.42241501808166504,0.6561670303344727,-0.04226326569914818,0.020355969667434692,-0.7531561255455017,0.00700023677200079,-0.11666491627693176,-0.059942685067653656,5.014450550079346,0.7724494338035583,-1.0391258001327515,0.3667546808719635,0.728397011756897,0.4302634596824646,-0.17612342536449432,-0.11527127772569656,-0.13125808537006378,0.36254820227622986,0.7222104668617249,0.42000001668930054,-0.32471370697021484,-2.99999737739563,-1.302943229675293,2.999999523162842,-0.1990778148174286,-0.19954724609851837,-0.19370178878307343,-0.18639081716537476,0.48323854804039,0.3654709756374359,0.185566708445549,-0.005541068036109209
0.65,0.030701467767357826,0.03133884072303772,0.0,0.628324031829834,0.0,0.0,-0.777951717376709,0.38127726316452026,-0.2553742229938507,0.0,0.0,0.0,4.777246475219727,0.3706871271133423,0.7202242016792297,0.42067596316337585,0.651995062828064,-0.010759183205664158,0.012651043012738228,-0.758041262626648,-0.14764979481697083,0.0010126731358468533,-0.10229802131652832,-0.726758599281311,-5.437366485595703,-0.4081110954284668,0.36436617374420166,0.7296123504638672,0.431884229183197,-0.17148378491401672,0.03615904226899147,0.2020687609910965,0.36254820227622986,0.7222104668617249,0.42000001668930054,-0.37471842765808105,-3.0000009536743164,-1.3222428560256958,-2.9938435554504395,-0.18553109467029572,-0.18852953612804413,-0.1862184852361679,-0.182528555393219,0.6864819526672363,0.5802778005599976,0.41101667284965515,0.2341795265674591
0.6666666666666666,0.038119107484817505,0.02736133523285389,0.0,0.6379902958869934,0.0,0.0,-0.7700443863868713,0.46266260743141174,-0.32248201966285706,0.0,0.0,0.0,0.3886502683162689,0.36847928166389465,0.7202574014663696,0.4200000762939453,0.6493098139762878,-7.051437478367006e-07,5.178421815799084e-07,-0.7605239152908325,-0.0964098796248436,0.0010421221377328038,-5.295046139508486e-05,-0.0006853307713754475,-0.0027919814456254244,-0.9885804057121277,0.36207711696624756,0.7303603887557983,0.43633341789245605,-0.1254558265209198,0.04626636207103729,0.3075046241283417,0.36254820227622986,0.7222104668617249,0.42000001668930054,-0.42473265528678894,-2.999034881591797,-1.3722078800201416,-2.9999845027923584,-0.1783631443977356,-0.18172122538089752,-0.1806832104921341,-0.17830432951450348,0.39870166778564453,0.4152318835258484,0.38459262251853943,0.35751157999038696
0.6833333333333333,0.047217853367328644,0.019930483773350716,0.0,0.6242174506187439,0.0,0.0,-0.7812506556510925,0.583712637424469,-0.5076532363891602,0.0,0.0,0.0,-3.0182383060455322,0.36784908175468445,0.7202543616294861,0.4200000464916229,0.6473245024681091,1.4585177154913254e-07,4.2576610326250375e-07,-0.7622145414352417,-0.015814630314707756,-0.00039446077425964177,-1.5796744264662266e-05,-0.0007113851024769247,-2.3039974621497095e-05,-0.11938267946243286,0.3624586760997772,0.7309430837631226,0.4475253224372864,0.19722843170166016,0.02543647587299347,1.1383663415908813,0.36254820227622986,0.7222104668617249,0.42000001668930054,-0.47474589943885803,-2.99998140335083,-1.422226071357727,-2.999999761581421,-0.17426350712776184,-0.17695419490337372,-0.17596904933452606,-0.17355719208717346,0.1700093001127243,0.22400443255901337,0.23812909424304962,0.25849753618240356
0.7,0.06013989448547363,0.017416907474398613,0.0,0.5881869196891785,0.0,0.0,-0.8087250590324402,0.7308933138847351,-0.1252666562795639,0.0,0.0,0.0,-6.366820335388184,0.36784878373146057,0.72025465965271,0.42000001668930054,0.6473245620727539,-2.2444653779984947e-07,-4.517461547948187e-06,-0.7622144818305969,0.00018562725745141506,-0.0003837553085759282,-8.204206824302673e-05,0.008083411492407322,0.00015458544658031315,-0.0003306552243884653,0.37440764904022217,0.7251813411712646,0.47208595275878906,1.3485760688781738,-0.5265904664993286,1.8996825218200684,0.36254820227622986,0.7222104668617249,0.42000001668930054,-0.5247584581375122,-2.9997198581695557,-1.472244381904602,-2.9999701976776123,-0.1784343123435974,-0.17895428836345673,-0.17645737528800964,-0.17250801622867584,-0.1896953135728836,-0.07778476923704147,0.0023036175407469273,0.08885741233825684
0.7166666666666667,0.06938078999519348,0.016037266701459885,0.0,0.5674338340759277,0.0,0.0,-0.8234189748764038,0.4796292185783386,-0.07578325271606445,0.0,0.0,0.0,-1.939537763595581,0.3678486943244934,0.7202547788619995,0.41999998688697815,0.6473244428634644,-3.4595640840962005e-07,-5.644149041472701e-06,-0.7622145414352417,0.0002308462280780077,-0.00041197973769158125,-9.094062261283398e-05,0.008881699293851852,-0.0008701293845660985,-0.0005215744022279978,0.39756160974502563,0.7217584848403931,0.5041021108627319,1.31675386428833,0.022496910765767097,1.9245061874389648,0.36254820227622986,0.7222104668617249,0.42000001668930054,-0.5463953614234924,0.13436171412467957,-1.5222625732421875,-2.9999992847442627,-0.1789066046476364,-0.17854242026805878,-0.17566479742527008,-0.17124010622501373,0.1038820892572403,0.10704823583364487,0.0803818628191948,0.05779070407152176
0.7333333333333333,0.07372034341096878,0.016495343297719955,0.0,0.5731700658798218,0.0,0.0,-0.8194364309310913,0.18905460834503174,0.07647015154361725,0.0,0.0,0.0,1.6667988300323486,0.3678486943244934,0.7202547192573547,0.41999998688697815,0.6473245620727539,-6.109208783300346e-08,-5.930920906394022e-06,-0.7622144222259521,0.00022930451086722314,-0.0004083919047843665,-9.038043208420277e-05,0.008796448819339275,-0.000857231265399605,-0.0005179558065719903,0.4166266918182373,0.7247253656387329,0.5308535695075989,0.8756600618362427,0.2579852342605591,1.3285658359527588,0.36254820227622986,0.7222104668617249,0.42000001668930054,-0.5238744616508484,2.3553404808044434,-1.483471393585205,3.0,-0.17554087936878204,-0.17533543705940247,-0.17307251691818237,-0.1692153364419937,0.2521377205848694,0.24094724655151367,0.20262828469276428,0.16395050287246704
0.75,0.07453950494527817,0.013818697072565556,0.0,0.5669236183166504,0.0,0.0,-0.8237703442573547,0.006040878593921661,-0.2567555904388428,0.0,0.0,0.0,-1.8214329481124878,0.3678486943244934,0.7202547192573547,0.41999998688697815,0.6473243832588196,-4.861255433752376e-07,-5.7573988669901155e-06,-0.7622146010398865,0.00022656022338196635,-0.0004073028394486755,-9.025679901242256e-05,0.008760585449635983,-0.000873664568644017,-0.0005110973143018782,0.42470619082450867,0.727472186088562,0.5464794635772705,0.09834935516119003,0.11673429608345032,0.7432054281234741,0.36254820227622986,0.7222104668617249,0.42000001668930054,-0.49218082427978516,1.4948132038116455,-1.4334187507629395,3.0000009536743164,-0.17149671912193298,-0.17127832770347595,-0.16946350038051605,-0.16613546013832092,0.25373131036758423,0.2610240578651428,0.23970240354537964,0.2092670202255249
0.7666666666666666,0.0731205865740776,0.01580752618610859,0.0,0.5734804272651672,0.0,0.0,-0.8192192316055298,-0.12491428852081299,0.2510232627391815,0.0,0.0,0.0,1.829661250114441,0.3678486943244934,0.7202547192573547,0.41999998688697815,0.6473245620727539,-1.485920080313008e-07,-5.948295893176692e-06,-0.7622144818305969,0.0002314248849870637,-0.00041153430356644094,-9.084516204893589e-05,0.008872841484844685,-0.0008556826505810022,-0.0005226415814831853,0.425029456615448,0.7291800379753113,0.5573034286499023,-0.047564782202243805,0.14917364716529846,0.5755180716514587,0.36254820227622986,0.7222104668617249,0.42000001668930054,-0.4555776119232178,2.7582621574401855,-1.3935188055038452,1.854081630706787,-0.17278186976909637,-0.1712992638349533,-0.16874712705612183,-0.16496576368808746,-0.143072247505188,-0.05749550089240074,-0.0017456880304962397,0.03555992990732193
0.7833333333333333,0.07173790782690048,0.016034793108701706,0.0,0.5683555603027344,0.0,0.0,-0.8227830529212952,-0.08656984567642212,-0.0007197129307314754,0.0,0.0,0.0,-1.538992166519165,0.3678486943244934,0.7202547192573547,0.41999998688697815,0.6473243832588196,-4.812340534954274e-07,-5.7774254855758045e-06,-0.7622146606445312,0.0002265892835566774,-0.0004073489981237799,-9.026704356074333e-05,0.008761442266404629,-0.0008738908800296485,-0.0005111666396260262,0.4185226559638977,0.7300869226455688,0.5619080066680908,-0.7342544198036194,-0.03522362932562828,0.16884009540081024,0.36254820227622986,0.7222104668617249,0.42000001668930054,-0.4346224367618561,-0.02126345969736576,-1.3439862728118896,3.000000476837158,-0.17396296560764313,-0.1713099479675293,-0.16799458861351013,-0.16371022164821625,-0.12112492322921753,-0.04121258854866028,0.016982121393084526,0.05934474244713783
0.8,0.07187912613153458,0.01819106563925743,0.0,0.5757218599319458,0.0,0.0,-0.8176456093788147,0.053790368139743805,0.14570797979831696,0.0,0.0,0.0,1.6756993532180786,0.3678486943244934,0.7202547192573547,0.41999998688697815,0.6473245024681091,-1.6750702513945726e-07,-5.969253834336996e-06,-0.7622144222259521,0.00023152994981501251,-0.0004116017953492701,-9.085494093596935e-05,0.008874686434864998,-0.0008552218787372112,-0.000522899383213371,0.41011103987693787,0.7300557494163513,0.5647592544555664,-0.2881234288215637,0.08712514489889145,0.18242046236991882,0.36254820227622986,0.7222104668617249,0.42000001668930054,-0.4522632658481598,-1.9165843725204468,-1.363113522529602,-3.000000238418579,-0.17553819715976715,-0.1717929095029831,-0.16756288707256317,-0.1624867171049118,0.07591763138771057,0.09266916662454605,0.11188910901546478,0.1353437304496765
0.8166666666666667,0.0740826427936554,0.017611932009458542,0.0,0.5700007677078247,0.0,0.0,-0.8216441869735718,0.17693394422531128,-0.07466315478086472,0.0,0.0,0.0,-1.8834508657455444,0.3678486943244934,0.7202547192573547,0.41999998688697815,0.6473246216773987,-4.0916143007052597e-07,-5.517365025298204e-06,-0.7622143626213074,0.0002270482509629801,-0.0004084903048351407,-9.040231816470623e-05,0.008789473213255405,-0.0008756142924539745,-0.0005121970898471773,0.40720224380493164,0.7292042374610901,0.5622386932373047,-0.06182553619146347,-0.20164206624031067,-0.3010619282722473,0.36254820227622986,0.7222104668617249,0.42000001668930054,-0.49764376878738403,-2.9999985694885254,-1.413131833076477,-3.000000238418579,-0.17364491522312164,-0.1695156991481781,-0.16478556394577026,-0.15909795463085175,0.07584816217422485,0.12196215242147446,0.1763029247522354,0.23659953474998474
0.8333333333333334,0.07901991903781891,0.014212611131370068,0.0,0.5412628650665283,0.0,0.0,-0.8408534526824951,0.34458208084106445,-0.2652411460876465,0.0,0.0,0.0,-5.106719493865967,0.3678486943244934,0.7202547192573547,0.41999998688697815,0.6473245620727539,-3.966717656567198e-07,-5.600570148089901e-06,-0.7622144818305969,0.00022755896497983485,-0.0004087419365532696,-9.0442830696702e-05,0.008797034621238708,-0.0008738211472518742,-0.0005135067040100694,0.41015294194221497,0.7212430238723755,0.5585050582885742,0.45341864228248596,-0.6860281229019165,0.01772775873541832,0.36254820227622986,0.7222104668617249,0.42000001668930054,-0.5476449131965637,-2.9998462200164795,-1.463150143623352,-2.9999988079071045,-0.17424149811267853,-0.16909025609493256,-0.16319267451763153,-0.15625686943531036,-0.06265246868133545,-1.6896636225283146e-05,0.07316940277814865,0.1496501863002777
0.85,0.08663417398929596,0.012918734923005104,0.0,0.5288795232772827,0.0,0.0,-0.8486968874931335,0.4951756000518799,0.0004420265613589436,0.0,0.0,0.0,-0.7371179461479187,0.3678486943244934,0.7202547192573547,0.41999998688697815,0.6473243832588196,-2.0188885230254527e-07,-5.941470135439886e-06,-0.7622145414352417,0.00022837810683995485,-0.00040769355837255716,-9.033409878611565e-05,0.008774763904511929,-0.0008599865832366049,-0.0005155298858880997,0.4158904552459717,0.7145633697509766,0.5611416101455688,0.21691346168518066,-0.24165087938308716,0.24029552936553955,0.36254820227622986,0.7222104668617249,0.42000001668930054,-0.5686531662940979,0.2163131982088089,-1.513168454170227,-3.000000476837158,-0.17450568079948425,-0.16907277703285217,-0.16272442042827606,-0.1552843153476715,0.04972587153315544,0.0295677799731493,0.016818048432469368,0.005353327840566635
0.8666666666666667,0.09101968258619308,0.01425139233469963,0.0,0.542361855506897,0.0,0.0,-0.8401449918746948,0.18986929953098297,0.12434299290180206,0.0,0.0,0.0,2.732414960861206,0.3678487241268158,0.7202547192573547,0.41999998688697815,0.6473245620727539,-2.8774528004760214e-07,-5.81081894779345e-06,-0.7622143626213074,0.0002282847708556801,-0.0004086023254785687,-9.042187593877316e-05,0.008796521462500095,-0.0008662980981171131,-0.0005153457750566304,0.4207172989845276,0.7158100008964539,0.563016414642334,0.2918814420700073,0.2560601234436035,-0.016663573682308197,0.36254820227622986,0.7222104668617249,0.42000001668930054,-0.5440471768379211,2.515552043914795,-1.474401831626892,3.000000476837158,-0.17030645906925201,-0.1660616397857666,-0.16076065599918365,-0.15431220829486847,0.3278566598892212,0.23669657111167908,0.1515173316001892,0.06799337267875671
0.8833333333333333,0.09143175184726715,0.011026162654161453,0.0,0.5414041876792908,0.0,0.0,-0.8407624959945679,-0.014162898994982243,-0.2067921757698059,0.0,0.0,0.0,-0.9969174265861511,0.3678486943244934,0.7202547788619995,0.41999998688697815,0.6473243832588196,-4.3777981773018837e-07,-5.900473297515418e-06,-0.7622145414352417,0.00022577971685677767,-0.0004071220464538783,-9.024585597217083e-05,0.008753054775297642,-0.0008796537294983864,-0.0005091813509352505,0.4235925078392029,0.7194312810897827,0.5608557462692261,-0.013045711442828178,0.15299025177955627,-0.07506966590881348,0.36254820227622986,0.7222104668617249,0.42000001668930054,-0.5318553447723389,-0.7799159288406372,-1.4243491888046265,3.0000007152557373,-0.16269521415233612,-0.16038724780082703,-0.15693490207195282,-0.1523021161556244,0.2783178687095642,0.19388148188591003,0.10994191467761993,0.02291799709200859
