vladlanda/robotic-transformer/data/env_000_episode_0131.csv
sim_time_s,robot_box_x,robot_box_y,robot_box_z,robot_box_quat_w,robot_box_quat_x,robot_box_quat_y,robot_box_quat_z,robot_box_linvel_x,robot_box_linvel_y,robot_box_linvel_z,robot_box_angvel_x,robot_box_angvel_y,robot_box_angvel_z,cube_world_x,cube_world_y,cube_world_z,cube_quat_w,cube_quat_x,cube_quat_y,cube_quat_z,cube_linvel_x,cube_linvel_y,cube_linvel_z,cube_angvel_x,cube_angvel_y,cube_angvel_z,endpoint_world_x,endpoint_world_y,endpoint_world_z,endpoint_linvel_x,endpoint_linvel_y,endpoint_linvel_z,target_cube_world_x,target_cube_world_y,target_cube_world_z,gripper_actual_pos_rad_gp_leftgearjoint,gripper_actual_vel_rad_s_gp_leftgearjoint,gripper_actual_pos_rad_gp_rotatingjoint,gripper_actual_vel_rad_s_gp_rotatingjoint,motor_angle_rad_joint1,motor_angle_rad_joint2,motor_angle_rad_joint3,motor_angle_rad_joint4,motor_speed_rad_s_joint1,motor_speed_rad_s_joint2,motor_speed_rad_s_joint3,motor_speed_rad_s_joint4
0.0,0.0,0.0,0.0,1.0,0.0,0.0,0.0,0.0,0.0,0.0,0.0,0.0,0.0,-0.45093077421188354,0.6568501591682434,0.41999998688697815,1.0,0.0,0.0,0.0,0.0,0.0,0.0,0.0,0.0,0.0,3.42540442943573e-06,-0.005000244826078415,1.313499927520752,0.0,0.0,0.0,0.44606006145477295,0.7056614756584167,0.42000001668930054,-1.5707999467849731,0.0,0.0,0.0,0.0,0.0,0.0,0.0,0.0,0.0,0.0,0.0
0.016666666666666666,0.0028778850100934505,0.0021806680597364902,0.0,0.9998081922531128,0.0,0.0,0.019586581736803055,0.24087215960025787,0.18240931630134583,0.0,0.0,0.0,3.1418697834014893,-0.4509308934211731,0.6568498611450195,0.41999998688697815,1.0,3.2799832752061775e-06,-8.339598593920527e-07,8.465660528145236e-08,-1.9833856640616432e-05,0.00017983021098189056,-6.132945418357849e-05,0.0009432561928406358,-0.004689492750912905,-0.0003198107879143208,-0.007110234349966049,0.003379564033821225,1.3159373998641968,-0.8143353462219238,0.9868683815002441,0.18095196783542633,0.44606006145477295,0.7056614756584167,0.42000001668930054,-1.5301095247268677,3.0000011920928955,-0.04584788903594017,-2.9999992847442627,0.0008691533003002405,0.0007963840034790337,0.0007110277656465769,0.0006108740926720202,0.11094217747449875,0.09756709635257721,0.08334315568208694,0.06823883205652237
0.03333333333333333,0.008960968814790249,0.006801865063607693,0.0,0.9997960329055786,0.0,0.0,0.020196840167045593,0.4070201814174652,0.31530657410621643,0.0,0.0,0.0,-0.8691295981407166,-0.45093101263046265,0.6568498015403748,0.4200000464916229,1.0,3.3908236218849197e-06,-2.1324740373529494e-06,-3.7087911408661967e-08,0.0002635786950122565,0.00026937879738397896,-0.00010509719140827656,-0.0017707741353660822,0.004130927845835686,-0.00013548358401749283,-0.027545589953660965,0.02592352032661438,1.316638469696045,-1.5913804769515991,1.6099514961242676,-0.07997632026672363,0.44606006145477295,0.7056614756584167,0.42000001668930054,-1.4800903797149658,3.000002145767212,-0.09588772803544998,-3.0000014305114746,0.002990175737068057,0.0026528125163167715,0.0022774094250053167,0.0018608891405165195,0.16422657668590546,0.13977207243442535,0.11383309960365295,0.0863170176744461
0.05,0.01775827631354332,0.013772763311862946,0.0,0.99937504529953,0.0,0.0,0.03534878045320511,0.5939599871635437,0.4651528000831604,0.0,0.0,0.0,2.647603750228882,-0.45093104243278503,0.6568498611450195,0.4200000464916229,1.0,3.7651204820576822e-06,-2.2119561435829382e-06,5.640150124719412e-09,0.0002653099945746362,0.0002669153327587992,-0.0001044049859046936,-0.0017243726179003716,0.0041774604469537735,-0.0001294949179282412,-0.05967958644032478,0.05360403656959534,1.3117387294769287,-2.187647819519043,1.745891809463501,-0.46962976455688477,0.44606006145477295,0.7056614756584167,0.42000001668930054,-1.4300720691680908,2.99999737739563,-0.145926371216774,-2.999999761581421,0.005711977835744619,0.0049198223277926445,0.004055534023791552,0.0031146614346653223,0.19277910888195038,0.1558820754289627,0.11711017042398453,0.07636899501085281
0.06666666666666667,0.029075877740979195,0.023067286238074303,0.0,0.9994474649429321,0.0,0.0,0.03323709964752197,0.7205003499984741,0.5952602028846741,0.0,0.0,0.0,-1.2117278575897217,-0.45093104243278503,0.6568498015403748,0.4200000464916229,0.9999999403953552,3.406740233913297e-06,-2.2856668238091515e-06,4.3010706463064707e-07,0.0002670245012268424,0.00026791717391461134,-0.0001043803058564663,-0.0017406563274562359,0.00421176990494132,-0.00012850540224462748,-0.09852815419435501,0.08723673224449158,1.2992055416107178,-2.4750454425811768,2.1790823936462402,-1.0052677392959595,0.44606006145477295,0.7056614756584167,0.42000001668930054,-1.3800537586212158,3.0000030994415283,-0.19595937430858612,-3.0000016689300537,0.008363648317754269,0.006901382468640804,0.005328223574906588,0.003637201152741909,0.1581328958272934,0.10861016064882278,0.05705857276916504,0.0034144495148211718
0.08333333333333333,0.042458005249500275,0.034635260701179504,0.0,0.9995403289794922,0.0,0.0,0.030318016186356544,0.8412107229232788,0.7376627326011658,0.0,0.0,0.0,0.08531083166599274,-0.45093104243278503,0.6568498015403748,0.4200000464916229,0.9999999403953552,3.626007128332276e-06,-2.335401404707227e-06,3.0324841304718575e-07,0.0002661396865732968,0.00026684964541345835,-0.00010405061766505241,-0.0017283027991652489,0.004196319729089737,-0.00012790360779035836,-0.14164084196090698,0.12398214638233185,1.2788679599761963,-2.67012619972229,2.2083284854888916,-1.4120209217071533,0.44606006145477295,0.7056614756584167,0.42000001668930054,-1.3300285339355469,3.000001907348633,-0.21473732590675354,0.46125328540802,0.009903016500175,0.007582611870020628,0.005111522972583771,0.00248295278288424,0.06900914758443832,0.0103050097823143,-0.05039048567414284,-0.11311255395412445
0.1,0.04978344216942787,0.04954325035214424,0.0,0.9999719858169556,0.0,0.0,0.007488796021789312,0.308657705783844,0.9579339623451233,0.0,0.0,0.0,-3.671888589859009,-0.45093104243278503,0.6568498015403748,0.4200000464916229,1.0,3.4220852285216097e-06,-2.308649982296629e-06,1.7965334109248943e-07,0.0002668154484126717,0.000268004194367677,-0.00010440708138048649,-0.0017430060543119907,0.004207085818052292,-0.00012891326332464814,-0.18182003498077393,0.16476859152317047,1.2534775733947754,-2.2219910621643066,2.583388328552246,-1.5693778991699219,0.44606006145477295,0.7056614756584167,0.42000001668930054,-1.2800202369689941,3.0000007152557373,-0.2586638331413269,-3.0000009536743164,0.004840390756726265,0.0017619122518226504,-0.0015160390175879002,-0.005003675352782011,-0.4248095154762268,-0.47982800006866455,-0.5372327566146851,-0.597237765789032
0.11666666666666667,0.05330343544483185,0.06473247706890106,0.0,0.9999994039535522,0.0,0.0,-0.0010974453762173653,0.27034929394721985,0.9583000540733337,0.0,0.0,0.0,0.570772111415863,-0.45093104243278503,0.6568498611450195,0.4200000464916229,1.0,3.7114855331310537e-06,-2.332717940589646e-06,2.5745248422026634e-07,0.00026485795387998223,0.0002663535706233233,-0.00010423408821225166,-0.0017181923612952232,0.004170115105807781,-0.0001291551161557436,-0.22370827198028564,0.2029169797897339,1.2275598049163818,-2.654823064804077,2.265462875366211,-1.588695764541626,0.44606006145477295,0.7056614756584167,0.42000001668930054,-1.230013370513916,3.0000014305114746,-0.30866941809654236,-2.9997811317443848,-0.0007395847351290286,-0.005088543985038996,-0.00963481143116951,-0.014390535652637482,-0.08838151395320892,-0.20182941854000092,-0.3118525743484497,-0.41834700107574463
0.13333333333333333,0.0644037276506424,0.07723422348499298,0.0,0.9997993111610413,0.0,0.0,-0.02003442868590355,0.8034330606460571,0.6748778820037842,0.0,0.0,0.0,-3.2146480083465576,-0.45093104243278503,0.6568498015403748,0.4200000464916229,1.0,3.3357036954839714e-06,-2.2319193249131786e-06,3.113252375896991e-07,0.00026669810176827013,0.0002675947907846421,-0.00010428531095385551,-0.0017370772548019886,0.0042058308608829975,-0.0001284025056520477,-0.2637971043586731,0.2481643259525299,1.2002145051956177,-2.2356958389282227,3.0193214416503906,-1.7293323278427124,0.44606006145477295,0.7056614756584167,0.42000001668930054,-1.1799883842468262,2.999990701675415,-0.2743128836154938,3.0000007152557373,0.0016312296502292156,-0.005189274903386831,-0.012117579579353333,-0.019161991775035858,0.14387428760528564,-0.007303944788873196,-0.15295153856277466,-0.29282328486442566
0.15,0.07163398712873459,0.08724172413349152,0.0,0.9978152513504028,0.0,0.0,-0.06606578081846237,0.34278571605682373,0.5596684217453003,0.0,0.0,0.0,-6.349342346191406,-0.45093104243278503,0.6568498015403748,0.4200000464916229,1.0,3.518945050018374e-06,-2.283112280565547e-06,-3.6253939583730244e-07,0.00026618465199135244,0.00026735689607448876,-0.00010425783693790436,-0.0017348835244774818,0.004195805639028549,-0.00012861379946116358,-0.298298180103302,0.30346807837486267,1.1681472063064575,-1.8698376417160034,3.5775961875915527,-2.0657382011413574,0.44606006145477295,0.7056614756584167,0.42000001668930054,-1.1368120908737183,2.211756706237793,-0.2626264989376068,-1.2383900880813599,-0.003574519418179989,-0.01213204488158226,-0.020740022882819176,-0.02940620295703411,-0.45206132531166077,-0.5415259599685669,-0.6277661919593811,-0.710814893245697
0.16666666666666666,0.07418207079172134,0.09893572330474854,0.0,0.9956768751144409,0.0,0.0,-0.09288430213928223,0.1394060254096985,0.6708663105964661,0.0,0.0,0.0,-1.7863608598709106,-0.45093104243278503,0.6568498015403748,0.4200000464916229,1.0,3.66662789019756e-06,-2.339195589229348e-06,-3.1499598662776407e-07,0.00026595781673677266,0.00026667400379665196,-0.00010403618216514587,-0.0017254058038815856,0.0041928826831281185,-0.00012778442760463804,-0.3345143795013428,0.35835838317871094,1.1256959438323975,-2.2064499855041504,3.388082504272461,-2.8948726654052734,0.44606006145477295,0.7056614756584167,0.42000001668930054,-1.0973765850067139,2.464932441711426,-0.31119778752326965,-3.0000011920928955,-0.013402765616774559,-0.022873405367136,-0.03233754262328148,-0.04180816560983658,-0.5411454439163208,-0.5862552523612976,-0.6271515488624573,-0.664093017578125
0.18333333333333332,0.07399535179138184,0.11188490688800812,0.0,0.9917919039726257,0.0,0.0,-0.1278623342514038,-0.07006366550922394,0.8241907954216003,0.0,0.0,0.0,-5.066450119018555,-0.45093104243278503,0.6568498015403748,0.4200000464916229,1.0,3.814332103502238e-06,-2.3995876290427987e-06,-2.702606138882402e-07,0.0002654899435583502,0.00026610950590111315,-0.00010390975512564182,-0.0017176909605041146,0.0041847554966807365,-0.00012753659393638372,-0.37177810072898865,0.4169830083847046,1.0709716081619263,-2.0838799476623535,3.6531872749328613,-3.642029285430908,0.44606006145477295,0.7056614756584167,0.42000001668930054,-1.0483546257019043,2.9999992847442627,-0.36121731996536255,-3.000000238418579,-0.02448420040309429,-0.034439049661159515,-0.044313255697488785,-0.054125722497701645,-0.7408916354179382,-0.7516244053840637,-0.7584218978881836,-0.761699914932251
0.2,0.07952681928873062,0.12143052369356155,0.0,0.9820035696029663,0.0,0.0,-0.1888624131679535,0.4697696268558502,0.46504825353622437,0.0,0.0,0.0,-8.85678482055664,-0.45093104243278503,0.6568498015403748,0.4200000464916229,1.0,3.6000737964059226e-06,-2.291292048539617e-06,-2.201838640303322e-07,0.0002657294680830091,0.0002664494386408478,-0.00010398100130259991,-0.0017226932104676962,0.0041887471452355385,-0.0001277302799280733,-0.40486305952072144,0.4820319414138794,1.0023763179779053,-1.6638760566711426,4.137569427490234,-4.526928901672363,0.44606006145477295,0.7056614756584167,0.42000001668930054,-0.9983515739440918,2.999999523162842,-0.4112442135810852,-3.0,-0.033946871757507324,-0.04415921866893768,-0.054226092994213104,-0.0641731396317482,-0.5719807147979736,-0.5721772909164429,-0.5696117281913757,-0.5647187829017639
0.21666666666666667,0.08146779984235764,0.1289711445569992,0.0,0.9725192189216614,0.0,0.0,-0.23282259702682495,0.05781790614128113,0.3694051504135132,0.0,0.0,0.0,-4.239901542663574,-0.45093104243278503,0.6568498015403748,0.4200000464916229,0.9999999403953552,3.639686610767967e-06,-2.261991994600976e-06,2.224734885203361e-07,0.0002668736851774156,0.0002675457508303225,-0.00010411953553557396,-0.001740482752211392,0.004211084451526403,-0.00012783787678927183,-0.4316578507423401,0.5409339666366577,0.9205456972122192,-1.207273244857788,3.4742932319641113,-5.188137054443359,0.44606006145477295,0.7056614756584167,0.42000001668930054,-0.9483447074890137,2.999999761581421,-0.46127253770828247,-2.9999988079071045,-0.04874301701784134,-0.058949511498212814,-0.06899752467870712,-0.07892858982086182,-0.838690996170044,-0.8548576831817627,-0.8713051080703735,-0.8867864012718201
0.23333333333333334,0.0791517049074173,0.13804244995117188,0.0,0.9698461890220642,0.0,0.0,-0.24371778964996338,-0.1551419496536255,0.4820575714111328,0.0,0.0,0.0,-0.22506727278232574,-0.45093101263046265,0.6568498015403748,0.4200000464916229,1.0,3.42072598868981e-06,-2.3168520328908926e-06,2.9559143399637833e-07,0.0002668023807927966,0.0002680397010408342,-0.0001044226810336113,-0.0017437196802347898,0.004206908866763115,-0.0001289972715312615,-0.45406925678253174,0.5849387049674988,0.8309402465820312,-1.1945985555648804,2.2555501461029053,-5.562338352203369,0.44606006145477295,0.7056614756584167,0.42000001668930054,-0.8983340263366699,2.9999990463256836,-0.5113022923469543,-3.0000011920928955,-0.06409646570682526,-0.07442393153905869,-0.08460606634616852,-0.09466009587049484,-0.7815173864364624,-0.8046806454658508,-0.8290069103240967,-0.8518747091293335
0.25,0.08121982961893082,0.1421821415424347,0.0,0.9640345573425293,0.0,0.0,-0.26577699184417725,0.12357952445745468,0.20050445199012756,0.0,0.0,0.0,-3.3153505325317383,-0.45093104243278503,0.6568498015403748,0.4200000464916229,0.9999999403953552,3.3476030694146175e-06,-2.259228040202288e-06,1.8084595865275332e-07,0.0002668775268830359,0.00026791135314852,-0.00010439497418701649,-0.0017404715763404965,0.004208224359899759,-0.00012870036880485713,-0.47183531522750854,0.6197395324707031,0.7321162819862366,-0.7475876212120056,1.7629691362380981,-6.179126739501953,0.44606006145477295,0.7056614756584167,0.42000001668930054,-0.8483233451843262,2.9999992847442627,-0.5613320469856262,-3.0000011920928955,-0.07788822799921036,-0.0884253978729248,-0.09874255955219269,-0.10891776531934738,-0.9930946826934814,-0.9939659237861633,-0.9946469068527222,-0.9952075481414795
0.26666666666666666,0.07850678265094757,0.14379294216632843,0.0,0.9633592367172241,0.0,0.0,-0.26821455359458923,-0.2357172667980194,0.02242480032145977,0.0,0.0,0.0,0.624533474445343,-0.45093104243278503,0.6568498015403748,0.4200000464916229,0.9999999403953552,3.535709538482479e-06,-2.300356527484837e-06,-1.2686297168329475e-07,0.0002660176542121917,0.0002671212423592806,-0.0001041970681399107,-0.0017316201701760292,0.004192845430225134,-0.00012849245104007423,-0.48043137788772583,0.6358964443206787,0.6327624320983887,-0.17989380657672882,0.42920100688934326,-5.728306770324707,0.44606006145477295,0.7056614756584167,0.42000001668930054,-0.7983141541481018,3.0000011920928955,-0.6113617420196533,-2.9999985694885254,-0.09558835625648499,-0.10585843771696091,-0.11597705632448196,-0.12599942088127136,-1.0059716701507568,-1.0044803619384766,-1.0033470392227173,-1.002450704574585
0.2833333333333333,0.07375932484865189,0.1422417014837265,0.0,0.9590005874633789,0.0,0.0,-0.28340408205986023,-0.3211980164051056,-0.1420951783657074,0.0,0.0,0.0,-2.7426154613494873,-0.45093104243278503,0.6568498611450195,0.4200000464916229,1.0,3.5934710922447266e-06,-2.262706630062894e-06,-5.654582579950329e-08,0.00026704673655331135,0.0002677500597201288,-0.00010416749864816666,-0.0017431466840207577,0.004214155487716198,-0.00012788989988621324,-0.4792237877845764,0.6454641819000244,0.5385241508483887,0.4170045554637909,0.5803995132446289,-5.453702926635742,0.44606006145477295,0.7056614756584167,0.42000001668930054,-0.7483053803443909,3.000002861022949,-0.6613903641700745,-2.9999990463256836,-0.1124376431107521,-0.12265945971012115,-0.1327718198299408,-0.1428053081035614,-1.0187454223632812,-1.0141113996505737,-1.0105847120285034,-1.0077792406082153
0.3,0.06692726910114288,0.13836561143398285,0.0,0.9595462679862976,0.0,0.0,-0.2815510630607605,-0.44940024614334106,-0.2704257071018219,0.0,0.0,0.0,1.128972053527832,-0.45093101263046265,0.6568498015403748,0.4200000464916229,0.9999999403953552,3.7250058539939346e-06,-2.2361293758876855e-06,3.828688477369724e-07,0.0002647978253662586,0.00026673002867028117,-0.00010453863069415092,-0.001718905521556735,0.004166706930845976,-0.00013016584853176028,-0.4704711437225342,0.6550939679145813,0.45270657539367676,0.7599031329154968,0.5323218107223511,-4.922266006469727,0.44606006145477295,0.7056614756584167,0.42000001668930054,-0.6982976198196411,3.0000009536743164,-0.7114170789718628,-3.0000016689300537,-0.1295776069164276,-0.139694482088089,-0.14973084628582,-0.159706711769104,-1.0109541416168213,-1.0082863569259644,-1.0062496662139893,-1.004618525505066
0.31666666666666665,0.057787369936704636,0.13230830430984497,0.0,0.9557618498802185,0.0,0.0,-0.294141560792923,-0.5968717336654663,-0.4050822854042053,0.0,0.0,0.0,-2.4417619705200195,-0.45093104243278503,0.6568498015403748,0.4200000464916229,0.9999999403953552,3.5577875223680167e-06,-2.2790015918872086e-06,2.2831716250948375e-07,0.00026598540716804564,0.0002665847714524716,-0.00010398938320577145,-0.0017241892637684941,0.004193590488284826,-0.00012769197928719223,-0.46316659450531006,0.6601228713989258,0.4234156608581543,0.16109833121299744,-0.15123429894447327,-0.11449187994003296,0.44606006145477295,0.7056614756584167,0.42000001668930054,-0.6484519243240356,2.9748899936676025,-0.7619761228561401,-2.8319170475006104,-0.13888214528560638,-0.149322047829628,-0.1594037562608719,-0.1690874844789505,-0.26443296670913696,-0.2692820131778717,-0.24728602170944214,-0.19356222450733185
0.3333333333333333,0.04637618362903595,0.12399927526712418,0.0,0.95684415102005,0.0,0.0,-0.2906016707420349,-0.7247405648231506,-0.5373208522796631,0.0,0.0,0.0,1.3728711605072021,-0.450727254152298,0.6576417684555054,0.42001694440841675,0.9999223351478577,0.00022085258387960494,0.00012030628568027169,-0.012460915371775627,0.10810118913650513,0.24189402163028717,0.0036609377712011337,0.5769703984260559,-0.2132108062505722,-5.837635040283203,-0.46252453327178955,0.6630767583847046,0.42279052734375,0.13114789128303528,0.26277756690979004,-0.1344989687204361,0.44606006145477295,0.7056614756584167,0.42000001668930054,-0.5984455347061157,2.9999935626983643,-0.8120046257972717,-2.9999372959136963,-0.1449912190437317,-0.15470950305461884,-0.16364364326000214,-0.17169803380966187,-0.4239847958087921,-0.3494611382484436,-0.2520851492881775,-0.12952710688114166
0.35,0.03798353672027588,0.11312984675168991,0.0,0.9536406993865967,0.0,0.0,-0.3009476363658905,-0.4227047860622406,-0.6976571679115295,0.0,0.0,0.0,-2.1491246223449707,-0.44863665103912354,0.6617097854614258,0.4200004041194916,0.998504638671875,-9.79671131062787e-06,6.5597923821769655e-06,-0.05466693639755249,0.20331993699073792,0.3286024332046509,-0.0012509714579209685,0.10285959392786026,-0.05703364685177803,-6.456143856048584,-0.4589351415634155,0.6668918132781982,0.42065244913101196,0.3413628935813904,0.30787786841392517,-0.11362525820732117,0.44606006145477295,0.7056614756584167,0.42000001668930054,-0.5484399199485779,3.0000007152557373,-0.8620497584342957,-2.9995179176330566,-0.15364672243595123,-0.16141900420188904,-0.1680251806974411,-0.1733565628528595,-0.5345149636268616,-0.39306148886680603,-0.23053143918514252,-0.047056302428245544
0.36666666666666664,0.026849864050745964,0.10039006918668747,0.0,0.9408487677574158,0.0,0.0,-0.3388267755508423,-0.6708252429962158,-0.8191371560096741,0.0,0.0,0.0,-5.6561126708984375,-0.44257476925849915,0.670198380947113,0.42003971338272095,0.9888715744018555,-0.0009864465100690722,5.7850393204716966e-05,-0.14876841008663177,0.5900654196739197,0.7635663747787476,0.014334946870803833,-0.7199345231056213,0.14661210775375366,-19.0948429107666,-0.45137718319892883,0.6760698556900024,0.42169955372810364,0.6267008781433105,0.9539333581924438,0.0836641788482666,0.44606006145477295,0.7056614756584167,0.42000001668930054,-0.49839457869529724,2.9999654293060303,-0.912057101726532,-2.999955892562866,-0.1647442877292633,-0.16970010101795197,-0.17313003540039062,-0.1749463826417923,-0.5213636159896851,-0.3799581527709961,-0.21486219763755798,-0.02704944647848606
0.3833333333333333,0.019402924925088882,0.08447513729333878,0.0,0.9162483811378479,0.0,0.0,-0.40061071515083313,-0.4143756330013275,-1.0056818723678589,0.0,0.0,0.0,-8.71249771118164,-0.4237777888774872,0.6966919898986816,0.4208056926727295,0.982836902141571,0.0009170692064799368,-0.013675841502845287,-0.18396666646003723,1.6643613576889038,2.1842360496520996,0.08082851022481918,-0.149745374917984,-2.968602418899536,-5.921517848968506,-0.4310803711414337,0.7006121873855591,0.42265862226486206,1.9335746765136719,2.0285842418670654,0.24464213848114014,0.44606006145477295,0.7056614756584167,0.42000001668930054,-0.4483904242515564,3.000000238418579,-0.9214048385620117,1.4711523056030273,-0.17369762063026428,-0.17578034102916718,-0.17594055831432343,-0.1741325855255127,-0.6242383718490601,-0.40332460403442383,-0.16122455894947052,0.09767308086156845
0.4,0.013686318881809711,0.0731077641248703,0.0,0.8766353726387024,0.0,0.0,-0.4811553359031677,-0.29915741086006165,-0.5631206035614014,0.0,0.0,0.0,-11.469575881958008,-0.37085312604904175,0.7423205971717834,0.4245891869068146,0.9700483679771423,0.04982195049524307,-0.037539299577474594,-0.2347649335861206,4.582568168640137,3.264434576034546,0.15404586493968964,34.52712631225586,-20.239580154418945,3.7218832969665527,-0.3742891848087311,0.7444935441017151,0.42727774381637573,4.507120132446289,3.2111074924468994,0.4270496368408203,0.44606006145477295,0.7056614756584167,0.42000001668930054,-0.4018261432647705,2.040543556213379,-0.872032642364502,2.9936141967773438,-0.18955819308757782,-0.18834726512432098,-0.18283091485500336,-0.1754014492034912,-0.9097558259963989,-0.8324093818664551,-0.48720669746398926,-0.1548715978860855
0.4166666666666667,0.011820480227470398,0.06479472666978836,0.0,0.818749725818634,0.0,0.0,-0.574150562286377,-0.029593246057629585,-0.4719275236129761,0.0,0.0,0.0,-13.886368751525879,-0.2738744616508484,0.8009053468704224,0.43132463097572327,0.9413180351257324,0.12900303304195404,-0.07635055482387543,-0.30240535736083984,7.334909439086914,3.397514820098877,0.4738865792751312,10.069239616394043,-13.816973686218262,13.861947059631348,-0.2770007252693176,0.8036155700683594,0.4341866970062256,6.982032775878906,3.8478169441223145,0.5393531918525696,0.44606006145477295,0.7056614756584167,0.42000001668930054,-0.3795194625854492,1.0944201946258545,-0.8220221996307373,2.9971108436584473,-0.20125733315944672,-0.2002316117286682,-0.19156384468078613,-0.17913559079170227,-0.6840780973434448,-0.6607897281646729,-0.4945109486579895,-0.24151094257831573
0.43333333333333335,0.006401535123586655,0.06178602576255798,0.0,0.7665505409240723,0.0,0.0,-0.6421840190887451,-0.26735568046569824,-0.17737479507923126,0.0,0.0,0.0,-8.873172760009766,-0.15743860602378845,0.8480280637741089,0.4412383437156677,0.8947237133979797,0.1629408746957779,-0.0913003459572792,-0.40568941831588745,7.300753593444824,1.8546878099441528,0.7665171027183533,-2.80159854888916,1.168864130973816,-5.451225280761719,-0.16153308749198914,0.8525001406669617,0.4436355233192444,7.077655792236328,2.3528647422790527,0.5499140024185181,0.44606006145477295,0.7056614756584167,0.42000001668930054,-0.36327436566352844,0.9659883379936218,-0.8489704132080078,-2.999490737915039,-0.21681326627731323,-0.21560125052928925,-0.20388643443584442,-0.18589624762535095,-0.6699965596199036,-0.7134933471679688,-0.6804745197296143,-0.40243569016456604
0.45,0.005579385440796614,0.05238937586545944,0.0,0.7337830066680908,0.0,0.0,-0.6793839335441589,-0.07030956447124481,-0.5508760213851929,0.0,0.0,0.0,-4.591033935546875,-0.037238262593746185,0.8762400150299072,0.4505126476287842,0.8218575119972229,0.182064950466156,-0.09380009770393372,-0.531605064868927,7.0844550132751465,-0.04678742215037346,0.7422311902046204,-7.7937164306640625,3.0782456398010254,4.361508846282959,-0.043423254042863846,0.8822164535522461,0.45186933875083923,7.214381694793701,0.917201578617096,0.5250798463821411,0.44606006145477295,0.7056614756584167,0.42000001668930054,-0.3463476598262787,0.9016413688659668,-0.898994505405426,-2.9997472763061523,-0.2259984165430069,-0.22386963665485382,-0.2105391025543213,-0.18780097365379333,-0.8398759365081787,-0.6403672695159912,-0.43198874592781067,-0.09222690761089325
0.4666666666666667,0.0022357564885169268,0.04869533330202103,0.0,0.724884569644928,0.0,0.0,-0.688870370388031,-0.1719542145729065,-0.16499945521354675,0.0,0.0,0.0,-0.379805326461792,0.07228556275367737,0.8761752247810364,0.4579332172870636,0.7564117908477783,0.16563326120376587,-0.08218059688806534,-0.6274177432060242,6.2291669845581055,-0.8194422721862793,0.3414062559604645,-6.598590850830078,-15.945096969604492,0.6790003776550293,0.06692247092723846,0.8866640329360962,0.4598006308078766,5.863028526306152,-0.2759207487106323,0.34857669472694397,0.44606006145477295,0.7056614756584167,0.42000001668930054,-0.33643949031829834,0.2806268632411957,-0.9490194320678711,-3.000002145767212,-0.24001887440681458,-0.23734788596630096,-0.21964187920093536,-0.19122079014778137,-0.03339220955967903,-0.7492930293083191,-0.5301280617713928,-0.2621106505393982
0.48333333333333334,0.0019497988978400826,0.04201514273881912,0.0,0.7084065079689026,0.0,0.0,-0.7058046460151672,0.03971167653799057,-0.41649308800697327,0.0,0.0,0.0,-3.593299627304077,0.16461700201034546,0.863903820514679,0.46049636602401733,0.7022109627723694,0.14778774976730347,-0.08351695537567139,-0.691435694694519,4.9334564208984375,-2.1269209384918213,-0.09408573806285858,-17.598121643066406,-11.685494422912598,20.495023727416992,0.16106843948364258,0.8744579553604126,0.46245306730270386,5.479929447174072,-1.3097352981567383,0.1301300972700119,0.44606006145477295,0.7056614756584167,0.42000001668930054,-0.33153438568115234,0.19054831564426422,-0.9990434646606445,-3.000001907348633,-0.2400389313697815,-0.24002982676029205,-0.2264229953289032,-0.19403468072414398,-0.038760121911764145,-0.02683546580374241,-0.37304648756980896,-0.13974624872207642
0.5,0.004527509678155184,0.039459485560655594,0.0,0.7047762870788574,0.0,0.0,-0.7094296216964722,0.1798400580883026,-0.1344756782054901,0.0,0.0,0.0,0.31305983662605286,0.2472546249628067,0.8336588144302368,0.4576619863510132,0.6044185757637024,0.09139811992645264,-0.10978420823812485,-0.7837550044059753,4.411460876464844,-2.376760482788086,-0.5544800162315369,-24.788301467895508,9.413660049438477,-9.630192756652832,0.24287788569927216,0.8461697101593018,0.4614237844944,4.58359432220459,-1.9381111860275269,-0.10194981098175049,0.44606006145477295,0.7056614756584167,0.42000001668930054,-0.3260388672351837,0.4855652451515198,-1.0490655899047852,-2.9999310970306396,-0.23990261554718018,-0.23984752595424652,-0.23307788372039795,-0.19772636890411377,0.020985277369618416,0.04992162063717842,-0.1803349405527115,-0.10499997437000275
0.5166666666666666,0.009518385864794254,0.033177051693201065,0.0,0.6915954947471619,0.0,0.0,-0.7222850322723389,0.34560126066207886,-0.407141774892807,0.0,0.0,0.0,-3.000002145767212,0.3148062229156494,0.8002820611000061,0.44690844416618347,0.5479653477668762,0.012546957470476627,-0.12882143259048462,-0.8264268636703491,3.5670642852783203,-2.3624651432037354,-0.5600878000259399,2.688217878341675,4.424250602722168,-0.8094115257263184,0.31208279728889465,0.8152433037757874,0.4539196193218231,3.6905665397644043,-1.9990253448486328,-0.6756877303123474,0.44606006145477295,0.7056614756584167,0.42000001668930054,-0.31336572766304016,0.9067930579185486,-1.0990877151489258,-2.999521255493164,-0.23643028736114502,-0.2360425889492035,-0.23276609182357788,-0.19774606823921204,0.1802414357662201,0.23013712465763092,0.07339887320995331,2.73226760327816e-07
0.5333333333333333,0.01701785996556282,0.03066457062959671,0.0,0.6908236742019653,0.0,0.0,-0.7230232954025269,0.4730721712112427,-0.11695995926856995,0.0,0.0,0.0,0.7363436222076416,0.3674554228782654,0.7649195790290833,0.43358591198921204,0.4988616704940796,-0.02328859269618988,-0.10891593247652054,-0.8594951033592224,2.6000921726226807,-2.677316904067993,-0.7250125408172607,3.0178918838500977,5.652923583984375,3.808603286743164,0.36622440814971924,0.7796547412872314,0.4408499598503113,2.830662965774536,-2.120297431945801,-0.9112457036972046,0.44606006145477295,0.7056614756584167,0.42000001668930054,-0.3000117540359497,0.583139181137085,-1.1491098403930664,-2.9996650218963623,-0.23507991433143616,-0.23347659409046173,-0.23197980225086212,-0.19883859157562256,0.1895526796579361,0.23646444082260132,0.1327057033777237,-0.04579043760895729
0.55,0.02612113580107689,0.03125381842255592,0.0,0.6799730658531189,0.0,0.0,-0.733237087726593,0.5952507853507996,0.09131413698196411,0.0,0.0,0.0,-2.692789316177368,0.4065353572368622,0.7398685812950134,0.42058858275413513,0.47748979926109314,-0.0009867214830592275,0.004828441888093948,-0.8786234855651855,1.719686508178711,-1.2681833505630493,-0.031265661120414734,-4.158621311187744,-2.273423671722412,2.182535171508789,0.406213641166687,0.7511625289916992,0.42659610509872437,1.6918084621429443,-1.2146751880645752,-0.29712575674057007,0.44606006145477295,0.7056614756584167,0.42000001668930054,-0.29438379406929016,0.30121761560440063,-1.1991331577301025,-2.9953672885894775,-0.22909416258335114,-0.22789393365383148,-0.22867800295352936,-0.19982154667377472,0.4781079590320587,0.4189698100090027,0.27739283442497253,-0.024880874902009964
0.5666666666666667,0.03241810202598572,0.0269974023103714,0.0,0.6809737682342529,0.0,0.0,-0.7323077917098999,0.33974847197532654,-0.23440441489219666,0.0,0.0,0.0,1.004233479499817,0.4303698241710663,0.7233963012695312,0.41998282074928284,0.4710375964641571,0.00012883923773188144,-0.0007525235996581614,-0.8821127414703369,0.7981374859809875,-1.1174931526184082,0.2589758336544037,8.250126838684082,11.55261516571045,0.7689996957778931,0.42840462923049927,0.7329348921775818,0.42348986864089966,0.9364726543426514,-1.028320550918579,0.14249484241008759,0.44606006145477295,0.7056614756584167,0.42000001668930054,-0.27954989671707153,1.359354019165039,-1.2491017580032349,-2.9881603717803955,-0.21734419465065002,-0.21731071174144745,-0.2202729880809784,-0.19688984751701355,0.4720670282840729,0.4647504389286041,0.41101738810539246,0.12307468056678772
0.5833333333333334,0.040894873440265656,0.027880843728780746,0.0,0.6707767844200134,0.0,0.0,-0.7416592836380005,0.48951974511146545,0.03471584618091583,0.0,0.0,0.0,-2.433049201965332,0.4425985813140869,0.7120581269264221,0.42061856389045715,0.4907990097999573,0.008488044142723083,-0.00893804244697094,-0.8711855411529541,0.44400665163993835,-0.9142245650291443,0.3293968439102173,11.320068359375,-11.510730743408203,9.838383674621582,0.4403221607208252,0.7211021184921265,0.42438435554504395,0.5234042406082153,-0.3406612277030945,0.09637583792209625,0.44606006145477295,0.7056614756584167,0.42000001668930054,-0.26624786853790283,0.10832744091749191,-1.2110487222671509,3.0000057220458984,-0.21070149540901184,-0.21108834445476532,-0.21492233872413635,-0.19658130407333374,0.5808548331260681,0.5003679990768433,0.413741797208786,0.07239627093076706
0.6,0.04830578342080116,0.02409750409424305,0.0,0.6730853319168091,0.0,0.0,-0.739564836025238,0.39675381779670715,-0.21142250299453735,0.0,0.0,0.0,1.1624730825424194,0.4501410126686096,0.7048594355583191,0.4200141131877899,0.5123265981674194,-0.0002334092278033495,0.00031803164165467024,-0.8587905168533325,0.3458237648010254,-0.34199875593185425,-0.021113062277436256,-0.4755186438560486,-0.8857429623603821,-0.784149706363678,0.4453239440917969,0.7130197882652283,0.4239022433757782,0.026262354105710983,-0.4652266800403595,0.1610461175441742,0.44606006145477295,0.7056614756584167,0.42000001668930054,-0.30628833174705505,-2.9998276233673096,-1.2322858572006226,-2.9995334148406982,-0.1996033489704132,-0.20118530094623566,-0.20615293085575104,-0.19331303238868713,0.44623738527297974,0.42902225255966187,0.4229905307292938,0.14936935901641846
0.6166666666666667,0.05656016990542412,0.024403568357229233,0.0,0.6641291379928589,0.0,0.0,-0.7476179003715515,0.5254249572753906,0.04969511553645134,0.0,0.0,0.0,-2.3243870735168457,0.4519728422164917,0.7015126347541809,0.420103520154953,0.5337353348731995,0.001386161777190864,-0.0021956083364784718,-0.8456475138664246,0.0344342365860939,-0.07430003583431244,0.004663462750613689,-0.10723065584897995,-0.20914839208126068,3.394895553588867,0.44721096754074097,0.7117320895195007,0.4267100393772125,0.18803974986076355,0.1428195685148239,0.18464629352092743,0.44606006145477295,0.7056614756584167,0.42000001668930054,-0.3364616930484772,-0.7869806885719299,-1.2822308540344238,-2.998469591140747,-0.1918935626745224,-0.1943352222442627,-0.19971397519111633,-0.19150149822235107,0.5988016128540039,0.5065158605575562,0.45256009697914124,0.1603039801120758
0.6333333333333333,0.06679677963256836,0.021152189001441002,0.0,0.6674171090126038,0.0,0.0,-0.744684100151062,0.6431127190589905,-0.20691116154193878,0.0,0.0,0.0,1.420938491821289,0.45223480463027954,0.7010413408279419,0.4200000464916229,0.540511965751648,-3.835739619262313e-07,4.916645934827102e-07,-0.8413363099098206,0.004496314562857151,-0.007484490051865578,-2.9079732485115528e-05,-0.0006317809456959367,-0.0012969267554581165,0.22581641376018524,0.4465147852897644,0.7128501534461975,0.4298267364501953,-0.2637549340724945,0.025662332773208618,0.20399974286556244,0.44606006145477295,0.7056614756584167,0.42000001668930054,-0.37976646423339844,-2.9997189044952393,-1.3322231769561768,-2.9999988079071045,-0.1814994066953659,-0.18522073328495026,-0.19121965765953064,-0.18744176626205444,0.45806965231895447,0.4250539541244507,0.4299919605255127,0.21376430988311768
0.65,0.07893460988998413,0.02161920629441738,0.0,0.6654326915740967,0.0,0.0,-0.7464578747749329,0.7458146810531616,0.06970718502998352,0.0,0.0,0.0,-1.1628408432006836,0.45165249705314636,0.7009685039520264,0.42000001668930054,0.5475377440452576,3.5175501125195296e-06,1.8191173012382933e-06,-0.8367809653282166,-0.001732509583234787,0.00048036090447567403,-0.0001262458972632885,-0.00327519653365016,0.003205208107829094,0.037159185856580734,0.4463690221309662,0.7148429155349731,0.4333881735801697,0.05363842472434044,0.21136853098869324,0.25113677978515625,0.44606006145477295,0.7056614756584167,0.42000001668930054,-0.42978882789611816,-2.9993622303009033,-1.3821778297424316,-2.9988653659820557,-0.17432597279548645,-0.17886412143707275,-0.1849346160888672,-0.1845351606607437,0.5271705985069275,0.4518463909626007,0.4252699017524719,0.22145287692546844
0.6666666666666666,0.09283071756362915,0.01825994998216629,0.0,0.6756618022918701,0.0,0.0,-0.7372117042541504,0.8616251349449158,-0.21175196766853333,0.0,0.0,0.0,2.5091185569763184,0.451405793428421,0.701045036315918,0.420000284910202,0.5534765124320984,-1.7239675287328282e-07,1.1194072612852324e-05,-0.8328647017478943,-0.07342340797185898,0.017798595130443573,-0.00035188341280445457,-0.01133554708212614,-0.008814225904643536,3.8798935413360596,0.4456102252006531,0.7177403569221497,0.43926694989204407,-0.1706075817346573,0.09378106147050858,0.49604594707489014,0.44606006145477295,0.7056614756584167,0.42000001668930054,-0.4798019826412201,-2.999997615814209,-1.4321963787078857,-2.999999523162842,-0.16541463136672974,-0.170779287815094,-0.17684969305992126,-0.17907129228115082,0.31992533802986145,0.32934290170669556,0.38595426082611084,0.3004915118217468
0.6833333333333333,0.10404965281486511,0.017105191946029663,0.0,0.6737522482872009,0.0,0.0,-0.7389572858810425,0.5957916975021362,-0.04415052384138107,0.0,0.0,0.0,-1.2907017469406128,0.4507725238800049,0.7010742425918579,0.42000001668930054,0.5614949464797974,-5.657828410221555e-07,1.9191795672668377e-06,-0.8274801969528198,-0.013551044277846813,-0.0021265943069010973,-3.948895027860999e-05,-0.0011732951970770955,-0.001988992327824235,0.37313520908355713,0.44739431142807007,0.7184441089630127,0.44587817788124084,0.3811931610107422,0.00976252555847168,0.42602401971817017,0.44606006145477295,0.7056614756584167,0.42000001668930054,-0.5298146605491638,-3.000002145767212,-1.4822146892547607,-2.999999761581421,-0.16237299144268036,-0.1670650988817215,-0.1716216802597046,-0.1743043214082718,0.2405627965927124,0.2749994993209839,0.3636506497859955,0.3577059209346771
0.7,0.1156250610947609,0.013036237098276615,0.0,0.6507461071014404,0.0,0.0,-0.7592954039573669,0.7178992033004761,-0.30508357286453247,0.0,0.0,0.0,-4.527058124542236,0.45077216625213623,0.701074481010437,0.4200000464916229,0.5614953637123108,1.016241640172666e-06,-3.3800927212723764e-06,-0.827479898929596,0.00015487414202652872,-0.00024065820616669953,-9.501655586063862e-05,0.0055455658584833145,-0.0006218496127985418,-0.0008604653412476182,0.457257479429245,0.7204616665840149,0.4608179032802582,0.7904722690582275,0.18082711100578308,1.47802734375,0.44606006145477295,0.7056614756584167,0.42000001668930054,-0.5798268914222717,-2.9999780654907227,-1.5322329998016357,-2.999999523162842,-0.16054736077785492,-0.16440439224243164,-0.16728247702121735,-0.1695837676525116,-0.006407677661627531,0.06295379996299744,0.17823542654514313,0.22965990006923676
0.7166666666666667,0.1296776831150055,0.012841949239373207,0.0,0.6407885551452637,0.0,0.0,-0.7677173614501953,0.8507393002510071,-0.0038748071528971195,0.0,0.0,0.0,-0.5137066841125488,0.450772225856781,0.701074481010437,0.4200000464916229,0.5614953637123108,1.7130059148939836e-08,-2.774737595245824e-06,-0.8274798393249512,6.929739174665883e-05,-0.00025627840659581125,-8.250377140939236e-05,0.006425936706364155,-0.0018141228938475251,-0.0007070050924085081,0.47194838523864746,0.7252212166786194,0.49248963594436646,1.052402377128601,0.45840203762054443,2.2792303562164307,0.44606006145477295,0.7056614756584167,0.42000001668930054,-0.6257020235061646,-2.5097086429595947,-1.5822510719299316,-3.0,-0.16403724253177643,-0.1665758490562439,-0.16747455298900604,-0.16865554451942444,-0.08807677775621414,-0.061193156987428665,0.004638269543647766,0.03640950098633766
0.7333333333333333,0.1405756175518036,0.01468734722584486,0.0,0.6547908186912537,0.0,0.0,-0.7558101415634155,0.5830960869789124,0.16321951150894165,0.0,0.0,0.0,3.064795732498169,0.450772225856781,0.7010744214057922,0.4200000464916229,0.5614951252937317,1.1299536595288373e-07,-2.4988562472572085e-06,-0.8274800181388855,7.03822952345945e-05,-0.00025643029948696494,-8.270679973065853e-05,0.006424528080970049,-0.0018012267537415028,-0.000709469779394567,0.4908100366592407,0.7300214767456055,0.5229747295379639,1.135676383972168,0.19875681400299072,1.4837719202041626,0.44606006145477295,0.7056614756584167,0.42000001668930054,-0.6366981267929077,0.9008065462112427,-1.6322659254074097,-3.0,-0.16490472853183746,-0.1668386161327362,-0.16659826040267944,-0.167062446475029,-0.004969743546098471,0.03762916848063469,0.10430645942687988,0.15210741758346558
0.75,0.1468464434146881,0.012305635027587414,0.0,0.6564553380012512,0.0,0.0,-0.7543648481369019,0.3304140865802765,-0.17594270408153534,0.0,0.0,0.0,-0.7056689262390137,0.450772225856781,0.701074481010437,0.4200000464916229,0.5614950060844421,5.9300639065895666e-08,-2.6060399704874726e-06,-0.827480137348175,6.97370051057078e-05,-0.000257279520155862,-8.263089694082737e-05,0.006448864471167326,-0.001814984600059688,-0.0007093447493389249,0.5033718347549438,0.7339040637016296,0.5414832830429077,0.3465964198112488,0.09857141971588135,0.8846307992935181,0.44606006145477295,0.7056614756584167,0.42000001668930054,-0.6434616446495056,-1.4968087673187256,-1.5931649208068848,3.000000476837158,-0.16200658679008484,-0.16352050006389618,-0.1625940352678299,-0.1625903695821762,0.05866369977593422,0.1185661032795906,0.18359021842479706,0.23551030457019806
0.7666666666666666,0.14970342814922333,0.014589744620025158,0.0,0.6686809659004211,0.0,0.0,-0.7435494661331177,0.12766136229038239,0.15008704364299774,0.0,0.0,0.0,2.7130491733551025,0.450772225856781,0.701074481010437,0.4200000464916229,0.5614952445030212,7.526362821863586e-08,-2.6960346986015793e-06,-0.8274798393249512,6.803975702496246e-05,-0.0002566393814049661,-8.220458403229713e-05,0.006443091668188572,-0.001829015789553523,-0.000704434874933213,0.5085526704788208,0.7335678935050964,0.5546665787696838,0.38417261838912964,0.020676814019680023,0.7139763832092285,0.44606006145477295,0.7056614756584167,0.42000001668930054,-0.6398087739944458,1.6582621335983276,-1.6072635650634766,-2.999999761581421,-0.16489437222480774,-0.16476958990097046,-0.16228841245174408,-0.16095973551273346,-0.062003087252378464,9.225914254784584e-09,0.05408698320388794,0.10136337578296661
0.7833333333333333,0.14953720569610596,0.013115312904119492,0.0,0.6677175760269165,0.0,0.0,-0.7444146871566772,-0.07809562236070633,-0.09868030250072479,0.0,0.0,0.0,-0.9447210431098938,0.450772225856781,0.701074481010437,0.4200000464916229,0.5614951252937317,6.236651728386278e-08,-2.6379689188615885e-06,-0.8274800181388855,6.841203867224976e-05,-0.0002571486693341285,-8.22774600237608e-05,0.006453951355069876,-0.0018272651359438896,-0.0007061361102387309,0.5093884468078613,0.7349342107772827,0.5609824657440186,-0.31465572118759155,0.06619731336832047,0.1955806165933609,0.44606006145477295,0.7056614756584167,0.42000001668930054,-0.6383278369903564,-1.2315020561218262,-1.5682371854782104,2.999999523162842,-0.16466937959194183,-0.16376155614852905,-0.16069354116916656,-0.15882742404937744,-0.06511293351650238,-0.00295098964124918,0.041927531361579895,0.08408000320196152
0.8,0.15063223242759705,0.015465870499610901,0.0,0.677966833114624,0.0,0.0,-0.7350925207138062,0.10787612944841385,0.16724956035614014,0.0,0.0,0.0,2.2695224285125732,0.450772225856781,0.701074481010437,0.4200000464916229,0.5614951848983765,7.114765310234361e-08,-2.574409109001863e-06,-0.8274799585342407,6.955770368222147e-05,-0.00025679043028503656,-8.252356201410294e-05,0.006438659504055977,-0.0018120227614417672,-0.0007079851347953081,0.5062704682350159,0.7343661785125732,0.5640512704849243,0.02695990353822708,0.018959414213895798,0.20863139629364014,0.44606006145477295,0.7056614756584167,0.42000001668930054,-0.6311387419700623,1.823218584060669,-1.582908272743225,-2.999999761581421,-0.16764521598815918,-0.16545099020004272,-0.1613471508026123,-0.15838465094566345,-0.039169277995824814,-0.002041097730398178,0.027048176154494286,0.07098215073347092
0.8166666666666667,0.15349067747592926,0.014015940949320793,0.0,0.6749504804611206,0.0,0.0,-0.7378630042076111,0.23022815585136414,-0.12499115616083145,0.0,0.0,0.0,-1.3889917135238647,0.450772225856781,0.701074481010437,0.4200000464916229,0.5614950656890869,4.7811990810942007e-08,-2.803700908771134e-06,-0.8274800777435303,7.127526623662561e-05,-0.00025756278773769736,-8.294289000332355e-05,0.006448371335864067,-0.0017976488452404737,-0.0007133692852221429,0.5061118602752686,0.7364736795425415,0.5654489398002625,-0.10031440854072571,0.08271505683660507,0.09766676276922226,0.44606006145477295,0.7056614756584167,0.42000001668930054,-0.6415268182754517,-2.6694438457489014,-1.5439530611038208,3.000000238418579,-0.16630522906780243,-0.16400422155857086,-0.15990667045116425,-0.15662696957588196,0.004996734205633402,0.02291574887931347,0.031920772045850754,0.05985778942704201
0.8333333333333334,0.1592310667037964,0.015682654455304146,0.0,0.6830092072486877,0.0,0.0,-0.7304097414016724,0.37336352467536926,0.12321345508098602,0.0,0.0,0.0,2.1080939769744873,0.450772225856781,0.701074481010437,0.4200000464916229,0.5614952445030212,2.0664876387854747e-07,-2.7744786166294944e-06,-0.8274798393249512,6.608168041566387e-05,-0.0002602629829198122,-8.179573342204094e-05,0.006546178366988897,-0.0018700039945542812,-0.0007071192958392203,0.5081324577331543,0.7359535098075867,0.5681220293045044,0.38996708393096924,-0.015215013176202774,0.2659405469894409,0.44606006145477295,0.7056614756584167,0.42000001668930054,-0.6541782021522522,0.8557267785072327,-1.559173345565796,-3.000000476837158,-0.1678995043039322,-0.16500383615493774,-0.16040422022342682,-0.15624865889549255,-0.004637991543859243,0.01031285710632801,0.025313787162303925,0.06888971477746964
0.85,0.16233396530151367,0.0135525893419981,0.0,0.6797693967819214,0.0,0.0,-0.7334259152412415,0.12412421405315399,-0.1754293441772461,0.0,0.0,0.0,-1.3714655637741089,0.450772225856781,0.701074481010437,0.4200000464916229,0.5614950060844421,1.0642046532893801e-07,-2.6624550173437456e-06,-0.8274800777435303,6.739086529705673e-05,-0.0002574973041191697,-8.209771476686001e-05,0.006468487437814474,-0.0018416665261611342,-0.0007044671219773591,0.513862669467926,0.7355983853340149,0.5706617832183838,0.24942061305046082,-0.10381639748811722,0.17161472141742706,0.44606006145477295,0.7056614756584167,0.42000001668930054,-0.6708065271377563,-2.5426316261291504,-1.5202827453613281,3.0,-0.16715368628501892,-0.16411851346492767,-0.1593940109014511,-0.15465739369392395,-0.029362637549638748,-0.0029144699219614267,0.01951856166124344,0.06523850560188293
0.8666666666666667,0.16658788919448853,0.015312851406633854,0.0,0.6878055334091187,0.0,0.0,-0.7258950471878052,0.2911737859249115,0.09586569666862488,0.0,0.0,0.0,2.0841622352600098,0.450772225856781,0.701074481010437,0.4200000464916229,0.5614950060844421,6.106670724648211e-08,-2.598504352135933e-06,-0.8274800181388855,6.901075539644808e-05,-0.00025698012905195355,-8.239364251494408e-05,0.00644653057679534,-0.0018190561095252633,-0.000707110099028796,0.5186183452606201,0.7325927019119263,0.5753073692321777,0.42983025312423706,-0.09715239703655243,0.41072607040405273,0.44606006145477295,0.7056614756584167,0.42000001668930054,-0.6806712746620178,1.0551784038543701,-1.5360243320465088,-3.000000238418579,-0.17013420164585114,-0.1662968397140503,-0.16084884107112885,-0.15504232048988342,-0.02980218455195427,-0.020727312192320824,-0.011520253494381905,0.022383779287338257
0.8833333333333333,0.16851003468036652,0.01282656192779541,0.0,0.6845946311950684,0.0,0.0,-0.728924036026001,0.05800621211528778,-0.1736142784357071,0.0,0.0,0.0,-1.4375464916229248,0.450772225856781,0.701074481010437,0.4200000464916229,0.561495304107666,7.716708694260888e-08,-2.6884097223955905e-06,-0.8274798393249512,6.803691940149292e-05,-0.0002566368202678859,-8.220132440328598e-05,0.006443037651479244,-0.0018290053121745586,-0.00070443149888888,0.524443507194519,0.7322461605072021,0.5796403884887695,0.2093925178050995,-0.043568532913923264,0.2378273755311966,0.44606006145477295,0.7056614756584167,0.42000001668930054,-0.681681752204895,-0.9978457093238831,-1.497199296951294,3.000000476837158,-0.1692356914281845,-0.1655203104019165,-0.1602061241865158,-0.15415938198566437,-0.030106564983725548,-0.020876355469226837,-0.01582348719239235,0.006130653899163008
