vladlanda/robotic-transformer/data/env_000_episode_0242.csv
sim_time_s,robot_box_x,robot_box_y,robot_box_z,robot_box_quat_w,robot_box_quat_x,robot_box_quat_y,robot_box_quat_z,robot_box_linvel_x,robot_box_linvel_y,robot_box_linvel_z,robot_box_angvel_x,robot_box_angvel_y,robot_box_angvel_z,cube_world_x,cube_world_y,cube_world_z,cube_quat_w,cube_quat_x,cube_quat_y,cube_quat_z,cube_linvel_x,cube_linvel_y,cube_linvel_z,cube_angvel_x,cube_angvel_y,cube_angvel_z,endpoint_world_x,endpoint_world_y,endpoint_world_z,endpoint_linvel_x,endpoint_linvel_y,endpoint_linvel_z,target_cube_world_x,target_cube_world_y,target_cube_world_z,gripper_actual_pos_rad_gp_leftgearjoint,gripper_actual_vel_rad_s_gp_leftgearjoint,gripper_actual_pos_rad_gp_rotatingjoint,gripper_actual_vel_rad_s_gp_rotatingjoint,motor_angle_rad_joint1,motor_angle_rad_joint2,motor_angle_rad_joint3,motor_angle_rad_joint4,motor_speed_rad_s_joint1,motor_speed_rad_s_joint2,motor_speed_rad_s_joint3,motor_speed_rad_s_joint4
0.0,0.0,0.0,0.0,1.0,0.0,0.0,0.0,0.0,0.0,0.0,0.0,0.0,0.0,-0.3326936960220337,0.6883028149604797,0.41999998688697815,1.0,0.0,0.0,0.0,0.0,0.0,0.0,0.0,0.0,0.0,3.42540442943573e-06,-0.005000244826078415,1.313499927520752,0.0,0.0,0.0,0.3521798551082611,0.6818827390670776,0.42000001668930054,-1.5707999467849731,0.0,0.0,0.0,0.0,0.0,0.0,0.0,0.0,0.0,0.0,0.0
0.016666666666666666,0.002891241805627942,0.0021184650249779224,0.0,0.9998714327812195,0.0,0.0,-0.016035377979278564,0.23973338305950165,0.17927713692188263,0.0,0.0,0.0,-3.1457324028015137,-0.33269381523132324,0.6883025169372559,0.41999998688697815,1.0,3.2799905511637917e-06,-8.339794135281409e-07,8.465515577427141e-08,-1.9833774786093272e-05,0.00017983047291636467,-6.132945418357849e-05,0.0009432245860807598,-0.004689525347203016,-0.00031981084612198174,-0.006994983181357384,0.004054919816553593,1.315934181213379,-0.7953435182571411,1.0435070991516113,0.17938362061977386,0.3521798551082611,0.6818827390670776,0.42000001668930054,-1.5301095247268677,3.0000014305114746,-0.04586581140756607,-3.0000014305114746,0.0008732937276363373,0.0007992241298779845,0.0007130455342121422,0.0006135653238743544,0.11052899062633514,0.0970952957868576,0.08279848098754883,0.06758075207471848
0.03333333333333333,0.008901632390916348,0.0066783069632947445,0.0,0.9998602271080017,0.0,0.0,-0.016719987615942955,0.40307143330574036,0.3130655884742737,0.0,0.0,0.0,0.8607909679412842,-0.3326939344406128,0.6883024573326111,0.4200000464916229,1.0,3.3908531804627273e-06,-2.132488134520827e-06,-3.710428941872124e-08,0.0002635785494931042,0.0002693783608265221,-0.00010509602725505829,-0.0017707846127450466,0.004130862653255463,-0.00013547409616876394,-0.026537852361798286,0.025201935321092606,1.316847562789917,-1.48028564453125,1.53110933303833,-0.04835561662912369,0.3521798551082611,0.6818827390670776,0.42000001668930054,-1.4800904989242554,3.000000476837158,-0.09590558707714081,-3.0000011920928955,0.0029327315278351307,0.002589020412415266,0.0022075443994253874,0.0017857772763818502,0.15908555686473846,0.13443100452423096,0.10828724503517151,0.08053598552942276
0.05,0.017567170783877373,0.013463042676448822,0.0,0.9994937181472778,0.0,0.0,-0.031816139817237854,0.582470715045929,0.4497464597225189,0.0,0.0,0.0,-2.6424622535705566,-0.3326939642429352,0.6883025169372559,0.4200000464916229,1.0,3.7651284401363228e-06,-2.2118861124909017e-06,5.622759147172474e-09,0.00026530996547080576,0.00026691515813581645,-0.00010440382175147533,-0.00172425655182451,0.004177390597760677,-0.00012948956282343715,-0.05251515656709671,0.05647275969386101,1.3130073547363281,-1.6200791597366333,2.1741585731506348,-0.38242602348327637,0.3521798551082611,0.6818827390670776,0.42000001668930054,-1.4300721883773804,2.999999523162842,-0.14591187238693237,-2.999999761581421,0.0052071730606257915,0.0042747147381305695,0.0032703105825930834,0.002189461374655366,0.14458496868610382,0.09461646527051926,0.042776454240083694,-0.011028703302145004
0.06666666666666667,0.029766464605927467,0.022722924128174782,0.0,0.9973179697990417,0.0,0.0,-0.07319019734859467,0.7919368147850037,0.6005609631538391,0.0,0.0,0.0,-5.865550994873047,-0.3326939642429352,0.6883024573326111,0.4200000464916229,0.9999999403953552,3.406779342185473e-06,-2.285526988998754e-06,4.300881926155853e-07,0.00026702668401412666,0.00026791810523718596,-0.00010437914170324802,-0.0017406379338353872,0.004211799707263708,-0.00012850595521740615,-0.08110886812210083,0.09624415636062622,1.3039629459381104,-1.7845144271850586,2.562488555908203,-0.6979086995124817,0.3521798551082611,0.6818827390670776,0.42000001668930054,-1.3800493478775024,2.999999523162842,-0.11240461468696594,2.999999761581421,0.007254688069224358,0.005448640789836645,0.0035315407440066338,0.0014981694985181093,0.11988813430070877,0.06144975498318672,-2.4563632905483246e-08,-0.061673808842897415
0.08333333333333333,0.03617683798074722,0.03652803227305412,0.0,0.9952412247657776,0.0,0.0,-0.09744158387184143,0.24719740450382233,0.9289324283599854,0.0,0.0,0.0,-1.9092446565628052,-0.3326939642429352,0.6883024573326111,0.4200000464916229,0.9999999403953552,3.6260987599234795e-06,-2.3352677089860663e-06,3.032194797469856e-07,0.00026614003581926227,0.0002668494707904756,-0.00010405294597148895,-0.001728319562971592,0.004196429159492254,-0.00012790538312401623,-0.11386141180992126,0.13561201095581055,1.2892446517944336,-1.9482178688049316,2.421924114227295,-0.9761747121810913,0.3521798551082611,0.6818827390670776,0.42000001668930054,-1.3300492763519287,3.000001907348633,-0.14439226686954498,-3.000002145767212,0.00317792478017509,0.0007617020164616406,-0.001830704277381301,-0.004569273442029953,-0.3537564277648926,-0.3945150673389435,-0.4385523200035095,-0.48421889543533325
0.1,0.0471884086728096,0.046352319419384,0.0,0.9909685254096985,0.0,0.0,-0.13409481942653656,0.6935676336288452,0.5851269960403442,0.0,0.0,0.0,-4.974836826324463,-0.3326939642429352,0.6883024573326111,0.4200000464916229,1.0,3.422146846787655e-06,-2.30855562222132e-06,1.7962889842237928e-07,0.0002668158267624676,0.00026800387422554195,-0.00010440708138048649,-0.001743036205880344,0.00420708442106843,-0.00012890443031210452,-0.1426154375076294,0.1798429936170578,1.2732622623443604,-1.5604689121246338,3.0150632858276367,-1.0099351406097412,0.3521798551082611,0.6818827390670776,0.42000001668930054,-1.280038595199585,2.999999761581421,-0.19439655542373657,-3.0000007152557373,0.003012641565874219,-0.0010269245831295848,-0.005245536100119352,-0.009587517939507961,-0.15086017549037933,-0.24162089824676514,-0.33315715193748474,-0.4242277443408966
0.11666666666666667,0.05599992722272873,0.05528703331947327,0.0,0.9877031445503235,0.0,0.0,-0.15634101629257202,0.49035632610321045,0.48575103282928467,0.0,0.0,0.0,-1.626159906387329,-0.3326939642429352,0.6883025169372559,0.4200000464916229,1.0,3.7115689792699413e-06,-2.332697931706207e-06,2.574186908077536e-07,0.0002648586523719132,0.0002663538616616279,-0.00010423408821225166,-0.001718218787573278,0.004170075990259647,-0.00012914866965729743,-0.17396268248558044,0.2296208292245865,1.2525259256362915,-2.005185127258301,3.109851837158203,-1.4349738359451294,0.3521798551082611,0.6818827390670776,0.42000001668930054,-1.230263352394104,2.9434268474578857,-0.1606058031320572,3.000000238418579,0.0002727815299294889,-0.005272609647363424,-0.010982218198478222,-0.01678544469177723,-0.14117680490016937,-0.23081599175930023,-0.31839773058891296,-0.4033195972442627
0.13333333333333333,0.06207796931266785,0.060880571603775024,0.0,0.9818233251571655,0.0,0.0,-0.18979716300964355,0.31305769085884094,0.27575162053108215,0.0,0.0,0.0,-4.91757345199585,-0.3326939642429352,0.6883024573326111,0.4200000464916229,0.9999999403953552,3.4248023439431563e-06,-2.3019676973490277e-06,1.55990974803899e-07,0.00026707074721343815,0.00026811487623490393,-0.0001044438686221838,-0.0017434153705835342,0.004212110303342342,-0.0001287730992771685,-0.20342892408370972,0.28575271368026733,1.2263247966766357,-1.5468288660049438,3.6153769493103027,-1.7114808559417725,0.3521798551082611,0.6818827390670776,0.42000001668930054,-1.1802724599838257,3.0000038146972656,-0.19233857095241547,-3.000000476837158,-0.002541259629651904,-0.009724668227136135,-0.017018599435687065,-0.024346917867660522,-0.22465452551841736,-0.32082197070121765,-0.4134446084499359,-0.5024394989013672
0.15,0.07016012072563171,0.06741955876350403,0.0,0.9682613015174866,0.0,0.0,-0.24994023144245148,0.5150330066680908,0.4468470811843872,0.0,0.0,0.0,-8.229589462280273,-0.3326939642429352,0.6883024573326111,0.4200000464916229,1.0,3.7139620872039814e-06,-2.2077986159274587e-06,-1.6908892064293468e-07,0.0002635350974742323,0.0002653622650541365,-0.00010421848855912685,-0.0017012546304613352,0.004144175443798304,-0.00012960522144567221,-0.23033416271209717,0.3498101234436035,1.190743327140808,-1.5274076461791992,4.058987617492676,-2.52816104888916,0.3521798551082611,0.6818827390670776,0.42000001668930054,-1.1400749683380127,1.8843460083007812,-0.1585903912782669,2.999999761581421,-0.00773213617503643,-0.016126830130815506,-0.024580104276537895,-0.033019594848155975,-0.45843544602394104,-0.49910470843315125,-0.5377157926559448,-0.5747795701026917
0.16666666666666666,0.07554909586906433,0.07702628523111343,0.0,0.9577140808105469,0.0,0.0,-0.2877216339111328,0.25429636240005493,0.6362964510917664,0.0,0.0,0.0,-3.5171217918395996,-0.3326939642429352,0.6883024573326111,0.4200000464916229,0.9999999403953552,3.63843651030038e-06,-2.278771944475011e-06,2.7007371272702585e-07,0.0002668274973984808,0.0002675004070624709,-0.00010410207323729992,-0.0017399153439328074,0.004210097715258598,-0.00012781354598701,-0.26148658990859985,0.4146348834037781,1.1423481702804565,-1.6440317630767822,4.097987651824951,-3.27413272857666,0.3521798551082611,0.6818827390670776,0.42000001668930054,-1.092167854309082,3.0000009536743164,-0.19029361009597778,-3.000002145767212,-0.01713545434176922,-0.025947686284780502,-0.034771449863910675,-0.04354698956012726,-0.6176230311393738,-0.6307716965675354,-0.640997052192688,-0.6492101550102234
0.18333333333333332,0.07926319539546967,0.08379612118005753,0.0,0.9420290589332581,0.0,0.0,-0.33553123474121094,0.14739282429218292,0.3390699326992035,0.0,0.0,0.0,-6.925784587860107,-0.3326939642429352,0.6883024573326111,0.4200000464916229,1.0,3.3865092063933844e-06,-2.3002239686320536e-06,1.4393610570095916e-07,0.00026674469700083137,0.0002678720047697425,-0.00010436843149363995,-0.0017412101151421666,0.004205914679914713,-0.0001287828345084563,-0.2866266369819641,0.4848768711090088,1.080046534538269,-1.1699000597000122,4.371260643005371,-4.171356201171875,0.3521798551082611,0.6818827390670776,0.42000001668930054,-1.0421619415283203,3.0000009536743164,-0.24032098054885864,-3.0000007152557373,-0.026917656883597374,-0.03587077930569649,-0.044781237840652466,-0.05360756069421768,-0.6408161520957947,-0.6338499188423157,-0.6241723895072937,-0.6130048632621765
0.2,0.08455462008714676,0.09236957132816315,0.0,0.9305280447006226,0.0,0.0,-0.3662205934524536,0.30116280913352966,0.5219631195068359,0.0,0.0,0.0,-2.822010040283203,-0.3326939642429352,0.6883025169372559,0.4200000464916229,1.0,3.675592324725585e-06,-2.326503590666107e-06,2.2113523812095082e-07,0.00026484555564820766,0.0002663125633262098,-0.00010421546176075935,-0.0017177078407257795,0.004169898107647896,-0.00012909245560877025,-0.3077935576438904,0.5508710741996765,1.0025442838668823,-1.0107512474060059,3.8194851875305176,-5.036980152130127,0.3521798551082611,0.6818827390670776,0.42000001668930054,-0.9921554327011108,3.0000007152557373,-0.2903478741645813,-3.0000011920928955,-0.04046902805566788,-0.048675257712602615,-0.056714124977588654,-0.06470086425542831,-0.9116180539131165,-0.8608762621879578,-0.7881021499633789,-0.7184678316116333
0.21666666666666667,0.08662041276693344,0.10130993276834488,0.0,0.9306246638298035,0.0,0.0,-0.3659749925136566,0.0620427280664444,0.5813790559768677,0.0,0.0,0.0,1.055152416229248,-0.3326939642429352,0.6883024573326111,0.4200000464916229,1.0,3.322369366287603e-06,-2.2079589143686462e-06,2.742768288044317e-07,0.00026662732125259936,0.0002674952265806496,-0.00010426435619592667,-0.0017357958713546395,0.004204710014164448,-0.0001283393648918718,-0.32985860109329224,0.6034669876098633,0.9147164821624756,-1.2292098999023438,2.7412285804748535,-5.484279155731201,0.3521798551082611,0.6818827390670776,0.42000001668930054,-0.942145586013794,2.9999983310699463,-0.3403773605823517,-3.000002861022949,-0.05519372969865799,-0.0635412186384201,-0.07120947539806366,-0.07777854055166245,-0.9124475717544556,-0.9080814123153687,-0.8798525333404541,-0.7959073781967163
0.23333333333333334,0.08748133480548859,0.10746590793132782,0.0,0.925489068031311,0.0,0.0,-0.37877437472343445,-0.015788137912750244,0.33028319478034973,0.0,0.0,0.0,-2.538097381591797,-0.3326939642429352,0.6883024573326111,0.4200000464916229,1.0,3.6565743357641622e-06,-2.3733584839646937e-06,-4.0767665154817223e-07,0.00026611756766214967,0.0002672596601769328,-0.00010423432104289532,-0.0017335788579657674,0.004194698762148619,-0.00012854607484769076,-0.3460221588611603,0.6469773054122925,0.817143440246582,-0.7400950193405151,2.2195703983306885,-6.0897016525268555,0.3521798551082611,0.6818827390670776,0.42000001668930054,-0.8921349048614502,3.0000011920928955,-0.39040854573249817,-3.000000238418579,-0.0710504949092865,-0.07937868684530258,-0.08693701028823853,-0.09274309873580933,-0.9913298487663269,-0.9922015070915222,-0.9929414391517639,-0.9935970902442932
0.25,0.08526930212974548,0.11048394441604614,0.0,0.9264512062072754,0.0,0.0,-0.3764148950576782,-0.19480690360069275,0.0857333317399025,0.0,0.0,0.0,1.1283138990402222,-0.3326939642429352,0.6883025169372559,0.4200000464916229,1.0,3.6305725643615006e-06,-2.2425567749451147e-06,1.1221782614256881e-08,0.0002667990338522941,0.0002670611720532179,-0.00010390859097242355,-0.0017342250794172287,0.004210473503917456,-0.00012702550156973302,-0.35945186018943787,0.6740696430206299,0.7146855592727661,-0.7362987399101257,1.0434176921844482,-6.163416862487793,0.3521798551082611,0.6818827390670776,0.42000001668930054,-0.8421244621276855,2.999986410140991,-0.44044020771980286,-2.9999990463256836,-0.08750950545072556,-0.09576649963855743,-0.10326987504959106,-0.10906592011451721,-0.9893484711647034,-0.9911527037620544,-0.9927588105201721,-0.9941861629486084
0.26666666666666666,0.0853789895772934,0.10939239710569382,0.0,0.922770619392395,0.0,0.0,-0.38534972071647644,0.09120672941207886,-0.12935519218444824,0.0,0.0,0.0,-1.9123479127883911,-0.3326939344406128,0.6883024573326111,0.4200000464916229,0.9999999403953552,3.740199190360727e-06,-2.2362416984833544e-06,4.4997000259172637e-07,0.0002647960209287703,0.0002667310182005167,-0.00010454165749251842,-0.0017190045909956098,0.004166723228991032,-0.00013016752200201154,-0.3667842149734497,0.6858845949172974,0.6075170040130615,-0.13847985863685608,0.22960703074932098,-6.441732406616211,0.3521798551082611,0.6818827390670776,0.42000001668930054,-0.7921156287193298,2.999994993209839,-0.49047112464904785,-2.999999761581421,-0.10468879342079163,-0.11279992759227753,-0.12019357085227966,-0.1259044110774994,-1.0000360012054443,-1.0000213384628296,-1.0000113248825073,-1.0000057220458984
0.2833333333333333,0.08293302357196808,0.1077093854546547,0.0,0.9256298542022705,0.0,0.0,-0.37843018770217896,-0.21118570864200592,-0.15041926503181458,0.0,0.0,0.0,1.7911962270736694,-0.3326939642429352,0.6883024573326111,0.4200000464916229,1.0,3.3916567190317437e-06,-2.2910930965736043e-06,1.2460451159768127e-07,0.0002667719090823084,0.00026789281400851905,-0.00010437355376780033,-0.0017412637826055288,0.004206368234008551,-0.0001287830382352695,-0.3654018044471741,0.6877810955047607,0.5110246539115906,0.37367790937423706,0.042882196605205536,-5.19638729095459,0.3521798551082611,0.6818827390670776,0.42000001668930054,-0.7421068549156189,3.000000238418579,-0.5405004024505615,-3.000000238418579,-0.12293539941310883,-0.13070406019687653,-0.1378394365310669,-0.14334678649902344,-1.0199071168899536,-1.0150123834609985,-1.0112688541412354,-1.0082828998565674
0.3,0.07791922986507416,0.10361601412296295,0.0,0.9224140644073486,0.0,0.0,-0.3862024247646332,-0.30485132336616516,-0.30184370279312134,0.0,0.0,0.0,-1.905765175819397,-0.3326939642429352,0.6883025169372559,0.4200000464916229,1.0,3.68071960110683e-06,-2.3190264073491562e-06,2.0110041987209115e-07,0.00026479086955077946,0.00026625796454027295,-0.00010421173647046089,-0.0017167659243568778,0.004168913699686527,-0.0001290974614676088,-0.35288721323013306,0.6888682246208191,0.42508983612060547,1.0999996662139893,0.08147451281547546,-5.065524101257324,0.3521798551082611,0.6818827390670776,0.42000001668930054,-0.6920995712280273,3.0000009536743164,-0.590528130531311,-3.000000238418579,-0.1400645673274994,-0.14772047102451324,-0.15477688610553741,-0.16022595763206482,-1.0069522857666016,-1.0052640438079834,-1.0039681196212769,-1.0029274225234985
0.31666666666666665,0.07135996967554092,0.09713292121887207,0.0,0.9254505634307861,0.0,0.0,-0.37886843085289,-0.4356285333633423,-0.4267231523990631,0.0,0.0,0.0,1.8553823232650757,-0.3330381512641907,0.684934675693512,0.4200108051300049,0.998375415802002,1.2812340628443053e-06,-0.00039011245826259255,-0.05697701871395111,0.01638956181704998,-0.13443709909915924,-0.0004328545182943344,-0.023510554805397987,0.005533871706575155,-4.655097484588623,-0.3536577820777893,0.6909998059272766,0.42669397592544556,-0.02106870897114277,0.07487362623214722,-0.20298683643341064,0.3521798551082611,0.6818827390670776,0.42000001668930054,-0.6421539187431335,2.999985933303833,-0.6409776210784912,-3.0000011920928955,-0.147453173995018,-0.15448997914791107,-0.1606334149837494,-0.16485659778118134,-0.47714027762413025,-0.415691077709198,-0.3415103256702423,-0.2564413249492645
0.3333333333333333,0.06245850771665573,0.08844857662916183,0.0,0.9224469661712646,0.0,0.0,-0.3861238658428192,-0.5789130926132202,-0.5615856051445007,0.0,0.0,0.0,-1.8703011274337769,-0.3327023386955261,0.6835220456123352,0.42000001668930054,0.9971906542778015,-5.9180180755902256e-08,-6.510042567242635e-07,-0.07490452378988266,0.019393714144825935,-0.06589561700820923,-8.79575964063406e-06,0.0003983076603617519,-1.7397687770426273e-06,-1.5892455577850342,-0.3515689969062805,0.6913042068481445,0.42363691329956055,0.27585551142692566,0.06769172102212906,-0.16726674139499664,0.3521798551082611,0.6818827390670776,0.42000001668930054,-0.5921486020088196,2.99998140335083,-0.6910416483879089,-2.99996280670166,-0.1562349498271942,-0.1618451625108719,-0.16632485389709473,-0.16872413456439972,-0.5428183674812317,-0.43634092807769775,-0.3164737820625305,-0.19002945721149445
0.35,0.05127876624464989,0.07758534699678421,0.0,0.9255645275115967,0.0,0.0,-0.3785898983478546,-0.7117760181427002,-0.6896950602531433,0.0,0.0,0.0,1.9017021656036377,-0.3294956088066101,0.6859723925590515,0.420000284910202,0.9939479827880859,-6.941593710507732e-06,2.273877953484771e-06,-0.10985186696052551,0.32333070039749146,0.26961851119995117,-0.0003778419631998986,0.02096281386911869,-0.006596792489290237,-6.570241451263428,-0.345197856426239,0.6939411163330078,0.42098742723464966,0.5020473003387451,0.24355611205101013,-0.12854254245758057,0.3521798551082611,0.6818827390670776,0.42000001668930054,-0.542143702507019,2.9999797344207764,-0.741081953048706,-2.9999988079071045,-0.16593807935714722,-0.1692642718553543,-0.171224445104599,-0.17102034389972687,-0.5542992949485779,-0.40398862957954407,-0.23954704403877258,-0.07140671461820602
0.36666666666666664,0.043405793607234955,0.0641017034649849,0.0,0.9227098822593689,0.0,0.0,-0.3854950964450836,-0.38816922903060913,-0.8556196093559265,0.0,0.0,0.0,-1.819455623626709,-0.32407864928245544,0.690434455871582,0.4200045168399811,0.9864836931228638,-0.0001695162063697353,7.78943722252734e-05,-0.16385944187641144,0.3940013647079468,0.2871145009994507,-0.004637245554476976,0.21911272406578064,-0.05651533603668213,-11.403657913208008,-0.33565500378608704,0.6967860460281372,0.4206736981868744,0.6884567737579346,0.2030019909143448,0.09615115821361542,0.3521798551082611,0.6818827390670776,0.42000001668930054,-0.4921204447746277,2.999967575073242,-0.7911090850830078,-2.9999067783355713,-0.17473097145557404,-0.17525403201580048,-0.17412279546260834,-0.17073875665664673,-0.4764212965965271,-0.2977139949798584,-0.10131387412548065,0.09991326183080673
0.3833333333333333,0.03320639207959175,0.04908749461174011,0.0,0.9074958562850952,0.0,0.0,-0.42006105184555054,-0.6928411722183228,-0.9258807301521301,0.0,0.0,0.0,-5.476037502288818,-0.31182602047920227,0.6996884346008301,0.42082175612449646,0.9633288383483887,-0.020157815888524055,0.004207830876111984,-0.2675323486328125,1.1719588041305542,0.8940714001655579,0.13470683991909027,-6.066917419433594,2.9808871746063232,-6.998732566833496,-0.31920886039733887,0.7053071856498718,0.4225280284881592,1.2644939422607422,0.8050189018249512,0.13211590051651,0.3521798551082611,0.6818827390670776,0.42000001668930054,-0.4420755207538605,2.9998703002929688,-0.8411179184913635,-2.9999728202819824,-0.18421156704425812,-0.1815001666545868,-0.17683272063732147,-0.16984020173549652,-0.5117717385292053,-0.3285781145095825,-0.12711478769779205,0.07892097532749176
0.4,0.02606823854148388,0.031130697578191757,0.0,0.8778409957885742,0.0,0.0,-0.47895219922065735,-0.3844418227672577,-1.1237479448318481,0.0,0.0,0.0,-8.694666862487793,-0.2768081724643707,0.7191637754440308,0.4245242774486542,0.9473912119865417,-0.026812821626663208,-0.02673627808690071,-0.3178303837776184,2.991447925567627,1.5004769563674927,0.3090018033981323,29.529224395751953,-18.320167541503906,2.5512478351593018,-0.28394725918769836,0.7257130146026611,0.42536497116088867,3.008653163909912,1.5965967178344727,0.40167176723480225,0.3521798551082611,0.6818827390670776,0.42000001668930054,-0.3957172632217407,2.0237879753112793,-0.8911407589912415,-2.9999022483825684,-0.19269035756587982,-0.18664580583572388,-0.17837335169315338,-0.1677444726228714,-0.5774369835853577,-0.34617963433265686,-0.10289787501096725,0.1371498703956604
0.4166666666666667,0.021123070269823074,0.018277831375598907,0.0,0.8310848474502563,0.0,0.0,-0.5561456084251404,-0.24915240705013275,-0.6473381519317627,0.0,0.0,0.0,-11.613335609436035,-0.2003326117992401,0.7483367919921875,0.4297740161418915,0.92378169298172,0.033746592700481415,-0.07426230609416962,-0.37413039803504944,6.098164081573486,1.529634952545166,0.42379871010780334,3.1969234943389893,-7.714662075042725,18.78360366821289,-0.20692646503448486,0.755504310131073,0.4305511713027954,5.868325233459473,2.1206467151641846,0.3881685137748718,0.3521798551082611,0.6818827390670776,0.42000001668930054,-0.3756554424762726,0.8380857110023499,-0.8540841937065125,2.999999523162842,-0.20811493694782257,-0.1984463632106781,-0.1847420632839203,-0.1691133826971054,-0.8833215236663818,-0.7875578999519348,-0.4697662889957428,-0.1884423941373825
0.43333333333333335,0.019565023481845856,0.008469371125102043,0.0,0.7932907938957214,0.0,0.0,-0.6088429093360901,-0.03194952383637428,-0.541886568069458,0.0,0.0,0.0,-6.656706809997559,-0.10627181828022003,0.778190016746521,0.43892985582351685,0.8839873671531677,0.058313965797424316,-0.10831557959318161,-0.4510360658168793,5.806849002838135,1.45694899559021,0.8086379170417786,31.866455078125,-7.426739692687988,10.013239860534668,-0.1121576577425003,0.788320779800415,0.439902663230896,5.6761369705200195,1.598031759262085,0.6290428042411804,0.3521798551082611,0.6818827390670776,0.42000001668930054,-0.36332523822784424,0.7842879891395569,-0.880603015422821,-3.000001907348633,-0.21868081390857697,-0.20885039865970612,-0.19141516089439392,-0.17263177037239075,-0.5222635865211487,-0.5220506191253662,-0.35758572816848755,-0.22853347659111023
0.45,0.01616722345352173,0.003427829360589385,0.0,0.7763086557388306,0.0,0.0,-0.6303530335426331,-0.19385026395320892,-0.26158422231674194,0.0,0.0,0.0,-1.9785560369491577,-0.015232205390930176,0.7947405576705933,0.4489462375640869,0.8412723541259766,0.05892333388328552,-0.10336840897798538,-0.5273553729057312,5.48980188369751,-0.21715040504932404,0.6268823742866516,5.786006450653076,-10.88062572479248,20.724275588989258,-0.01874227449297905,0.8053903579711914,0.4500170648097992,5.561112403869629,0.5435276031494141,0.6657415628433228,0.3521798551082611,0.6818827390670776,0.42000001668930054,-0.3491942286491394,0.8304094076156616,-0.9306270480155945,-3.0000016689300537,-0.23009076714515686,-0.21904103457927704,-0.19842150807380676,-0.1770903766155243,-0.5942190885543823,-0.517642080783844,-0.35873425006866455,-0.23347416520118713
0.4666666666666667,0.017303701490163803,-0.0076976073905825615,0.0,0.7506570219993591,0.0,0.0,-0.6606920957565308,0.1673031449317932,-0.8164513111114502,0.0,0.0,0.0,-5.8046112060546875,0.07350219041109085,0.7957860231399536,0.45545661449432373,0.7893657088279724,0.0537554994225502,-0.09800001978874207,-0.6036621332168579,5.075057029724121,-1.2655521631240845,0.5299263000488281,11.180829048156738,-6.804165840148926,34.515037536621094,0.07115970551967621,0.8072420358657837,0.45685112476348877,5.3561859130859375,-0.36292946338653564,0.35339945554733276,0.3521798551082611,0.6818827390670776,0.42000001668930054,-0.3366749584674835,0.621106743812561,-0.9806510806083679,-3.0000009536743164,-0.23332667350769043,-0.2214757800102234,-0.1990925371646881,-0.17633962631225586,-0.06948558986186981,2.5960616767406464e-07,0.10022927820682526,0.18561242520809174
0.48333333333333334,0.01466253399848938,-0.015511790290474892,0.0,0.7353543639183044,0.0,0.0,-0.6776827573776245,-0.17799857258796692,-0.38654667139053345,0.0,0.0,0.0,-1.5291086435317993,0.1523759812116623,0.7850950360298157,0.4613010287284851,0.7524561285972595,0.03991110250353813,-0.08224467188119888,-0.652267336845398,4.250271797180176,-1.6109110116958618,0.5620378851890564,6.928306579589844,-4.1735944747924805,26.189847946166992,0.15151983499526978,0.7959082722663879,0.46342241764068604,4.573657035827637,-0.9067015051841736,0.40061521530151367,0.3521798551082611,0.6818827390670776,0.42000001668930054,-0.32662683725357056,0.5556350946426392,-1.0306739807128906,-3.0000014305114746,-0.23776614665985107,-0.2241193950176239,-0.20006674528121948,-0.17605461180210114,-0.18109966814517975,-0.1068519875407219,-0.06372274458408356,-0.04319965839385986
0.5,0.014703202992677689,-0.019649941474199295,0.0,0.7144017815589905,0.0,0.0,-0.699735701084137,0.056858085095882416,-0.15988652408123016,0.0,0.0,0.0,-4.454661846160889,0.21994726359844208,0.7691147327423096,0.4612506628036499,0.7142927050590515,0.02117963507771492,-0.07844151556491852,-0.6951144337654114,3.407754898071289,-1.745944857597351,0.0677589550614357,5.853857040405273,-4.7545952796936035,25.10824966430664,0.21942457556724548,0.7799939513206482,0.46473783254623413,3.7534308433532715,-1.1503479480743408,-0.1387600302696228,0.3521798551082611,0.6818827390670776,0.42000001668930054,-0.31734493374824524,0.5225619077682495,-1.0806961059570312,-3.0000011920928955,-0.23775967955589294,-0.22394677996635437,-0.20039835572242737,-0.1770537793636322,0.0343044176697731,0.03522120416164398,-0.0202979426831007,-0.08364198356866837
0.5166666666666666,0.017399800941348076,-0.01983168162405491,0.0,0.7075263857841492,0.0,0.0,-0.7066869139671326,0.19618865847587585,0.04495931416749954,0.0,0.0,0.0,-0.17318086326122284,0.27254119515419006,0.7495158910751343,0.45573192834854126,0.6920986771583557,-6.2177582549338695e-06,-0.05808757618069649,-0.7194617390632629,2.416924238204956,-1.8808361291885376,-0.2759838104248047,5.412524700164795,-0.7775824069976807,23.439409255981445,0.27284425497055054,0.7592947483062744,0.45975565910339355,2.8070459365844727,-1.3338522911071777,-0.4462021589279175,0.3521798551082611,0.6818827390670776,0.42000001668930054,-0.3073504865169525,0.6075096726417542,-1.1307182312011719,-3.0000007152557373,-0.2360045164823532,-0.2225629985332489,-0.20049409568309784,-0.1787041276693344,0.16860345005989075,0.1307559758424759,0.016055699437856674,-0.10282859951257706
0.5333333333333333,0.02043268457055092,-0.02295205369591713,0.0,0.6920897960662842,0.0,0.0,-0.7218114137649536,0.17338526248931885,-0.23809418082237244,0.0,0.0,0.0,-3.389690399169922,0.31199443340301514,0.7296018600463867,0.44262227416038513,0.670657217502594,-0.0298997163772583,-0.04444056749343872,-0.7398310303688049,1.6337409019470215,-1.7590211629867554,-0.7382283210754395,5.818008899688721,3.1009273529052734,23.63290786743164,0.3121938705444336,0.7386146187782288,0.44729578495025635,2.066342830657959,-1.2685141563415527,-0.9535238146781921,0.3521798551082611,0.6818827390670776,0.42000001668930054,-0.2963933050632477,0.5977979898452759,-1.1807403564453125,-2.9999914169311523,-0.23062919080257416,-0.21840596199035645,-0.19891107082366943,-0.17970602214336395,0.3048734962940216,0.23490671813488007,0.07684813439846039,-0.08354604244232178
0.55,0.02520502358675003,-0.022638633847236633,0.0,0.6892682313919067,0.0,0.0,-0.7245062589645386,0.3105655908584595,0.03878248855471611,0.0,0.0,0.0,0.42673760652542114,0.3378058969974518,0.7081969976425171,0.4233192503452301,0.6505107283592224,-0.08000659942626953,-0.03722772374749184,-0.7543531656265259,0.8567479848861694,-1.5918159484863281,-1.1528568267822266,-1.1126084327697754,5.053990364074707,29.982524871826172,0.3380371630191803,0.7164856195449829,0.42914432287216187,1.2946817874908447,-1.2815687656402588,-1.2551709413528442,0.3521798551082611,0.6818827390670776,0.42000001668930054,-0.28503647446632385,0.6932310461997986,-1.2307624816894531,-2.9999125003814697,-0.22693870961666107,-0.21584703028202057,-0.19897396862506866,-0.18242239952087402,0.33270785212516785,0.2281227707862854,0.037574123591184616,-0.1498308926820755
0.5666666666666667,0.03203321993350983,-0.02623642422258854,0.0,0.676190197467804,0.0,0.0,-0.7367270588874817,0.4539209008216858,-0.2473916858434677,0.0,0.0,0.0,-2.960036277770996,0.34670290350914,0.7022459506988525,0.4210023283958435,0.655217707157135,-0.017647558823227882,0.004635068587958813,-0.7552196383476257,0.014001677744090557,-0.7500927448272705,-0.17516379058361053,-2.1800475120544434,-9.62649917602539,22.115859985351562,0.34500086307525635,0.7078054547309875,0.42450201511383057,0.16830649971961975,-0.33234652876853943,-0.12983983755111694,0.3521798551082611,0.6818827390670776,0.42000001668930054,-0.2703368067741394,0.8183190822601318,-1.1924415826797485,2.9952986240386963,-0.2173609584569931,-0.2090654969215393,-0.19618071615695953,-0.18333224952220917,0.49375295639038086,0.34253859519958496,0.12104155123233795,-0.08490989357233047
0.5833333333333334,0.03672685846686363,-0.026709044352173805,0.0,0.6758943200111389,0.0,0.0,-0.7369985580444336,0.22250621020793915,-0.005233097355812788,0.0,0.0,0.0,0.80419921875,0.34883663058280945,0.6953765153884888,0.4209637939929962,0.664446234703064,-0.016390321776270866,0.01841207593679428,-0.7469294667243958,0.06653318554162979,-0.41063255071640015,0.01381419412791729,0.13653410971164703,0.7452069520950317,2.88086199760437,0.34572741389274597,0.7010384798049927,0.425142377614975,-0.008858894929289818,-0.35014981031417847,0.10279323160648346,0.3521798551082611,0.6818827390670776,0.42000001668930054,-0.28789427876472473,-2.4551749229431152,-1.2135906219482422,-2.999302387237549,-0.21144770085811615,-0.2051663100719452,-0.1953936517238617,-0.18541458249092102,0.4088563621044159,0.27807095646858215,0.08773639798164368,-0.08582020550966263
0.6,0.0421244278550148,-0.024193402379751205,0.0,0.6651943325996399,0.0,0.0,-0.7466702461242676,0.3450256884098053,0.19108907878398895,0.0,0.0,0.0,-2.6301114559173584,0.3505438268184662,0.6911454200744629,0.4213353395462036,0.6681927442550659,-0.023211468011140823,0.01938330940902233,-0.7433732748031616,0.16571341454982758,0.017454074695706367,0.12673376500606537,-1.5186902284622192,4.71081018447876,-3.0594232082366943,0.3468284606933594,0.7002007961273193,0.4268912076950073,0.11374612152576447,0.11247264593839645,0.12872028350830078,0.3521798551082611,0.6818827390670776,0.42000001668930054,-0.3116309344768524,-0.5345751643180847,-1.2635376453399658,-2.9986867904663086,-0.2033391147851944,-0.19986972212791443,-0.19367332756519318,-0.18684634566307068,0.6072672009468079,0.411767840385437,0.17883558571338654,-0.0248714629560709
0.6166666666666667,0.04923435300588608,-0.026117945089936256,0.0,0.6665785312652588,0.0,0.0,-0.7454347610473633,0.4496278166770935,-0.10875088721513748,0.0,0.0,0.0,1.0700371265411377,0.35299763083457947,0.6914365291595459,0.4220482110977173,0.6518853306770325,-0.035359665751457214,0.040573377162218094,-0.7564052939414978,0.1043657660484314,0.047959715127944946,0.008867284283041954,0.00859974417835474,0.692202091217041,-3.8021864891052246,0.346541166305542,0.7007340788841248,0.4264293313026428,-0.14248622953891754,-0.1039251983165741,-0.04589836671948433,0.3521798551082611,0.6818827390670776,0.42000001668930054,-0.3535023331642151,-2.999915361404419,-1.230628490447998,2.999741554260254,-0.19112978875637054,-0.190790057182312,-0.18831327557563782,-0.1847848743200302,0.5229855179786682,0.39919599890708923,0.2390245944261551,0.09546290338039398
0.6333333333333333,0.05451181158423424,-0.023901822045445442,0.0,0.6889715790748596,0.0,0.0,-0.7247883677482605,0.2521732747554779,0.1344033181667328,0.0,0.0,0.0,4.450784683227539,0.35356634855270386,0.6920533180236816,0.42126888036727905,0.6327239871025085,-0.02058415859937668,0.025274157524108887,-0.773690938949585,-0.060458891093730927,0.020428961142897606,-0.04957558587193489,-0.5438544750213623,-2.553009033203125,-1.9533051252365112,0.34415459632873535,0.6996309161186218,0.42823636531829834,-0.1042068600654602,0.06164706498384476,0.1795504093170166,0.3521798551082611,0.6818827390670776,0.42000001668930054,-0.40348654985427856,-2.99961519241333,-1.2512438297271729,-2.9996302127838135,-0.18569296598434448,-0.18662890791893005,-0.1859530806541443,-0.18399739265441895,0.3921419084072113,0.30714860558509827,0.19784711301326752,0.1039959117770195
0.65,0.06030266359448433,-0.025202874094247818,0.0,0.6972494125366211,0.0,0.0,-0.7168286442756653,0.3555344343185425,-0.11880675703287125,0.0,0.0,0.0,0.2837402820587158,0.3521444499492645,0.6923826336860657,0.42002981901168823,0.6306672096252441,0.0003721569664776325,-0.00042280301568098366,-0.7760530710220337,-0.07014486193656921,0.005847468040883541,0.010567823424935341,-0.13507671654224396,-0.5200602412223816,-1.4849220514297485,0.34234440326690674,0.7012330293655396,0.43272560834884644,-0.10257973521947861,0.013652227818965912,0.326726496219635,0.3521798551082611,0.6818827390670776,0.42000001668930054,-0.4534967243671417,-2.9995622634887695,-1.3012194633483887,-2.9999654293060303,-0.17944388091564178,-0.18101024627685547,-0.18115541338920593,-0.17967329919338226,0.2876507639884949,0.3067530393600464,0.3225160241127014,0.36018794775009155
0.6666666666666666,0.06756401062011719,-0.02999010868370533,0.0,0.6844149231910706,0.0,0.0,-0.7290927171707153,0.4783172309398651,-0.36008721590042114,0.0,0.0,0.0,-2.9682300090789795,0.3518088161945343,0.6923902630805969,0.42000001668930054,0.6284210681915283,-1.7562423408890027e-06,-1.2186559388283058e-06,-0.7778733372688293,0.0022585997357964516,5.862268517375924e-05,-8.307886309921741e-05,0.002206964185461402,-0.001942662289366126,0.015526976436376572,0.3439241945743561,0.7031023502349854,0.44530951976776123,0.2925819158554077,0.17223405838012695,1.27074134349823,0.3521798551082611,0.6818827390670776,0.42000001668930054,-0.5035095810890198,-2.9999842643737793,-1.3512377738952637,-3.0,-0.17668448388576508,-0.17766757309436798,-0.1772221326828003,-0.17481301724910736,0.10201001167297363,0.14737150073051453,0.1955731213092804,0.2617841362953186
0.6833333333333333,0.07839866727590561,-0.02991156280040741,0.0,0.6500509977340698,0.0,0.0,-0.7598905563354492,0.6224597692489624,0.0022249072790145874,0.0,0.0,0.0,-6.331478118896484,0.35180842876434326,0.6923906207084656,0.41999995708465576,0.6284211277961731,-6.755176968908927e-07,-5.960623639111873e-06,-0.7778732180595398,0.00019138521747663617,-0.0004263803130015731,-9.106099605560303e-05,0.009533041156828403,-0.001677135587669909,-0.000627020956017077,0.35734888911247253,0.7022103071212769,0.47173115611076355,1.4025038480758667,-0.09338746964931488,2.005058526992798,0.3521798551082611,0.6818827390670776,0.42000001668930054,-0.5535221695899963,-2.999985694885254,-1.4012560844421387,-2.999999523162842,-0.18181107938289642,-0.18084248900413513,-0.17842216789722443,-0.17386290431022644,-0.20909281075000763,-0.11835410445928574,-0.019938083365559578,0.09186549484729767
0.7,0.08894731104373932,-0.027305612340569496,0.0,0.6299815773963928,0.0,0.0,-0.7766100764274597,0.671650230884552,0.15518870949745178,0.0,0.0,0.0,-2.0084142684936523,0.35180842876434326,0.6923905611038208,0.41999998688697815,0.6284213662147522,-6.751694172635325e-07,-6.018586645950563e-06,-0.777873158454895,0.0001959916844498366,-0.0004104074614588171,-8.725887164473534e-05,0.009224127978086472,-0.0015296362107619643,-0.0006330220494419336,0.3791091740131378,0.703497052192688,0.505714476108551,1.2278995513916016,0.23565271496772766,2.05088210105896,0.3521798551082611,0.6818827390670776,0.42000001668930054,-0.5742975473403931,0.24350343644618988,-1.4512743949890137,-3.000000476837158,-0.18486346304416656,-0.18293273448944092,-0.1794794201850891,-0.17376483976840973,-0.039100538939237595,-0.0367714986205101,-0.03153679519891739,-0.0216189157217741
0.7166666666666667,0.0966816172003746,-0.023222370073199272,0.0,0.6352707743644714,0.0,0.0,-0.7722894549369812,0.3866683840751648,0.2871367335319519,0.0,0.0,0.0,1.702795386314392,0.35180842876434326,0.6923905611038208,0.41999998688697815,0.6284214854240417,-6.538507477671374e-07,-5.782786047348054e-06,-0.7778730392456055,0.00019710141350515187,-0.0004117149510420859,-8.746655657887459e-05,0.009257582016289234,-0.001531400834210217,-0.000636282900813967,0.3974480926990509,0.7080986499786377,0.5337878465652466,0.887718915939331,0.30655959248542786,1.380000352859497,0.3521798551082611,0.6818827390670776,0.42000001668930054,-0.5491557717323303,2.550520181655884,-1.4126840829849243,3.0,-0.18386712670326233,-0.18205830454826355,-0.17868956923484802,-0.17303457856178284,0.1420949548482895,0.12827855348587036,0.11437203735113144,0.09785175323486328
0.7333333333333333,0.09966070204973221,-0.024437937885522842,0.0,0.6289172172546387,0.0,0.0,-0.7774722576141357,0.21111246943473816,-0.08102970570325851,0.0,0.0,0.0,-1.695357322692871,0.35180842876434326,0.6923905611038208,0.41999998688697815,0.6284213662147522,-6.389431064235396e-07,-5.696966127288761e-06,-0.7778730392456055,0.000196764653082937,-0.00041158334352076054,-8.745049126446247e-05,0.009253243915736675,-0.0015317565994337201,-0.0006353306816890836,0.40595024824142456,0.714096188545227,0.5505596399307251,0.08822452276945114,0.17935511469841003,0.7461534738540649,0.3521798551082611,0.6818827390670776,0.42000001668930054,-0.5181906819343567,1.2539030313491821,-1.3626314401626587,3.000000238418579,-0.17638354003429413,-0.1755056232213974,-0.1730780303478241,-0.16842079162597656,0.23480337858200073,0.23593904078006744,0.22896911203861237,0.20832353830337524
0.75,0.10053514689207077,-0.020593829452991486,0.0,0.6356791257858276,0.0,0.0,-0.7719534039497375,0.010486442595720291,0.25862589478492737,0.0,0.0,0.0,1.8103502988815308,0.35180842876434326,0.6923905611038208,0.41999998688697815,0.628421425819397,-6.189318924043619e-07,-5.775877070846036e-06,-0.7778730392456055,0.00019624881679192185,-0.00041127082658931613,-8.740252815186977e-05,0.009244110435247421,-0.0015319613739848137,-0.0006338444072753191,0.4048469066619873,0.7159075140953064,0.5599996447563171,-0.13830527663230896,0.1807335764169693,0.4038383364677429,0.3521798551082611,0.6818827390670776,0.42000001668930054,-0.48995932936668396,2.0434813499450684,-1.3687267303466797,-3.000000238418579,-0.1764041930437088,-0.17470061779022217,-0.17168733477592468,-0.16681510210037231,0.10167312622070312,0.12218497693538666,0.12931765615940094,0.11534450948238373
0.7666666666666666,0.09909025579690933,-0.020651841536164284,0.0,0.6305376887321472,0.0,0.0,-0.7761586308479309,-0.15890929102897644,0.0033079686108976603,0.0,0.0,0.0,-1.4989452362060547,0.35180842876434326,0.6923905611038208,0.41999998688697815,0.6284213662147522,-6.378231773851439e-07,-5.6871253946155775e-06,-0.777873158454895,0.00019676364900078624,-0.0004115795309189707,-8.744862861931324e-05,0.009253110736608505,-0.0015317496145144105,-0.0006353253265842795,0.3965381979942322,0.7179742455482483,0.5601154565811157,-0.8901785612106323,0.035206764936447144,-0.20031771063804626,0.3521798551082611,0.6818827390670776,0.42000001668930054,-0.47806867957115173,-0.4155302047729492,-1.3303704261779785,2.999999761581421,-0.17336274683475494,-0.17152263224124908,-0.16859588027000427,-0.16416408121585846,0.064918152987957,0.09840201586484909,0.11568304896354675,0.1080348789691925
0.7833333333333333,0.09919580817222595,-0.020839117467403412,0.0,0.6376786828041077,0.0,0.0,-0.7703024744987488,0.044210705906152725,-0.1016969159245491,0.0,0.0,0.0,1.9087324142456055,0.35180842876434326,0.6923905611038208,0.41999998688697815,0.6284213066101074,-6.299880510596267e-07,-5.784023869637167e-06,-0.777873158454895,0.00019709463231265545,-0.00041174647049047053,-8.747470565140247e-05,0.009258129633963108,-0.0015312833711504936,-0.0006362545536831021,0.3853723406791687,0.7183094024658203,0.5562311410903931,-0.46289151906967163,0.06524435430765152,-0.21608000993728638,0.3521798551082611,0.6818827390670776,0.42000001668930054,-0.48491793870925903,-0.40190327167510986,-1.349732756614685,-3.0,-0.17402341961860657,-0.17120127379894257,-0.16751812398433685,-0.16271309554576874,0.015331991948187351,0.06541816145181656,0.10643043369054794,0.1292339712381363
0.8,0.10171817243099213,-0.024038998410105705,0.0,0.6327987909317017,0.0,0.0,-0.7743162512779236,0.1962517648935318,-0.251219242811203,0.0,0.0,0.0,-1.6158876419067383,0.35180842876434326,0.6923905611038208,0.41999998688697815,0.6284213662147522,-5.994813250254083e-07,-6.059304269001586e-06,-0.7778730988502502,0.0001995381899178028,-0.00041213512304238975,-8.754385635256767e-05,0.009274503216147423,-0.0015185280935838819,-0.0006426270701922476,0.3806976079940796,0.7166674137115479,0.5472385883331299,-0.07409874349832535,-0.21125498414039612,-0.6447980403900146,0.3521798551082611,0.6818827390670776,0.42000001668930054,-0.5217607021331787,-3.0000009536743164,-1.3124598264694214,3.000000476837158,-0.175180122256279,-0.1711370348930359,-0.16628287732601166,-0.16051948070526123,-0.0662321224808693,0.01878100261092186,0.10528868436813354,0.18349352478981018
0.8166666666666667,0.10741252452135086,-0.023856576532125473,0.0,0.6065455079078674,0.0,0.0,-0.7950487732887268,0.3702487349510193,-0.005618395283818245,0.0,0.0,0.0,-4.704680919647217,0.35180842876434326,0.6923905611038208,0.41999998688697815,0.6284214854240417,-6.384320840879809e-07,-5.817128112539649e-06,-0.7778729796409607,0.000197215675143525,-0.00041180659900419414,-8.748029358685017e-05,0.00926013384014368,-0.0015310276066884398,-0.0006365897716023028,0.382416307926178,0.7094366550445557,0.5394057035446167,0.360931932926178,-0.49678200483322144,-0.15122485160827637,0.3521798551082611,0.6818827390670776,0.42000001668930054,-0.571767270565033,-2.999999523162842,-1.3321601152420044,-3.000000476837158,-0.17891088128089905,-0.17338767647743225,-0.1669500470161438,-0.15966454148292542,-0.07639025151729584,-0.03496595472097397,0.020555760711431503,0.08160293102264404
0.8333333333333334,0.11514844745397568,-0.021430330350995064,0.0,0.5965176224708557,0.0,0.0,-0.8025999665260315,0.49790698289871216,0.20703041553497314,0.0,0.0,0.0,-0.5146827101707458,0.35180842876434326,0.6923905611038208,0.41999998688697815,0.628421425819397,-6.463433805947716e-07,-5.7333586482855026e-06,-0.7778730988502502,0.0001969450240721926,-0.0004116260097362101,-8.745258674025536e-05,0.009254876524209976,-0.0015312002506107092,-0.0006358249229378998,0.3885703682899475,0.7056913375854492,0.5397986173629761,0.3499501943588257,-0.05187759920954704,0.16533163189888,0.3521798551082611,0.6818827390670776,0.42000001668930054,-0.591803789138794,0.32363492250442505,-1.3821784257888794,-2.999999761581421,-0.1791180819272995,-0.17373214662075043,-0.16722501814365387,-0.1597786843776703,0.056776080280542374,0.008608323521912098,-0.0307425819337368,-0.0663057342171669
0.85,0.11935953050851822,-0.02420206554234028,0.0,0.6115385890007019,0.0,0.0,-0.7912145853042603,0.26113104820251465,-0.220231831073761,0.0,0.0,0.0,2.9117064476013184,0.35180842876434326,0.6923905611038208,0.41999998688697815,0.6284213066101074,-6.273959911595739e-07,-5.830216650792863e-06,-0.7778730988502502,0.0001965458650374785,-0.00041145566501654685,-8.743372745811939e-05,0.009249475784599781,-0.0015322749968618155,-0.0006347255548462272,0.39551490545272827,0.7088332176208496,0.539629340171814,0.44586971402168274,0.19300024211406708,-0.21868161857128143,0.3521798551082611,0.6818827390670776,0.42000001668930054,-0.5792458057403564,1.1060019731521606,-1.3437821865081787,2.999999761581421,-0.1721370667219162,-0.1684030443429947,-0.16343073546886444,-0.15744733810424805,0.2950161397457123,0.22712160646915436,0.15956297516822815,0.0897766500711441
0.8666666666666667,0.12117414176464081,-0.022894375026226044,0.0,0.6119821667671204,0.0,0.0,-0.7908715605735779,0.04429176449775696,0.09718149155378342,0.0,0.0,0.0,-0.8168100714683533,0.35180842876434326,0.6923905611038208,0.41999998688697815,0.6284215450286865,-6.343813652165409e-07,-5.75246622247505e-06,-0.7778728604316711,0.00019696108938660473,-0.00041167926974594593,-8.745887316763401e-05,0.009256313554942608,-0.0015309822047129273,-0.0006358518730849028,0.40050286054611206,0.708723247051239,0.5322244167327881,0.25641030073165894,-0.036707423627376556,-0.5164470672607422,0.3521798551082611,0.6818827390670776,0.42000001668930054,-0.5850631594657898,-1.566329836845398,-1.293760061264038,3.0,-0.17163921892642975,-0.16833993792533875,-0.16386006772518158,-0.1584736704826355,0.10980383306741714,0.06064651906490326,0.009736436419188976,-0.04461180418729782
