vladlanda/robotic-transformer/data/env_000_episode_0191.csv
sim_time_s,robot_box_x,robot_box_y,robot_box_z,robot_box_quat_w,robot_box_quat_x,robot_box_quat_y,robot_box_quat_z,robot_box_linvel_x,robot_box_linvel_y,robot_box_linvel_z,robot_box_angvel_x,robot_box_angvel_y,robot_box_angvel_z,cube_world_x,cube_world_y,cube_world_z,cube_quat_w,cube_quat_x,cube_quat_y,cube_quat_z,cube_linvel_x,cube_linvel_y,cube_linvel_z,cube_angvel_x,cube_angvel_y,cube_angvel_z,endpoint_world_x,endpoint_world_y,endpoint_world_z,endpoint_linvel_x,endpoint_linvel_y,endpoint_linvel_z,target_cube_world_x,target_cube_world_y,target_cube_world_z,gripper_actual_pos_rad_gp_leftgearjoint,gripper_actual_vel_rad_s_gp_leftgearjoint,gripper_actual_pos_rad_gp_rotatingjoint,gripper_actual_vel_rad_s_gp_rotatingjoint,motor_angle_rad_joint1,motor_angle_rad_joint2,motor_angle_rad_joint3,motor_angle_rad_joint4,motor_speed_rad_s_joint1,motor_speed_rad_s_joint2,motor_speed_rad_s_joint3,motor_speed_rad_s_joint4
0.0,0.0,0.0,0.0,1.0,0.0,0.0,0.0,0.0,0.0,0.0,0.0,0.0,0.0,-0.4629974961280823,0.7526198625564575,0.41999998688697815,1.0,0.0,0.0,0.0,0.0,0.0,0.0,0.0,0.0,0.0,3.42540442943573e-06,-0.005000244826078415,1.313499927520752,0.0,0.0,0.0,0.32542896270751953,0.7482259273529053,0.42000001668930054,-1.5707999467849731,0.0,0.0,0.0,0.0,0.0,0.0,0.0,0.0,0.0,0.0,0.0
0.016666666666666666,0.0028778850100934505,0.0021806680597364902,0.0,0.9998081922531128,0.0,0.0,0.019586581736803055,0.24087215960025787,0.18240931630134583,0.0,0.0,0.0,3.1418697834014893,-0.4629976153373718,0.7526195645332336,0.41999998688697815,1.0,3.2799832752061775e-06,-8.339598593920527e-07,8.465660528145236e-08,-1.9833856640616432e-05,0.00017983021098189056,-6.132945418357849e-05,0.0009432561928406358,-0.004689492750912905,-0.0003198107879143208,-0.007110234349966049,0.003379564033821225,1.3159373998641968,-0.8143353462219238,0.9868683815002441,0.18095196783542633,0.32542896270751953,0.7482259273529053,0.42000001668930054,-1.5301095247268677,3.0000011920928955,-0.04584788903594017,-2.9999992847442627,0.0008691533003002405,0.0007963840034790337,0.0007110277656465769,0.0006108740926720202,0.11094217747449875,0.09756709635257721,0.08334315568208694,0.06823883205652237
0.03333333333333333,0.008960982784628868,0.0068019600585103035,0.0,0.9997960329055786,0.0,0.0,0.020196840167045593,0.4070216119289398,0.3153080344200134,0.0,0.0,0.0,-0.8691317439079285,-0.4629977345466614,0.7526195049285889,0.4200000464916229,1.0,3.39081861966406e-06,-2.1323587588994997e-06,-3.7098015326364475e-08,0.0002635778218973428,0.00026937888469547033,-0.00010509602725505829,-0.0017707271035760641,0.0041307792998850346,-0.000135479771415703,-0.02755163237452507,0.026147611439228058,1.3166043758392334,-1.5914545059204102,1.6158068180084229,-0.08400843292474747,0.32542896270751953,0.7482259273529053,0.42000001668930054,-1.4800904989242554,3.0000007152557373,-0.09588772058486938,-3.0000009536743164,0.002990122651681304,0.0026527391746640205,0.0022773153614252806,0.0018607756355777383,0.16421809792518616,0.1397622674703598,0.11382171511650085,0.0863042101264
0.05,0.01775970868766308,0.013773232698440552,0.0,0.9993746876716614,0.0,0.0,0.03535893186926842,0.5939840078353882,0.46517524123191833,0.0,0.0,0.0,2.647469997406006,-0.46299776434898376,0.7526195645332336,0.4200000464916229,1.0,3.765183919313131e-06,-2.2118208562460495e-06,5.611563214102944e-09,0.0002653097326401621,0.00026691521634347737,-0.0001044049859046936,-0.0017243342008441687,0.004177424591034651,-0.00012949183292221278,-0.05969129130244255,0.054131556302309036,1.3115875720977783,-2.187755584716797,1.7748000621795654,-0.48091092705726624,0.32542896270751953,0.7482259273529053,0.42000001668930054,-1.4300721883773804,3.0000011920928955,-0.145926371216774,-2.9999990463256836,0.0057111140340566635,0.004918896593153477,0.004054549615830183,0.003113633720204234,0.19266417622566223,0.15576687455177307,0.11699491739273071,0.07625501602888107
0.06666666666666667,0.029077954590320587,0.023068374022841454,0.0,0.9994471669197083,0.0,0.0,0.03324723616242409,0.7205482125282288,0.5953032970428467,0.0,0.0,0.0,-1.211628794670105,-0.46299776434898376,0.7526195049285889,0.4200000464916229,0.9999999403953552,3.4068107197526842e-06,-2.2855549559608335e-06,4.3007796080019034e-07,0.0002670242392923683,0.0002679162425920367,-0.00010437914170324802,-0.0017406085971742868,0.004211718216538429,-0.0001285039325011894,-0.09698598086833954,0.08901335299015045,1.2992717027664185,-2.3120946884155273,2.295109748840332,-0.969996452331543,0.32542896270751953,0.7482259273529053,0.42000001668930054,-1.3800538778305054,3.000000238418579,-0.19596371054649353,-3.000000238418579,0.00815567933022976,0.006627216935157776,0.004986869171261787,0.003231426002457738,0.13518591225147247,0.07933112233877182,0.02142520435154438,-0.03860675171017647
0.08333333333333333,0.03445396572351456,0.03570312634110451,0.0,0.9999995827674866,0.0,0.0,0.0009382530115544796,0.19049575924873352,0.8242332339286804,0.0,0.0,0.0,-4.936298847198486,-0.46299776434898376,0.7526195049285889,0.4200000464916229,1.0,3.697329702845309e-06,-2.1888738501729676e-06,-2.632421285397868e-07,0.0002638976147864014,0.00026586613967083395,-0.00010433932766318321,-0.001708156312815845,0.004150198306888342,-0.00012991606490686536,-0.13333208858966827,0.13124176859855652,1.278996229171753,-2.0983757972717285,2.660463809967041,-1.3707621097564697,0.32542896270751953,0.7482259273529053,0.42000001668930054,-1.3300355672836304,3.0000014305114746,-0.2388177067041397,-2.1755549907684326,0.004812694154679775,0.0026403723750263453,0.00030511259683407843,-0.0022005634382367134,-0.2964440584182739,-0.34130048751831055,-0.388723760843277,-0.4390046000480652
0.1,0.04406401515007019,0.049657609313726425,0.0,0.9999107718467712,0.0,0.0,-0.013359061442315578,0.6749865412712097,0.8507845401763916,0.0,0.0,0.0,-0.7071086764335632,-0.46299776434898376,0.7526195049285889,0.4200000464916229,0.9999999403953552,3.620408961069188e-06,-2.265111106680706e-06,1.7460979506722651e-07,0.0002667685621418059,0.00026740742032416165,-0.0001040799543261528,-0.0017385648097842932,0.00420914264395833,-0.00012775155482813716,-0.17131036520004272,0.1720236837863922,1.2570233345031738,-2.2774972915649414,2.51594614982605,-1.3501074314117432,0.32542896270751953,0.7482259273529053,0.42000001668930054,-1.280023455619812,3.0000014305114746,-0.2886388301849365,-3.0000016689300537,0.0048455605283379555,0.0011514705838635564,-0.00270353932864964,-0.0067267338745296,0.030000053346157074,-0.07231755554676056,-0.17373262345790863,-0.27421990036964417
0.11666666666666667,0.05163866654038429,0.06571108847856522,0.0,0.9991790652275085,0.0,0.0,-0.040511079132556915,0.4582515358924866,1.0247806310653687,0.0,0.0,0.0,-3.9386703968048096,-0.46299776434898376,0.7526195049285889,0.4200000464916229,1.0,3.7984264054102823e-06,-2.2626581994700246e-06,-1.5021373656054493e-07,0.0002637417346704751,0.00026566089945845306,-0.00010428880341351032,-0.0017054196214303374,0.004147616680711508,-0.00012979877647012472,-0.20448166131973267,0.2196880728006363,1.235781192779541,-1.71940016746521,3.2106757164001465,-1.1818230152130127,0.32542896270751953,0.7482259273529053,0.42000001668930054,-1.2299984693527222,2.999990701675415,-0.2543901801109314,2.999999761581421,0.003156445687636733,-0.0024813786149024963,-0.008252091705799103,-0.014161751605570316,-0.06131694093346596,-0.2029191255569458,-0.3413706123828888,-0.4764372706413269
0.13333333333333333,0.0566595122218132,0.08369331061840057,0.0,0.9956955909729004,0.0,0.0,-0.09268388897180557,0.23483827710151672,1.139708399772644,0.0,0.0,0.0,-7.105010986328125,-0.46299776434898376,0.7526195645332336,0.4200000464916229,0.9999999403953552,3.5505834148352733e-06,-2.229631036243518e-06,2.9289705594237603e-07,0.00026703314506448805,0.000267793278908357,-0.00010416889563202858,-0.0017440826632082462,0.004213642794638872,-0.00012800424883607775,-0.2332611382007599,0.2747806906700134,1.2161056995391846,-1.7081654071807861,3.4284121990203857,-1.239671230316162,0.32542896270751953,0.7482259273529053,0.42000001668930054,-1.1962149143218994,1.1821237802505493,-0.28547993302345276,-3.0000014305114746,0.0009591244743205607,-0.0069749485701322556,-0.014974042773246765,-0.02303985133767128,-0.20927481353282928,-0.33374544978141785,-0.45399177074432373,-0.5697811841964722
0.15,0.05856262147426605,0.09971489012241364,0.0,0.9921804070472717,0.0,0.0,-0.12481177598237991,0.06320825219154358,0.8850393891334534,0.0,0.0,0.0,-2.821695566177368,-0.46299776434898376,0.7526195049285889,0.4200000464916229,0.9999999403953552,3.338187298140838e-06,-2.2427418571169255e-06,-2.804477539086747e-08,0.00026674612308852375,0.00026758070453070104,-0.00010427739471197128,-0.0017367061227560043,0.004206916783004999,-0.00012831547064706683,-0.26992177963256836,0.32960861921310425,1.189512014389038,-2.3175978660583496,3.4801077842712402,-1.9085729122161865,0.32542896270751953,0.7482259273529053,0.42000001668930054,-1.1556476354599,2.999990463256836,-0.25121304392814636,2.999999761581421,-0.0031648774165660143,-0.012795114889740944,-0.022409988567233086,-0.032009307295084,-0.3009064495563507,-0.3783971965312958,-0.4512738883495331,-0.5195574164390564
0.16666666666666666,0.05690556764602661,0.11615937203168869,0.0,0.9856351613998413,0.0,0.0,-0.1688886433839798,-0.16137062013149261,1.0250827074050903,0.0,0.0,0.0,-6.210338115692139,-0.46299776434898376,0.7526195645332336,0.4200000464916229,0.9999999403953552,3.6479573282122146e-06,-2.3072102521837223e-06,3.523956593198818e-08,0.00026726999203674495,0.0002680135949049145,-0.00010418728925287724,-0.001747245667502284,0.0042176335118710995,-0.00012798208626918495,-0.30582982301712036,0.3904687464237213,1.1569793224334717,-1.900386095046997,3.915557861328125,-2.0254604816436768,0.32542896270751953,0.7482259273529053,0.42000001668930054,-1.1091550588607788,2.5752553939819336,-0.2823142111301422,-3.0000007152557373,-0.010168670676648617,-0.021077746525406837,-0.031887441873550415,-0.04259723424911499,-0.5072224140167236,-0.5767222046852112,-0.6414273381233215,-0.7013059854507446
0.18333333333333332,0.060313012450933456,0.13096153736114502,0.0,0.9806373119354248,0.0,0.0,-0.19583284854888916,0.3338039815425873,0.7924271821975708,0.0,0.0,0.0,-2.3148105144500732,-0.46299776434898376,0.7526195049285889,0.4200000464916229,0.9999999403953552,3.2907466902543092e-06,-2.1938460577075602e-06,-2.792836255594011e-07,0.00026677740970626473,0.00026775922742672265,-0.00010433956049382687,-0.0017390171997249126,0.004206871148198843,-0.00012846080062445253,-0.3418360948562622,0.45308852195739746,1.1150652170181274,-2.0710678100585938,3.907956123352051,-2.9643025398254395,0.32542896270751953,0.7482259273529053,0.42000001668930054,-1.0789334774017334,1.1504857540130615,-0.3323422074317932,-3.0000007152557373,-0.015930039808154106,-0.027695761993527412,-0.039285898208618164,-0.05070463940501213,-0.33660688996315,-0.36125269532203674,-0.38240012526512146,-0.4005351662635803
0.2,0.05992339178919792,0.1448591947555542,0.0,0.9719178080558777,0.0,0.0,-0.23532061278820038,-0.0802689865231514,0.7844420075416565,0.0,0.0,0.0,-5.585282802581787,-0.46299776434898376,0.7526195049285889,0.4200000464916229,1.0,3.281018734924146e-06,-2.2191513835423393e-06,1.594105611957275e-07,0.00026627889019437134,0.0002674002607818693,-0.0001042510848492384,-0.0017357075121253729,0.0041977171786129475,-0.00012864933523815125,-0.3750915229320526,0.5203227400779724,1.057535171508789,-1.82173490524292,4.193904399871826,-3.7911152839660645,0.32542896270751953,0.7482259273529053,0.42000001668930054,-1.0344310998916626,3.000000238418579,-0.3823677897453308,-3.0,-0.02861098200082779,-0.0402996763586998,-0.05181855708360672,-0.06252939999103546,-0.7534111738204956,-0.775253176689148,-0.7993846535682678,-0.750430166721344
0.21666666666666667,0.060600925236940384,0.15932179987430573,0.0,0.9668802618980408,0.0,0.0,-0.2552303075790405,0.10645151883363724,0.9045752882957458,0.0,0.0,0.0,-1.460658311843872,-0.46299776434898376,0.7526195645332336,0.4200000464916229,1.0,3.6133887988398783e-06,-2.2700851332047023e-06,2.2095262863786047e-07,0.00026712619001045823,0.00026781720225699246,-0.00010414118878543377,-0.0017445421544834971,0.004215226974338293,-0.00012786578736267984,-0.40809059143066406,0.5833882093429565,0.985883355140686,-1.7814226150512695,3.6710691452026367,-4.730164051055908,0.32542896270751953,0.7482259273529053,0.42000001668930054,-0.9846572279930115,2.944997549057007,-0.4323936998844147,-2.9999985694885254,-0.04408840462565422,-0.05542432889342308,-0.06632665544748306,-0.07548504322767258,-0.9847445487976074,-0.963500440120697,-0.8920780420303345,-0.7783093452453613
0.23333333333333334,0.059560712426900864,0.17491786181926727,0.0,0.957698404788971,0.0,0.0,-0.28777384757995605,-0.14146266877651215,0.9960663914680481,0.0,0.0,0.0,-4.920901298522949,-0.46299776434898376,0.7526195049285889,0.4200000464916229,1.0,3.382148179298383e-06,-2.2908925529918633e-06,2.727378500821942e-07,0.00026691448874771595,0.00026779979816637933,-0.00010433024726808071,-0.001739569823257625,0.004209708422422409,-0.00012843745935242623,-0.43616220355033875,0.6430971622467041,0.9018691778182983,-1.4361836910247803,3.455477714538574,-5.26840877532959,0.32542896270751953,0.7482259273529053,0.42000001668930054,-0.9346473217010498,3.0000011920928955,-0.48242202401161194,-3.0000011920928955,-0.06052243709564209,-0.0718562975525856,-0.08274421840906143,-0.09096959978342056,-0.9902121424674988,-0.992004930973053,-0.9933760762214661,-0.9944698810577393
0.25,0.06197642162442207,0.18661244213581085,0.0,0.9531992077827454,0.0,0.0,-0.30234295129776,0.20087632536888123,0.5988346338272095,0.0,0.0,0.0,-0.7526156306266785,-0.4629977345466614,0.7526195049285889,0.4200000464916229,0.9999999403953552,3.70682323591609e-06,-2.222986950073391e-06,-2.255617914670438e-07,0.00026424857787787914,0.00026656937552616,-0.00010458100587129593,-0.0017170169157907367,0.004155629780143499,-0.00013063172809779644,-0.46083205938339233,0.6918799877166748,0.8092010617256165,-1.2225532531738281,2.567913055419922,-5.869785308837891,0.32542896270751953,0.7482259273529053,0.42000001668930054,-0.8846384286880493,2.9999992847442627,-0.5324517488479614,-3.0000007152557373,-0.07616664469242096,-0.08734344691038132,-0.09801523387432098,-0.10587766766548157,-0.988911509513855,-0.9829187989234924,-0.959723949432373,-0.9199540615081787
0.26666666666666666,0.060335155576467514,0.19466988742351532,0.0,0.9442086815834045,0.0,0.0,-0.3293478488922119,-0.2051621526479721,0.4351191520690918,0.0,0.0,0.0,-4.311315536499023,-0.46299776434898376,0.7526195049285889,0.4200000464916229,0.9999999403953552,3.7199345115368487e-06,-2.4035207388806157e-06,-1.8313633631805715e-07,0.0002662320912349969,0.000267291150521487,-0.00010425853542983532,-0.0017326887464150786,0.004196553956717253,-0.00012850847269874066,-0.4759758710861206,0.7258725166320801,0.7058550715446472,-0.5200622081756592,1.5696215629577637,-6.343081951141357,0.32542896270751953,0.7482259273529053,0.42000001668930054,-0.8346279859542847,2.999999523162842,-0.5824815034866333,-3.0000011920928955,-0.09337632358074188,-0.1043727695941925,-0.11491364240646362,-0.1226792111992836,-0.9982231259346008,-0.99820476770401,-0.9982211589813232,-0.9982572197914124
0.2833333333333333,0.05453464761376381,0.19962994754314423,0.0,0.9408557415008545,0.0,0.0,-0.33880746364593506,-0.2878899872303009,0.199514701962471,0.0,0.0,0.0,-0.23525623977184296,-0.46299776434898376,0.7526195049285889,0.4200000464916229,0.9999999403953552,3.783127340284409e-06,-2.424309741400066e-06,2.6969897248818597e-07,0.00026540548424236476,0.0002650861570145935,-0.00010338099673390388,-0.001708629191853106,0.004187512211501598,-0.00012571841944009066,-0.48139461874961853,0.7391871809959412,0.6017954349517822,-0.07101313769817352,0.3097040057182312,-6.215728759765625,0.32542896270751953,0.7482259273529053,0.42000001668930054,-0.784619152545929,3.0,-0.6325112581253052,-3.0,-0.10969006270170212,-0.12063925713300705,-0.13118265569210052,-0.13898740708827972,-0.840475857257843,-0.8564774990081787,-0.8726488351821899,-0.8915456533432007
0.3,0.04753175750374794,0.20086754858493805,0.0,0.9331508874893188,0.0,0.0,-0.3594849407672882,-0.4700927734375,0.028417617082595825,0.0,0.0,0.0,-3.516164779663086,-0.46299776434898376,0.7526195049285889,0.4200000464916229,0.9999999403953552,3.595015868995688e-06,-2.293348643434001e-06,3.1973758041203837e-07,0.0002659793826751411,0.0002666958898771554,-0.00010402454063296318,-0.0017263191984966397,0.004193468950688839,-0.0001278812123928219,-0.47878164052963257,0.7470853924751282,0.5018107891082764,0.4734572172164917,0.43716883659362793,-5.568994522094727,0.32542896270751953,0.7482259273529053,0.42000001668930054,-0.7346104383468628,3.000001907348633,-0.6825389862060547,-2.9999988079071045,-0.12675964832305908,-0.1376638412475586,-0.1481771618127823,-0.15595541894435883,-1.0253345966339111,-1.0191718339920044,-1.014474630355835,-1.010714054107666
0.31666666666666665,0.038388561457395554,0.199545219540596,0.0,0.9319394826889038,0.0,0.0,-0.36261385679244995,-0.5829163789749146,-0.12288773059844971,0.0,0.0,0.0,0.5331761837005615,-0.46299776434898376,0.7526195049285889,0.4200000464916229,0.9999999403953552,3.600428499339614e-06,-2.2995473045739345e-06,1.9272300733064185e-07,0.00026597053511068225,0.0002667028165888041,-0.00010403105989098549,-0.001726472401060164,0.0041933427564799786,-0.0001279159914702177,-0.4692990183830261,0.7501722574234009,0.41157102584838867,0.794084906578064,-0.15113160014152527,-5.372855186462402,0.32542896270751953,0.7482259273529053,0.42000001668930054,-0.6846035122871399,2.9999873638153076,-0.7325647473335266,-3.000001907348633,-0.14365917444229126,-0.15447558462619781,-0.16492517292499542,-0.17265398800373077,-0.9999331831932068,-0.9997031688690186,-0.9995401501655579,-0.9993953108787537
0.3333333333333333,0.02702891267836094,0.1956271082162857,0.0,0.9406192302703857,0.0,0.0,-0.339463472366333,-0.7282401323318481,-0.2804628014564514,0.0,0.0,0.0,3.850557327270508,-0.4629132151603699,0.7524639368057251,0.42005789279937744,0.9999968409538269,0.0014418093487620354,-4.098805675312178e-06,-0.0020399759523570538,0.0029160568956285715,0.001287222490645945,-0.013377230614423752,-0.6746560335159302,0.002204155782237649,-0.0951213538646698,-0.47365713119506836,0.7546873092651367,0.4262658953666687,-0.43874984979629517,0.17557372152805328,-0.17125491797924042,0.32542896270751953,0.7482259273529053,0.42000001668930054,-0.6345939636230469,2.9999918937683105,-0.7831283211708069,-3.000002384185791,-0.14063268899917603,-0.15382617712020874,-0.16615711152553558,-0.17520549893379211,-0.024887610226869583,-0.10218106955289841,-0.1587962657213211,-0.19738660752773285
0.35,0.019262166693806648,0.18873701989650726,0.0,0.9429667592048645,0.0,0.0,-0.33288687467575073,-0.2930114269256592,-0.47308340668678284,0.0,0.0,0.0,-0.14254778623580933,-0.4629131853580475,0.7525213360786438,0.42000001668930054,0.9999979138374329,3.056878540519392e-06,-2.6549641916062683e-06,-0.00204115966334939,0.0002821990638040006,0.0002126980689354241,-6.547104567289352e-05,-0.0012227401603013277,0.0053993272595107555,-4.543898830888793e-05,-0.47740620374679565,0.7546732425689697,0.423019677400589,-0.0547298900783062,-0.1315477043390274,-0.21582390367984772,0.32542896270751953,0.7482259273529053,0.42000001668930054,-0.5845884680747986,2.9999983310699463,-0.8331605195999146,-2.9999208450317383,-0.14169800281524658,-0.15512529015541077,-0.16734245419502258,-0.1760636270046234,-0.09930595755577087,-0.05812915042042732,0.0022591252345591784,0.06940529495477676
0.36666666666666664,0.009792640805244446,0.18024706840515137,0.0,0.9462884664535522,0.0,0.0,-0.3233236074447632,-0.7426864504814148,-0.5154785513877869,0.0,0.0,0.0,1.844002366065979,-0.4615809917449951,0.7547712326049805,0.42024409770965576,0.999788761138916,0.005840447265654802,0.00013961183140054345,-0.019704729318618774,0.26507970690727234,0.4598754346370697,-0.020732834935188293,-0.08319465816020966,-0.7302758097648621,-12.058197021484375,-0.4752679169178009,0.7591969966888428,0.4206180274486542,0.2285286784172058,0.5334535837173462,-0.07412319630384445,0.32542896270751953,0.7482259273529053,0.42000001668930054,-0.5345814228057861,2.996845245361328,-0.88318932056427,-2.9975502490997314,-0.14901889860630035,-0.1604546457529068,-0.17044202983379364,-0.17697717249393463,-0.6376785635948181,-0.4745795726776123,-0.30010077357292175,-0.13414674997329712
0.3833333333333333,-0.0014590886421501637,0.16981619596481323,0.0,0.9436600804328918,0.0,0.0,-0.3309163451194763,-0.6381914019584656,-0.6710363626480103,0.0,0.0,0.0,-1.8838996887207031,-0.4588620364665985,0.7603912949562073,0.4200001358985901,0.9923406839370728,-1.6621722807030892e-06,1.489963415224338e-05,-0.12353073060512543,0.14497126638889313,0.30285948514938354,-0.00017467582074459642,0.004394469782710075,-0.006285561714321375,-13.566689491271973,-0.46968963742256165,0.7645043134689331,0.42158281803131104,0.5095175504684448,0.23487721383571625,0.11195621639490128,0.32542896270751953,0.7482259273529053,0.42000001668930054,-0.4845373034477234,2.99983811378479,-0.9331945180892944,-2.9999756813049316,-0.16077114641666412,-0.16851608455181122,-0.17454788088798523,-0.17723964154720306,-0.6917710304260254,-0.43097275495529175,-0.15228886902332306,0.11984791606664658
0.4,-0.015135349705815315,0.15752935409545898,0.0,0.9304437637329102,0.0,0.0,-0.366434782743454,-0.9634991884231567,-0.7556392550468445,0.0,0.0,0.0,-5.47684907913208,-0.45189404487609863,0.769820511341095,0.4203701615333557,0.9787333607673645,-0.004874794743955135,-0.004357429686933756,-0.20503242313861847,0.8218560814857483,0.9643304347991943,0.07059625536203384,-1.4138946533203125,-3.073127508163452,-5.274957656860352,-0.4568530321121216,0.7735453248023987,0.42354410886764526,1.0160317420959473,0.808718740940094,0.12910960614681244,0.32542896270751953,0.7482259273529053,0.42000001668930054,-0.43451592326164246,2.999997854232788,-0.9832106232643127,-2.9999728202819824,-0.17368657886981964,-0.1767994910478592,-0.17790064215660095,-0.17578580975532532,-0.7705930471420288,-0.49298450350761414,-0.1981472671031952,0.0884290561079979
0.4166666666666667,-0.025885844603180885,0.1422790288925171,0.0,0.9050177931785583,0.0,0.0,-0.4253736436367035,-0.5543447732925415,-0.989892840385437,0.0,0.0,0.0,-8.354863166809082,-0.42444637417793274,0.7923802733421326,0.4233406186103821,0.9676802754402161,-0.018460186198353767,-0.030587535351514816,-0.24963654577732086,2.1828927993774414,1.8169288635253906,0.5021586418151855,29.039731979370117,-15.547840118408203,-1.128188967704773,-0.4303334951400757,0.7952467799186707,0.4262998104095459,2.200664758682251,1.6907334327697754,0.2717667818069458,0.32542896270751953,0.7482259273529053,0.42000001668930054,-0.397943913936615,1.2754509449005127,-1.033213496208191,-2.9999136924743652,-0.18416553735733032,-0.18308117985725403,-0.17966745793819427,-0.17313730716705322,-0.5656019449234009,-0.32806146144866943,-0.07318156957626343,0.17458085715770721
0.43333333333333335,-0.03314405679702759,0.12959754467010498,0.0,0.864228367805481,0.0,0.0,-0.5030997395515442,-0.36204493045806885,-0.6987033486366272,0.0,0.0,0.0,-11.270971298217773,-0.3637826144695282,0.8303769826889038,0.4282125234603882,0.9524717926979065,0.031376924365758896,-0.06976164132356644,-0.2948663830757141,5.179795265197754,2.888543128967285,0.6153369545936584,29.43538475036621,-17.665708541870117,-17.82636833190918,-0.36933624744415283,0.8335697650909424,0.4311330318450928,4.697137355804443,2.809293746948242,0.30524250864982605,0.32542896270751953,0.7482259273529053,0.42000001668930054,-0.3793012201786041,1.0630340576171875,-0.9957214593887329,2.9983508586883545,-0.19781294465065002,-0.1918027400970459,-0.1834455281496048,-0.1723739504814148,-0.7431740760803223,-0.4784007966518402,-0.2217935472726822,0.0034757645335048437
0.45,-0.036526940762996674,0.12078481167554855,0.0,0.8055365681648254,0.0,0.0,-0.5925460457801819,-0.14580994844436646,-0.46277105808258057,0.0,0.0,0.0,-13.547463417053223,-0.26578715443611145,0.878450334072113,0.43538132309913635,0.9268198609352112,0.08802234381437302,-0.10470511019229889,-0.3497053384780884,7.402985572814941,3.0130455493927,0.6763427257537842,17.50836181640625,-6.757660388946533,-32.80531311035156,-0.2717289924621582,0.8830970525741577,0.43851983547210693,6.716917514801025,2.9939420223236084,0.569570004940033,0.32542896270751953,0.7482259273529053,0.42000001668930054,-0.36247220635414124,1.0123772621154785,-0.9456769227981567,3.0000009536743164,-0.2118419110774994,-0.20127296447753906,-0.18866737186908722,-0.17402100563049316,-0.8149288892745972,-0.5677595734596252,-0.3464213013648987,-0.17045597732067108
0.4666666666666667,-0.04254603758454323,0.11736554652452469,0.0,0.7548567652702332,0.0,0.0,-0.655889630317688,-0.3510742485523224,-0.16560888290405273,0.0,0.0,0.0,-8.435399055480957,-0.156727135181427,0.9132130742073059,0.4452703893184662,0.8891211748123169,0.08684360980987549,-0.11227906495332718,-0.4351036250591278,6.883224964141846,1.6487699747085571,1.074242115020752,23.08329963684082,-8.57949447631836,-29.28487777709961,-0.16210892796516418,0.9206176996231079,0.44893360137939453,6.352227210998535,1.5364826917648315,0.5205434560775757,0.32542896270751953,0.7482259273529053,0.42000001668930054,-0.34658318758010864,0.9759408235549927,-0.9714620113372803,-2.999999523162842,-0.22630448639392853,-0.21520231664180756,-0.19802194833755493,-0.17937111854553223,-0.6947581768035889,-0.7377954125404358,-0.5358365774154663,-0.33867841958999634
0.48333333333333334,-0.05032326653599739,0.1088305413722992,0.0,0.7247249484062195,0.0,0.0,-0.6890382766723633,-0.4490237534046173,-0.47787442803382874,0.0,0.0,0.0,-4.235640525817871,-0.05017739161849022,0.9305211901664734,0.4550569951534271,0.8492928147315979,0.08140408247709274,-0.09091398864984512,-0.5136239528656006,6.424177646636963,0.1331241875886917,0.9011624455451965,12.814499855041504,-9.640069007873535,-18.907670974731445,-0.055843014270067215,0.9389188289642334,0.4590531587600708,6.2313079833984375,0.23808088898658752,0.5223976373672485,0.32542896270751953,0.7482259273529053,0.42000001668930054,-0.33050569891929626,0.899964451789856,-1.0214852094650269,-3.0000014305114746,-0.23647019267082214,-0.2246582955121994,-0.20354387164115906,-0.18110932409763336,-0.8139345645904541,-0.6612893342971802,-0.3649611473083496,-0.08630095422267914
0.5,-0.05455421283841133,0.09884748607873917,0.0,0.7172960042953491,0.0,0.0,-0.696768581867218,-0.22468963265419006,-0.5807303786277771,0.0,0.0,0.0,-0.2369539439678192,0.04461828991770744,0.9245177507400513,0.46222198009490967,0.7928880453109741,0.06441367417573929,-0.06088539585471153,-0.6028866767883301,5.793374061584473,-1.3696870803833008,0.6767159104347229,6.839014053344727,-29.8321590423584,-37.35007095336914,0.039844464510679245,0.9347139596939087,0.46708935499191284,4.984075546264648,-0.8941948413848877,0.308382511138916,0.32542896270751953,0.7482259273529053,0.42000001668930054,-0.31823667883872986,0.5150527358055115,-1.0715073347091675,-3.0000035762786865,-0.2400437593460083,-0.23702006042003632,-0.21060727536678314,-0.18314510583877563,-0.02036202698945999,-0.7442503571510315,-0.4373513460159302,-0.14202643930912018
0.5166666666666666,-0.05564108118414879,0.0919550210237503,0.0,0.7007448673248291,0.0,0.0,-0.7134119868278503,-0.003295037429779768,-0.3428972363471985,0.0,0.0,0.0,-3.7859842777252197,0.12225323170423508,0.9026028513908386,0.4651654362678528,0.7600504159927368,0.06587912887334824,0.0014241033932194114,-0.6465145945549011,4.97724723815918,-1.942427158355713,0.2926631271839142,1.284864068031311,-16.693477630615234,-50.65764236450195,0.12048433721065521,0.9125363230705261,0.4690852165222168,4.258049964904785,-1.7541718482971191,-0.10803026705980301,0.32542896270751953,0.7482259273529053,0.42000001668930054,-0.31329289078712463,0.12503889203071594,-1.121529459953308,-3.0000014305114746,-0.24001485109329224,-0.24001073837280273,-0.2206549495458603,-0.18846622109413147,-0.0029459218494594097,-0.0024602278135716915,-0.5017242431640625,-0.2768901586532593
0.5333333333333333,-0.053978368639945984,0.08409169316291809,0.0,0.6970637440681458,0.0,0.0,-0.7170091271400452,0.13517995178699493,-0.5373358726501465,0.0,0.0,0.0,0.36601313948631287,0.18800966441631317,0.8703793883323669,0.45932355523109436,0.7235353589057922,-0.0025509276892989874,-0.014278406277298927,-0.6901348829269409,3.9038901329040527,-2.7038824558258057,-0.06391216069459915,5.309924125671387,-7.0375165939331055,-33.73562240600586,0.18824540078639984,0.8804974555969238,0.4660458564758301,3.4609787464141846,-2.09470534324646,-0.42163968086242676,0.32542896270751953,0.7482259273529053,0.42000001668930054,-0.3114086091518402,0.10336169600486755,-1.1715515851974487,-3.0000007152557373,-0.23750431835651398,-0.23722940683364868,-0.22553202509880066,-0.19104255735874176,0.20242148637771606,0.2521898150444031,-0.11646552383899689,-0.059163980185985565
0.55,-0.05006531625986099,0.07788661122322083,0.0,0.6849866509437561,0.0,0.0,-0.7285556197166443,0.285495787858963,-0.31608709692955017,0.0,0.0,0.0,-2.8702797889709473,0.24112804234027863,0.8368625640869141,0.4469045102596283,0.6957703232765198,-0.04684533551335335,0.005439053755253553,-0.7167143821716309,3.077746868133545,-2.4873476028442383,-0.6318724155426025,7.123216152191162,1.1292099952697754,-26.381397247314453,0.24308595061302185,0.846825122833252,0.4544786512851715,2.8006207942962646,-1.9868125915527344,-0.9623804092407227,0.32542896270751953,0.7482259273529053,0.42000001668930054,-0.30605071783065796,0.49262335896492004,-1.2215737104415894,-3.0,-0.23195815086364746,-0.23153959214687347,-0.2257835566997528,-0.192020982503891,0.4191671907901764,0.41490691900253296,0.08819545060396194,-0.0314471609890461
0.5666666666666667,-0.04402757063508034,0.07560688257217407,0.0,0.6855394840240479,0.0,0.0,-0.7280354499816895,0.40574613213539124,-0.07028976082801819,0.0,0.0,0.0,0.9174103140830994,0.2815520465373993,0.8028944134712219,0.42812004685401917,0.6662368774414062,-0.12842652201652527,0.006376171950250864,-0.7345707416534424,2.2567944526672363,-2.5057692527770996,-0.6847786903381348,9.794554710388184,-7.137215614318848,-28.529144287109375,0.28511297702789307,0.8127877712249756,0.4374600648880005,1.9557744264602661,-1.9692702293395996,-1.2278586626052856,0.32542896270751953,0.7482259273529053,0.42000001668930054,-0.29594963788986206,0.6471422910690308,-1.2715942859649658,-3.0,-0.22505711019039154,-0.22478078305721283,-0.22378170490264893,-0.19290919601917267,0.45072343945503235,0.4321572482585907,0.1754518449306488,-0.05256768316030502
0.5833333333333334,-0.03999935835599899,0.06879701465368271,0.0,0.6748842597007751,0.0,0.0,-0.7379236221313477,0.2268431931734085,-0.444080650806427,0.0,0.0,0.0,-2.523580551147461,0.3079044818878174,0.7840554714202881,0.42218297719955444,0.70182865858078,-0.04025232046842575,0.03382846713066101,-0.7104025483131409,1.1224017143249512,-1.0186591148376465,0.015735946595668793,0.7074199318885803,1.7683899402618408,1.522616982460022,0.31116974353790283,0.7892604470252991,0.42745471000671387,1.0853344202041626,-1.093665599822998,-0.09680504351854324,0.32542896270751953,0.7482259273529053,0.42000001668930054,-0.2798919975757599,1.3897042274475098,-1.2334553003311157,3.000199794769287,-0.21239982545375824,-0.21277587115764618,-0.2164342999458313,-0.19073361158370972,0.619504988193512,0.659238874912262,0.43298664689064026,0.11481567472219467
0.6,-0.03440253809094429,0.06660719215869904,0.0,0.6764431595802307,0.0,0.0,-0.7364948391914368,0.34319034218788147,-0.11593305319547653,0.0,0.0,0.0,0.9983428120613098,0.3202154040336609,0.7689797282218933,0.42254042625427246,0.7452933192253113,-0.05064639076590538,0.04573337361216545,-0.6632353663444519,0.5274974703788757,-0.7002121806144714,0.050950322300195694,-0.4122343063354492,2.670086622238159,7.504861354827881,0.3245915174484253,0.7723298668861389,0.4279754161834717,0.6251956820487976,-0.8007262349128723,0.08616051077842712,0.32542896270751953,0.7482259273529053,0.42000001668930054,-0.25645193457603455,1.5322684049606323,-1.254345178604126,-2.9980692863464355,-0.20558969676494598,-0.20507872104644775,-0.2114166021347046,-0.19080406427383423,0.5267682075500488,0.5218950510025024,0.35634899139404297,0.013446859084069729
0.6166666666666667,-0.027168096974492073,0.06093208119273186,0.0,0.6663395166397095,0.0,0.0,-0.7456484436988831,0.48274675011634827,-0.36068859696388245,0.0,0.0,0.0,-2.4693212509155273,0.32386115193367004,0.7639145255088806,0.4237961173057556,0.8124116659164429,-0.042838677763938904,0.06566482782363892,-0.5777891278266907,-0.19148212671279907,-0.18477647006511688,-0.04574914276599884,1.3068865537643433,-1.9636645317077637,19.364517211914062,0.3305535316467285,0.7648919820785522,0.428811639547348,0.14628130197525024,-0.3598635196685791,-0.0627535879611969,0.32542896270751953,0.7482259273529053,0.42000001668930054,-0.23058873414993286,1.5626165866851807,-1.216288447380066,3.0000011920928955,-0.19442692399024963,-0.19466210901737213,-0.20361775159835815,-0.18898950517177582,0.5706371068954468,0.5393287539482117,0.43235719203948975,0.09802292287349701
0.6333333333333333,-0.021920211613178253,0.058557551354169846,0.0,0.6685911417007446,0.0,0.0,-0.7436302304267883,0.25776341557502747,-0.09772631525993347,0.0,0.0,0.0,1.1791380643844604,0.3260553181171417,0.7614374160766602,0.42142152786254883,0.7880532145500183,-0.02853856049478054,0.02248244546353817,-0.6145341396331787,0.02032308280467987,-0.25619494915008545,-0.08656170964241028,1.3791509866714478,-4.700753688812256,-4.472559928894043,0.33043259382247925,0.7581801414489746,0.4268457889556885,-0.00042404234409332275,-0.27498358488082886,0.07593178749084473,0.32542896270751953,0.7482259273529053,0.42000001668930054,-0.22990842163562775,-1.171119213104248,-1.2374612092971802,-2.9996676445007324,-0.18729710578918457,-0.187885582447052,-0.1978662759065628,-0.1882832646369934,0.41672319173812866,0.3836820721626282,0.3423102796077728,0.05393495038151741
0.65,-0.016378095373511314,0.0594295933842659,0.0,0.660466730594635,0.0,0.0,-0.7508553266525269,0.3728494644165039,0.10796745866537094,0.0,0.0,0.0,-2.182344675064087,0.32847854495048523,0.7605299949645996,0.42254838347435,0.7823283672332764,-0.052303873002529144,0.034831561148166656,-0.6196881532669067,0.20818549394607544,-0.028773464262485504,0.09052489697933197,-2.777862548828125,1.8207017183303833,-4.823866844177246,0.33229705691337585,0.758398175239563,0.4281478524208069,0.1847842037677765,0.13157537579536438,0.0953984335064888,0.32542896270751953,0.7482259273529053,0.42000001668930054,-0.2429686039686203,-0.504292368888855,-1.2874201536178589,-2.9976420402526855,-0.1794445663690567,-0.1813151240348816,-0.19215504825115204,-0.18740513920783997,0.5105329155921936,0.4164600670337677,0.3705967664718628,0.0910140872001648
0.6666666666666666,-0.00859684869647026,0.05579129606485367,0.0,0.6646382212638855,0.0,0.0,-0.747165322303772,0.456879198551178,-0.23255734145641327,0.0,0.0,0.0,1.5325210094451904,0.3277842700481415,0.7620925307273865,0.4250354468822479,0.7409287691116333,-0.10791302472352982,0.08372792601585388,-0.657547652721405,-0.13073213398456573,0.13256718218326569,0.15494728088378906,0.05559254437685013,13.005962371826172,-9.591447830200195,0.33333820104599,0.7598794102668762,0.430583655834198,-0.10235946625471115,0.05245860293507576,0.1772173047065735,0.32542896270751953,0.7482259273529053,0.42000001668930054,-0.2859586775302887,-2.9999306201934814,-1.3374133110046387,-2.999420166015625,-0.16825319826602936,-0.17183667421340942,-0.18332301080226898,-0.18299119174480438,0.5605607032775879,0.4937795102596283,0.5002934336662292,0.28508320450782776
0.6833333333333333,-0.002279130509123206,0.056125301867723465,0.0,0.6593549847602844,0.0,0.0,-0.7518317699432373,0.30684706568717957,0.026297645643353462,0.0,0.0,0.0,-2.121443271636963,0.3260365426540375,0.7642192840576172,0.4264001250267029,0.6796497106552124,-0.14369641244411469,0.14733794331550598,-0.7040731310844421,-0.0927145853638649,0.1250484585762024,0.06924887746572495,-0.2380024641752243,6.049489498138428,-9.549952507019043,0.3326694667339325,0.7612719535827637,0.43390709161758423,-0.02919900231063366,0.1200924888253212,0.2338666021823883,0.32542896270751953,0.7482259273529053,0.42000001668930054,-0.33591020107269287,-2.996598958969116,-1.387389063835144,-2.9996769428253174,-0.1615198254585266,-0.1658012568950653,-0.17657022178173065,-0.17896102368831635,0.4928831160068512,0.43282613158226013,0.4679381847381592,0.3149231970310211
0.7,0.003995847888290882,0.05386477708816528,0.0,0.6636067032814026,0.0,0.0,-0.748081624507904,0.4015916883945465,-0.1938769668340683,0.0,0.0,0.0,1.5538768768310547,0.3246629238128662,0.7658992409706116,0.4267721474170685,0.6268660426139832,-0.14583618938922882,0.17314110696315765,-0.7455151081085205,-0.08199240267276764,0.0927126333117485,0.013754243962466717,0.15995393693447113,1.4472066164016724,-7.332822322845459,0.3303700089454651,0.7621145844459534,0.4411745071411133,-0.2027270793914795,0.036962006241083145,0.6795856356620789,0.32542896270751953,0.7482259273529053,0.42000001668930054,-0.38592442870140076,-3.0000014305114746,-1.437407374382019,-3.000000476837158,-0.15685635805130005,-0.16119073331356049,-0.1704007089138031,-0.17414197325706482,0.1733819544315338,0.19856953620910645,0.321177214384079,0.28418081998825073
0.7166666666666667,0.011861098930239677,0.04859141260385513,0.0,0.6566295027732849,0.0,0.0,-0.7542133331298828,0.5148501396179199,-0.3809593617916107,0.0,0.0,0.0,-2.012010335922241,0.323261022567749,0.7670787572860718,0.4265504479408264,0.600691556930542,-0.13198111951351166,0.1694326549768448,-0.7700930237770081,-0.0856524184346199,0.06312853842973709,-0.0218270905315876,-0.5104069113731384,-2.3056564331054688,-3.401747226715088,0.3303084075450897,0.7610889673233032,0.44862401485443115,0.17425844073295593,-0.17190603911876678,0.40046656131744385,0.32542896270751953,0.7482259273529053,0.42000001668930054,-0.43593814969062805,-3.000000476837158,-1.487425684928894,-2.999999761581421,-0.1556408852338791,-0.15896043181419373,-0.1654832810163498,-0.16884192824363708,0.03935275971889496,0.1260034590959549,0.3133311867713928,0.38140425086021423
0.7333333333333333,0.022107833996415138,0.039863958954811096,0.0,0.629378616809845,0.0,0.0,-0.7770987749099731,0.6555770635604858,-0.5995379686355591,0.0,0.0,0.0,-5.147251129150391,0.32161927223205566,0.7677435278892517,0.4257029891014099,0.6015821695327759,-0.10715960711240768,0.13879035413265228,-0.7793285250663757,-0.10605381429195404,0.030463887378573418,-0.0593339279294014,-1.418594479560852,-5.375916004180908,0.25104662775993347,0.33618342876434326,0.7582899928092957,0.4630564749240875,0.5681726336479187,-0.15459659695625305,1.4454255104064941,0.32542896270751953,0.7482259273529053,0.42000001668930054,-0.4859512150287628,-2.999966621398926,-1.537443995475769,-2.999999523162842,-0.15762385725975037,-0.1591624766588211,-0.1623152494430542,-0.16402442753314972,-0.18376699090003967,-0.07031542807817459,0.13274410367012024,0.24752721190452576
0.75,0.03070841170847416,0.036048468202352524,0.0,0.6155897378921509,0.0,0.0,-0.7880668044090271,0.42587780952453613,-0.310596764087677,0.0,0.0,0.0,-0.9390646815299988,0.3194065988063812,0.7683923244476318,0.4241354167461395,0.6100844740867615,-0.07157740741968155,0.09184975922107697,-0.7837327718734741,-0.14167368412017822,0.04279860854148865,-0.10415279865264893,-1.9618936777114868,-7.586517333984375,0.5020654797554016,0.3457270562648773,0.7588852643966675,0.4939393401145935,0.7344452142715454,0.31827443838119507,2.1255946159362793,0.32542896270751953,0.7482259273529053,0.42000001668930054,-0.5239942669868469,-1.6480991840362549,-1.5874590873718262,-2.999999761581421,-0.1655396968126297,-0.16482742130756378,-0.1644866168498993,-0.16406412422657013,-0.16679006814956665,-0.13752266764640808,-0.03563563898205757,0.005340665578842163
0.7666666666666666,0.035067155957221985,0.033347513526678085,0.0,0.6262800097465515,0.0,0.0,-0.7795981764793396,0.20878857374191284,-0.10354345291852951,0.0,0.0,0.0,2.432462453842163,0.31671714782714844,0.7691596150398254,0.4214218556880951,0.6159572005271912,-0.02133786864578724,0.02719535119831562,-0.787020742893219,-0.16845391690731049,0.04428666830062866,-0.17971231043338776,-2.5899507999420166,-10.473904609680176,0.1848907321691513,0.35804957151412964,0.7633026838302612,0.5227475166320801,0.6367471814155579,0.22702357172966003,1.393595576286316,0.32542896270751953,0.7482259273529053,0.42000001668930054,-0.5269628167152405,1.0582845211029053,-1.6374735832214355,-2.999999761581421,-0.16767138242721558,-0.1665171980857849,-0.16466929018497467,-0.16356013715267181,-0.07523300498723984,-0.05103561654686928,0.02722145803272724,0.06547752767801285
0.7833333333333333,0.03601646050810814,0.03387020155787468,0.0,0.623080313205719,0.0,0.0,-0.782157838344574,0.00878686923533678,0.10134163498878479,0.0,0.0,0.0,-1.4085605144500732,0.3150956332683563,0.7695512771606445,0.4200001657009125,0.6166790723800659,7.285393166966969e-06,-1.638641037970956e-06,-0.7872146368026733,-0.008662653155624866,-0.0012976585421711206,-0.0003511627437546849,-0.009032642468810081,0.017725326120853424,0.1549329161643982,0.3617568016052246,0.7673718929290771,0.5391309261322021,-0.18132054805755615,0.24061530828475952,0.7656159400939941,0.32542896270751953,0.7482259273529053,0.42000001668930054,-0.5007944107055664,1.9790111780166626,-1.5983550548553467,3.0,-0.1682213842868805,-0.1669919341802597,-0.16428714990615845,-0.16279669106006622,-0.009447301737964153,-0.007583359256386757,0.03171272948384285,0.04967928305268288
0.8,0.03398000821471214,0.03053949773311615,0.0,0.6316137909889221,0.0,0.0,-0.7752832174301147,-0.11824509501457214,-0.2633216977119446,0.0,0.0,0.0,2.1302073001861572,0.3150956332683563,0.7695516347885132,0.4200000464916229,0.6166794300079346,1.6667382851665025e-07,-3.944312084058765e-06,-0.7872143983840942,0.00016281838179565966,-0.000309316033963114,-8.270214311778545e-05,0.0068290820345282555,-0.00038795190630480647,-0.0005614556139335036,0.35843491554260254,0.7710909843444824,0.5524425506591797,-0.27567461133003235,0.15576815605163574,0.8558867573738098,0.32542896270751953,0.7482259273529053,0.42000001668930054,-0.4852209687232971,0.044450823217630386,-1.5482985973358154,3.000000476837158,-0.16579589247703552,-0.16464845836162567,-0.16151000559329987,-0.15978623926639557,0.09270280599594116,0.10799040645360947,0.14651653170585632,0.17855271697044373
0.8166666666666667,0.03290673345327377,0.03205866366624832,0.0,0.62758469581604,0.0,0.0,-0.7785483002662659,-0.10266571491956711,0.044810183346271515,0.0,0.0,0.0,-1.115112543106079,0.31509560346603394,0.7695516347885132,0.4200000464916229,0.6166791319847107,4.5517344915424474e-07,-3.7094384879310383e-06,-0.7872146368026733,0.00016404787311330438,-0.00028032888076268137,-9.924429468810558e-05,0.005953403189778328,-0.0007382638286799192,-0.0005868782172910869,0.35190749168395996,0.7718117237091064,0.5613396167755127,-0.3566414713859558,0.15483596920967102,0.3477499186992645,0.32542896270751953,0.7482259273529053,0.42000001668930054,-0.4841853082180023,0.07687149941921234,-1.4982562065124512,3.000000476837158,-0.1683432012796402,-0.16624517738819122,-0.16190718114376068,-0.15904027223587036,0.1329358071088791,0.12000485509634018,0.1264408677816391,0.14540152251720428
0.8333333333333334,0.03349935635924339,0.030528228729963303,0.0,0.6357280611991882,0.0,0.0,-0.7719131112098694,0.08722701668739319,-0.13473384082317352,0.0,0.0,0.0,2.010880708694458,0.31509560346603394,0.7695516347885132,0.4200000464916229,0.6166793704032898,4.715028296686796e-07,-3.5587522688729223e-06,-0.7872143387794495,0.00016144633991643786,-0.0002808590361382812,-9.849364869296551e-05,0.00597943551838398,-0.0007706735050305724,-0.0005814661853946745,0.34808897972106934,0.7723555564880371,0.5691112279891968,-0.10162551701068878,-0.06600666791200638,0.635059118270874,0.32542896270751953,0.7482259273529053,0.42000001668930054,-0.5129649639129639,-3.0000011920928955,-1.5005499124526978,-2.773421049118042,-0.1677861213684082,-0.16536937654018402,-0.16047614812850952,-0.1567923128604889,-0.021863823756575584,0.015698127448558807,0.06299542635679245,0.1288737952709198
0.85,0.03664571791887283,0.0268474780023098,0.0,0.6312419176101685,0.0,0.0,-0.775585949420929,0.22885939478874207,-0.2989044189453125,0.0,0.0,0.0,-1.5412193536758423,0.31509557366371155,0.7695516347885132,0.4200000464916229,0.6166791915893555,5.565561878029257e-07,-3.3294920740445377e-06,-0.787214457988739,0.0001621432020328939,-0.0002796212793327868,-9.877863340079784e-05,0.005946268327534199,-0.0007581159588880837,-0.0005824280669912696,0.3495835065841675,0.7679239511489868,0.5717989206314087,0.2730899155139923,-0.45784279704093933,-0.10351642221212387,0.32542896270751953,0.7482259273529053,0.42000001668930054,-0.5536823272705078,-1.9439786672592163,-1.5505664348602295,-2.999999523162842,-0.16937944293022156,-0.16565173864364624,-0.15929898619651794,-0.1537747085094452,-0.07925418764352798,0.02654190920293331,0.13982084393501282,0.2788938283920288
0.8666666666666667,0.0425550639629364,0.023262668401002884,0.0,0.6055856943130493,0.0,0.0,-0.7957800626754761,0.4019394516944885,-0.1769241839647293,0.0,0.0,0.0,-4.813504695892334,0.31509560346603394,0.7695516347885132,0.4200000464916229,0.6166794896125793,5.59966451874061e-07,-3.1552326618111692e-06,-0.7872142791748047,0.0001611954066902399,-0.00028011127142235637,-9.849434718489647e-05,0.005963125266134739,-0.0007709886995144188,-0.0005805776454508305,0.3577379584312439,0.7590929269790649,0.572966456413269,0.7146469950675964,-0.5772140026092529,0.3800569772720337,0.32542896270751953,0.7482259273529053,0.42000001668930054,-0.5937592387199402,-2.76112961769104,-1.6005847454071045,-2.9999988079071045,-0.1706712692975998,-0.16564492881298065,-0.15788784623146057,-0.1504785418510437,-2.0388979464769363e-06,0.04661882668733597,0.09787742048501968,0.18018130958080292
0.8833333333333333,0.05086122080683708,0.023172173649072647,0.0,0.5953859686851501,0.0,0.0,-0.8034398555755615,0.5320462584495544,0.06864962726831436,0.0,0.0,0.0,-0.5310112237930298,0.31509560346603394,0.7695516347885132,0.4200000464916229,0.6166793704032898,4.6122192998154787e-07,-3.4520760436862474e-06,-0.7872143983840942,0.0001623474818188697,-0.0002807260025292635,-9.872228838503361e-05,0.005971750244498253,-0.0007589448941871524,-0.0005833865143358707,0.36743900179862976,0.7536715269088745,0.5815236568450928,0.46609169244766235,-0.1519986242055893,0.6311320066452026,0.32542896270751953,0.7482259273529053,0.42000001668930054,-0.6097375750541687,0.568770706653595,-1.6506017446517944,-3.0,-0.16963055729866028,-0.16455940902233124,-0.15675416588783264,-0.148811936378479,0.13115662336349487,0.09803066402673721,0.05935869738459587,0.046165429055690765
0.9,0.056263938546180725,0.025348391383886337,0.0,0.6095974445343018,0.0,0.0,-0.7927111387252808,0.2632090449333191,0.22007203102111816,0.0,0.0,0.0,2.939513683319092,0.31509560346603394,0.7695516347885132,0.4200000464916229,0.6166794896125793,5.421869104793586e-07,-3.3123242246801965e-06,-0.7872143387794495,0.00016214404604397714,-0.00028038761229254305,-9.877257980406284e-05,0.005964205600321293,-0.0007622078992426395,-0.0005828923312947154,0.37537139654159546,0.754353940486908,0.5906248092651367,0.4551013708114624,0.16168764233589172,0.49279576539993286,0.32542896270751953,0.7482259273529053,0.42000001668930054,-0.5795964002609253,2.8273532390594482,-1.6114434003829956,2.999999523162842,-0.16475626826286316,-0.1609475314617157,-0.15452954173088074,-0.147565096616745,0.3226677477359772,0.23117855191230774,0.12804776430130005,0.0456790030002594
0.9166666666666666,0.057798758149147034,0.023894164711236954,0.0,0.6102035641670227,0.0,0.0,-0.7922446727752686,0.0717296227812767,-0.1583118736743927,0.0,0.0,0.0,-0.898116409778595,0.31509560346603394,0.7695516347885132,0.4200000464916229,0.6166791915893555,5.452452001009078e-07,-3.2697198548703454e-06,-0.7872145771980286,0.00016172885079868138,-0.000280406151432544,-9.863381274044514e-05,0.005967321339994669,-0.0007662338903173804,-0.0005819049547426403,0.37942442297935486,0.7580847144126892,0.5971428155899048,0.021340200677514076,0.2064410001039505,0.41597214341163635,0.32542896270751953,0.7482259273529053,0.42000001668930054,-0.5573508739471436,0.06316254287958145,-1.5613869428634644,3.000000238418579,-0.1571158915758133,-0.15522029995918274,-0.15093475580215454,-0.14578592777252197,0.37830767035484314,0.2803422808647156,0.1648464798927307,0.06274773925542831
0.9333333333333333,0.05674908682703972,0.027612995356321335,0.0,0.6218768358230591,0.0,0.0,-0.7831150889396667,-0.10015682876110077,0.1962466686964035,0.0,0.0,0.0,2.5118515491485596,0.31509560346603394,0.7695516347885132,0.4200000464916229,0.6166794300079346,5.732846375394729e-07,-3.4805295854312135e-06,-0.7872142791748047,0.0001612429623492062,-0.00028036590083502233,-9.852368384599686e-05,0.005968423094600439,-0.0007725261966697872,-0.00058086117496714,0.38011088967323303,0.7581825256347656,0.6012561321258545,0.19942200183868408,0.009688857942819595,0.11065137386322021,0.32542896270751953,0.7482259273529053,0.42000001668930054,-0.5411232113838196,1.7282861471176147,-1.511330485343933,3.0,-0.15721750259399414,-0.1554044485092163,-0.15158849954605103,-0.14683891832828522,0.14933188259601593,0.11909128725528717,0.07132215797901154,0.03199860453605652
0.95,0.05333207547664642,0.027866534888744354,0.0,0.6193796396255493,0.0,0.0,-0.7850916385650635,-0.2541297376155853,-0.03297644853591919,0.0,0.0,0.0,-1.2672890424728394,0.31509560346603394,0.7695516347885132,0.4200000464916229,0.616679310798645,5.512442839972209e-07,-3.4536903967818944e-06,-0.7872143983840942,0.00016099044296424836,-0.00028058758471161127,-9.843287989497185e-05,0.005975729785859585,-0.0007756837294436991,-0.0005803321837447584,0.3805311918258667,0.7587467432022095,0.6011337041854858,-0.15575452148914337,0.04351501911878586,0.03567342460155487,0.32542896270751953,0.7482259273529053,0.42000001668930054,-0.5252612829208374,0.2862289845943451,-1.4612740278244019,2.999999523162842,-0.1556701511144638,-0.1543041318655014,-0.15121959149837494,-0.14709267020225525,0.03550312668085098,0.016835419461131096,-0.019662007689476013,-0.052405912429094315
