vladlanda/robotic-transformer/data/env_000_episode_0249.csv
sim_time_s,robot_box_x,robot_box_y,robot_box_z,robot_box_quat_w,robot_box_quat_x,robot_box_quat_y,robot_box_quat_z,robot_box_linvel_x,robot_box_linvel_y,robot_box_linvel_z,robot_box_angvel_x,robot_box_angvel_y,robot_box_angvel_z,cube_world_x,cube_world_y,cube_world_z,cube_quat_w,cube_quat_x,cube_quat_y,cube_quat_z,cube_linvel_x,cube_linvel_y,cube_linvel_z,cube_angvel_x,cube_angvel_y,cube_angvel_z,endpoint_world_x,endpoint_world_y,endpoint_world_z,endpoint_linvel_x,endpoint_linvel_y,endpoint_linvel_z,target_cube_world_x,target_cube_world_y,target_cube_world_z,gripper_actual_pos_rad_gp_leftgearjoint,gripper_actual_vel_rad_s_gp_leftgearjoint,gripper_actual_pos_rad_gp_rotatingjoint,gripper_actual_vel_rad_s_gp_rotatingjoint,motor_angle_rad_joint1,motor_angle_rad_joint2,motor_angle_rad_joint3,motor_angle_rad_joint4,motor_speed_rad_s_joint1,motor_speed_rad_s_joint2,motor_speed_rad_s_joint3,motor_speed_rad_s_joint4
0.0,0.0,0.0,0.0,1.0,0.0,0.0,0.0,0.0,0.0,0.0,0.0,0.0,0.0,-0.419482558965683,0.724509060382843,0.41999998688697815,1.0,0.0,0.0,0.0,0.0,0.0,0.0,0.0,0.0,0.0,3.42540442943573e-06,-0.005000244826078415,1.313499927520752,0.0,0.0,0.0,0.4746708571910858,0.6705162525177002,0.42000001668930054,-1.5707999467849731,0.0,0.0,0.0,0.0,0.0,0.0,0.0,0.0,0.0,0.0,0.0
0.016666666666666666,0.0028778850100934505,0.0021806680597364902,0.0,0.9998081922531128,0.0,0.0,0.019586581736803055,0.24087215960025787,0.18240931630134583,0.0,0.0,0.0,3.1418697834014893,-0.41948267817497253,0.7245087623596191,0.41999998688697815,1.0,3.2799914606584935e-06,-8.339814598912199e-07,8.465387679734704e-08,-1.9833554688375443e-05,0.00017983050202019513,-6.133061833679676e-05,0.0009432226070202887,-0.004689437802881002,-0.0003198152990080416,-0.007110234349966049,0.003379564033821225,1.3159373998641968,-0.8143353462219238,0.9868683815002441,0.18095196783542633,0.4746708571910858,0.6705162525177002,0.42000001668930054,-1.5301095247268677,3.0000011920928955,-0.04584788903594017,-2.9999992847442627,0.0008691533003002405,0.0007963840034790337,0.0007110277656465769,0.0006108740926720202,0.11094217747449875,0.09756709635257721,0.08334315568208694,0.06823883205652237
0.03333333333333333,0.008960993960499763,0.006802009884268045,0.0,0.9997960329055786,0.0,0.0,0.02019684761762619,0.40702223777770996,0.31530794501304626,0.0,0.0,0.0,-0.8691326379776001,-0.4194827973842621,0.7245087027549744,0.4200000464916229,1.0,3.390914116607746e-06,-2.132455392711563e-06,-3.71076644967161e-08,0.0002635782293509692,0.00026937935035675764,-0.00010509486310184002,-0.001770757487975061,0.0041308156214654446,-0.00013547815615311265,-0.0275555569678545,0.02626386657357216,1.3165857791900635,-1.5913386344909668,1.616218090057373,-0.08635703474283218,0.4746708571910858,0.6705162525177002,0.42000001668930054,-1.4800903797149658,3.0000007152557373,-0.09588771313428879,-3.0000011920928955,0.0029900968074798584,0.0026526986621320248,0.00227726181037724,0.0018607113743200898,0.16421325504779816,0.13975650072097778,0.11381510645151138,0.08629674464464188
0.05,0.017666060477495193,0.013551059179008007,0.0,0.9999656081199646,0.0,0.0,0.00829574279487133,0.579024076461792,0.44264107942581177,0.0,0.0,0.0,-1.7107607126235962,-0.4194828271865845,0.7245087623596191,0.4200000464916229,1.0,3.7652293940482195e-06,-2.2118967990536476e-06,5.613899567435965e-09,0.000265309150563553,0.0002669153909664601,-0.0001044049859046936,-0.00172426737844944,0.004177379421889782,-0.0001294983085244894,-0.058089353144168854,0.05656995624303818,1.3114895820617676,-2.0280818939208984,1.994512915611267,-0.4912858307361603,0.4746708571910858,0.6705162525177002,0.42000001668930054,-1.4300720691680908,3.000002145767212,-0.14592638611793518,-3.0000014305114746,0.005689739715307951,0.004881314467638731,0.004000702407211065,0.0030433903448283672,0.18683043122291565,0.1485070288181305,0.10830704122781754,0.06612864136695862
0.06666666666666667,0.028678422793745995,0.02261273004114628,0.0,0.9999198317527771,0.0,0.0,0.012661521323025227,0.7043302655220032,0.5878991484642029,0.0,0.0,0.0,1.8624558448791504,-0.4194828271865845,0.7245087027549744,0.4200000464916229,0.9999999403953552,3.4068445984303253e-06,-2.2855729184811935e-06,4.300823945868615e-07,0.000267024093773216,0.0002679175231605768,-0.0001043803058564663,-0.0017406325787305832,0.004211729858070612,-0.00012850853090640157,-0.09472869336605072,0.08989974111318588,1.2999987602233887,-2.2878541946411133,2.0906190872192383,-0.8625364303588867,0.4746708571910858,0.6705162525177002,0.42000001668930054,-1.3800537586212158,2.999997854232788,-0.19595326483249664,-2.999999761581421,0.007868128828704357,0.006313943769782782,0.004648610483855009,0.0028661396354436874,0.11711059510707855,0.06116770580410957,0.0031745112501084805,-0.056934308260679245
0.08333333333333333,0.04119543358683586,0.033893514424562454,0.0,0.9999902844429016,0.0,0.0,0.004404157400131226,0.8497800230979919,0.7064700126647949,0.0,0.0,0.0,-1.9055688381195068,-0.4194828271865845,0.7245087027549744,0.4200000464916229,0.9999999403953552,3.6261940294934902e-06,-2.335324097657576e-06,3.032077131592814e-07,0.00026613869704306126,0.00026684990734793246,-0.00010405178181827068,-0.0017283851047977805,0.004196336027234793,-0.00012790512118954211,-0.13024742901325226,0.13071571290493011,1.2830499410629272,-2.0280487537384033,2.675757884979248,-1.1322963237762451,0.4746708571910858,0.6705162525177002,0.42000001668930054,-1.3300260305404663,2.99999737739563,-0.16218632459640503,3.000000238418579,0.008201805874705315,0.00557633675634861,0.0028004006016999483,-0.00013290207425598055,0.0025157416239380836,-0.07590974122285843,-0.1563647836446762,-0.23879869282245636
0.1,0.048639170825481415,0.04864542558789253,0.0,0.9993956685066223,0.0,0.0,-0.034760456532239914,0.3141016960144043,0.9574841260910034,0.0,0.0,0.0,-5.640138626098633,-0.4194828271865845,0.7245087027549744,0.4200000464916229,1.0,3.4221902751596645e-06,-2.308589955646312e-06,1.7962148035621794e-07,0.0002668164379429072,0.00026800547493621707,-0.00010440824553370476,-0.0017430244479328394,0.0042070322670042515,-0.00012891182268504053,-0.16033366322517395,0.17782936990261078,1.263113021850586,-1.6664679050445557,2.9054617881774902,-1.2061622142791748,0.4746708571910858,0.6705162525177002,0.42000001668930054,-1.280033826828003,3.000000476837158,-0.1939239799976349,-2.999999523162842,0.0019391253590583801,-0.0016290182247757912,-0.005397328641265631,-0.009375136345624924,-0.5001019835472107,-0.5586460828781128,-0.6195910573005676,-0.683114230632782
0.11666666666666667,0.052866362035274506,0.06400001794099808,0.0,0.9983447194099426,0.0,0.0,-0.05751389265060425,0.3063103258609772,0.9719424247741699,0.0,0.0,0.0,-1.078368067741394,-0.4194828271865845,0.7245087623596191,0.4200000464916229,1.0,3.7115696613909677e-06,-2.3326665541389957e-06,2.5742116349647404e-07,0.00026485652779228985,0.0002663531631696969,-0.00010423525236546993,-0.0017182076117023826,0.004170072730630636,-0.00012915638217236847,-0.19476580619812012,0.22216308116912842,1.2440173625946045,-2.2200121879577637,2.747685432434082,-1.200477123260498,0.4746708571910858,0.6705162525177002,0.42000001668930054,-1.2300337553024292,3.000000476837158,-0.24395568668842316,-2.999998092651367,-0.0036804592236876488,-0.008709143847227097,-0.01392221450805664,-0.019328974187374115,-0.16506172716617584,-0.27572548389434814,-0.3828169107437134,-0.48616936802864075
0.13333333333333333,0.05572890862822533,0.0777519941329956,0.0,0.9961718320846558,0.0,0.0,-0.08741682767868042,0.127023383975029,0.7560369968414307,0.0,0.0,0.0,-4.4368743896484375,-0.4194828271865845,0.7245087027549744,0.4200000464916229,1.0,3.33580555889057e-06,-2.2318915853247745e-06,3.1130230127018876e-07,0.0002666967629920691,0.00026759342290461063,-0.00010428694076836109,-0.0017371419817209244,0.004205943085253239,-0.0001284025638597086,-0.22787684202194214,0.2743968367576599,1.2218317985534668,-1.7717962265014648,3.4758312702178955,-1.4598388671875,0.4746708571910858,0.6705162525177002,0.42000001668930054,-1.18001389503479,2.9999897480010986,-0.20993170142173767,2.999999523162842,-0.007193188648670912,-0.01419906783849001,-0.021311623975634575,-0.028537530452013016,-0.26512840390205383,-0.3818444311618805,-0.4936268925666809,-0.6003395318984985
0.15,0.06371623277664185,0.09292957931756973,0.0,0.9891740083694458,0.0,0.0,-0.1467474400997162,0.663631796836853,0.9702023267745972,0.0,0.0,0.0,-8.12888240814209,-0.4194828271865845,0.7245087027549744,0.4200000464916229,1.0,3.5190355447412003e-06,-2.283108187839389e-06,-3.6255448776501e-07,0.000266183604253456,0.0002673582639545202,-0.00010425667278468609,-0.0017349626868963242,0.004195743706077337,-0.00012861307186540216,-0.2578290104866028,0.3338243365287781,1.1947933435440063,-1.7400466203689575,3.7109265327453613,-1.8384058475494385,0.4746708571910858,0.6705162525177002,0.42000001668930054,-1.1514477729797363,0.6094647645950317,-0.24133600294589996,-3.000000476837158,-0.00890079140663147,-0.017993731424212456,-0.02709139510989189,-0.036198001354932785,-0.06909310817718506,-0.18316897749900818,-0.2912040650844574,-0.3930901885032654
0.16666666666666666,0.0693315863609314,0.10470995306968689,0.0,0.981967568397522,0.0,0.0,-0.1890496015548706,0.3619241714477539,0.6586041450500488,0.0,0.0,0.0,-3.923150062561035,-0.4194828271865845,0.7245087027549744,0.4200000464916229,1.0,3.666726797746378e-06,-2.339156480957172e-06,-3.150096574700001e-07,0.00026595761300995946,0.0002666733635123819,-0.0001040350180119276,-0.0017252563266083598,0.004192715510725975,-0.00012778647942468524,-0.29362747073173523,0.39335015416145325,1.1557544469833374,-2.071837902069092,3.934523582458496,-2.745522975921631,0.4746708571910858,0.6705162525177002,0.42000001668930054,-1.1104590892791748,2.9999945163726807,-0.2592599391937256,0.5543996095657349,-0.015379304066300392,-0.02530212327837944,-0.035171933472156525,-0.04500060901045799,-0.34583336114883423,-0.38836297392845154,-0.42674097418785095,-0.46134865283966064
0.18333333333333332,0.07231346517801285,0.11713196337223053,0.0,0.9707933664321899,0.0,0.0,-0.23991718888282776,0.09850486367940903,0.8047415614128113,0.0,0.0,0.0,-7.051634311676025,-0.4194828271865845,0.7245087027549744,0.4200000464916229,1.0,3.814431011051056e-06,-2.3995532956178067e-06,-2.702744552607328e-07,0.0002654912241268903,0.000266111281234771,-0.00010391324758529663,-0.001717864186502993,0.00418497622013092,-0.00012754154158756137,-0.32717636227607727,0.46075159311294556,1.1064099073410034,-1.7324999570846558,4.305820465087891,-3.190910577774048,0.4746708571910858,0.6705162525177002,0.42000001668930054,-1.0609019994735718,2.916811466217041,-0.3027116060256958,-2.999999761581421,-0.023453185334801674,-0.03395679220557213,-0.044333070516586304,-0.05459977313876152,-0.5877244472503662,-0.6096404790878296,-0.6276351809501648,-0.6420459151268005
0.2,0.07186690717935562,0.12730565667152405,0.0,0.9626363515853882,0.0,0.0,-0.2707974910736084,-0.12917201220989227,0.5559282898902893,0.0,0.0,0.0,-2.7071011066436768,-0.4194828271865845,0.7245087027549744,0.4200000464916229,1.0,3.6001260923512746e-06,-2.2912167878530454e-06,-2.2018525669409428e-07,0.0002657284203451127,0.0002664485073182732,-0.00010398100130259991,-0.0017226488562300801,0.0041888137347996235,-0.00012773837079294026,-0.35845574736595154,0.5282533764839172,1.0440123081207275,-1.611562967300415,4.123927593231201,-4.239781379699707,0.4746708571910858,0.6705162525177002,0.42000001668930054,-1.0195279121398926,2.0854389667510986,-0.35273706912994385,-3.000001907348633,-0.035252124071121216,-0.04541592672467232,-0.05541500449180603,-0.06527910381555557,-0.8512876629829407,-0.7944772243499756,-0.7372921705245972,-0.6806433796882629
0.21666666666666667,0.07176718860864639,0.13825225830078125,0.0,0.9501097202301025,0.0,0.0,-0.3119158446788788,0.04421129822731018,0.6998929977416992,0.0,0.0,0.0,-6.013767242431641,-0.4194828271865845,0.7245087027549744,0.4200000464916229,0.9999999403953552,3.6397161693457747e-06,-2.261916051793378e-06,2.224815318641049e-07,0.00026687278295867145,0.0002675443247426301,-0.00010411837138235569,-0.0017404217505827546,0.004211027175188065,-0.00012783741112798452,-0.38524678349494934,0.594765305519104,0.9651216268539429,-1.3544729948043823,3.9032416343688965,-5.132457733154297,0.4746708571910858,0.6705162525177002,0.42000001668930054,-0.9709115028381348,3.000000238418579,-0.4027639627456665,-2.999999523162842,-0.051306094974279404,-0.061033595353364944,-0.06994328647851944,-0.07833904772996902,-0.9777154326438904,-0.9693483710289001,-0.9222531914710999,-0.8200108408927917
0.23333333333333334,0.07012052834033966,0.14925119280815125,0.0,0.9425216913223267,0.0,0.0,-0.3341449797153473,-0.1518733948469162,0.6466630697250366,0.0,0.0,0.0,-1.7806369066238403,-0.4194827973842621,0.7245087027549744,0.4200000464916229,1.0,3.4208417218906106e-06,-2.3167299332271796e-06,2.955848401597905e-07,0.00026680331211537123,0.0002680404868442565,-0.00010442500934004784,-0.0017438061768189073,0.004206990823149681,-0.00012899591820314527,-0.40920066833496094,0.6507065296173096,0.873563289642334,-1.1670767068862915,3.0564253330230713,-5.810916900634766,0.4746708571910858,0.6705162525177002,0.42000001668930054,-0.9209012389183044,3.000002145767212,-0.4527932405471802,-2.999999761581421,-0.06760891526937485,-0.07723923027515411,-0.0860564336180687,-0.09286395460367203,-0.9876272082328796,-0.9800278544425964,-0.9649929404258728,-0.8696022033691406
0.25,0.07050281018018723,0.1570952832698822,0.0,0.9309413433074951,0.0,0.0,-0.3651687204837799,0.11049733310937881,0.34098097681999207,0.0,0.0,0.0,-4.745908260345459,-0.4194828271865845,0.7245087027549744,0.4200000464916229,0.9999999403953552,3.3477169836260146e-06,-2.259082293676329e-06,1.808312646289778e-07,0.0002668776432983577,0.0002679125755093992,-0.00010439660400152206,-0.0017405485268682241,0.0042083123698830605,-0.00012870294449385256,-0.4266323447227478,0.695400059223175,0.7698010206222534,-0.7607298493385315,2.3104302883148193,-6.4890923500061035,0.4746708571910858,0.6705162525177002,0.42000001668930054,-0.8708905577659607,3.0000011920928955,-0.5028238892555237,-2.9999966621398926,-0.08398894220590591,-0.09347940981388092,-0.10216221958398819,-0.10887553542852402,-0.9801506996154785,-0.9630098342895508,-0.9488775730133057,-0.9400521516799927
0.26666666666666666,0.06695512682199478,0.16736669838428497,0.0,0.9252811670303345,0.0,0.0,-0.3792819380760193,-0.1986202448606491,0.5983728170394897,0.0,0.0,0.0,-0.7949907779693604,-0.4194828271865845,0.7245087027549744,0.4200000464916229,0.9999999403953552,3.535839823598508e-06,-2.3001828139967984e-06,-1.268791862685248e-07,0.000266018119873479,0.00026712199905887246,-0.00010419473983347416,-0.0017316329758614302,0.004192839842289686,-0.00012849616177845746,-0.436720609664917,0.7168917655944824,0.6611263155937195,-0.34972500801086426,0.6379814147949219,-6.493953227996826,0.4746708571910858,0.6705162525177002,0.42000001668930054,-0.8208805322647095,2.9999828338623047,-0.5528547763824463,-2.9999923706054688,-0.10105222463607788,-0.110354483127594,-0.11892806738615036,-0.1255778670310974,-0.7294970154762268,-0.7761390805244446,-0.821864664554596,-0.8649475574493408
0.2833333333333333,0.06816277652978897,0.17247135937213898,0.0,0.9305299520492554,0.0,0.0,-0.3662157952785492,0.09937066584825516,0.25470468401908875,0.0,0.0,0.0,2.3191611766815186,-0.4194828271865845,0.7245087623596191,0.4200000464916229,1.0,3.5935649975726847e-06,-2.262558382426505e-06,-5.655136803284222e-08,0.00026704679476097226,0.00026774988509714603,-0.00010416749864816666,-0.0017431802116334438,0.004214214626699686,-0.00012789499305654317,-0.4465939998626709,0.7208269834518433,0.5564854145050049,-0.47918203473091125,-0.24450303614139557,-6.115138053894043,0.4746708571910858,0.6705162525177002,0.42000001668930054,-0.7708716988563538,2.999998092651367,-0.6028845310211182,-2.999999523162842,-0.11411958187818527,-0.12361257523298264,-0.1323125958442688,-0.13918228447437286,-0.9939267635345459,-0.9835626482963562,-0.9443180561065674,-0.9173727035522461
0.3,0.06594885140657425,0.1746349334716797,0.0,0.9289121627807617,0.0,0.0,-0.37030014395713806,-0.22328883409500122,0.09172120690345764,0.0,0.0,0.0,-1.4013283252716064,-0.4194827973842621,0.7245087027549744,0.4200000464916229,0.9999999403953552,3.725162969203666e-06,-2.2359929516824195e-06,3.8286188441816194e-07,0.00026479855296202004,0.0002667319786269218,-0.0001045397948473692,-0.0017189806094393134,0.004166760481894016,-0.00013016823504585773,-0.4448244571685791,0.7201565504074097,0.45739316940307617,0.6058423519134521,0.03611554577946663,-5.512277126312256,0.4746708571910858,0.6705162525177002,0.42000001668930054,-0.7208632826805115,3.000001907348633,-0.6529121994972229,-2.999999761581421,-0.13204774260520935,-0.14125555753707886,-0.1497448831796646,-0.15645089745521545,-1.0227532386779785,-1.0172392129898071,-1.0130248069763184,-1.0096439123153687
0.31666666666666665,0.059510283172130585,0.17494642734527588,0.0,0.9331212639808655,0.0,0.0,-0.35956186056137085,-0.3208214342594147,-0.09263322502374649,0.0,0.0,0.0,2.1552748680114746,-0.4199594557285309,0.7221899628639221,0.4209279417991638,0.9990312457084656,0.021070685237646103,-0.001691366545855999,-0.038595590740442276,0.037141576409339905,-0.00866451021283865,0.058218322694301605,2.1323559284210205,-0.8128688335418701,-0.6074410676956177,-0.43852314352989197,0.722926914691925,0.42521780729293823,0.30335667729377747,0.13351598381996155,-0.1899748593568802,0.4746708571910858,0.6705162525177002,0.42000001668930054,-0.6708647608757019,2.997220039367676,-0.7033844590187073,-2.836244583129883,-0.14045579731464386,-0.15045008063316345,-0.1595558375120163,-0.16664086282253265,0.1282387673854828,0.004431932233273983,-0.09915291517972946,-0.17665459215641022
0.3333333333333333,0.052427738904953,0.17201079428195953,0.0,0.9311608076095581,0.0,0.0,-0.3646088242530823,-0.47206825017929077,-0.21650703251361847,0.0,0.0,0.0,-1.5366688966751099,-0.4195951223373413,0.7222049236297607,0.4206421375274658,0.9990477561950684,0.016258595511317253,-0.0006642031366936862,-0.040479887276887894,0.015363116748631,0.012981470674276352,-0.031188800930976868,-1.631192922592163,0.13027803599834442,-0.19493116438388824,-0.434393048286438,0.7298752665519714,0.4263569712638855,0.39595669507980347,0.509636402130127,-0.18536600470542908,0.4746708571910858,0.6705162525177002,0.42000001668930054,-0.6208577752113342,2.999993085861206,-0.7534376382827759,-2.9999988079071045,-0.14024345576763153,-0.15152855217456818,-0.16161854565143585,-0.16934625804424286,-0.12702128291130066,-0.16011184453964233,-0.18062107264995575,-0.18969978392124176
0.35,0.04309976473450661,0.1667030304670334,0.0,0.9348776936531067,0.0,0.0,-0.3549700379371643,-0.6035608649253845,-0.35879239439964294,0.0,0.0,0.0,2.111708402633667,-0.41529616713523865,0.7290902733802795,0.42000022530555725,0.9897478818893433,1.7837845007306896e-05,-8.499358227709308e-05,-0.14282508194446564,0.37878480553627014,0.5744809508323669,-0.001699297339655459,0.001498701050877571,0.1022024154663086,-2.9733612537384033,-0.4265187382698059,0.7380947470664978,0.4228869080543518,0.5809280872344971,0.5140805244445801,-0.20388583838939667,0.4746708571910858,0.6705162525177002,0.42000001668930054,-0.5708526968955994,2.999974012374878,-0.8034617900848389,-2.999999523162842,-0.1448475569486618,-0.15563666820526123,-0.16504892706871033,-0.17199164628982544,-0.35257500410079956,-0.2807539999485016,-0.19958455860614777,-0.11587604880332947
0.36666666666666664,0.03151021525263786,0.15909723937511444,0.0,0.9327310919761658,0.0,0.0,-0.3605727553367615,-0.7374034523963928,-0.4961729049682617,0.0,0.0,0.0,-1.6599032878875732,-0.40709441900253296,0.7405319213867188,0.4200023114681244,0.9868825674057007,-3.5518623917596415e-05,3.8307125578285195e-06,-0.16143958270549774,0.6238653659820557,0.825255811214447,-0.0025342784356325865,0.0652276948094368,-0.03309275209903717,-2.683795213699341,-0.4150240421295166,0.7475354671478271,0.42119064927101135,0.7870797514915466,0.672778844833374,0.025790955871343613,0.4746708571910858,0.6705162525177002,0.42000001668930054,-0.520820677280426,3.0000007152557373,-0.853485643863678,-2.9999585151672363,-0.1517142355442047,-0.16091834008693695,-0.16856804490089417,-0.1737116128206253,-0.41731005907058716,-0.3086252510547638,-0.18947571516036987,-0.06937473267316818
0.3833333333333333,0.017295069992542267,0.14913704991340637,0.0,0.9196563959121704,0.0,0.0,-0.392723947763443,-0.9260807037353516,-0.6506962776184082,0.0,0.0,0.0,-4.8224639892578125,-0.39368394017219543,0.7575101256370544,0.42003634572029114,0.9822118282318115,0.00045487695024348795,-0.0004796548164449632,-0.18777470290660858,1.0080353021621704,1.2408251762390137,0.02329377643764019,0.3416908085346222,-0.7508202195167542,-4.110229969024658,-0.39861583709716797,0.7624731063842773,0.42199328541755676,1.1685938835144043,1.1098744869232178,0.07183298468589783,0.4746708571910858,0.6705162525177002,0.42000001668930054,-0.47077271342277527,2.9999940395355225,-0.9034951329231262,-2.9999654293060303,-0.15901315212249756,-0.16614826023578644,-0.17148171365261078,-0.17423684895038605,-0.42580634355545044,-0.29399487376213074,-0.1442451775074005,0.012242716737091541
0.4,0.004987592343240976,0.13584956526756287,0.0,0.8949793577194214,0.0,0.0,-0.44610756635665894,-0.6685940623283386,-0.8566395044326782,0.0,0.0,0.0,-7.864571571350098,-0.36922919750213623,0.7832856178283691,0.42154863476753235,0.9727206230163574,-0.01700490154325962,-0.009695039130747318,-0.23115219175815582,1.757704257965088,1.755831003189087,0.10904470831155777,16.379718780517578,-7.553232669830322,-3.4383084774017334,-0.3741590976715088,0.7867625951766968,0.42352864146232605,1.9067935943603516,1.876142144203186,0.10805879533290863,0.4746708571910858,0.6705162525177002,0.42000001668930054,-0.4207533299922943,2.861440420150757,-0.9535060524940491,-3.0001230239868164,-0.16627497971057892,-0.17096181213855743,-0.1735059767961502,-0.17332878708839417,-0.4115908443927765,-0.25650525093078613,-0.08114365488290787,0.10242023319005966
0.4166666666666667,-0.0034206167329102755,0.11922711879014969,0.0,0.8547296524047852,0.0,0.0,-0.5190734267234802,-0.436905175447464,-1.048317313194275,0.0,0.0,0.0,-10.764569282531738,-0.31655967235565186,0.8203418850898743,0.42516833543777466,0.9584224224090576,0.016890574246644974,-0.04302699863910675,-0.2815842926502228,4.528326988220215,2.3837127685546875,0.13713590800762177,17.690505981445312,1.7934085130691528,5.778748989105225,-0.3207622468471527,0.8252915143966675,0.4262632727622986,4.279550552368164,2.78529953956604,0.45958375930786133,0.4746708571910858,0.6705162525177002,0.42000001668930054,-0.3840333819389343,1.9067761898040771,-0.9164285659790039,2.998540163040161,-0.1771637499332428,-0.17781350016593933,-0.17612800002098083,-0.17177048325538635,-0.7335705757141113,-0.45486029982566833,-0.1706954687833786,0.10365268588066101
0.43333333333333335,-0.00940713845193386,0.10820769518613815,0.0,0.7953773140907288,0.0,0.0,-0.6061146259307861,-0.3106061816215515,-0.5227367877960205,0.0,0.0,0.0,-13.458455085754395,-0.21777622401714325,0.864527702331543,0.4324793517589569,0.9221222996711731,0.08790889382362366,-0.0835689976811409,-0.36739426851272583,7.422197341918945,2.3810112476348877,0.5770359039306641,6.669971942901611,-9.476798057556152,7.567815780639648,-0.22344326972961426,0.8706213235855103,0.4333611726760864,7.141970157623291,2.8361454010009766,0.5451517105102539,0.4746708571910858,0.6705162525177002,0.42000001668930054,-0.36362993717193604,0.9688130021095276,-0.8663998246192932,2.9991745948791504,-0.1933557093143463,-0.19220000505447388,-0.18554943799972534,-0.1752842664718628,-0.9284751415252686,-0.9113736152648926,-0.6957913637161255,-0.3503999412059784
0.45,-0.012258592061698437,0.1024930477142334,0.0,0.7439334392547607,0.0,0.0,-0.6682537198066711,-0.150164395570755,-0.31994691491127014,0.0,0.0,0.0,-8.325766563415527,-0.10388409346342087,0.8941249251365662,0.4428178668022156,0.8887560963630676,0.11282669007778168,-0.10332909226417542,-0.43209463357925415,7.13055419921875,0.7530163526535034,0.8431309461593628,7.53868293762207,-13.893959045410156,10.655982971191406,-0.10699857026338577,0.9031890630722046,0.4440669119358063,6.830653190612793,1.2812494039535522,0.740754246711731,0.4746708571910858,0.6705162525177002,0.42000001668930054,-0.35001102089881897,0.682038426399231,-0.8928839564323425,-3.000000238418579,-0.2078706920146942,-0.2068607658147812,-0.2001039981842041,-0.18367815017700195,-0.7401807308197021,-0.7512986660003662,-0.7826220989227295,-0.4881730079650879
0.4666666666666667,-0.018167421221733093,0.09098902344703674,0.0,0.71299147605896,0.0,0.0,-0.7011727094650269,-0.4384039640426636,-0.8224633932113647,0.0,0.0,0.0,-4.45529317855835,0.010256089270114899,0.9059956669807434,0.4555659890174866,0.8334916830062866,0.1168341413140297,-0.0897388756275177,-0.5325299501419067,6.655881404876709,-0.9667987823486328,0.6519225835800171,-13.609861373901367,-1.717103123664856,18.70990562438965,0.006828140467405319,0.9153963327407837,0.4563961625099182,6.878817558288574,0.056609347462654114,0.8834778070449829,0.4746708571910858,0.6705162525177002,0.42000001668930054,-0.3385932147502899,0.49963968992233276,-0.942907989025116,-3.0000014305114746,-0.21830058097839355,-0.21593044698238373,-0.20827369391918182,-0.18681436777114868,-0.6053427457809448,-0.4462246000766754,-0.31910470128059387,-0.011106286197900772
0.48333333333333334,-0.019889703020453453,0.08486545830965042,0.0,0.7045434713363647,0.0,0.0,-0.7096608281135559,0.0759553462266922,-0.19961808621883392,0.0,0.0,0.0,-0.4040054380893707,0.11407869309186935,0.8952215313911438,0.4652289152145386,0.7720844149589539,0.09930750727653503,-0.08357396721839905,-0.6221246719360352,5.544103622436523,-1.9009568691253662,0.6805599927902222,20.62483787536621,-10.823148727416992,22.1335391998291,0.11259570717811584,0.9045087099075317,0.46747979521751404,5.8281402587890625,-1.2302719354629517,0.46261751651763916,0.4746708571910858,0.6705162525177002,0.42000001668930054,-0.33053505420684814,0.42252275347709656,-0.9929320216178894,-3.0000014305114746,-0.2333061546087265,-0.2289852797985077,-0.21717414259910583,-0.1898157149553299,-0.8019758462905884,-0.7979880571365356,-0.5344827771186829,-0.21773290634155273
0.5,-0.022574985399842262,0.07475325465202332,0.0,0.6877985596656799,0.0,0.0,-0.7259016036987305,-0.2151171714067459,-0.5482475161552429,0.0,0.0,0.0,-3.391334056854248,0.20138905942440033,0.8706783652305603,0.47038671374320984,0.7056259512901306,0.0779009461402893,-0.07956025004386902,-0.6997811794281006,4.533130168914795,-2.8469526767730713,0.11504916101694107,-7.5348896980285645,-10.282947540283203,21.9355525970459,0.2004658728837967,0.8806415796279907,0.4728472828865051,4.8856682777404785,-2.015313148498535,0.28639835119247437,0.4746708571910858,0.6705162525177002,0.42000001668930054,-0.32162219285964966,0.473386287689209,-1.0429543256759644,-3.000002384185791,-0.23872581124305725,-0.23468075692653656,-0.21965353190898895,-0.18875645101070404,-0.5292646288871765,-0.42998892068862915,-0.17817266285419464,0.04556596279144287
0.5166666666666666,-0.023301957175135612,0.06983913481235504,0.0,0.685802698135376,0.0,0.0,-0.7277875542640686,0.024268539622426033,-0.20140892267227173,0.0,0.0,0.0,0.49949270486831665,0.2726469933986664,0.8338361382484436,0.470045268535614,0.6604769229888916,0.049092549830675125,-0.06264310330152512,-0.7466162443161011,3.451979398727417,-3.1029412746429443,-0.17129528522491455,-2.742993116378784,-2.385260581970215,18.610231399536133,0.2734663188457489,0.8429834842681885,0.47303518652915955,3.9635658264160156,-2.4502878189086914,-0.14405718445777893,0.4746708571910858,0.6705162525177002,0.42000001668930054,-0.3125429153442383,0.5148487091064453,-1.092976450920105,-3.000001907348633,-0.23995020985603333,-0.23994797468185425,-0.22360795736312866,-0.19011425971984863,-0.021391944959759712,-0.013738356530666351,-0.16559521853923798,-0.08923126757144928
0.5333333333333333,-0.02034940756857395,0.06103993207216263,0.0,0.6729052066802979,0.0,0.0,-0.7397286891937256,0.19531409442424774,-0.5555582642555237,0.0,0.0,0.0,-2.927516460418701,0.33180326223373413,0.7956821918487549,0.4609525203704834,0.6060084700584412,0.0014152949443086982,-0.056018512696027756,-0.7934818863868713,2.80474591255188,-2.902064085006714,-0.6435366272926331,-5.804983615875244,-0.2438281774520874,18.639707565307617,0.3331415057182312,0.805007815361023,0.465337336063385,3.212125301361084,-2.3522307872772217,-0.6500830054283142,0.4746708571910858,0.6705162525177002,0.42000001668930054,-0.3026600480079651,0.5312620997428894,-1.1429985761642456,-3.000000476837158,-0.233974426984787,-0.2345779836177826,-0.2215823233127594,-0.18880507349967957,0.35107386112213135,0.35153722763061523,0.17695316672325134,0.08798795938491821
0.55,-0.015289914794266224,0.056919388473033905,0.0,0.6724915504455566,0.0,0.0,-0.7401047945022583,0.34890520572662354,-0.23599886894226074,0.0,0.0,0.0,0.7153423428535461,0.37741518020629883,0.754072904586792,0.4448075592517853,0.5407032370567322,-0.08746844530105591,-0.07481469959020615,-0.833301842212677,2.1066927909851074,-2.756762981414795,-0.9925523996353149,-4.21124267578125,7.413424015045166,7.801370143890381,0.3789079189300537,0.7639949917793274,0.4518278241157532,2.4827804565429688,-2.497407913208008,-0.99711674451828,0.4746708571910858,0.6705162525177002,0.42000001668930054,-0.2927989363670349,0.6425281763076782,-1.1930207014083862,-2.999321937561035,-0.23026983439922333,-0.23014865815639496,-0.21942058205604553,-0.18855296075344086,0.36710014939308167,0.3841368556022644,0.2274537980556488,0.04757799208164215
0.5666666666666667,-0.007955195382237434,0.05502158775925636,0.0,0.6616186499595642,0.0,0.0,-0.749840497970581,0.48395052552223206,-0.0011000881204381585,0.0,0.0,0.0,-2.5707595348358154,0.4148586392402649,0.7182329893112183,0.42289936542510986,0.47671225666999817,-0.14257174730300903,-0.05650459975004196,-0.8655783534049988,2.10872483253479,-1.7910590171813965,-1.3723845481872559,4.389161586761475,3.527491331100464,-6.688021659851074,0.4162956178188324,0.7275264263153076,0.430092990398407,1.9626686573028564,-2.049248456954956,-1.4785563945770264,0.4746708571910858,0.6705162525177002,0.42000001668930054,-0.2783142924308777,1.1007360219955444,-1.2430428266525269,-3.0000011920928955,-0.22180522978305817,-0.2223762720823288,-0.21500831842422485,-0.1884213536977768,0.5615499019622803,0.49474069476127625,0.27649185061454773,-0.028408952057361603
0.5833333333333334,0.0024486067704856396,0.048883866518735886,0.0,0.6635453104972839,0.0,0.0,-0.7481361031532288,0.6049457788467407,-0.3349117636680603,0.0,0.0,0.0,1.2168235778808594,0.4389619827270508,0.7013869285583496,0.42131367325782776,0.44120851159095764,-0.02370406687259674,0.004512687213718891,-0.89708012342453,1.0047272443771362,-1.1759425401687622,0.08739757537841797,-4.562851905822754,3.3191542625427246,17.83403778076172,0.4374263882637024,0.7077637910842896,0.42752987146377563,0.9298114776611328,-0.920922040939331,0.01881779357790947,0.4746708571910858,0.6705162525177002,0.42000001668930054,-0.25148019194602966,1.5846887826919556,-1.209372639656067,3.0000014305114746,-0.20726066827774048,-0.20962756872177124,-0.2066166251897812,-0.18609552085399628,0.7132585644721985,0.6608045101165771,0.43286508321762085,0.074945829808712
0.6,0.00957170408219099,0.04720219224691391,0.0,0.6549071669578552,0.0,0.0,-0.7557093501091003,0.3953220248222351,-0.11172939091920853,0.0,0.0,0.0,-2.1439898014068604,0.45341160893440247,0.6893344521522522,0.4201407730579376,0.47250476479530334,-0.001896785688586533,0.0028701473493129015,-0.8813214302062988,0.8186838626861572,-0.6851863265037537,-0.05166812986135483,-3.0131025314331055,-2.898254156112671,10.221014022827148,0.450427770614624,0.6948981285095215,0.42630767822265625,0.6301989555358887,-0.6697344779968262,-0.0848698765039444,0.4746708571910858,0.6705162525177002,0.42000001668930054,-0.26020315289497375,-1.9521218538284302,-1.159354329109192,2.998760461807251,-0.19681835174560547,-0.20000064373016357,-0.20038282871246338,-0.1856633573770523,0.6786956191062927,0.6108487248420715,0.4098202586174011,0.05662679299712181
0.6166666666666667,0.017325470224022865,0.048299822956323624,0.0,0.6592380404472351,0.0,0.0,-0.751934289932251,0.49896174669265747,0.13008171319961548,0.0,0.0,0.0,1.5610178709030151,0.4618319272994995,0.6799813508987427,0.4200311601161957,0.49066922068595886,-0.0006246624980121851,-0.0005759494379162788,-0.8713454604148865,0.2592810392379761,-0.43384596705436707,0.05487429350614548,-1.5645935535430908,-1.7709801197052002,3.3757002353668213,0.4581584334373474,0.6855654716491699,0.4262571930885315,0.33636850118637085,-0.38096025586128235,0.11064057052135468,0.4746708571910858,0.6705162525177002,0.42000001668930054,-0.28660905361175537,-1.259400725364685,-1.1811467409133911,-2.9982478618621826,-0.18671876192092896,-0.1910146176815033,-0.19434233009815216,-0.18513691425323486,0.5881487131118774,0.5214512944221497,0.3632480204105377,0.04930588975548744
0.6333333333333333,0.026912827044725418,0.04550204053521156,0.0,0.6519045233726501,0.0,0.0,-0.7583010196685791,0.5956550240516663,-0.16331088542938232,0.0,0.0,0.0,-2.050163507461548,0.464811772108078,0.674924910068512,0.42000001668930054,0.5142720341682434,-8.971734928309161e-07,-3.1129181934375083e-06,-0.8576270341873169,0.14288276433944702,-0.24481070041656494,-6.052910248399712e-05,0.0022318135015666485,0.0018848644103854895,4.225686073303223,0.46304479241371155,0.685126543045044,0.4287870228290558,0.1740088015794754,0.039635032415390015,0.1782693862915039,0.4746708571910858,0.6705162525177002,0.42000001668930054,-0.32486480474472046,-2.9999945163726807,-1.231099247932434,-2.9986982345581055,-0.17275652289390564,-0.17897866666316986,-0.18541131913661957,-0.18178673088550568,0.6779278516769409,0.5975562334060669,0.45842254161834717,0.16975878179073334
0.65,0.03887886181473732,0.04741038382053375,0.0,0.6568285822868347,0.0,0.0,-0.7540398836135864,0.7279786467552185,0.12255828827619553,0.0,0.0,0.0,1.6571139097213745,0.4657829701900482,0.6729470491409302,0.4200000464916229,0.5271665453910828,-9.191911090056237e-07,1.3312372857399168e-06,-0.8497619032859802,0.021319646388292313,-0.06063351407647133,-4.08721316489391e-05,-0.0010709181660786271,-0.0018691712757572532,1.1801038980484009,0.46340250968933105,0.6853814125061035,0.43155336380004883,0.007930513471364975,0.09516105055809021,0.19904088973999023,0.4746708571910858,0.6705162525177002,0.42000001668930054,-0.37482357025146484,-2.9985060691833496,-1.2810842990875244,-2.9994301795959473,-0.1649526059627533,-0.17194923758506775,-0.17992384731769562,-0.18026971817016602,0.5487522482872009,0.479683518409729,0.37952348589897156,0.14399263262748718
0.6666666666666666,0.05218973755836487,0.04515804350376129,0.0,0.6576406955718994,0.0,0.0,-0.7533317804336548,0.8341971635818481,-0.13773415982723236,0.0,0.0,0.0,-0.6303032636642456,0.46585169434547424,0.6727492809295654,0.4200001358985901,0.5284878015518188,2.1712880879931618e-06,6.90468323227833e-06,-0.8489408493041992,-1.6248339306912385e-05,0.0004483517841435969,-0.00018340512178838253,-0.00884748063981533,-0.004437190014868975,-0.00080059067113325,0.4643641710281372,0.6899260878562927,0.43529045581817627,0.04440882429480553,0.27604129910469055,0.23836302757263184,0.4746708571910858,0.6705162525177002,0.42000001668930054,-0.4248061776161194,-2.999969005584717,-1.3310539722442627,-2.9991509914398193,-0.15350700914859772,-0.16191107034683228,-0.17161040008068085,-0.17575538158416748,0.5427578687667847,0.49559491872787476,0.4358181953430176,0.2569275200366974
0.6833333333333333,0.06739389896392822,0.04083547368645668,0.0,0.6708212494850159,0.0,0.0,-0.7416191101074219,0.9394797086715698,-0.3556617200374603,0.0,0.0,0.0,2.9684717655181885,0.4657263159751892,0.6728242635726929,0.4200003445148468,0.5310229659080505,-0.00017206869961228222,9.843964653555304e-05,-0.8473573923110962,-0.009569792076945305,0.001310555380769074,-0.004536457825452089,-0.16468343138694763,-0.03600503131747246,0.3452475666999817,0.46446341276168823,0.6921452283859253,0.4392210841178894,0.007699009962379932,0.08157327771186829,0.2998538017272949,0.4746708571910858,0.6705162525177002,0.42000001668930054,-0.47481945157051086,-2.999990224838257,-1.3810725212097168,-3.0,-0.14777906239032745,-0.15593837201595306,-0.1654442995786667,-0.17120309174060822,0.2679404616355896,0.3144623637199402,0.3665913939476013,0.3219517767429352
0.7,0.07990710437297821,0.03945355489850044,0.0,0.6717290282249451,0.0,0.0,-0.7407969236373901,0.6844293475151062,-0.03603791818022728,0.0,0.0,0.0,-0.8207608461380005,0.465718150138855,0.6728242635726929,0.41999995708465576,0.5310231447219849,-1.4020397429703735e-06,-5.687587417924078e-06,-0.8473572731018066,5.908123421249911e-05,-0.0003897163551300764,-6.892974488437176e-05,0.01068490743637085,-0.0042370520532131195,-0.0011782905785366893,0.46757930517196655,0.6921160221099854,0.44373077154159546,0.37478411197662354,-0.10684458911418915,0.2877349257469177,0.4746708571910858,0.6705162525177002,0.42000001668930054,-0.5248217582702637,-2.9998490810394287,-1.4310847520828247,-2.9999489784240723,-0.1474410444498062,-0.15406157076358795,-0.16177289187908173,-0.16712325811386108,0.02561274729669094,0.11790509521961212,0.23527690768241882,0.2846297025680542
0.7166666666666667,0.0931842178106308,0.03424528241157532,0.0,0.6502991318702698,0.0,0.0,-0.7596782445907593,0.7824494242668152,-0.35909342765808105,0.0,0.0,0.0,-4.293276786804199,0.46571817994117737,0.6728242635726929,0.41999995708465576,0.5310233235359192,-1.726564732962288e-06,-5.1719975999731105e-06,-0.8473570942878723,3.3433621865697205e-05,-0.00036448537139222026,-6.849807687103748e-05,0.00983717292547226,-0.0034858332946896553,-0.0010487721301615238,0.479280948638916,0.6927300691604614,0.45561331510543823,0.9268980622291565,0.09557652473449707,1.2481231689453125,0.4746708571910858,0.6705162525177002,0.42000001668930054,-0.5748330950737,-2.999978542327881,-1.4811030626296997,-3.000000238418579,-0.14630086719989777,-0.15158437192440033,-0.15745341777801514,-0.16187304258346558,-0.05017565190792084,0.05374811962246895,0.1897476613521576,0.2797625660896301
0.7333333333333333,0.10863904654979706,0.03243640810251236,0.0,0.6215473413467407,0.0,0.0,-0.7833766341209412,0.9514208436012268,-0.10186462104320526,0.0,0.0,0.0,-4.459503173828125,0.46571820974349976,0.6728242635726929,0.41999995708465576,0.531023383140564,-1.7063599671018892e-06,-5.33059846929973e-06,-0.8473570942878723,3.117043524980545e-05,-0.00036463048309087753,-6.855977699160576e-05,0.009839648380875587,-0.003484508488327265,-0.0010436747688800097,0.49941563606262207,0.6957271099090576,0.4824289083480835,1.51387357711792,0.29993823170661926,2.037304401397705,0.4746708571910858,0.6705162525177002,0.42000001668930054,-0.6248342990875244,-2.9999940395355225,-1.5311213731765747,-2.999999761581421,-0.15008431673049927,-0.1537196934223175,-0.15738824009895325,-0.16022038459777832,-0.1361836940050125,-0.08420085906982422,0.003948874771595001,0.06704596430063248
0.75,0.12110266834497452,0.03266534581780434,0.0,0.6121814250946045,0.0,0.0,-0.7907173037528992,0.6680660843849182,0.06587418168783188,0.0,0.0,0.0,-0.44989463686943054,0.46571817994117737,0.6728242635726929,0.41999995708465576,0.5310233235359192,-1.7982999906962505e-06,-5.438112111733062e-06,-0.8473571538925171,3.3105461625382304e-05,-0.0003645204415079206,-6.820238195359707e-05,0.009848891757428646,-0.0035022750962525606,-0.00104734324850142,0.5255433320999146,0.7023402452468872,0.5152901411056519,1.569198489189148,0.49384623765945435,1.92258620262146,0.4746708571910858,0.6705162525177002,0.42000001668930054,-0.6428133845329285,0.548393189907074,-1.5811396837234497,-3.0,-0.15160609781742096,-0.15472377836704254,-0.15734229981899261,-0.15947867929935455,-0.04514622688293457,-0.034823939204216,0.002369366120547056,0.020992353558540344
0.7666666666666666,0.12895815074443817,0.02970895729959011,0.0,0.6262111067771912,0.0,0.0,-0.7796535491943359,0.383169561624527,-0.24515104293823242,0.0,0.0,0.0,2.873645544052124,0.46571817994117737,0.6728242635726929,0.41999995708465576,0.5310234427452087,-1.734847501211334e-06,-5.588823569269152e-06,-0.8473570346832275,3.266270141466521e-05,-0.0003642620868049562,-6.820005364716053e-05,0.009840182960033417,-0.0034949975088238716,-0.0010456247255206108,0.5440527200698853,0.7090287208557129,0.5427234172821045,0.6479202508926392,0.40347617864608765,1.4297869205474854,0.4746708571910858,0.6705162525177002,0.42000001668930054,-0.6195642948150635,2.086629867553711,-1.5421802997589111,2.9999992847442627,-0.15281622111797333,-0.1551794707775116,-0.15672296285629272,-0.15811072289943695,-0.10620622336864471,-0.040062084794044495,0.038999591022729874,0.09848816692829132
0.7833333333333333,0.1325729340314865,0.031190281733870506,0.0,0.626251220703125,0.0,0.0,-0.7796213030815125,0.15373677015304565,0.11987902224063873,0.0,0.0,0.0,-0.8988838791847229,0.46571817994117737,0.6728242635726929,0.41999995708465576,0.531023383140564,-1.717862119221536e-06,-5.319096089806408e-06,-0.8473571538925171,3.440226646489464e-05,-0.0003645805991254747,-6.846897304058075e-05,0.009841637685894966,-0.0034904005005955696,-0.0010510534048080444,0.5454599261283875,0.7155183553695679,0.5607360601425171,-0.3141862750053406,0.4274454712867737,0.8869599103927612,0.4746708571910858,0.6705162525177002,0.42000001668930054,-0.5982927083969116,0.58067387342453,-1.4921238422393799,3.000000476837158,-0.15958696603775024,-0.15993060171604156,-0.15935024619102478,-0.15896156430244446,-0.2865113914012909,-0.19144466519355774,-0.08968880027532578,-0.002028554677963257
0.8,0.13307346403598785,0.02881643734872341,0.0,0.6364309191703796,0.0,0.0,-0.7713336944580078,-0.007388775236904621,-0.2600063979625702,0.0,0.0,0.0,2.368852138519287,0.46571817994117737,0.6728242635726929,0.41999995708465576,0.5310231447219849,-1.7185740261993487e-06,-5.337225502444198e-06,-0.8473572731018066,3.50805239577312e-05,-0.000364734762115404,-6.844312883913517e-05,0.009847858920693398,-0.0034955814480781555,-0.0010526664555072784,0.5371243953704834,0.7213457226753235,0.5733754634857178,-0.6794567704200745,0.3710448443889618,0.688173234462738,0.4746708571910858,0.6705162525177002,0.42000001668930054,-0.5726000666618347,2.327836036682129,-1.5084253549575806,-2.999999523162842,-0.16302354633808136,-0.16181573271751404,-0.15962140262126923,-0.1578117460012436,-0.12825331091880798,-0.04772363603115082,0.0343448705971241,0.10777037590742111
0.8166666666666667,0.13109150528907776,0.029412489384412766,0.0,0.6336471438407898,0.0,0.0,-0.7736221551895142,-0.13234244287014008,0.09571638703346252,0.0,0.0,0.0,-1.2741940021514893,0.46571817994117737,0.6728242635726929,0.41999995708465576,0.5310233235359192,-1.6914698335313005e-06,-5.472223165270407e-06,-0.8473570942878723,3.0018252800800838e-05,-0.00036463531432673335,-6.857025437057018e-05,0.009839346632361412,-0.0034835950937122107,-0.001041176961734891,0.5210341215133667,0.7268835306167603,0.5790895223617554,-1.1062510013580322,0.32012075185775757,0.15974201261997223,0.4746708571910858,0.6705162525177002,0.42000001668930054,-0.5558131337165833,-0.11385374516248703,-1.4696762561798096,2.9999992847442627,-0.16841822862625122,-0.1654525250196457,-0.16150318086147308,-0.15805143117904663,-0.211320161819458,-0.13843512535095215,-0.06227327883243561,0.01469531562179327
0.8333333333333334,0.13112813234329224,0.027575762942433357,0.0,0.6422151923179626,0.0,0.0,-0.7665243744850159,0.016467908397316933,-0.11523056030273438,0.0,0.0,0.0,2.022045135498047,0.46571817994117737,0.6728242635726929,0.41999995708465576,0.5310235023498535,-1.7729439605318476e-06,-5.425893505162094e-06,-0.8473569750785828,3.277950963820331e-05,-0.00036423298297449946,-6.819190457463264e-05,0.009839550592005253,-0.0034950452391058207,-0.001045816345140338,0.5017293095588684,0.7326017022132874,0.5828114748001099,-1.2339524030685425,0.38941192626953125,0.30316996574401855,0.4746708571910858,0.6705162525177002,0.42000001668930054,-0.5374853014945984,2.1050057411193848,-1.4536319971084595,-0.7622079253196716,-0.1705191433429718,-0.16663892567157745,-0.1617545336484909,-0.15732961893081665,-0.16146507859230042,-0.11119557917118073,-0.06184307485818863,-0.009601006284356117
0.85,0.13285762071609497,0.023564668372273445,0.0,0.638033926486969,0.0,0.0,-0.7700082659721375,0.1487390398979187,-0.29744985699653625,0.0,0.0,0.0,-1.523756742477417,0.46571817994117737,0.6728242635726929,0.41999995708465576,0.5310233235359192,-1.8098669443133986e-06,-5.287596195557853e-06,-0.8473571538925171,3.5997181839775294e-05,-0.0003643599047791213,-6.811716593801975e-05,0.009847089648246765,-0.003503588493913412,-0.001053340034559369,0.48273080587387085,0.7369915246963501,0.5837477445602417,-1.054334282875061,0.07481873780488968,0.005473446100950241,0.4746708571910858,0.6705162525177002,0.42000001668930054,-0.5473617315292358,-2.8515372276306152,-1.4078584909439087,3.0,-0.17330586910247803,-0.1684843748807907,-0.16256006062030792,-0.15690867602825165,-0.17078539729118347,-0.0974593460559845,-0.015169688500463963,0.08226575702428818
0.8666666666666667,0.13724984228610992,0.016389543190598488,0.0,0.6140974760055542,0.0,0.0,-0.7892301678657532,0.309546560049057,-0.504159152507782,0.0,0.0,0.0,-4.686825752258301,0.46571820974349976,0.6728242635726929,0.41999995708465576,0.531023383140564,-1.7256651290153968e-06,-5.237597179075237e-06,-0.8473571538925171,3.1545525416731834e-05,-0.0003646519035100937,-6.853928789496422e-05,0.00984106957912445,-0.0034865469206124544,-0.0010445571970194578,0.47409138083457947,0.7368803024291992,0.583842396736145,0.005250167101621628,-0.12595248222351074,0.16605699062347412,0.4746708571910858,0.6705162525177002,0.42000001668930054,-0.5681542158126831,0.1177094355225563,-1.4258519411087036,-2.9999849796295166,-0.1772354692220688,-0.17110194265842438,-0.1636766642332077,-0.1562190055847168,-0.24087904393672943,-0.1593979299068451,-0.06572992354631424,0.04790237173438072
0.8833333333333333,0.14447437226772308,0.012372860684990883,0.0,0.6041321158409119,0.0,0.0,-0.7968841791152954,0.45917728543281555,-0.18223369121551514,0.0,0.0,0.0,-0.4185771942138672,0.46571817994117737,0.6728242635726929,0.41999995708465576,0.531023383140564,-1.70932935361634e-06,-5.347973910829751e-06,-0.8473570942878723,3.084749914705753e-05,-0.00036485769669525325,-6.859586574137211e-05,0.009846009314060211,-0.0034880239982157946,-0.0010435902513563633,0.47432607412338257,0.736808180809021,0.589547872543335,0.08042428642511368,0.14279556274414062,0.48277491331100464,0.4746708571910858,0.6705162525177002,0.42000001668930054,-0.5449557900428772,2.4457030296325684,-1.38731849193573,2.999997615814209,-0.18181480467319489,-0.17489023506641388,-0.16655035316944122,-0.15790505707263947,-0.15189555287361145,-0.16398732364177704,-0.17073173820972443,-0.1613823026418686
0.9,0.14875942468643188,0.0038618212565779686,0.0,0.6191315054893494,0.0,0.0,-0.7852873206138611,0.20618408918380737,-0.5289190411567688,0.0,0.0,0.0,2.9195666313171387,0.46571817994117737,0.6728242635726929,0.41999995708465576,0.5310235023498535,-1.795004095583863e-06,-5.480507752508856e-06,-0.8473569750785828,3.282755642430857e-05,-0.0003642766969278455,-6.818678230047226e-05,0.009841225109994411,-0.0034959916956722736,-0.0010460023768246174,0.47302812337875366,0.7354575395584106,0.5954405069351196,-0.3184574842453003,-0.37130969762802124,0.1815723478794098,0.4746708571910858,0.6705162525177002,0.42000001668930054,-0.5499735474586487,-2.6067378520965576,-1.3372658491134644,2.999999523162842,-0.18087030947208405,-0.17399068176746368,-0.16563841700553894,-0.15674668550491333,-0.07107996940612793,-0.019637539982795715,0.030293386429548264,0.08789405226707458
0.9166666666666666,0.15472930669784546,0.0007720428984612226,0.0,0.6203798055648804,0.0,0.0,-0.7843015193939209,0.35961002111434937,-0.17712661623954773,0.0,0.0,0.0,-0.639711320400238,0.46571820974349976,0.6728242635726929,0.41999995708465576,0.5310232043266296,-1.7992553011936252e-06,-5.3500511967286e-06,-0.8473572134971619,3.738898885785602e-05,-0.00036432399065233767,-6.809667684137821e-05,0.009846802800893784,-0.0035047901328653097,-0.0010563017567619681,0.47306448221206665,0.7288786768913269,0.5906866788864136,0.398192822933197,-0.3078896999359131,-0.559125542640686,0.4746708571910858,0.6705162525177002,0.42000001668930054,-0.5651537775993347,0.5280305743217468,-1.356496810913086,-3.000000476837158,-0.1847192347049713,-0.1767919510602951,-0.16741856932640076,-0.1573939323425293,-0.025381937623023987,-0.014973815530538559,-1.3627868611365557e-08,0.027746638283133507
