vladlanda/robotic-transformer/data/env_000_episode_0019.csv
sim_time_s,robot_box_x,robot_box_y,robot_box_z,robot_box_quat_w,robot_box_quat_x,robot_box_quat_y,robot_box_quat_z,robot_box_linvel_x,robot_box_linvel_y,robot_box_linvel_z,robot_box_angvel_x,robot_box_angvel_y,robot_box_angvel_z,cube_world_x,cube_world_y,cube_world_z,cube_quat_w,cube_quat_x,cube_quat_y,cube_quat_z,cube_linvel_x,cube_linvel_y,cube_linvel_z,cube_angvel_x,cube_angvel_y,cube_angvel_z,endpoint_world_x,endpoint_world_y,endpoint_world_z,endpoint_linvel_x,endpoint_linvel_y,endpoint_linvel_z,target_cube_world_x,target_cube_world_y,target_cube_world_z,gripper_actual_pos_rad_gp_leftgearjoint,gripper_actual_vel_rad_s_gp_leftgearjoint,gripper_actual_pos_rad_gp_rotatingjoint,gripper_actual_vel_rad_s_gp_rotatingjoint,motor_angle_rad_joint1,motor_angle_rad_joint2,motor_angle_rad_joint3,motor_angle_rad_joint4,motor_speed_rad_s_joint1,motor_speed_rad_s_joint2,motor_speed_rad_s_joint3,motor_speed_rad_s_joint4
0.0,0.0,0.0,0.0,1.0,0.0,0.0,0.0,0.0,0.0,0.0,0.0,0.0,0.0,-0.39519742131233215,0.7377017736434937,0.41999998688697815,1.0,0.0,0.0,0.0,0.0,0.0,0.0,0.0,0.0,0.0,3.42540442943573e-06,-0.005000244826078415,1.313499927520752,0.0,0.0,0.0,0.46192318201065063,0.6586025357246399,0.42000001668930054,-1.5707999467849731,0.0,0.0,0.0,0.0,0.0,0.0,0.0,0.0,0.0,0.0,0.0
0.016666666666666666,0.002878210972994566,0.002180305542424321,0.0,0.9998089671134949,0.0,0.0,0.019545860588550568,0.24088239669799805,0.18239514529705048,0.0,0.0,0.0,3.1418581008911133,-0.3951975405216217,0.7377014756202698,0.41999998688697815,1.0,3.279964630564791e-06,-8.339746386809566e-07,8.465587342243452e-08,-1.9833529222523794e-05,0.00017983045836444944,-6.132945418357849e-05,0.0009432713268324733,-0.004689474124461412,-0.00031981561915017664,-0.007109750062227249,0.0033808958251029253,1.3159375190734863,-0.8142998218536377,0.9869081974029541,0.18095311522483826,0.46192318201065063,0.6586025357246399,0.42000001668930054,-1.5301095247268677,3.000001907348633,-0.045848000794649124,-3.0,0.0008697712910361588,0.0007963348762132227,0.0007109871366992593,0.0006108414381742477,0.11093148589134216,0.09757275134325027,0.08334800601005554,0.06824324280023575
0.03333333333333333,0.008961420506238937,0.006801426876336336,0.0,0.9997968673706055,0.0,0.0,0.02015622891485691,0.4070265591144562,0.31529420614242554,0.0,0.0,0.0,-0.8691230416297913,-0.39519765973091125,0.737701416015625,0.4200000464916229,1.0,3.3908179375430336e-06,-2.132458348569344e-06,-3.7097745320124886e-08,0.00026357852038927376,0.00026937833172269166,-0.00010509369894862175,-0.0017707126680761576,0.004130884539335966,-0.0001354814594378695,-0.027553949505090714,0.026302270591259003,1.3165804147720337,-1.5911765098571777,1.616483449935913,-0.08707569539546967,0.46192318201065063,0.6586025357246399,0.42000001668930054,-1.4800900220870972,3.0000014305114746,-0.09588783979415894,-3.0000011920928955,0.002990477252751589,0.002652660943567753,0.002277224324643612,0.0018606737721711397,0.16419705748558044,0.13975399732589722,0.1138121709227562,0.08629333972930908
0.05,0.01847170479595661,0.013903098180890083,0.0,0.9999774098396301,0.0,0.0,-0.006722678896039724,0.6362974047660828,0.47237130999565125,0.0,0.0,0.0,-4.073936939239502,-0.39519768953323364,0.7377014756202698,0.4200000464916229,1.0,3.7651293496310245e-06,-2.2119379536889028e-06,5.6273887771851605e-09,0.0002653067058417946,0.00026691422681324184,-0.00010440615005791187,-0.0017243530601263046,0.00417736079543829,-0.00012949267693329602,-0.05684512108564377,0.05785680562257767,1.3118782043457031,-1.9203951358795166,2.0944275856018066,-0.46100935339927673,0.46192318201065063,0.6586025357246399,0.42000001668930054,-1.4300717115402222,2.999999523162842,-0.14592653512954712,-2.999999523162842,0.005969278980046511,0.005115852691233158,0.004190155770629644,0.0031878119334578514,0.20244009792804718,0.16096830368041992,0.11756887286901474,0.0721735954284668
0.06666666666666667,0.030794503167271614,0.023393582552671432,0.0,0.9998825788497925,0.0,0.0,-0.015323103405535221,0.7727628946304321,0.6162284016609192,0.0,0.0,0.0,-0.03716026991605759,-0.39519768953323364,0.737701416015625,0.4200000464916229,0.9999999403953552,3.406754103707499e-06,-2.2856077066535363e-06,4.300980265270482e-07,0.0002670255198609084,0.0002679179306142032,-0.0001043803058564663,-0.001740670995786786,0.004211848136037588,-0.00012850687198806554,-0.09159377217292786,0.09195761382579803,1.301762342453003,-2.1196999549865723,2.163405418395996,-0.7428579330444336,0.46192318201065063,0.6586025357246399,0.42000001668930054,-1.380046010017395,3.0000009536743164,-0.1586960107088089,1.1170355081558228,0.00839417614042759,0.0067342957481741905,0.004961896222084761,0.0030713239684700966,0.11934605240821838,0.06029757857322693,2.3050233721733093e-08,-0.06438392400741577
0.08333333333333333,0.03683071210980415,0.036765821278095245,0.0,0.99923175573349,0.0,0.0,-0.0391911081969738,0.22706304490566254,0.8757026195526123,0.0,0.0,0.0,-3.808458089828491,-0.39519768953323364,0.737701416015625,0.4200000464916229,1.0,3.697269221447641e-06,-2.188940243286197e-06,-2.6321629320591455e-07,0.00026389610138721764,0.0002658638986758888,-0.00010433932766318321,-0.0017081708647310734,0.004150133114308119,-0.00012991161202080548,-0.12171474099159241,0.13229075074195862,1.2873926162719727,-1.5236515998840332,2.6773595809936523,-0.9101866483688354,0.46192318201065063,0.6586025357246399,0.42000001668930054,-1.3300398588180542,3.0000016689300537,-0.20018120110034943,-3.000000476837158,0.004083393607288599,0.0015933463582769036,-0.0010508629493415356,-0.0038972196634858847,-0.38669273257255554,-0.4495198428630829,-0.5144922137260437,-0.5837447643280029
0.1,0.046686846762895584,0.05172232538461685,0.0,0.9958842396736145,0.0,0.0,-0.0906345322728157,0.7373664975166321,0.9041444659233093,0.0,0.0,0.0,-6.966091632843018,-0.39519768953323364,0.737701416015625,0.4200000464916229,0.9999999403953552,3.6203723539074417e-06,-2.2652432107861387e-06,1.7462606649587542e-07,0.00026676998822949827,0.00026740916655398905,-0.0001040794886648655,-0.0017386159161105752,0.0042092096991837025,-0.00012775268987752497,-0.14801441133022308,0.17911934852600098,1.2723476886749268,-1.6290311813354492,2.961453914642334,-0.950283944606781,0.46192318201065063,0.6586025357246399,0.42000001668930054,-1.2800226211547852,2.9999983310699463,-0.1829824000597,2.9999983310699463,0.0020244561601430178,-0.002072573872283101,-0.006319527979940176,-0.010789334774017334,-0.03642760217189789,-0.14175379276275635,-0.24570690095424652,-0.34934553503990173
0.11666666666666667,0.055155545473098755,0.06393616646528244,0.0,0.9924774169921875,0.0,0.0,-0.1224280297756195,0.5405054092407227,0.6845452785491943,0.0,0.0,0.0,-2.5788962841033936,-0.39519768953323364,0.737701416015625,0.4200000464916229,1.0,3.7983443235134473e-06,-2.2628721580986166e-06,-1.5019327292975504e-07,0.00026374091976322234,0.0002656608703546226,-0.00010428996756672859,-0.0017054241616278887,0.004147560801357031,-0.00012980113388039172,-0.17879880964756012,0.22573989629745483,1.2551743984222412,-1.8016159534454346,3.001535415649414,-1.0246038436889648,0.46192318201065063,0.6586025357246399,0.42000001668930054,-1.2300379276275635,2.9999992847442627,-0.21452347934246063,-3.0000011920928955,-0.0009007009794004261,-0.0066453032195568085,-0.012510166503489017,-0.018581146374344826,-0.08372130244970322,-0.20209312438964844,-0.31695327162742615,-0.4286215305328369
0.13333333333333333,0.060949429869651794,0.07754454761743546,0.0,0.986606240272522,0.0,0.0,-0.16312003135681152,0.2832525670528412,0.8537054657936096,0.0,0.0,0.0,-5.695149898529053,-0.39519768953323364,0.7377014756202698,0.4200000464916229,0.9999999403953552,3.550494056980824e-06,-2.2298402200249257e-06,2.929137679075211e-07,0.00026703279581852257,0.0002677927550394088,-0.00010417005978524685,-0.0017440064111724496,0.00421349098905921,-0.00012799979595001787,-0.20844432711601257,0.28018152713775635,1.235318660736084,-1.661226511001587,3.6171131134033203,-1.3619413375854492,0.46192318201065063,0.6586025357246399,0.42000001668930054,-1.1801445484161377,2.9637091159820557,-0.1806575357913971,3.000001907348633,-0.003978184424340725,-0.011587965302169323,-0.0192478746175766,-0.027044976130127907,-0.24077269434928894,-0.34399938583374023,-0.4427889287471771,-0.5370053648948669
0.15,0.06368734687566757,0.08928602933883667,0.0,0.9826418161392212,0.0,0.0,-0.18551285564899445,0.13316351175308228,0.5666636824607849,0.0,0.0,0.0,-1.4635486602783203,-0.39519768953323364,0.737701416015625,0.4200000464916229,0.9999999403953552,3.338043143230607e-06,-2.2429089767683763e-06,-2.8016239994599346e-08,0.00026674362015910447,0.0002675791038200259,-0.00010427739471197128,-0.0017366725951433182,0.0042068627662956715,-0.00012831800268031657,-0.24203485250473022,0.3368717432022095,1.2073787450790405,-2.0796871185302734,3.461073398590088,-1.952110767364502,0.46192318201065063,0.6586025357246399,0.42000001668930054,-1.1520800590515137,0.5885462760925293,-0.2122175246477127,-3.000000476837158,-0.00839568767696619,-0.01747717149555683,-0.026526475325226784,-0.03562677651643753,-0.27183589339256287,-0.3458893895149231,-0.41505348682403564,-0.4789971113204956
0.16666666666666666,0.06926519423723221,0.10057307779788971,0.0,0.9756258726119995,0.0,0.0,-0.21944056451320648,0.3346457779407501,0.7041910290718079,0.0,0.0,0.0,-4.999842166900635,-0.39519768953323364,0.7377014756202698,0.4200000464916229,0.9999999403953552,3.6478172660281416e-06,-2.3073148440744262e-06,3.5270211640181515e-08,0.00026726824580691755,0.0002680130710359663,-0.00010418565943837166,-0.0017472313484176993,0.004217550624161959,-0.0001279815041925758,-0.2757183015346527,0.4011209011077881,1.1678895950317383,-1.8872742652893066,4.1999735832214355,-2.7857582569122314,0.46192318201065063,0.6586025357246399,0.42000001668930054,-1.110688328742981,3.0000016689300537,-0.18188124895095825,2.9999992847442627,-0.014141794294118881,-0.024004923179745674,-0.03377561271190643,-0.043532874435186386,-0.5148704051971436,-0.525597870349884,-0.5345021486282349,-0.5413774847984314
0.18333333333333332,0.07159630954265594,0.11432234942913055,0.0,0.9659909605979919,0.0,0.0,-0.25857576727867126,0.08457639813423157,0.8704643845558167,0.0,0.0,0.0,-4.732437610626221,-0.39519768953323364,0.737701416015625,0.4200000464916229,0.9999999403953552,3.2905281841522083e-06,-2.1939001726423157e-06,-2.7923803713747475e-07,0.0002667795342858881,0.00026776199229061604,-0.0001043418888002634,-0.001739125233143568,0.004206986166536808,-0.00012845758465118706,-0.3086523413658142,0.469269335269928,1.116624116897583,-1.764407992362976,4.2406840324401855,-3.3527235984802246,0.46192318201065063,0.6586025357246399,0.42000001668930054,-1.0648103952407837,2.5095009803771973,-0.21345366537570953,-2.9999992847442627,-0.02508341148495674,-0.034883249551057816,-0.04455895721912384,-0.05418717861175537,-0.6885663270950317,-0.6809872388839722,-0.6713109612464905,-0.6592916250228882
0.2,0.07690352946519852,0.1245344951748848,0.0,0.9620990753173828,0.0,0.0,-0.27270010113716125,0.3903995454311371,0.49961400032043457,0.0,0.0,0.0,-0.6269589066505432,-0.39519768953323364,0.737701416015625,0.4200000464916229,1.0,3.2807477055030176e-06,-2.2192027699929895e-06,1.594728331610895e-07,0.00026627787156030536,0.00026740014436654747,-0.0001042510848492384,-0.0017356369644403458,0.004197677131742239,-0.00012865001917816699,-0.34109410643577576,0.5353957414627075,1.0524826049804688,-1.7669912576675415,3.9630956649780273,-4.311561107635498,0.46192318201065063,0.6586025357246399,0.42000001668930054,-1.0156680345535278,3.000000476837158,-0.2634795010089874,-2.9999990463256836,-0.036499492824077606,-0.04567423835396767,-0.05471952632069588,-0.0637112408876419,-0.7693262100219727,-0.7041059136390686,-0.6401709914207458,-0.57753986120224
0.21666666666666667,0.07727060467004776,0.1371746063232422,0.0,0.9539150595664978,0.0,0.0,-0.3000767230987549,0.027226397767663002,0.7369599342346191,0.0,0.0,0.0,-4.194902420043945,-0.39519768953323364,0.7377014756202698,0.4200000464916229,1.0,3.613160288296058e-06,-2.270090135425562e-06,2.210125700230492e-07,0.00026712537510320544,0.0002678160381037742,-0.0001041400246322155,-0.0017444418044760823,0.0042151897214353085,-0.0001278668933082372,-0.3663456439971924,0.5975072383880615,0.9735825061798096,-1.2744649648666382,3.6215100288391113,-4.910014629364014,0.46192318201065063,0.6586025357246399,0.42000001668930054,-0.9656586647033691,2.9999945163726807,-0.3135068714618683,-2.9999992847442627,-0.052041616290807724,-0.061269380152225494,-0.07032875716686249,-0.07862706482410431,-0.6529473066329956,-0.7084340453147888,-0.760796070098877,-0.8092789649963379
0.23333333333333334,0.07932458817958832,0.14488822221755981,0.0,0.9507524967193604,0.0,0.0,-0.30995121598243713,0.07591558992862701,0.4321461617946625,0.0,0.0,0.0,-0.22669526934623718,-0.39519768953323364,0.737701416015625,0.4200000464916229,1.0,3.3818625979620265e-06,-2.290899601575802e-06,2.7279764935883577e-07,0.0002669132372830063,0.00026779971085488796,-0.00010433327406644821,-0.0017395989270880818,0.004209729842841625,-0.00012843607692047954,-0.38900119066238403,0.6499593257904053,0.8864090442657471,-1.1096930503845215,2.794005870819092,-5.576357364654541,0.46192318201065063,0.6586025357246399,0.42000001668930054,-0.915651798248291,2.999997615814209,-0.363537073135376,-3.000000476837158,-0.06292350590229034,-0.0723879411816597,-0.08167561143636703,-0.0902133584022522,-0.8845568299293518,-0.840663731098175,-0.7997653484344482,-0.764725923538208
0.25,0.07682468742132187,0.15529043972492218,0.0,0.9432136416435242,0.0,0.0,-0.33218681812286377,-0.20859770476818085,0.6207160353660583,0.0,0.0,0.0,-3.5600860118865967,-0.39519765973091125,0.737701416015625,0.4200000464916229,0.9999999403953552,3.706540383063839e-06,-2.2229808109841542e-06,-2.2549713207808963e-07,0.00026424849056638777,0.00026656684349291027,-0.00010457984171807766,-0.0017169424099847674,0.0041556889191269875,-0.0001306327903876081,-0.40444648265838623,0.6921004056930542,0.7872108817100525,-0.7344956398010254,2.2454144954681396,-6.1266632080078125,0.46192318201065063,0.6586025357246399,0.42000001668930054,-0.8656414747238159,2.999997615814209,-0.4135684370994568,-2.99999737739563,-0.07887964695692062,-0.08834049850702286,-0.09766145050525665,-0.1062188595533371,-0.9168094992637634,-0.9251753091812134,-0.9344955682754517,-0.943770706653595
0.26666666666666666,0.07876282185316086,0.16035103797912598,0.0,0.9412527680397034,0.0,0.0,-0.33770284056663513,0.10069172084331512,0.22296559810638428,0.0,0.0,0.0,0.14766262471675873,-0.39519768953323364,0.737701416015625,0.4200000464916229,0.9999999403953552,3.719671894941712e-06,-2.403462985967053e-06,-1.8307585492038925e-07,0.00026623281883075833,0.00026729030651040375,-0.00010425737127661705,-0.0017326161032542586,0.004196559078991413,-0.0001285147009184584,-0.41791993379592896,0.7207302451133728,0.6839017868041992,-0.574004590511322,1.1747568845748901,-6.333661079406738,0.46192318201065063,0.6586025357246399,0.42000001668930054,-0.8156321048736572,2.9999945163726807,-0.4636000990867615,-2.9999990463256836,-0.09266737103462219,-0.10193974524736404,-0.11106036603450775,-0.11934743076562881,-0.9912238121032715,-0.9919275641441345,-0.9871619343757629,-0.9392839670181274
0.2833333333333333,0.07588881254196167,0.16246969997882843,0.0,0.9342746138572693,0.0,0.0,-0.3565542697906494,-0.2663215696811676,0.09185594320297241,0.0,0.0,0.0,-3.2870519161224365,-0.39519768953323364,0.7377014756202698,0.4200000464916229,0.9999999403953552,3.58410306944279e-06,-2.3154889277066104e-06,7.404336344052354e-08,0.0002652212860994041,0.0002645532658789307,-0.00010317191481590271,-0.0017022429965436459,0.004185271915048361,-0.00012499967124313116,-0.4208143949508667,0.7339690923690796,0.5785325765609741,0.26058316230773926,0.40043774247169495,-6.0685834884643555,0.46192318201065063,0.6586025357246399,0.42000001668930054,-0.7656233310699463,3.0000009536743164,-0.513630747795105,-3.0000016689300537,-0.11044792085886002,-0.11943855881690979,-0.12834827601909637,-0.13647380471229553,-1.0128672122955322,-1.0096789598464966,-1.0072553157806396,-1.0053287744522095
0.3,0.0696435421705246,0.1625150442123413,0.0,0.9334359169006348,0.0,0.0,-0.35874417424201965,-0.3370784521102905,-0.06452426314353943,0.0,0.0,0.0,0.596599817276001,-0.39519768953323364,0.737701416015625,0.4200000464916229,1.0,3.724301677721087e-06,-2.271899347761064e-06,9.634896969146212e-08,0.0002631264796946198,0.00026525871362537146,-0.00010438216850161552,-0.0016960971988737583,0.004134890157729387,-0.00013027788372710347,-0.4142736494541168,0.7366251945495605,0.4845758080482483,0.5733135938644409,0.025418629869818687,-5.388333320617676,0.46192318201065063,0.6586025357246399,0.42000001668930054,-0.7156150341033936,2.9999985694885254,-0.5636596083641052,-3.000000238418579,-0.1267981082201004,-0.13584023714065552,-0.1448470950126648,-0.15308605134487152,-0.8716281056404114,-0.9017848372459412,-0.9319499731063843,-0.960764467716217
0.31666666666666665,0.062147755175828934,0.1597188264131546,0.0,0.9274888634681702,0.0,0.0,-0.3738507628440857,-0.4993622601032257,-0.21296769380569458,0.0,0.0,0.0,-2.788761615753174,-0.39519768953323364,0.737701416015625,0.4200000464916229,1.0,3.6662129332398763e-06,-2.3925058485474437e-06,1.6798929891592707e-07,0.0002660205645952374,0.0002670693211257458,-0.00010418589226901531,-0.0017311713891103864,0.004193530417978764,-0.0001284943282371387,-0.4093109965324402,0.7391997575759888,0.43082594871520996,0.10212963074445724,-0.0009187422692775726,-0.22650262713432312,0.46192318201065063,0.6586025357246399,0.42000001668930054,-0.6656103134155273,2.9999022483825684,-0.6140788197517395,-3.0003225803375244,-0.14090003073215485,-0.1500706672668457,-0.15912595391273499,-0.16671118140220642,-0.42439159750938416,-0.4798416793346405,-0.5208932757377625,-0.46254393458366394
0.3333333333333333,0.05243596062064171,0.1544869840145111,0.0,0.9279199838638306,0.0,0.0,-0.3727794289588928,-0.6201414465904236,-0.35459697246551514,0.0,0.0,0.0,1.0673693418502808,-0.39460936188697815,0.7388555407524109,0.4199998080730438,0.999904215335846,1.3771043086308055e-05,-2.1853479665878695e-06,-0.013834052719175816,0.06710410863161087,0.11344344168901443,-0.00022880277538206428,-0.013449990190565586,0.014608625322580338,-2.056546211242676,-0.40773090720176697,0.7428637146949768,0.42777594923973083,0.2236013561487198,0.11656246334314346,-0.2409428358078003,0.46192318201065063,0.6586025357246399,0.42000001668930054,-0.6156042814254761,2.999994993209839,-0.6641456484794617,-2.999955415725708,-0.1494111716747284,-0.1583268791437149,-0.16686826944351196,-0.17256926000118256,-0.5607678294181824,-0.495759516954422,-0.4157482385635376,-0.269963800907135
0.35,0.04051575809717178,0.14694790542125702,0.0,0.9226235151290894,0.0,0.0,-0.3857017457485199,-0.7606199383735657,-0.49224695563316345,0.0,0.0,0.0,-2.5873093605041504,-0.39376989006996155,0.7403343319892883,0.42000001668930054,0.99958336353302,-6.857284802208596e-07,1.9541485016816296e-06,-0.028863517567515373,0.09312493354082108,0.17329029738903046,-4.246674507157877e-05,0.0014194456161931157,-0.001354358741082251,-4.778669834136963,-0.40220069885253906,0.7449386119842529,0.4241621494293213,0.438929945230484,0.15531079471111298,-0.19235661625862122,0.46192318201065063,0.6586025357246399,0.42000001668930054,-0.5655993819236755,2.9999730587005615,-0.7142118215560913,-2.9999852180480957,-0.15952971577644348,-0.16680584847927094,-0.17343267798423767,-0.17634516954421997,-0.5953078269958496,-0.4756891131401062,-0.33987897634506226,-0.1646326780319214
0.36666666666666664,0.02646040730178356,0.1370619684457779,0.0,0.923554003238678,0.0,0.0,-0.3834684491157532,-0.8828244209289551,-0.6384513974189758,0.0,0.0,0.0,1.1942541599273682,-0.38899850845336914,0.7468243837356567,0.4200928509235382,0.9944625496864319,0.0022512879222631454,-0.0003931871906388551,-0.10506594181060791,0.29993024468421936,0.3959622085094452,-0.014119574800133705,-0.658089816570282,0.05758485943078995,-9.110281944274902,-0.3946700096130371,0.7492520809173584,0.4213387072086334,0.5048345923423767,0.3800923824310303,-0.13651198148727417,0.46192318201065063,0.6586025357246399,0.42000001668930054,-0.5155945420265198,2.9999780654907227,-0.7642606496810913,-2.9999992847442627,-0.169849693775177,-0.1747063845396042,-0.17862309515476227,-0.17834706604480743,-0.5708572864532471,-0.4227159917354584,-0.2555959224700928,-0.06792251765727997
0.3833333333333333,0.015922466292977333,0.12423089891672134,0.0,0.9186381697654724,0.0,0.0,-0.39509981870651245,-0.5486047863960266,-0.8183100819587708,0.0,0.0,0.0,-2.4066998958587646,-0.38357236981391907,0.7537125945091248,0.4200003445148468,0.9830380082130432,-4.495617758948356e-06,9.978967682400253e-06,-0.1834019422531128,0.41091352701187134,0.49264881014823914,-0.0006789317703805864,0.01930827461183071,-0.01860998012125492,-12.299856185913086,-0.3847503364086151,0.7554516196250916,0.4200285077095032,0.7423808574676514,0.45885732769966125,-0.05683484673500061,0.46192318201065063,0.6586025357246399,0.42000001668930054,-0.46559056639671326,2.9999804496765137,-0.8143168091773987,-2.9999818801879883,-0.17842744290828705,-0.18059198558330536,-0.18143674731254578,-0.17783159017562866,-0.44430240988731384,-0.2756712734699249,-0.08368178457021713,0.11720921844244003
0.4,0.0031427296344190836,0.10976272076368332,0.0,0.9010621905326843,0.0,0.0,-0.4336899220943451,-0.8484768867492676,-0.8924397826194763,0.0,0.0,0.0,-6.0268964767456055,-0.36958515644073486,0.7673376798629761,0.4215291738510132,0.9724693894386292,-0.002448738319799304,-0.012942013330757618,-0.23265795409679413,1.2907990217208862,0.8314882516860962,0.006861445028334856,13.353154182434082,-9.156745910644531,1.0426758527755737,-0.36935436725616455,0.7677928805351257,0.42118632793426514,1.229793667793274,1.1308649778366089,0.13391125202178955,0.46192318201065063,0.6586025357246399,0.42000001668930054,-0.4156789481639862,2.796436309814453,-0.8643514513969421,-3.000396966934204,-0.18679164350032806,-0.186024010181427,-0.18352793157100677,-0.1765149086713791,-0.4637956917285919,-0.29655495285987854,-0.10551346838474274,0.08451356738805771
0.4166666666666667,-0.006643281783908606,0.09240227192640305,0.0,0.8686228394508362,0.0,0.0,-0.49547386169433594,-0.543474555015564,-1.0846962928771973,0.0,0.0,0.0,-9.142156600952148,-0.3343740403652191,0.791978657245636,0.4254777729511261,0.9567450284957886,0.0031260016839951277,-0.04368816688656807,-0.2876115143299103,3.39457631111145,1.6920489072799683,0.2472115159034729,17.32422637939453,-12.415908813476562,5.974142074584961,-0.3339333236217499,0.7924723625183105,0.4249327778816223,3.0567641258239746,1.9038004875183105,0.5354621410369873,0.46192318201065063,0.6586025357246399,0.42000001668930054,-0.38528040051460266,1.1088933944702148,-0.9143739938735962,-3.0000014305114746,-0.19485175609588623,-0.19087359309196472,-0.1848296970129013,-0.17441724240779877,-0.585702121257782,-0.35113969445228577,-0.10117404162883759,0.13112816214561462
0.43333333333333335,-0.013997567817568779,0.08061935007572174,0.0,0.8188248872756958,0.0,0.0,-0.574043333530426,-0.3893723487854004,-0.5762363076210022,0.0,0.0,0.0,-11.937143325805664,-0.25705158710479736,0.8263056874275208,0.43234530091285706,0.9367484450340271,0.05899430066347122,-0.08608783781528473,-0.33408215641975403,6.172722339630127,2.047149658203125,0.43511274456977844,10.94432258605957,-12.27768325805664,10.076984405517578,-0.2566089332103729,0.8275255560874939,0.43211692571640015,5.839674949645996,2.405869245529175,0.5597935914993286,0.46192318201065063,0.6586025357246399,0.42000001668930054,-0.36882615089416504,1.0125188827514648,-0.8771272897720337,2.9991071224212646,-0.21024702489376068,-0.20270654559135437,-0.19126911461353302,-0.1761692762374878,-0.8851482272148132,-0.7851664423942566,-0.4721834659576416,-0.21317768096923828
0.45,-0.017791930586099625,0.07212412357330322,0.0,0.7781355381011963,0.0,0.0,-0.6280964016914368,-0.1701202243566513,-0.46916550397872925,0.0,0.0,0.0,-6.9229326248168945,-0.15871606767177582,0.8618770241737366,0.44276198744773865,0.8932817578315735,0.08689026534557343,-0.11654095351696014,-0.4253421127796173,6.197932720184326,1.4015377759933472,0.6967411637306213,15.081762313842773,-6.193405628204346,9.603824615478516,-0.15861020982265472,0.864170253276825,0.4423990845680237,6.112466812133789,1.8693604469299316,0.6865847110748291,0.46192318201065063,0.6586025357246399,0.42000001668930054,-0.34910523891448975,1.2860740423202515,-0.9034529328346252,-3.0000030994415283,-0.22055676579475403,-0.21395467221736908,-0.19863513112068176,-0.18022361397743225,-0.544763445854187,-0.5813010334968567,-0.38988322019577026,-0.23673942685127258
0.4666666666666667,-0.023593664169311523,0.05928817018866539,0.0,0.7569156289100647,0.0,0.0,-0.6535125970840454,-0.29768791794776917,-0.6844397783279419,0.0,0.0,0.0,-2.686741590499878,-0.05412012338638306,0.8833426833152771,0.45480120182037354,0.8260087966918945,0.08962643146514893,-0.12154997140169144,-0.5430487990379333,6.392031669616699,0.2517775595188141,0.9496626853942871,-17.376441955566406,-6.668830394744873,-11.746539115905762,-0.05486258864402771,0.885128378868103,0.45402854681015015,6.529096603393555,0.44641178846359253,0.7555016279220581,0.46192318201065063,0.6586025357246399,0.42000001668930054,-0.32641348242759705,1.2910795211791992,-0.9534769058227539,-3.0000014305114746,-0.22841477394104004,-0.2209944874048233,-0.2019985169172287,-0.18059416115283966,-0.756865382194519,-0.5818436741828918,-0.2874104380607605,-0.04110267385840416
0.48333333333333334,-0.025516608729958534,0.05023495480418205,0.0,0.7276139259338379,0.0,0.0,-0.6859868168830872,-0.09973964840173721,-0.4911697208881378,0.0,0.0,0.0,-5.85269832611084,0.051925040781497955,0.8784888386726379,0.4652811884880066,0.7584823369979858,0.07847519963979721,-0.12228582054376602,-0.635289192199707,6.093731880187988,-1.669049620628357,0.5084540843963623,-0.6975606679916382,-11.569104194641113,23.688995361328125,0.05150116980075836,0.881807804107666,0.4645851254463196,6.396915435791016,-0.78904128074646,0.6432732939720154,0.46192318201065063,0.6586025357246399,0.42000001668930054,-0.31031134724617004,0.6236829161643982,-1.0035008192062378,-3.0000014305114746,-0.24004490673542023,-0.23069161176681519,-0.2067338079214096,-0.1811332255601883,-0.04336664453148842,-0.541210412979126,-0.2741558253765106,-0.04346276447176933
0.5,-0.0246070995926857,0.04275333136320114,0.0,0.7125625610351562,0.0,0.0,-0.7016085982322693,0.11010538786649704,-0.3605656623840332,0.0,0.0,0.0,-1.4449840784072876,0.15200088918209076,0.8580039143562317,0.47228550910949707,0.703868567943573,0.05393168702721596,-0.11454854160547256,-0.6989555954933167,5.5226006507873535,-2.2734177112579346,0.42617732286453247,6.0191497802734375,-9.130240440368652,20.048583984375,0.15216544270515442,0.8623300790786743,0.47187742590904236,5.85004186630249,-1.6124522686004639,0.3650124669075012,0.46192318201065063,0.6586025357246399,0.42000001668930054,-0.29861214756965637,0.5063108205795288,-1.0535229444503784,-3.0000033378601074,-0.23980584740638733,-0.2371605485677719,-0.20974841713905334,-0.18134602904319763,0.010009901598095894,-0.2874431610107422,-0.13218481838703156,-0.0180666446685791
0.5166666666666666,-0.024829864501953125,0.03893447667360306,0.0,0.6901953816413879,0.0,0.0,-0.7236230969429016,-0.06632421165704727,-0.09834634512662888,0.0,0.0,0.0,-4.573925018310547,0.2412795126438141,0.8260272145271301,0.4722777307033539,0.6443440914154053,0.01316858921200037,-0.11387822031974792,-0.7560945153236389,4.6557464599609375,-2.7476658821105957,-0.06475229561328888,-3.567084789276123,6.26357889175415,5.996626853942871,0.24137338995933533,0.8317091464996338,0.4736442267894745,5.010741233825684,-2.1723413467407227,-0.0818236768245697,0.46192318201065063,0.6586025357246399,0.42000001668930054,-0.29139620065689087,0.3718985319137573,-1.103545069694519,-3.0000007152557373,-0.2387610822916031,-0.23999562859535217,-0.21113570034503937,-0.18184040486812592,0.04520365968346596,-0.008309504017233849,-0.07468210160732269,-0.06411482393741608
0.5333333333333333,-0.023591719567775726,0.03324611485004425,0.0,0.6808326840400696,0.0,0.0,-0.7324389219284058,0.10296643525362015,-0.3577755391597748,0.0,0.0,0.0,-0.5566438436508179,0.314325213432312,0.7864265441894531,0.46511784195899963,0.5963407754898071,-0.088834747672081,-0.13766992092132568,-0.7858326435089111,3.5181870460510254,-2.7880287170410156,-0.2374897599220276,7.790663719177246,4.351902008056641,10.416930198669434,0.31506383419036865,0.7930088043212891,0.4703090786933899,3.9243640899658203,-2.5640766620635986,-0.40308788418769836,0.46192318201065063,0.6586025357246399,0.42000001668930054,-0.28285354375839233,0.6325690746307373,-1.1535671949386597,-2.9999756813049316,-0.23592956364154816,-0.23728081583976746,-0.2099338173866272,-0.18119119107723236,0.16873149573802948,0.20672555267810822,0.10162372887134552,0.03629850596189499
0.55,-0.019674768671393394,0.030854864045977592,0.0,0.6627393364906311,0.0,0.0,-0.7488501667976379,0.2843315005302429,-0.10213679820299149,0.0,0.0,0.0,-3.7429051399230957,0.3725179433822632,0.7468277215957642,0.453315407037735,0.5610330700874329,-0.11790879815816879,-0.10400543361902237,-0.8127251267433167,2.7293171882629395,-2.76360821723938,-0.768994927406311,1.9586561918258667,4.921590328216553,19.799583435058594,0.3740924000740051,0.7531208992004395,0.45851123332977295,3.302186965942383,-2.395265579223633,-0.9335557222366333,0.46192318201065063,0.6586025357246399,0.42000001668930054,-0.2723042070865631,0.5404157638549805,-1.2035893201828003,-2.99996280670166,-0.23242448270320892,-0.2333558052778244,-0.20857198536396027,-0.1818154901266098,0.3213231563568115,0.33214735984802246,0.1340949386358261,-0.035313814878463745
0.5666666666666667,-0.013311435468494892,0.031609926372766495,0.0,0.6591293811798096,0.0,0.0,-0.752029538154602,0.41347095370292664,0.12302856147289276,0.0,0.0,0.0,0.3456694781780243,0.4172745645046234,0.7080049514770508,0.4344766139984131,0.5224469900131226,-0.1754699945449829,-0.09559756517410278,-0.8289273381233215,1.805146336555481,-2.5062553882598877,-1.1125770807266235,-0.8684854507446289,15.603107452392578,7.285763740539551,0.41909778118133545,0.7138389348983765,0.44097647070884705,2.2891554832458496,-2.330331325531006,-1.1647517681121826,0.46192318201065063,0.6586025357246399,0.42000001668930054,-0.2625417709350586,0.55844646692276,-1.253611445426941,-2.9986445903778076,-0.2266559600830078,-0.22745299339294434,-0.2063533216714859,-0.18291349709033966,0.3808262348175049,0.38351649045944214,0.14083479344844818,-0.08696651458740234
0.5833333333333334,-0.004541371483355761,0.027980061247944832,0.0,0.6443411707878113,0.0,0.0,-0.764738142490387,0.5140825510025024,-0.24072587490081787,0.0,0.0,0.0,-3.2145354747772217,0.44793519377708435,0.6837800741195679,0.42397427558898926,0.533088207244873,-0.07981704920530319,-0.03407587110996246,-0.8415966629981995,0.905406653881073,-1.184943675994873,-0.06087646260857582,2.4376280307769775,-2.435089588165283,28.539522171020508,0.44884011149406433,0.6869504451751709,0.42613816261291504,1.2364587783813477,-1.0153926610946655,-0.055331967771053314,0.46192318201065063,0.6586025357246399,0.42000001668930054,-0.2516554594039917,0.6845698356628418,-1.2154977321624756,2.9968202114105225,-0.2140192687511444,-0.215896338224411,-0.20023177564144135,-0.1818750947713852,0.7625589966773987,0.7222269773483276,0.3918566107749939,0.08098886162042618
0.6,0.0011499762767925858,0.02814195491373539,0.0,0.6425747871398926,0.0,0.0,-0.7662229537963867,0.27990540862083435,0.02704283408820629,0.0,0.0,0.0,0.6969207525253296,0.4631522297859192,0.6671834588050842,0.42476269602775574,0.536341667175293,-0.09564318507909775,-0.012272313237190247,-0.838474452495575,0.4670265018939972,-1.2799017429351807,-0.049615081399679184,-1.7037484645843506,-3.7841670513153076,6.232939720153809,0.4629337787628174,0.6706557273864746,0.427528977394104,0.6812717914581299,-0.9252669811248779,0.12657538056373596,0.46192318201065063,0.6586025357246399,0.42000001668930054,-0.26194658875465393,-1.4691970348358154,-1.236436128616333,-2.9998698234558105,-0.20460130274295807,-0.20651951432228088,-0.19558745622634888,-0.18181291222572327,0.56376713514328,0.5526455640792847,0.2743614614009857,1.5283578250091523e-05
0.6166666666666667,0.008405364118516445,0.02840430475771427,0.0,0.6297544836997986,0.0,0.0,-0.7767942547798157,0.4332433044910431,0.020987767726182938,0.0,0.0,0.0,-2.8322601318359375,0.4714798033237457,0.6569567322731018,0.42397016286849976,0.548636794090271,-0.08084293454885483,-0.01941940374672413,-0.831916332244873,0.3808891475200653,-0.2827695310115814,-0.01186596229672432,-0.1532381772994995,-0.4741603136062622,1.1815694570541382,0.47112953662872314,0.6617503762245178,0.4266226887702942,0.30163565278053284,-0.2581923007965088,-0.08096516877412796,0.46192318201065063,0.6586025357246399,0.42000001668930054,-0.2723290026187897,0.0276018176227808,-1.204075813293457,2.999358892440796,-0.1931065320968628,-0.1960510015487671,-0.19022664427757263,-0.181470587849617,0.7440494894981384,0.6572481393814087,0.3463120758533478,0.04011240229010582
0.6333333333333333,0.0168018601834774,0.026241719722747803,0.0,0.6303253173828125,0.0,0.0,-0.7763310670852661,0.5375653505325317,-0.18546712398529053,0.0,0.0,0.0,1.003859519958496,0.47611287236213684,0.6533540487289429,0.4228743612766266,0.508446216583252,-0.06453019380569458,-0.03363358974456787,-0.8580133318901062,0.19728456437587738,-0.10083930194377899,-0.06964179128408432,-2.380730390548706,-3.539738416671753,-8.617465019226074,0.4712720513343811,0.6578837037086487,0.42780810594558716,-0.17098644375801086,-0.15321722626686096,0.1459464132785797,0.46192318201065063,0.6586025357246399,0.42000001668930054,-0.30812862515449524,-3.0000011920928955,-1.2251726388931274,-2.9997880458831787,-0.18322010338306427,-0.18695181608200073,-0.18534892797470093,-0.18086256086826324,0.5445605516433716,0.508813202381134,0.2852286994457245,0.05377187579870224
0.65,0.02766559273004532,0.026455650106072426,0.0,0.6518693566322327,0.0,0.0,-0.7583312392234802,0.6887804865837097,0.056320156902074814,0.0,0.0,0.0,4.285495281219482,0.47462889552116394,0.6524546146392822,0.42199230194091797,0.5177354216575623,-0.04472113028168678,-0.027271682396531105,-0.853935718536377,-0.142205148935318,-0.03266783803701401,-0.038905441761016846,2.1308324337005615,-1.4728896617889404,-0.09965495020151138,0.4685823321342468,0.6572816967964172,0.43011072278022766,-0.13507810235023499,0.10923977196216583,0.14307819306850433,0.46192318201065063,0.6586025357246399,0.42000001668930054,-0.35579684376716614,-2.714935779571533,-1.2751387357711792,-2.998530626296997,-0.17552001774311066,-0.17992432415485382,-0.18169762194156647,-0.1806987226009369,0.4941062033176422,0.43664124608039856,0.23953326046466827,0.03652055561542511
0.6666666666666666,0.04039252921938896,0.023237986490130424,0.0,0.6605158448219299,0.0,0.0,-0.7508121132850647,0.7941027879714966,-0.19919170439243317,0.0,0.0,0.0,0.3224126696586609,0.4724670350551605,0.6516867280006409,0.42027005553245544,0.525303840637207,-0.005045690108090639,-0.003292825073003769,-0.8508933186531067,-0.15109848976135254,-0.021527931094169617,-0.11661411821842194,5.548149108886719,-2.891584634780884,1.2842350006103516,0.4679456651210785,0.6622989177703857,0.43327105045318604,-0.060598455369472504,0.3082411289215088,0.211304172873497,0.46192318201065063,0.6586025357246399,0.42000001668930054,-0.40575870871543884,-2.999941349029541,-1.3251049518585205,-2.999138355255127,-0.16491976380348206,-0.17059817910194397,-0.17558850347995758,-0.17788086831569672,0.510718047618866,0.46766290068626404,0.3245164453983307,0.17246058583259583
0.6833333333333333,0.05494675040245056,0.01756371557712555,0.0,0.6780988574028015,0.0,0.0,-0.73497074842453,0.9086173176765442,-0.4271225035190582,0.0,0.0,0.0,3.76178240776062,0.47038567066192627,0.651752769947052,0.4199999272823334,0.527671754360199,-6.498618404293666e-06,9.66054358286783e-07,-0.8494483828544617,-0.1021030992269516,0.010429579764604568,-0.00015859759878367186,-0.0015482240123674273,-0.00625377893447876,0.24274343252182007,0.46473026275634766,0.6643860340118408,0.43728870153427124,-0.2835962176322937,0.036792315542697906,0.3366696834564209,0.46192318201065063,0.6586025357246399,0.42000001668930054,-0.45577311515808105,-2.999997854232788,-1.3751230239868164,-3.000000238418579,-0.15943939983844757,-0.1646854728460312,-0.1705346256494522,-0.17381170392036438,0.2623060643672943,0.328018456697464,0.3365277051925659,0.33966758847236633
0.7,0.07186225056648254,0.011304302141070366,0.0,0.6834043264389038,0.0,0.0,-0.7300400733947754,1.0528788566589355,-0.38491764664649963,0.0,0.0,0.0,-0.1478589028120041,0.4686383306980133,0.6521420478820801,0.42000019550323486,0.5263631343841553,1.452053493267158e-05,-1.3704961929761339e-05,-0.8502597808837891,-0.025846894830465317,-0.008547795005142689,-0.000497407338116318,-0.01062611024826765,0.029118934646248817,0.30848515033721924,0.4649616479873657,0.6651806831359863,0.44305723905563354,0.17378342151641846,0.008331634104251862,0.4182628393173218,0.46192318201065063,0.6586025357246399,0.42000001668930054,-0.5057865381240845,-3.0000011920928955,-1.4251408576965332,-3.000000238418579,-0.15757489204406738,-0.16119074821472168,-0.16605716943740845,-0.16841258108615875,0.07315170019865036,0.18525852262973785,0.2743469178676605,0.36151987314224243
0.7166666666666667,0.09050852805376053,0.0024919798597693443,0.0,0.6666959524154663,0.0,0.0,-0.7453297972679138,1.150024175643921,-0.5997444987297058,0.0,0.0,0.0,-3.6250221729278564,0.46863874793052673,0.6521421670913696,0.4200000464916229,0.5263634920120239,2.9207583907009393e-07,-5.635291927319486e-06,-0.8502596616744995,0.00036702226498164237,-0.0002126503095496446,-0.00010196003131568432,0.0018634203588590026,0.0015269743744283915,-0.0016306802863255143,0.4745519757270813,0.6661804914474487,0.4577556550502777,0.9176528453826904,0.06289580464363098,1.4526915550231934,0.46192318201065063,0.6586025357246399,0.42000001668930054,-0.555799126625061,-2.999978542327881,-1.4751591682434082,-2.9999992847442627,-0.1591210514307022,-0.16059498488903046,-0.16349910199642181,-0.16393451392650604,-0.16547761857509613,-0.030259232968091965,0.10413557291030884,0.23528118431568146
0.7333333333333333,0.11126654595136642,-0.0036033967044204473,0.0,0.6291695833206177,0.0,0.0,-0.7772680521011353,1.2931689023971558,-0.3618261218070984,0.0,0.0,0.0,-6.807962417602539,0.46863892674446106,0.6521420478820801,0.4200000464916229,0.5263634920120239,-1.374329201553337e-07,-2.8153147013654234e-06,-0.8502596020698547,4.399101271701511e-06,-0.00023972093185875565,-6.860168650746346e-05,0.00656849006190896,-0.002382618375122547,-0.0006836796528659761,0.5012333393096924,0.6629444360733032,0.48547905683517456,2.2628684043884277,-0.3992411494255066,2.0142662525177,0.46192318201065063,0.6586025357246399,0.42000001668930054,-0.6058040857315063,-2.9995977878570557,-1.5251774787902832,-2.9999351501464844,-0.16567789018154144,-0.1644950807094574,-0.16465869545936584,-0.16247595846652985,-0.35995280742645264,-0.22264745831489563,-0.07309295982122421,0.06916765123605728
0.75,0.12958617508411407,-0.007590536493808031,0.0,0.6055476665496826,0.0,0.0,-0.7958090305328369,1.0224968194961548,-0.18605239689350128,0.0,0.0,0.0,-2.5767364501953125,0.46863892674446106,0.6521420478820801,0.4200000464916229,0.5263635516166687,-2.0605815720387e-08,-2.66673055193678e-06,-0.85025954246521,8.347449693246745e-06,-0.00024003384169191122,-6.94377813488245e-05,0.006555827334523201,-0.0023394429590553045,-0.0006930725066922605,0.5376383066177368,0.6605297327041626,0.5207562446594238,2.059603691101074,0.07412485033273697,2.1818714141845703,0.46192318201065063,0.6586025357246399,0.42000001668930054,-0.6243488788604736,0.46911466121673584,-1.5751956701278687,-3.000000238418579,-0.1700601428747177,-0.16759711503982544,-0.16623495519161224,-0.162684366106987,-0.15220695734024048,-0.13375967741012573,-0.0990133285522461,-0.07551641762256622
0.7666666666666666,0.1430668979883194,-0.008643623441457748,0.0,0.6075425148010254,0.0,0.0,-0.7942871451377869,0.7284263968467712,-0.012087404727935791,0.0,0.0,0.0,1.2136701345443726,0.46863892674446106,0.6521420478820801,0.4200000464916229,0.5263634324073792,3.330534070755675e-09,-2.787810444715433e-06,-0.8502596020698547,7.853619536035694e-06,-0.00023987832537386566,-6.934627890586853e-05,0.006554098799824715,-0.00234490935690701,-0.0006916172569617629,0.5648131370544434,0.6624155044555664,0.552416205406189,1.1735320091247559,0.2057950496673584,1.652421474456787,0.46192318201065063,0.6586025357246399,0.42000001668930054,-0.5942702293395996,2.9031801223754883,-1.536251187324524,2.9999985694885254,-0.17120672762393951,-0.1686059981584549,-0.1667966991662979,-0.16300693154335022,0.01399457547813654,0.008981524966657162,0.02300560660660267,0.02293306216597557
0.7833333333333333,0.152019664645195,-0.007169060874730349,0.0,0.6318085193634033,0.0,0.0,-0.7751244902610779,0.4761678874492645,0.14977377653121948,0.0,0.0,0.0,4.617359161376953,0.46863892674446106,0.6521420478820801,0.4200000464916229,0.5263634920120239,-3.724044006503391e-08,-2.642899971760926e-06,-0.85025954246521,8.365731446247082e-06,-0.00024010475317481905,-6.944593042135239e-05,0.006557602435350418,-0.002339723287150264,-0.0006933240219950676,0.5749378204345703,0.667145848274231,0.5756559371948242,0.01291152834892273,0.403550922870636,1.2070868015289307,0.46192318201065063,0.6586025357246399,0.42000001668930054,-0.5444561243057251,2.9999876022338867,-1.4861947298049927,3.000000238418579,-0.16939161717891693,-0.16715970635414124,-0.16537857055664062,-0.16184678673744202,0.16608262062072754,0.13424909114837646,0.12206315994262695,0.09503338485956192
0.8,0.15732179582118988,-0.008978649042546749,0.0,0.6414424777030945,0.0,0.0,-0.7671711444854736,0.2579558491706848,-0.17944131791591644,0.0,0.0,0.0,0.406131774187088,0.46863892674446106,0.6521420478820801,0.4200000464916229,0.5263636112213135,-1.7657290740658027e-08,-2.6899820113612805e-06,-0.8502594828605652,8.663519110996276e-06,-0.00023997086100280285,-6.951438263058662e-05,0.0065523786470294,-0.002336026867851615,-0.0006936312420293689,0.5690807104110718,0.6733615398406982,0.5893403887748718,-0.7318130731582642,0.28848785161972046,0.5964171886444092,0.46192318201065063,0.6586025357246399,0.42000001668930054,-0.5418364405632019,-2.23433518409729,-1.4361382722854614,3.0,-0.1663137972354889,-0.16437551379203796,-0.16254498064517975,-0.1591957062482834,0.16178418695926666,0.16558420658111572,0.18882392346858978,0.19739067554473877
0.8166666666666667,0.1590472012758255,-0.005464234855026007,0.0,0.6611905097961426,0.0,0.0,-0.7502180337905884,0.04255872219800949,0.3491896688938141,0.0,0.0,0.0,4.015703201293945,0.46863892674446106,0.6521420478820801,0.4200000464916229,0.5263634920120239,-2.038871471654602e-08,-2.6199265903414926e-06,-0.85025954246521,8.084199180302676e-06,-0.00023985299048945308,-6.939913146197796e-05,0.006552223581820726,-0.0023421652149409056,-0.0006920551531948149,0.5580817461013794,0.675871729850769,0.5928712487220764,-0.5431081652641296,0.16069994866847992,-0.08706119656562805,0.46192318201065063,0.6586025357246399,0.42000001668930054,-0.5522293448448181,0.7378949522972107,-1.4535499811172485,-2.9999988079071045,-0.16822034120559692,-0.1650860458612442,-0.1618405431509018,-0.15742550790309906,-0.11949949711561203,-0.04235485941171646,0.04650002717971802,0.1146765649318695
0.8333333333333334,0.15983322262763977,-0.005391997750848532,0.0,0.6666936874389648,0.0,0.0,-0.7453318238258362,0.006439596880227327,-0.06895608454942703,0.0,0.0,0.0,-0.17333360016345978,0.46863892674446106,0.6521420478820801,0.4200000464916229,0.5263632535934448,-8.947310448093049e-08,-2.624284661578713e-06,-0.8502596616744995,1.0807143553392962e-05,-0.0002381110971327871,-6.982218474149704e-05,0.006492484360933304,-0.0023000456858426332,-0.0006928526563569903,0.5444897413253784,0.6802607178688049,0.5867058634757996,-1.1468079090118408,0.2823948860168457,-0.47661179304122925,0.46192318201065063,0.6586025357246399,0.42000001668930054,-0.5654445886611938,-2.070535898208618,-1.4149564504623413,2.999999761581421,-0.1664920449256897,-0.16307024657726288,-0.15932928025722504,-0.15469035506248474,0.14048002660274506,0.143321692943573,0.1550128012895584,0.14957065880298615
0.85,0.1616860032081604,-0.003486468456685543,0.0,0.6812414526939392,0.0,0.0,-0.7320588231086731,0.1159869059920311,0.16166064143180847,0.0,0.0,0.0,2.8979856967926025,0.46863892674446106,0.6521420478820801,0.4200000464916229,0.5263633728027344,-6.994109291724726e-09,-2.6785314730659593e-06,-0.8502596020698547,8.573356353736017e-06,-0.000239929897361435,-6.949598900973797e-05,0.006551836151629686,-0.0023367777466773987,-0.0006933246040716767,0.5292887687683105,0.6846028566360474,0.5793488025665283,-0.6144460439682007,0.3625926971435547,-0.38257303833961487,0.46192318201065063,0.6586025357246399,0.42000001668930054,-0.5726780295372009,0.9483166933059692,-1.432800531387329,-2.999999761581421,-0.16499482095241547,-0.16151456534862518,-0.15751390159130096,-0.15281227231025696,0.21950498223304749,0.18163135647773743,0.16280080378055573,0.142083540558815
0.8666666666666667,0.16490966081619263,-0.0038424378726631403,0.0,0.6802083253860474,0.0,0.0,-0.7330188155174255,0.22425928711891174,-0.09428887069225311,0.0,0.0,0.0,-1.0708249807357788,0.46863892674446106,0.6521420478820801,0.4200000464916229,0.5263634920120239,-3.963208783375194e-08,-2.7204694106330862e-06,-0.85025954246521,8.882328074832913e-06,-0.00023994552611839026,-6.955955177545547e-05,0.006550611462444067,-0.0023333083372563124,-0.0006940424791537225,0.5214217901229858,0.6906459331512451,0.5712366104125977,-0.3607276380062103,0.29287081956863403,-0.38889455795288086,0.46192318201065063,0.6586025357246399,0.42000001668930054,-0.5966434478759766,-3.000000476837158,-1.3942687511444092,2.999999523162842,-0.1628253310918808,-0.15987937152385712,-0.1560853123664856,-0.15157167613506317,0.09333420544862747,0.07020928710699081,0.06530622392892838,0.06251662969589233
0.8833333333333333,0.17038634419441223,-0.008209913037717342,0.0,0.6622044444084167,0.0,0.0,-0.7493231892585754,0.37646758556365967,-0.3357994556427002,0.0,0.0,0.0,-4.161678314208984,0.46863892674446106,0.6521420478820801,0.4200000464916229,0.5263636112213135,5.770285937956032e-08,-2.5872700462059584e-06,-0.8502594828605652,8.86187353899004e-06,-0.00023987020540516824,-6.954674609005451e-05,0.0065488205291330814,-0.0023330498952418566,-0.0006937604048289359,0.5226614475250244,0.6945865154266357,0.5657157897949219,0.4820653796195984,0.13052654266357422,-0.14604902267456055,0.46192318201065063,0.6586025357246399,0.42000001668930054,-0.6357393264770508,-1.7647883892059326,-1.4125175476074219,-2.9999887943267822,-0.16322286427021027,-0.16019560396671295,-0.15599413216114044,-0.150984987616539,-0.0915796235203743,-0.061728138476610184,-0.012526866979897022,0.04349629208445549
0.9,0.17961764335632324,-0.007654091343283653,0.0,0.654545247554779,0.0,0.0,-0.7560228705406189,0.501171886920929,0.07141843438148499,0.0,0.0,0.0,-0.22733862698078156,0.46863892674446106,0.6521420478820801,0.4200000464916229,0.5263634324073792,3.2342853728550836e-08,-2.494066848157672e-06,-0.8502596020698547,9.998590030591004e-06,-0.00023944146232679486,-6.980891339480877e-05,0.006531127262860537,-0.002319013001397252,-0.0006951662944629788,0.5281637907028198,0.6973380446434021,0.5667988061904907,0.32566165924072266,0.400402307510376,0.22684618830680847,0.46192318201065063,0.6586025357246399,0.42000001668930054,-0.636199414730072,1.4309124946594238,-1.4625358581542969,-3.0,-0.1690494269132614,-0.1651664674282074,-0.15997304022312164,-0.1540081799030304,-0.1746526062488556,-0.1888490915298462,-0.19597572088241577,-0.20293986797332764
0.9166666666666666,0.1851135790348053,-0.011847848072648048,0.0,0.6694762110710144,0.0,0.0,-0.7428334951400757,0.3184164762496948,-0.33036214113235474,0.0,0.0,0.0,3.0821149349212646,0.46863892674446106,0.6521420478820801,0.4200000464916229,0.5263633728027344,-1.0603945099774137e-07,-2.4221189960371703e-06,-0.8502596616744995,7.184681180660846e-06,-0.00023973314091563225,-6.921100430190563e-05,0.0065539442002773285,-0.0023516935762017965,-0.0006895833648741245,0.5301554799079895,0.7021780014038086,0.5683396458625793,-0.09198543429374695,0.16666868329048157,-0.06385204941034317,0.46192318201065063,0.6586025357246399,0.42000001668930054,-0.6247054934501648,0.05822394788265228,-1.42391037940979,2.999999523162842,-0.16900193691253662,-0.1653946340084076,-0.16041983664035797,-0.15469682216644287,-0.05098399519920349,-0.045892082154750824,-0.04182979464530945,-0.04240117967128754
