vladlanda/robotic-transformer/data/env_000_episode_0219.csv
sim_time_s,robot_box_x,robot_box_y,robot_box_z,robot_box_quat_w,robot_box_quat_x,robot_box_quat_y,robot_box_quat_z,robot_box_linvel_x,robot_box_linvel_y,robot_box_linvel_z,robot_box_angvel_x,robot_box_angvel_y,robot_box_angvel_z,cube_world_x,cube_world_y,cube_world_z,cube_quat_w,cube_quat_x,cube_quat_y,cube_quat_z,cube_linvel_x,cube_linvel_y,cube_linvel_z,cube_angvel_x,cube_angvel_y,cube_angvel_z,endpoint_world_x,endpoint_world_y,endpoint_world_z,endpoint_linvel_x,endpoint_linvel_y,endpoint_linvel_z,target_cube_world_x,target_cube_world_y,target_cube_world_z,gripper_actual_pos_rad_gp_leftgearjoint,gripper_actual_vel_rad_s_gp_leftgearjoint,gripper_actual_pos_rad_gp_rotatingjoint,gripper_actual_vel_rad_s_gp_rotatingjoint,motor_angle_rad_joint1,motor_angle_rad_joint2,motor_angle_rad_joint3,motor_angle_rad_joint4,motor_speed_rad_s_joint1,motor_speed_rad_s_joint2,motor_speed_rad_s_joint3,motor_speed_rad_s_joint4
0.0,0.0,0.0,0.0,1.0,0.0,0.0,0.0,0.0,0.0,0.0,0.0,0.0,0.0,-0.43287625908851624,0.6892966032028198,0.41999998688697815,1.0,0.0,0.0,0.0,0.0,0.0,0.0,0.0,0.0,0.0,3.42540442943573e-06,-0.005000244826078415,1.313499927520752,0.0,0.0,0.0,0.4721592664718628,0.6407384276390076,0.42000001668930054,-1.5707999467849731,0.0,0.0,0.0,0.0,0.0,0.0,0.0,0.0,0.0,0.0,0.0
0.016666666666666666,0.0028778850100934505,0.0021806680597364902,0.0,0.9998081922531128,0.0,0.0,0.019586581736803055,0.24087215960025787,0.18240931630134583,0.0,0.0,0.0,3.1418697834014893,-0.4328763782978058,0.689296305179596,0.41999998688697815,1.0,3.2799914606584935e-06,-8.339814598912199e-07,8.465387679734704e-08,-1.9833554688375443e-05,0.00017983050202019513,-6.133061833679676e-05,0.0009432226070202887,-0.004689437802881002,-0.0003198152990080416,-0.007110234349966049,0.003379564033821225,1.3159373998641968,-0.8143353462219238,0.9868683815002441,0.18095196783542633,0.4721592664718628,0.6407384276390076,0.42000001668930054,-1.5301095247268677,3.0000011920928955,-0.04584788903594017,-2.9999992847442627,0.0008691533003002405,0.0007963840034790337,0.0007110277656465769,0.0006108740926720202,0.11094217747449875,0.09756709635257721,0.08334315568208694,0.06823883205652237
0.03333333333333333,0.008960978128015995,0.006801944691687822,0.0,0.9997960329055786,0.0,0.0,0.020196836441755295,0.4070213735103607,0.31530827283859253,0.0,0.0,0.0,-0.8691312670707703,-0.43287649750709534,0.6892962455749512,0.4200000464916229,1.0,3.390914116607746e-06,-2.132455392711563e-06,-3.71076644967161e-08,0.0002635782293509692,0.00026937935035675764,-0.00010509486310184002,-0.001770757487975061,0.0041308156214654446,-0.00013547815615311265,-0.027550462633371353,0.026105040684342384,1.3166104555130005,-1.591488242149353,1.6156619787216187,-0.08325762301683426,0.4721592664718628,0.6407384276390076,0.42000001668930054,-1.4800904989242554,3.0000011920928955,-0.09588772058486938,-3.000000476837158,0.0029901317320764065,0.002652752911671996,0.002277332590892911,0.0018607968231663108,0.16421979665756226,0.1397642344236374,0.11382381618022919,0.0863066241145134
0.05,0.017673712223768234,0.013755611144006252,0.0,0.9994008541107178,0.0,0.0,0.03461141884326935,0.591929018497467,0.46449771523475647,0.0,0.0,0.0,2.660722494125366,-0.4328765273094177,0.689296305179596,0.4200000464916229,1.0,3.7652293940482195e-06,-2.2118967990536476e-06,5.613899567435965e-09,0.000265309150563553,0.0002669153909664601,-0.0001044049859046936,-0.00172426737844944,0.004177379421889782,-0.0001294983085244894,-0.05963967368006706,0.05397617816925049,1.3116240501403809,-2.186823844909668,1.7560842037200928,-0.4746766686439514,0.4721592664718628,0.6407384276390076,0.42000001668930054,-1.4300721883773804,3.0000014305114746,-0.14592638611793518,-3.0,0.005680511239916086,0.0048899282701313496,0.004027246963232756,0.003087914315983653,0.19233787059783936,0.15543387830257416,0.11665952950716019,0.07592272758483887
0.06666666666666667,0.028959186747670174,0.023039638996124268,0.0,0.9994683265686035,0.0,0.0,0.0326039120554924,0.718579888343811,0.5946769714355469,0.0,0.0,0.0,-1.1991856098175049,-0.4328765273094177,0.6892962455749512,0.4200000464916229,0.9999999403953552,3.4068445984303253e-06,-2.2855729184811935e-06,4.300823945868615e-07,0.000267024093773216,0.0002679175231605768,-0.0001043803058564663,-0.0017406325787305832,0.004211729858070612,-0.00012850853090640157,-0.0975978896021843,0.08832699060440063,1.2992208003997803,-2.3893630504608154,2.2482810020446777,-0.9878921508789062,0.4721592664718628,0.6407384276390076,0.42000001668930054,-1.3800538778305054,3.0000011920928955,-0.19594025611877441,-2.999999523162842,0.008198007941246033,0.006699316203594208,0.0050897360779345036,0.0033635147847235203,0.1443067193031311,0.09140798449516296,0.036474354565143585,-0.020572533831000328
0.08333333333333333,0.034975871443748474,0.03556949272751808,0.0,0.9999999403953552,0.0,0.0,-0.000410846812883392,0.18103349208831787,0.826931893825531,0.0,0.0,0.0,-4.925562858581543,-0.4328765273094177,0.6892962455749512,0.4200000464916229,1.0,3.697329248097958e-06,-2.1889204617764335e-06,-2.632361599808064e-07,0.00026389621780253947,0.00026586378226056695,-0.00010433816350996494,-0.0017081365222111344,0.004150137305259705,-0.00012991174298804253,-0.13576538860797882,0.13020706176757812,1.2781670093536377,-2.2313647270202637,2.642167568206787,-1.459749460220337,0.4721592664718628,0.6407384276390076,0.42000001668930054,-1.3300268650054932,2.9999947547912598,-0.16217489540576935,3.0000009536743164,0.005411881487816572,0.003293202957138419,0.0010139324003830552,-0.001435691025108099,-0.2942965626716614,-0.3338301479816437,-0.3760159909725189,-0.4211558401584625
0.1,0.04429103806614876,0.0496567040681839,0.0,0.9998845458030701,0.0,0.0,-0.015193342231214046,0.6746003031730652,0.8516308069229126,0.0,0.0,0.0,-0.6843873858451843,-0.4328765273094177,0.6892962455749512,0.4200000464916229,0.9999999403953552,3.620433972173487e-06,-2.265166358483839e-06,1.7460881451825117e-07,0.00026676940615288913,0.00026740849716588855,-0.0001040794886648655,-0.0017386502586305141,0.0042092143557965755,-0.00012775196228176355,-0.17541730403900146,0.1693733036518097,1.2555413246154785,-2.37178373336792,2.345693826675415,-1.334878921508789,0.4721592664718628,0.6407384276390076,0.42000001668930054,-1.280029535293579,3.0000007152557373,-0.1938602179288864,-2.999999761581421,0.005260144826024771,0.0016885133227333426,-0.002044019987806678,-0.005947914905846119,0.04729565978050232,-0.05657169222831726,-0.1595022976398468,-0.26145076751708984
0.11666666666666667,0.052007608115673065,0.06138334050774574,0.0,0.9991103410720825,0.0,0.0,-0.042172595858573914,0.4625488519668579,0.6578870415687561,0.0,0.0,0.0,-3.9029150009155273,-0.4328765273094177,0.6892962455749512,0.4200000464916229,1.0,3.7984186747053172e-06,-2.262772341055097e-06,-1.5020653165720432e-07,0.00026373984292149544,0.00026565982261672616,-0.00010428996756672859,-0.0017054551281034946,0.004147582221776247,-0.000129800770082511,-0.21094083786010742,0.21533966064453125,1.2321785688400269,-1.9230191707611084,3.1246728897094727,-1.4095935821533203,0.4721592664718628,0.6407384276390076,0.42000001668930054,-1.2300041913986206,2.999992609024048,-0.1600973755121231,3.0000007152557373,0.004043336492031813,-0.0014267043443396688,-0.007028650026768446,-0.012772061862051487,-0.03298656642436981,-0.16753537952899933,-0.2989841103553772,-0.4271475076675415
0.13333333333333333,0.056886084377765656,0.07427630573511124,0.0,0.9955931305885315,0.0,0.0,-0.09377826750278473,0.22351093590259552,0.8242809176445007,0.0,0.0,0.0,-6.996584415435791,-0.4328765273094177,0.689296305179596,0.4200000464916229,0.9999999403953552,3.5505179312167456e-06,-2.2298092972050654e-06,2.9291240366546845e-07,0.0002670329704415053,0.0002677935699466616,-0.00010416889563202858,-0.0017439755611121655,0.004213570151478052,-0.00012800609692931175,-0.24371233582496643,0.2685491442680359,1.2079551219940186,-1.9558610916137695,3.293808937072754,-1.5645496845245361,0.4721592664718628,0.6407384276390076,0.42000001668930054,-1.1903009414672852,1.831602931022644,-0.1918468475341797,-3.0,0.0021713445894420147,-0.005476825404912233,-0.013190094381570816,-0.020974425598978996,-0.18947799503803253,-0.30706214904785156,-0.42049741744995117,-0.5296041369438171
0.15,0.05859715864062309,0.08557181805372238,0.0,0.9922303557395935,0.0,0.0,-0.12441451102495193,0.055233974009752274,0.5882341265678406,0.0,0.0,0.0,-2.6123976707458496,-0.4328765273094177,0.6892962455749512,0.4200000464916229,0.9999999403953552,3.3380795230186777e-06,-2.2429178443417186e-06,-2.8019679021440425e-08,0.00026674545370042324,0.0002675825380720198,-0.00010427855886518955,-0.0017367409309372306,0.004206846002489328,-0.00012831656204070896,-0.28241458535194397,0.3210359215736389,1.1756956577301025,-2.293071746826172,3.376657485961914,-2.278561592102051,0.4721592664718628,0.6407384276390076,0.42000001668930054,-1.1451001167297363,2.999999523162842,-0.1833420842885971,3.0,-0.0018510603113099933,-0.011150754988193512,-0.02043684385716915,-0.029714375734329224,-0.2976781725883484,-0.37655818462371826,-0.4509047567844391,-0.5207895636558533
0.16666666666666666,0.06419213116168976,0.09704043716192245,0.0,0.9858235716819763,0.0,0.0,-0.16778527200222015,0.3581111431121826,0.6943305134773254,0.0,0.0,0.0,-6.022622108459473,-0.4328765273094177,0.689296305179596,0.4200000464916229,0.9999999403953552,3.6478086258284748e-06,-2.307298927917145e-06,3.5287062161160065e-08,0.0002672687987796962,0.0002680137986317277,-0.0001041849609464407,-0.0017472092295065522,0.004217576701194048,-0.00012798466195818037,-0.3184126615524292,0.3809666037559509,1.13505220413208,-1.971623420715332,3.8269362449645996,-2.6151163578033447,0.4721592664718628,0.6407384276390076,0.42000001668930054,-1.0957167148590088,2.895594596862793,-0.21491900086402893,-2.999999761581421,-0.006427388172596693,-0.017062004655599594,-0.027605770155787468,-0.038064900785684586,-0.46179699897766113,-0.5135396122932434,-0.5623429417610168,-0.6082934737205505
0.18333333333333332,0.06619191914796829,0.10657622665166855,0.0,0.981522262096405,0.0,0.0,-0.1913478821516037,0.0982656255364418,0.4739384055137634,0.0,0.0,0.0,-1.687007188796997,-0.4328765273094177,0.6892962455749512,0.4200000464916229,0.9999999403953552,3.2905161333474098e-06,-2.1939308680885006e-06,-2.7921495870941726e-07,0.0002667803782969713,0.0002677594602573663,-0.00010433956049382687,-0.0017390174325555563,0.004206987097859383,-0.00012845761375501752,-0.3538028299808502,0.4407340884208679,1.082438588142395,-1.9404690265655518,3.7155723571777344,-3.5614917278289795,0.4721592664718628,0.6407384276390076,0.42000001668930054,-1.0524876117706299,2.306486129760742,-0.2649472951889038,-3.000000476837158,-0.01840738020837307,-0.02898777462542057,-0.039457689970731735,-0.049833741039037704,-0.7395620346069336,-0.7200315594673157,-0.6994173526763916,-0.6783815622329712
0.2,0.06457604467868805,0.11686616390943527,0.0,0.9742140769958496,0.0,0.0,-0.22562576830387115,-0.15350866317749023,0.6356517672538757,0.0,0.0,0.0,-5.015478610992432,-0.4328765273094177,0.6892962455749512,0.4200000464916229,1.0,3.2807702154968865e-06,-2.2192509732121835e-06,1.5948818088418193e-07,0.0002662783954292536,0.00026740110479295254,-0.0001042510848492384,-0.0017357355682179332,0.004197742789983749,-0.00012865533062722534,-0.3849700689315796,0.5034443140029907,1.0163935422897339,-1.6781513690948486,3.790703296661377,-4.269941329956055,0.4721592664718628,0.6407384276390076,0.42000001668930054,-1.0032817125320435,3.0000007152557373,-0.31497418880462646,-2.999999761581421,-0.033576205372810364,-0.04395153373479843,-0.05372144281864166,-0.06339820474386215,-0.9425580501556396,-0.923751711845398,-0.8771412372589111,-0.8302504420280457
0.21666666666666667,0.06691702455282211,0.12862056493759155,0.0,0.969429612159729,0.0,0.0,-0.24536968767642975,0.12115985155105591,0.7314311265945435,0.0,0.0,0.0,-0.9676933288574219,-0.4328765273094177,0.689296305179596,0.4200000464916229,1.0,3.6131550587015226e-06,-2.2701437956129666e-06,2.2102723562511528e-07,0.0002671259571798146,0.00026781647466123104,-0.0001041400246322155,-0.001744531444273889,0.004215213470160961,-0.00012786476872861385,-0.4149457812309265,0.5601093769073486,0.9396603107452393,-1.6145174503326416,3.1326358318328857,-4.951082229614258,0.4721592664718628,0.6407384276390076,0.42000001668930054,-0.9532756805419922,3.000000476837158,-0.36500266194343567,-3.0000009536743164,-0.04777812957763672,-0.05770288407802582,-0.06650286912918091,-0.07522257417440414,-0.9851224422454834,-0.9673589468002319,-0.8707720637321472,-0.7779583930969238
0.23333333333333334,0.06581685692071915,0.1376173198223114,0.0,0.9615737795829773,0.0,0.0,-0.27454668283462524,-0.0983070433139801,0.488141268491745,0.0,0.0,0.0,-4.392810344696045,-0.4328765273094177,0.6892962455749512,0.4200000464916229,1.0,3.381868964424939e-06,-2.290964630446979e-06,2.728199035573198e-07,0.00026691248058341444,0.0002677997399587184,-0.00010433257557451725,-0.0017395582981407642,0.004209650680422783,-0.00012844071898143739,-0.4389590620994568,0.6099954843521118,0.8503965139389038,-1.1453454494476318,2.8318419456481934,-5.6110029220581055,0.4721592664718628,0.6407384276390076,0.42000001668930054,-0.9032649993896484,2.9999988079071045,-0.4150329530239105,-2.9999990463256836,-0.06401431560516357,-0.07393638044595718,-0.08266875147819519,-0.09132099896669388,-0.988494336605072,-0.9876067042350769,-0.9808690547943115,-0.9752455353736877
0.25,0.06340373307466507,0.14318504929542542,0.0,0.9585610032081604,0.0,0.0,-0.2848873436450958,-0.19086778163909912,0.2517164945602417,0.0,0.0,0.0,-0.24978052079677582,-0.43287649750709534,0.6892962455749512,0.4200000464916229,0.9999999403953552,3.7066108689032262e-06,-2.2230169633985497e-06,-2.2550023004441755e-07,0.00026424735551699996,0.00026656591217033565,-0.00010457867756485939,-0.001716934028081596,0.004155629314482212,-0.00013063238293398172,-0.4572983980178833,0.6461124420166016,0.7535385489463806,-0.8497856259346008,1.694678544998169,-5.973258018493652,0.4721592664718628,0.6407384276390076,0.42000001668930054,-0.8532543778419495,2.9999732971191406,-0.4650641977787018,-2.9999918937683105,-0.08065902441740036,-0.09053175896406174,-0.09922999888658524,-0.10785176604986191,-0.974978506565094,-0.9783264398574829,-0.981610894203186,-0.9846881628036499
0.26666666666666666,0.05816589295864105,0.1450291872024536,0.0,0.9519151449203491,0.0,0.0,-0.3063618242740631,-0.37558045983314514,0.05811022222042084,0.0,0.0,0.0,-3.545522451400757,-0.4328765273094177,0.6892962455749512,0.4200000464916229,0.9999999403953552,3.7197162328084232e-06,-2.4034857233345974e-06,-1.8307420646124228e-07,0.0002662334591150284,0.000267290830379352,-0.00010425737127661705,-0.001732664299197495,0.004196626134216785,-0.00012850995699409395,-0.46666738390922546,0.6696265935897827,0.649341344833374,-0.19114089012145996,1.043047308921814,-6.334636688232422,0.4721592664718628,0.6407384276390076,0.42000001668930054,-0.8032451272010803,2.999997854232788,-0.5150951743125916,-2.9999992847442627,-0.09771771728992462,-0.10746756941080093,-0.1160726472735405,-0.12461940199136734,-0.9985519647598267,-0.9982456564903259,-0.9980419278144836,-0.9979066252708435
0.2833333333333333,0.055891379714012146,0.14377710223197937,0.0,0.9508114457130432,0.0,0.0,-0.30977022647857666,-0.07664614915847778,-0.1159438043832779,0.0,0.0,0.0,0.4814082682132721,-0.4328765273094177,0.689296305179596,0.4200000464916229,0.9999999403953552,3.5841367207467556e-06,-2.3154134396463633e-06,7.404404556154986e-08,0.0002652216353453696,0.0002645539352670312,-0.00010317075066268444,-0.0017022255342453718,0.004185160622000694,-0.00012499756121542305,-0.4679444432258606,0.6823623180389404,0.547442615032196,0.21715989708900452,0.4780336320400238,-5.861660003662109,0.4721592664718628,0.6407384276390076,0.42000001668930054,-0.7532363533973694,3.0000011920928955,-0.5651248097419739,-2.999999761581421,-0.11460708826780319,-0.12428542971611023,-0.1327991932630539,-0.14129415154457092,-1.0096819400787354,-1.007287621498108,-1.00546395778656,-1.0040106773376465
0.3,0.05019312724471092,0.1407250016927719,0.0,0.945183277130127,0.0,0.0,-0.32654038071632385,-0.43627750873565674,-0.21463118493556976,0.0,0.0,0.0,-3.0025432109832764,-0.4328765273094177,0.6892962455749512,0.4200000464916229,1.0,3.7243221413518768e-06,-2.271844550705282e-06,9.635388664719358e-08,0.00026312549016438425,0.0002652580733411014,-0.00010438100434839725,-0.0016960209468379617,0.004134732764214277,-0.00013027961540501565,-0.45646774768829346,0.6874487996101379,0.4534468948841095,1.1561031341552734,0.2025754600763321,-5.333695411682129,0.4721592664718628,0.6407384276390076,0.42000001668930054,-0.7032284736633301,3.0000016689300537,-0.6151524782180786,-3.0,-0.13280445337295532,-0.1421200931072235,-0.15035729110240936,-0.15863215923309326,-1.011387586593628,-1.008608341217041,-1.0064826011657715,-1.0047780275344849
0.31666666666666665,0.04227529838681221,0.1355203092098236,0.0,0.9451178312301636,0.0,0.0,-0.3267296850681305,-0.46593713760375977,-0.3643476963043213,0.0,0.0,0.0,0.9244004487991333,-0.4329545795917511,0.6886316537857056,0.42031434178352356,0.999943733215332,0.0070282225497066975,-0.0007751150405965745,-0.007906275801360607,0.01529686339199543,0.0019481894560158253,0.02757291868329048,1.122572422027588,-0.2752264142036438,0.7097837924957275,-0.4475315809249878,0.6901220679283142,0.42268601059913635,0.42935413122177124,0.2632734179496765,-0.14290307462215424,0.4721592664718628,0.6407384276390076,0.42000001668930054,-0.6534059047698975,2.972782611846924,-0.6657098531723022,-2.8102705478668213,-0.14176364243030548,-0.151607945561409,-0.16009658575057983,-0.168230801820755,-0.29257604479789734,-0.313057005405426,-0.30894142389297485,-0.2688216269016266
0.3333333333333333,0.03281600400805473,0.12789081037044525,0.0,0.9401360750198364,0.0,0.0,-0.3407992422580719,-0.6161654591560364,-0.4975665211677551,0.0,0.0,0.0,-2.6860082149505615,-0.4310437738895416,0.6911463141441345,0.4201533794403076,0.9996848106384277,0.00385220511816442,-6.744496204191819e-05,-0.024806758388876915,0.26971808075904846,0.33694225549697876,0.013130085542798042,0.6609309911727905,-0.008862297050654888,-4.3228302001953125,-0.4430575668811798,0.6959496736526489,0.4254452884197235,0.38714638352394104,0.32714882493019104,-0.15625858306884766,0.4721592664718628,0.6407384276390076,0.42000001668930054,-0.6033996939659119,2.999976634979248,-0.7157755494117737,-2.9999966621398926,-0.14669086039066315,-0.15636175870895386,-0.1642833650112152,-0.1712639182806015,-0.38807740807533264,-0.3365035057067871,-0.2678223252296448,-0.17083382606506348
0.35,0.021090473979711533,0.11802683770656586,0.0,0.9407239556312561,0.0,0.0,-0.3391731083393097,-0.7431731820106506,-0.6365882754325867,0.0,0.0,0.0,1.1167690753936768,-0.4249398112297058,0.6990130543708801,0.42002201080322266,0.9954428672790527,0.0005309412954375148,-0.00021022091095801443,-0.09535738080739975,0.4309968650341034,0.5646203756332397,-0.01502134744077921,-0.697056233882904,0.020055735483765602,-11.231575965881348,-0.43478959798812866,0.7038968801498413,0.423032283782959,0.5876332521438599,0.599247395992279,-0.12072289735078812,0.4721592664718628,0.6407384276390076,0.42000001668930054,-0.553394615650177,2.99997615814209,-0.765811562538147,-2.9999446868896484,-0.1544073522090912,-0.16258445382118225,-0.16876639425754547,-0.1735886037349701,-0.4702070951461792,-0.3634814918041229,-0.24360351264476776,-0.10061200708150864
0.36666666666666664,0.009102648124098778,0.10584943741559982,0.0,0.9360064268112183,0.0,0.0,-0.35198289155960083,-0.7216726541519165,-0.7692331075668335,0.0,0.0,0.0,-2.559375524520874,-0.4175102412700653,0.7084996700286865,0.4200001657009125,0.9818904995918274,2.3289765067602275e-06,1.0359843145124614e-05,-0.18944905698299408,0.5189785361289978,0.6365837454795837,-0.0003441418521106243,0.003171260003000498,-0.013942068442702293,-13.686360359191895,-0.42236047983169556,0.7133032083511353,0.4215990900993347,0.9276649951934814,0.6152475476264954,-0.06899791955947876,0.4721592664718628,0.6407384276390076,0.42000001668930054,-0.503389835357666,2.999983072280884,-0.8158614039421082,-2.9999940395355225,-0.16336844861507416,-0.16910965740680695,-0.17263741791248322,-0.17444391548633575,-0.5319290161132812,-0.36331573128700256,-0.18307718634605408,0.016441643238067627
0.3833333333333333,-0.00016082590445876122,0.09112293273210526,0.0,0.9205996990203857,0.0,0.0,-0.3905075490474701,-0.4467751085758209,-0.940320611000061,0.0,0.0,0.0,-5.785325527191162,-0.40284407138824463,0.7244271636009216,0.42019718885421753,0.9720939993858337,-0.0022140482906252146,-0.0030832334887236357,-0.234561026096344,1.1913893222808838,1.230125904083252,0.05925065651535988,-2.0043206214904785,-0.570941150188446,-5.658731937408447,-0.4048355519771576,0.726791501045227,0.42210859060287476,1.2500226497650146,1.0809189081192017,0.13294240832328796,0.4721592664718628,0.6407384276390076,0.42000001668930054,-0.4533827304840088,3.010683298110962,-0.8659152984619141,-2.9622883796691895,-0.17163170874118805,-0.1744791865348816,-0.17487232387065887,-0.1731933057308197,-0.4056975543498993,-0.23882099986076355,-0.056622229516506195,0.14690376818180084
0.4,-0.010804856196045876,0.07459545135498047,0.0,0.8914301991462708,0.0,0.0,-0.4531579911708832,-0.7403758764266968,-1.0053142309188843,0.0,0.0,0.0,-9.156814575195312,-0.36884987354278564,0.7506552934646606,0.423298716545105,0.9571804404258728,-0.0076273041777312756,-0.027341529726982117,-0.28809669613838196,3.079634666442871,2.016143798828125,0.33361703157424927,30.72627067565918,-18.275728225708008,3.0838024616241455,-0.37022799253463745,0.7522057890892029,0.4255181550979614,2.9319238662719727,1.9704774618148804,0.4507960081100464,0.4721592664718628,0.6407384276390076,0.42000001668930054,-0.40697377920150757,1.990781545639038,-0.9159353971481323,-3.000000238418579,-0.18235880136489868,-0.1814456284046173,-0.17792536318302155,-0.17212572693824768,-0.7529847025871277,-0.49144354462623596,-0.22590836882591248,0.04495438188314438
0.4166666666666667,-0.01972104050219059,0.06064081937074661,0.0,0.8450329303741455,0.0,0.0,-0.5347142219543457,-0.465173602104187,-0.7617684006690979,0.0,0.0,0.0,-11.860252380371094,-0.29515090584754944,0.7898070812225342,0.429866224527359,0.9330966472625732,0.05431238189339638,-0.0691256895661354,-0.3487154245376587,5.802145004272461,2.290705442428589,0.512911856174469,11.256745338439941,-11.885746955871582,16.449811935424805,-0.29624873399734497,0.7917211055755615,0.4323481023311615,5.483118057250977,2.79256010055542,0.5280969142913818,0.4721592664718628,0.6407384276390076,0.42000001668930054,-0.383976548910141,1.1256192922592163,-0.8787333965301514,2.998415231704712,-0.19636541604995728,-0.19171027839183807,-0.18318796157836914,-0.17255504429340363,-0.6874707937240601,-0.5743921995162964,-0.31151720881462097,-0.06337372213602066
0.43333333333333335,-0.02457207813858986,0.05075649544596672,0.0,0.7794567942619324,0.0,0.0,-0.6264559626579285,-0.23789776861667633,-0.5281357169151306,0.0,0.0,0.0,-14.348828315734863,-0.18298770487308502,0.833121120929718,0.4398193359375,0.8928327560424805,0.10781680047512054,-0.09963420778512955,-0.42579126358032227,7.786715030670166,2.0311696529388428,0.6651995778083801,9.585089683532715,-12.29817008972168,7.292516231536865,-0.18557541072368622,0.8356553316116333,0.44200342893600464,7.7221245765686035,2.5469565391540527,0.7537499666213989,0.4721592664718628,0.6407384276390076,0.42000001668930054,-0.3636505603790283,1.3520926237106323,-0.8625329732894897,-0.6833549737930298,-0.21045151352882385,-0.2028818428516388,-0.18973499536514282,-0.1749494969844818,-0.88018399477005,-0.687564492225647,-0.42724549770355225,-0.20282357931137085
0.45,-0.03066994436085224,0.04535812512040138,0.0,0.7212535738945007,0.0,0.0,-0.6926711201667786,-0.41041260957717896,-0.25021180510520935,0.0,0.0,0.0,-9.374133110046387,-0.058170441538095474,0.8568348288536072,0.4508652091026306,0.8492835164070129,0.12741678953170776,-0.11094425618648529,-0.5001736283302307,7.241751670837402,0.015382654964923859,0.4392113983631134,-2.2414567470550537,1.3394964933395386,29.11858367919922,-0.06112658232450485,0.8633673787117004,0.45351019501686096,7.472415924072266,0.9094484448432922,0.7988710403442383,0.4721592664718628,0.6407384276390076,0.42000001668930054,-0.3432864844799042,0.9931908249855042,-0.908971905708313,-2.999527931213379,-0.2260487675666809,-0.21838301420211792,-0.19956186413764954,-0.17982038855552673,-0.9339016079902649,-0.9105684161186218,-0.5854066014289856,-0.30092406272888184
0.4666666666666667,-0.0346902497112751,0.03647657111287117,0.0,0.6847657561302185,0.0,0.0,-0.7287632822990417,-0.1802094727754593,-0.5373043417930603,0.0,0.0,0.0,-4.89125394821167,0.05992302671074867,0.8587232232093811,0.4611164629459381,0.7920856475830078,0.12594768404960632,-0.09765374660491943,-0.5892376899719238,6.724345684051514,-1.718544363975525,0.7258039712905884,12.19953441619873,-7.67964506149292,32.31232833862305,0.05697687342762947,0.8665887117385864,0.46387287974357605,6.935951232910156,-0.705573558807373,0.6426621675491333,0.4721592664718628,0.6407384276390076,0.42000001668930054,-0.3291175663471222,0.6187992691993713,-0.9589959383010864,-3.0000014305114746,-0.24004799127578735,-0.2323472946882248,-0.20737498998641968,-0.18222633004188538,-0.09182719141244888,-1.0000008344650269,-0.6756405830383301,-0.29274067282676697
0.48333333333333334,-0.035160910338163376,0.032420940697193146,0.0,0.6741189360618591,0.0,0.0,-0.738622784614563,0.043295882642269135,-0.20824284851551056,0.0,0.0,0.0,-0.5383379459381104,0.16368556022644043,0.8375487923622131,0.46833065152168274,0.7235316634178162,0.10825812816619873,-0.08783882856369019,-0.6760668158531189,5.287614822387695,-2.417875051498413,0.4480918049812317,6.8330278396606445,-8.248024940490723,26.221330642700195,0.16117876768112183,0.8464810848236084,0.47184741497039795,5.6898512840271,-1.582969069480896,0.29567936062812805,0.4721592664718628,0.6407384276390076,0.42000001668930054,-0.3209972679615021,0.3082863390445709,-1.0090196132659912,-3.000000476837158,-0.24002660810947418,-0.24000383913516998,-0.2218851000070572,-0.19038845598697662,-0.04343660920858383,-0.011648951098322868,-0.703345537185669,-0.40769922733306885
0.5,-0.03223372995853424,0.024535557255148888,0.0,0.6551594138145447,0.0,0.0,-0.7554906606674194,0.20402579009532928,-0.5020539164543152,0.0,0.0,0.0,-3.918131113052368,0.24934929609298706,0.8066299557685852,0.4672243595123291,0.6366061568260193,0.06781991571187973,-0.10689906030893326,-0.760727047920227,4.468745231628418,-2.63685941696167,-0.3690769076347351,-22.615270614624023,7.773265361785889,-5.218194007873535,0.2454114854335785,0.8179844617843628,0.47266924381256104,4.654410362243652,-2.0899839401245117,-0.06472740322351456,0.4721592664718628,0.6407384276390076,0.42000001668930054,-0.31702831387519836,0.24736051261425018,-1.0590417385101318,-2.9996235370635986,-0.2380378395318985,-0.23720048367977142,-0.22882546484470367,-0.19403785467147827,0.0674213245511055,0.1700756847858429,-0.2903856039047241,-0.14554312825202942
0.5166666666666666,-0.026888050138950348,0.020681107416749,0.0,0.6493611335754395,0.0,0.0,-0.7604801654815674,0.3459896147251129,-0.18307043612003326,0.0,0.0,0.0,0.04888121411204338,0.31916189193725586,0.7657252550125122,0.45821166038513184,0.5621718168258667,-0.029633620753884315,-0.138589009642601,-0.8147869110107422,3.663530111312866,-2.7131268978118896,-0.4723066985607147,2.4799139499664307,9.01340103149414,0.6066333651542664,0.3159140348434448,0.7798687219619751,0.4673481285572052,3.8953442573547363,-2.457857131958008,-0.5791746973991394,0.4721592664718628,0.6407384276390076,0.42000001668930054,-0.307871550321579,0.6984177827835083,-1.1090638637542725,-2.9996886253356934,-0.23887871205806732,-0.23568880558013916,-0.23311008512973785,-0.19680441915988922,0.06257853657007217,0.184396892786026,-0.1095830425620079,-0.10325136035680771
0.5333333333333333,-0.019336601719260216,0.018095357343554497,0.0,0.6338644027709961,0.0,0.0,-0.7734441757202148,0.501621663570404,-0.09218030422925949,0.0,0.0,0.0,-3.309070587158203,0.375888466835022,0.7275565266609192,0.4431561231613159,0.5227324962615967,-0.07090584933757782,-0.11917475610971451,-0.8411422371864319,2.9683244228363037,-2.2878470420837402,-0.9048694968223572,0.20800262689590454,13.414006233215332,-6.629610538482666,0.37449759244918823,0.7411592602729797,0.45265892148017883,3.1226439476013184,-2.3236751556396484,-1.130135416984558,0.4721592664718628,0.6407384276390076,0.42000001668930054,-0.29350289702415466,0.9144579172134399,-1.159085988998413,-2.999616861343384,-0.23495158553123474,-0.2306150496006012,-0.23253294825553894,-0.19771523773670197,0.32092416286468506,0.3628402650356293,0.13128335773944855,-0.027285926043987274
0.55,-0.009516466408967972,0.016723185777664185,0.0,0.6316077709197998,0.0,0.0,-0.7752881050109863,0.6232025027275085,-0.03675048053264618,0.0,0.0,0.0,0.584135890007019,0.41899943351745605,0.6916981339454651,0.4242991805076599,0.4888702630996704,-0.10904455184936523,-0.05285997316241264,-0.8638985753059387,1.7727161645889282,-2.190406084060669,-0.937632143497467,31.682392120361328,2.9992659091949463,17.957578659057617,0.41954636573791504,0.7035419940948486,0.4332950711250305,1.9583295583724976,-1.875147819519043,-0.43741312623023987,0.4721592664718628,0.6407384276390076,0.42000001668930054,-0.2798527181148529,0.6534469723701477,-1.2091081142425537,-3.0000252723693848,-0.22857262194156647,-0.22388315200805664,-0.2289745956659317,-0.19768047332763672,0.43630707263946533,0.4361397922039032,0.2836063504219055,0.03553879261016846
0.5666666666666667,-0.002407986205071211,0.010888821445405483,0.0,0.6188188195228577,0.0,0.0,-0.7855337262153625,0.3545767366886139,-0.3485848903656006,0.0,0.0,0.0,-2.600499391555786,0.4499456584453583,0.6718916893005371,0.4200376868247986,0.49233296513557434,0.0004977858043275774,-0.0005471403710544109,-0.8704065680503845,1.2821853160858154,-0.9696979522705078,-0.016842883080244064,-0.8257144689559937,-0.7849152088165283,5.105954647064209,0.44676443934440613,0.67784583568573,0.42324721813201904,1.1263298988342285,-1.2165414094924927,-0.07647190988063812,0.4721592664718628,0.6407384276390076,0.42000001668930054,-0.26475346088409424,1.3686603307724,-1.1711704730987549,3.0028235912323,-0.2169279307126999,-0.2131776511669159,-0.2208613157272339,-0.19474837183952332,0.5265641808509827,0.5015174746513367,0.42014190554618835,0.12835854291915894
0.5833333333333334,0.006236859131604433,0.010778013616800308,0.0,0.6201882362365723,0.0,0.0,-0.7844530344009399,0.5237405300140381,-0.011374452151358128,0.0,0.0,0.0,1.0012470483779907,0.4642968475818634,0.6569470763206482,0.4199991822242737,0.5102065205574036,2.3928654627525248e-05,-8.03889415692538e-05,-0.8600519299507141,0.5649752020835876,-0.8618642687797546,-0.0012684846296906471,0.035650674253702164,0.02149340696632862,2.6727967262268066,0.46090471744537354,0.6592551469802856,0.4239245057106018,0.7000573873519897,-0.8845413327217102,0.0848628580570221,0.4721592664718628,0.6407384276390076,0.42000001668930054,-0.23595812916755676,2.0150554180145264,-1.192887783050537,-2.9998090267181396,-0.2124546617269516,-0.20863346755504608,-0.21660885214805603,-0.19503983855247498,0.4139351546764374,0.3598030209541321,0.32158172130584717,0.005429521668702364
0.6,0.016140667721629143,0.00582541897892952,0.0,0.6090853214263916,0.0,0.0,-0.7931046485900879,0.5966276526451111,-0.3274134397506714,0.0,0.0,0.0,-2.626986026763916,0.4717027246952057,0.6492972373962402,0.42042872309684753,0.5304319858551025,0.004443415440618992,0.007284855004400015,-0.8476845622062683,0.13830797374248505,-1.1109949350357056,-0.08607049286365509,-1.2701219320297241,-9.305747032165527,25.13113784790039,0.46836769580841064,0.6506495475769043,0.42387157678604126,0.0792829617857933,-0.2301507294178009,0.14093443751335144,0.4721592664718628,0.6407384276390076,0.42000001668930054,-0.23064960539340973,-1.7454789876937866,-1.1549967527389526,2.999195098876953,-0.2010665088891983,-0.1991364061832428,-0.20820143818855286,-0.192539781332016,0.639500617980957,0.5415987968444824,0.5127419829368591,0.18110036849975586
0.6166666666666667,0.023896802216768265,0.004614563193172216,0.0,0.6107510328292847,0.0,0.0,-0.7918226718902588,0.3461502194404602,-0.06667247414588928,0.0,0.0,0.0,1.1332646608352661,0.47159823775291443,0.63848477602005,0.420000821352005,0.5594602227210999,-1.343768417427782e-06,-8.679093298269436e-06,-0.8288571834564209,-0.1583181470632553,-0.8369476795196533,-0.00013889657566323876,0.012141386978328228,-0.00014926445146556944,-0.5152243375778198,0.4685337543487549,0.6445194482803345,0.424160361289978,-0.023746564984321594,-0.19834473729133606,0.1388615369796753,0.4721592664718628,0.6407384276390076,0.42000001668930054,-0.27898597717285156,-2.999985933303833,-1.1770521402359009,-2.9995200634002686,-0.19406232237815857,-0.1931326538324356,-0.20180091261863708,-0.19089719653129578,0.47962498664855957,0.40191638469696045,0.4242357611656189,0.14266365766525269
0.6333333333333333,0.03206374868750572,0.006945850793272257,0.0,0.6131470799446106,0.0,0.0,-0.7899687886238098,0.48853886127471924,0.18369631469249725,0.0,0.0,0.0,-0.0016103640664368868,0.47127124667167664,0.6327797770500183,0.4208921194076538,0.5622708797454834,-0.012705865316092968,0.018731093034148216,-0.8266432285308838,0.006775383371859789,-0.19249817728996277,0.07049383223056793,1.3326865434646606,3.3940601348876953,0.12599459290504456,0.4687293767929077,0.6443296670913696,0.42669838666915894,0.08042704313993454,0.1455496847629547,0.17553046345710754,0.4721592664718628,0.6407384276390076,0.42000001668930054,-0.32274407148361206,-2.2691311836242676,-1.22701096534729,-2.9987807273864746,-0.18668077886104584,-0.18732427060604095,-0.19566692411899567,-0.1892537921667099,0.5531150102615356,0.4288359582424164,0.4274789094924927,0.1529352217912674
0.65,0.041599854826927185,0.004766505677253008,0.0,0.6310892701148987,0.0,0.0,-0.7757102251052856,0.5668086409568787,-0.14780975878238678,0.0,0.0,0.0,3.5580780506134033,0.47015389800071716,0.631624162197113,0.421022891998291,0.558403491973877,-0.014883795753121376,0.020474357530474663,-0.8291831612586975,-0.16408877074718475,0.01016875822097063,-0.014012874104082584,-0.923166036605835,-0.9926400780677795,-0.3224995732307434,0.46806466579437256,0.647272527217865,0.4299086332321167,-0.14925533533096313,0.179599791765213,0.21769534051418304,0.4721592664718628,0.6407384276390076,0.42000001668930054,-0.3720827102661133,-2.999999523162842,-1.2769956588745117,-2.999340534210205,-0.17442934215068817,-0.17739048600196838,-0.18598215281963348,-0.18409080803394318,0.6398613452911377,0.537168025970459,0.5541183948516846,0.32662925124168396
0.6666666666666666,0.05250007286667824,0.0004174986097496003,0.0,0.6350983381271362,0.0,0.0,-0.7724313139915466,0.6982687711715698,-0.29985174536705017,0.0,0.0,0.0,-0.4183766841888428,0.4679739475250244,0.6319382190704346,0.42000553011894226,0.5585882067680359,2.6641282602213323e-05,-4.880481355939992e-05,-0.8294451236724854,-0.07656640559434891,0.007661290932446718,-0.0013992257881909609,0.04267462342977524,0.058125805109739304,-0.08186749368906021,0.46746355295181274,0.650179386138916,0.4346245527267456,0.029575342312455177,0.10533873736858368,0.31955888867378235,0.4721592664718628,0.6407384276390076,0.42000001668930054,-0.42209190130233765,-3.000042200088501,-1.3269703388214111,-2.999690055847168,-0.1653435230255127,-0.16931146383285522,-0.17688831686973572,-0.17764431238174438,0.47354593873023987,0.4511643052101135,0.5479745268821716,0.4467126131057739
0.6833333333333333,0.06535931676626205,-0.006830208003520966,0.0,0.6161623597145081,0.0,0.0,-0.7876191139221191,0.8062766194343567,-0.4995911121368408,0.0,0.0,0.0,-3.8231923580169678,0.4676693081855774,0.6319684386253357,0.4199995696544647,0.5584713220596313,-3.521667531458661e-05,1.3058910553809255e-05,-0.8295238018035889,-0.0023291450925171375,0.0004886612296104431,-0.0011121032293885946,-0.0051505304872989655,0.0023775631561875343,-0.007585503160953522,0.47184091806411743,0.6522790193557739,0.4457401633262634,0.4990517795085907,0.11141334474086761,1.1318321228027344,0.4721592664718628,0.6407384276390076,0.42000001668930054,-0.47210490703582764,-2.999969244003296,-1.3769886493682861,-2.9999988079071045,-0.16046620905399323,-0.16430898010730743,-0.16986185312271118,-0.17150895297527313,0.18556204438209534,0.2160121649503708,0.3537983000278473,0.3378233015537262
0.7,0.0823923647403717,-0.008928528055548668,0.0,0.6096399426460266,0.0,0.0,-0.7926784753799438,0.9364754557609558,-0.07680699229240417,0.0,0.0,0.0,0.056763824075460434,0.4676654636859894,0.6319689750671387,0.4199999272823334,0.5584712624549866,-2.1689108962164028e-06,-6.1423056649800856e-06,-0.8295238614082336,6.599945481866598e-05,-0.0004369724483694881,-8.357898332178593e-05,0.011320693418383598,-0.003831536276265979,-0.001092274789698422,0.48114925622940063,0.6548172831535339,0.4735732674598694,0.722792387008667,0.3770436644554138,2.1763720512390137,0.4721592664718628,0.6407384276390076,0.42000001668930054,-0.5221174955368042,-3.0000007152557373,-1.4270069599151611,-3.0,-0.16368840634822845,-0.1661715805530548,-0.1687641143798828,-0.1697123944759369,-0.05136597529053688,-0.02187264896929264,0.10106681287288666,0.11552129685878754
0.7166666666666667,0.09456251561641693,-0.010339157655835152,0.0,0.6273102164268494,0.0,0.0,-0.7787694334983826,0.6679913401603699,-0.03493304178118706,0.0,0.0,0.0,3.4942197799682617,0.46766549348831177,0.6319688558578491,0.41999995708465576,0.5584712028503418,-1.5043775647427537e-06,-5.239204710960621e-06,-0.8295238614082336,7.569427543785423e-05,-0.0003852770896628499,-7.399683818221092e-05,0.009969256818294525,-0.003178635146468878,-0.0009957775473594666,0.4970317482948303,0.6575980186462402,0.5059784054756165,1.070604920387268,0.0009170472621917725,1.820162057876587,0.4721592664718628,0.6407384276390076,0.42000001668930054,-0.572120726108551,-2.999997138977051,-1.4770252704620361,-3.0,-0.16219665110111237,-0.16419564187526703,-0.16480833292007446,-0.16516469419002533,0.12684938311576843,0.1721676141023636,0.30007874965667725,0.36389705538749695
0.7333333333333333,0.10596691071987152,-0.015299012884497643,0.0,0.6316654682159424,0.0,0.0,-0.7752410769462585,0.6529632210731506,-0.2545587718486786,0.0,0.0,0.0,-0.3449099361896515,0.46766549348831177,0.6319688558578491,0.41999995708465576,0.5584712624549866,-1.4629817997047212e-06,-5.364273420127574e-06,-0.8295238614082336,7.713238301221281e-05,-0.00038581114495173097,-7.400382310152054e-05,0.009988161735236645,-0.003190639428794384,-0.0010004318319261074,0.5143039226531982,0.6571177244186401,0.5297911167144775,0.8892808556556702,-0.15841171145439148,1.1710333824157715,0.4721592664718628,0.6407384276390076,0.42000001668930054,-0.6221218705177307,-2.9999938011169434,-1.5270435810089111,-3.000000238418579,-0.1579267382621765,-0.15939868986606598,-0.15839466452598572,-0.15803752839565277,0.09175475686788559,0.16034696996212006,0.27593642473220825,0.3419538140296936
0.75,0.11904880404472351,-0.01463345903903246,0.0,0.6253687739372253,0.0,0.0,-0.7803293466567993,0.7782203555107117,0.03399086371064186,0.0,0.0,0.0,-1.241970419883728,0.46766549348831177,0.6319689154624939,0.41999995708465576,0.5584713220596313,-1.594401851434668e-06,-5.5072569011827e-06,-0.8295237421989441,7.563637336716056e-05,-0.0003854353562928736,-7.402710616588593e-05,0.009973547421395779,-0.003183730412274599,-0.0009961574105545878,0.5296811461448669,0.654954731464386,0.5480202436447144,1.0396076440811157,-0.08157823979854584,1.0868017673492432,0.4721592664718628,0.6407384276390076,0.42000001668930054,-0.6539692878723145,-0.9704422354698181,-1.5770618915557861,-3.000000238418579,-0.1590072214603424,-0.1592267006635666,-0.15639396011829376,-0.15486805140972137,0.0919920951128006,0.12111450731754303,0.17824503779411316,0.2101311832666397
0.7666666666666666,0.12851671874523163,-0.01899779587984085,0.0,0.6352571845054626,0.0,0.0,-0.772300660610199,0.4837515354156494,-0.2878986895084381,0.0,0.0,0.0,2.3151862621307373,0.46766549348831177,0.6319688558578491,0.41999995708465576,0.5584709644317627,-1.4847913689663983e-06,-5.341024916560855e-06,-0.8295239806175232,7.603720587212592e-05,-0.00038551315083168447,-7.400568574666977e-05,0.009977196343243122,-0.003184545785188675,-0.0009971802355721593,0.5451698303222656,0.6531636714935303,0.564700186252594,0.8020530939102173,-0.1525467187166214,0.9595024585723877,0.4721592664718628,0.6407384276390076,0.42000001668930054,-0.6617733836174011,-0.041161444038152695,-1.538116455078125,3.000000238418579,-0.15514500439167023,-0.15499480068683624,-0.1515503227710724,-0.14974556863307953,0.12648923695087433,0.16937485337257385,0.213809996843338,0.24088048934936523
0.7833333333333333,0.13431616127490997,-0.01896027848124504,0.0,0.6618035435676575,0.0,0.0,-0.749677300453186,0.3138960599899292,0.01930311881005764,0.0,0.0,0.0,5.220065593719482,0.46766549348831177,0.6319689154624939,0.41999995708465576,0.5584713816642761,-1.6198845287362929e-06,-5.491268439072883e-06,-0.8295237421989441,7.565150735899806e-05,-0.0003853966773021966,-7.40226823836565e-05,0.00997235719114542,-0.0031833809334784746,-0.0009961267933249474,0.5527500510215759,0.647181510925293,0.57793128490448,0.2576427459716797,-0.4431159496307373,0.6854025721549988,0.4721592664718628,0.6407384276390076,0.42000001668930054,-0.6701831817626953,-0.8878574967384338,-1.4880790710449219,3.0,-0.1568482667207718,-0.15510252118110657,-0.15020179748535156,-0.14718109369277954,4.0279701352119446e-08,0.07965400815010071,0.14669114351272583,0.20837359130382538
0.8,0.13692256808280945,-0.020999394357204437,0.0,0.6748490929603577,0.0,0.0,-0.7379557490348816,0.12029431760311127,-0.2078566551208496,0.0,0.0,0.0,0.9023356437683105,0.46766549348831177,0.6319688558578491,0.41999995708465576,0.5584710240364075,-1.4801770475969533e-06,-5.328171482688049e-06,-0.8295239806175232,7.604162965435535e-05,-0.00038552083424292505,-7.4007548391819e-05,0.009977391920983791,-0.003184720641002059,-0.0009972051484510303,0.5540618300437927,0.6429473757743835,0.5843104720115662,-0.13156870007514954,-0.1958058774471283,0.1277870088815689,0.4721592664718628,0.6407384276390076,0.42000001668930054,-0.6767006516456604,0.03197949752211571,-1.4380722045898438,2.999999523162842,-0.155528262257576,-0.15283793210983276,-0.14728428423404694,-0.14361068606376648,0.09675759822130203,0.1451038420200348,0.1704612672328949,0.1985805630683899
0.8166666666666667,0.1367783099412918,-0.02077792026102543,0.0,0.6953293085098267,0.0,0.0,-0.7186912894248962,-0.08644978702068329,0.039948124438524246,0.0,0.0,0.0,4.117505073547363,0.46766549348831177,0.6319688558578491,0.41999995708465576,0.5584712624549866,-1.4840757103229407e-06,-5.410303856479004e-06,-0.8295238018035889,7.64563592383638e-05,-0.00038580610998906195,-7.40312971174717e-05,0.00998634658753872,-0.0031898249872028828,-0.000998846022412181,0.5511853694915771,0.6371772885322571,0.5878299474716187,-0.12825852632522583,-0.325477659702301,0.2850691080093384,0.4721592664718628,0.6407384276390076,0.42000001668930054,-0.6623092889785767,1.548990249633789,-1.4554568529129028,-2.999999523162842,-0.1550484448671341,-0.1514461785554886,-0.14536172151565552,-0.14101578295230865,0.1416928768157959,0.1650744378566742,0.16885696351528168,0.1894284039735794
0.8333333333333334,0.13727740943431854,-0.02271958254277706,0.0,0.7011231184005737,0.0,0.0,-0.7130402326583862,0.06785701215267181,-0.1468987613916397,0.0,0.0,0.0,-0.09882000833749771,0.46766549348831177,0.6319689154624939,0.41999995708465576,0.5584712624549866,-1.5610715990987956e-06,-5.365443939808756e-06,-0.8295238018035889,7.584519335068762e-05,-0.00038545584538951516,-7.402175106108189e-05,0.009974661283195019,-0.003184371395036578,-0.0009966969955712557,0.5495325326919556,0.6361958980560303,0.5898383855819702,-0.15998472273349762,0.03531915321946144,0.0761423259973526,0.4721592664718628,0.6407384276390076,0.42000001668930054,-0.6492435336112976,0.13239431381225586,-1.416864037513733,3.0,-0.15240345895290375,-0.14892558753490448,-0.14328411221504211,-0.13903383910655975,0.10944388806819916,0.09581782668828964,0.061232224106788635,0.04797853156924248
0.85,0.1403840184211731,-0.022433415055274963,0.0,0.7151065468788147,0.0,0.0,-0.6990154385566711,0.23463095724582672,0.08943798393011093,0.0,0.0,0.0,3.132265567779541,0.46766549348831177,0.6319688558578491,0.41999995708465576,0.5584713220596313,-1.478285184930428e-06,-5.253002200333867e-06,-0.8295238614082336,7.575072231702507e-05,-0.0003854442620649934,-7.401453331112862e-05,0.009974411688745022,-0.0031831429805606604,-0.0009963666088879108,0.5480774641036987,0.6344754099845886,0.5925890207290649,0.04188867658376694,-0.16727030277252197,0.2977322041988373,0.4721592664718628,0.6407384276390076,0.42000001668930054,-0.6424258947372437,0.6363770961761475,-1.4346556663513184,-2.9999992847442627,-0.1509067863225937,-0.14756418764591217,-0.14232520759105682,-0.13803613185882568,0.11816520988941193,0.10521887987852097,0.08069383352994919,0.08697861433029175
0.8666666666666667,0.1418697088956833,-0.0247381292283535,0.0,0.7165388464927673,0.0,0.0,-0.697547197341919,0.03892199695110321,-0.17633701860904694,0.0,0.0,0.0,-0.6195113658905029,0.46766549348831177,0.6319688558578491,0.41999995708465576,0.5584712028503418,-1.4993526065154583e-06,-5.58313331566751e-06,-0.8295239210128784,7.538381760241464e-05,-0.0003857162082567811,-7.40287359803915e-05,0.009982776828110218,-0.0031893677078187466,-0.0009959531016647816,0.5500094890594482,0.6324062347412109,0.5939986109733582,0.08896483480930328,-0.16373223066329956,0.007467880845069885,0.4721592664718628,0.6407384276390076,0.42000001668930054,-0.6466346979141235,-0.9973978996276855,-1.396116852760315,3.000000476837158,-0.14889031648635864,-0.1458161473274231,-0.141030415892601,-0.13668818771839142,0.05729685723781586,0.05533766746520996,0.04090287536382675,0.05401255562901497
0.8833333333333333,0.14450904726982117,-0.023840494453907013,0.0,0.7275291681289673,0.0,0.0,-0.6860767602920532,0.20762476325035095,0.06945818662643433,0.0,0.0,0.0,2.7072036266326904,0.46766549348831177,0.6319688558578491,0.41999995708465576,0.5584710836410522,-1.5114051166165154e-06,-5.486457666847855e-06,-0.8295239806175232,7.531704613938928e-05,-0.0003856068360619247,-7.400941103696823e-05,0.009979534894227982,-0.003187950700521469,-0.0009958489099517465,0.5512953400611877,0.6285984516143799,0.5949114561080933,0.17437289655208588,-0.19862300157546997,0.14804022014141083,0.4721592664718628,0.6407384276390076,0.42000001668930054,-0.6359450221061707,2.011017322540283,-1.4143059253692627,-2.999999761581421,-0.14893010258674622,-0.14576692879199982,-0.14108188450336456,-0.1364038735628128,0.09708459675312042,0.0800715982913971,0.05485337972640991,0.05700239911675453
