vladlanda/robotic-transformer/data/env_000_episode_0183.csv
sim_time_s,robot_box_x,robot_box_y,robot_box_z,robot_box_quat_w,robot_box_quat_x,robot_box_quat_y,robot_box_quat_z,robot_box_linvel_x,robot_box_linvel_y,robot_box_linvel_z,robot_box_angvel_x,robot_box_angvel_y,robot_box_angvel_z,cube_world_x,cube_world_y,cube_world_z,cube_quat_w,cube_quat_x,cube_quat_y,cube_quat_z,cube_linvel_x,cube_linvel_y,cube_linvel_z,cube_angvel_x,cube_angvel_y,cube_angvel_z,endpoint_world_x,endpoint_world_y,endpoint_world_z,endpoint_linvel_x,endpoint_linvel_y,endpoint_linvel_z,target_cube_world_x,target_cube_world_y,target_cube_world_z,gripper_actual_pos_rad_gp_leftgearjoint,gripper_actual_vel_rad_s_gp_leftgearjoint,gripper_actual_pos_rad_gp_rotatingjoint,gripper_actual_vel_rad_s_gp_rotatingjoint,motor_angle_rad_joint1,motor_angle_rad_joint2,motor_angle_rad_joint3,motor_angle_rad_joint4,motor_speed_rad_s_joint1,motor_speed_rad_s_joint2,motor_speed_rad_s_joint3,motor_speed_rad_s_joint4
0.0,0.0,0.0,0.0,1.0,0.0,0.0,0.0,0.0,0.0,0.0,0.0,0.0,0.0,-0.4254646897315979,0.6939481496810913,0.41999998688697815,1.0,0.0,0.0,0.0,0.0,0.0,0.0,0.0,0.0,0.0,3.42540442943573e-06,-0.005000244826078415,1.313499927520752,0.0,0.0,0.0,0.3536105155944824,0.7515153288841248,0.42000001668930054,-1.5707999467849731,0.0,0.0,0.0,0.0,0.0,0.0,0.0,0.0,0.0,0.0,0.0
0.016666666666666666,0.0028778850100934505,0.0021806680597364902,0.0,0.9998081922531128,0.0,0.0,0.019586581736803055,0.24087215960025787,0.18240931630134583,0.0,0.0,0.0,3.1418697834014893,-0.42546480894088745,0.6939478516578674,0.41999998688697815,1.0,3.279964630564791e-06,-8.339746386809566e-07,8.465587342243452e-08,-1.9833529222523794e-05,0.00017983045836444944,-6.132945418357849e-05,0.0009432713268324733,-0.004689474124461412,-0.00031981561915017664,-0.007110234349966049,0.003379564033821225,1.3159373998641968,-0.8143353462219238,0.9868683815002441,0.18095196783542633,0.3536105155944824,0.7515153288841248,0.42000001668930054,-1.5301095247268677,3.0000011920928955,-0.04584788903594017,-2.9999992847442627,0.0008691533003002405,0.0007963840034790337,0.0007110277656465769,0.0006108740926720202,0.11094217747449875,0.09756709635257721,0.08334315568208694,0.06823883205652237
0.03333333333333333,0.00896097719669342,0.006801943760365248,0.0,0.9997960329055786,0.0,0.0,0.020196838304400444,0.40702149271965027,0.31530851125717163,0.0,0.0,0.0,-0.8691309690475464,-0.425464928150177,0.6939477920532227,0.4200000464916229,1.0,3.3908354453160428e-06,-2.1324485715012997e-06,-3.710144014235084e-08,0.00026357831666246057,0.00026937946677207947,-0.00010509486310184002,-0.0017707672668620944,0.004130808170884848,-0.000135478752781637,-0.027550341561436653,0.026100432500243187,1.3166112899780273,-1.5914924144744873,1.6156476736068726,-0.08317528665065765,0.3536105155944824,0.7515153288841248,0.42000001668930054,-1.4800903797149658,3.0000014305114746,-0.09588772058486938,-3.0000014305114746,0.002990134060382843,0.0026527554728090763,0.0022773356176912785,0.0018608010141178966,0.1642201542854309,0.13976462185382843,0.1138242557644844,0.08630712330341339
0.05,0.017712164670228958,0.013763532042503357,0.0,0.9993887543678284,0.0,0.0,0.034958649426698685,0.5929988622665405,0.4647557735443115,0.0,0.0,0.0,2.65417742729187,-0.4254649579524994,0.6939478516578674,0.4200000464916229,1.0,3.765139354072744e-06,-2.2119161258160602e-06,5.630195420991413e-09,0.0002653095289133489,0.00026691411039792,-0.00010440382175147533,-0.0017242460744455457,0.004177400842308998,-0.00012949357915204018,-0.0596637949347496,0.054033469408750534,1.3116111755371094,-2.187257766723633,1.7659146785736084,-0.47771209478378296,0.3536105155944824,0.7515153288841248,0.42000001668930054,-1.4300720691680908,2.9999985694885254,-0.145926371216774,-3.0000014305114746,0.005694610066711903,0.0049032545648515224,0.0040397862903773785,0.003099712310358882,0.19254976511001587,0.15564347803592682,0.11686470359563828,0.07612093538045883
0.06666666666666667,0.029014496132731438,0.023051980882883072,0.0,0.9994586706161499,0.0,0.0,0.032899510115385056,0.7195864915847778,0.5949201583862305,0.0,0.0,0.0,-1.2053724527359009,-0.4254649579524994,0.6939477920532227,0.4200000464916229,0.9999999403953552,3.4067529668391217e-06,-2.2856381747260457e-06,4.300985096961085e-07,0.00026702662580646574,0.00026791892014443874,-0.00010437914170324802,-0.001740677747875452,0.004211848136037588,-0.0001285130565520376,-0.09752045571804047,0.08848951756954193,1.2992030382156372,-2.376492500305176,2.2529711723327637,-0.9848536252975464,0.3536105155944824,0.7515153288841248,0.42000001668930054,-1.3800537586212158,3.000002861022949,-0.19595597684383392,-2.9999992847442627,0.0082008745521307,0.006696583703160286,0.005081333220005035,0.0033494362141937017,0.14276093244552612,0.08934815227985382,0.03389543667435646,-0.023674428462982178
0.08333333333333333,0.0435611829161644,0.03448134660720825,0.0,0.9999974370002747,0.0,0.0,0.0022601024247705936,0.9375929236412048,0.7274439334869385,0.0,0.0,0.0,-4.5218186378479,-0.4254649579524994,0.6939477920532227,0.4200000464916229,1.0,3.697281499626115e-06,-2.1890098196308827e-06,-2.632294240356714e-07,0.00026389621780253947,0.00026586363674141467,-0.00010433816350996494,-0.0017081034602597356,0.004150185268372297,-0.00012991165567655116,-0.1360579878091812,0.13037127256393433,1.280394434928894,-2.2838377952575684,2.632406711578369,-1.2704657316207886,0.3536105155944824,0.7515153288841248,0.42000001668930054,-1.3300259113311768,2.9999990463256836,-0.16699060797691345,2.999999523162842,0.00984035711735487,0.00733500299975276,0.004678810480982065,0.0018647934775799513,0.07418099790811539,0.0057562547735869884,-0.06480877846479416,-0.13745015859603882
0.1,0.052281152456998825,0.049820996820926666,0.0,0.9999340772628784,0.0,0.0,-0.011482511647045612,0.38438165187835693,0.9978313446044922,0.0,0.0,0.0,-0.5693901777267456,-0.4254649579524994,0.6939477920532227,0.4200000464916229,0.9999999403953552,3.6203855415806174e-06,-2.265273224111297e-06,1.7462159007664013e-07,0.0002667683002073318,0.00026740814791992307,-0.0001040794886648655,-0.0017385776154696941,0.004209164995700121,-0.00012775571667589247,-0.17554804682731628,0.1697712242603302,1.2578859329223633,-2.2921833992004395,2.365480422973633,-1.366285800933838,0.3536105155944824,0.7515153288841248,0.42000001668930054,-1.2800288200378418,3.0000007152557373,-0.19864025712013245,-2.9999992847442627,0.004583351779729128,0.0013021602062508464,-0.002182383555918932,-0.005879505537450314,-0.44128236174583435,-0.492556631565094,-0.5464401245117188,-0.6030986905097961
0.11666666666666667,0.056127458810806274,0.06620918959379196,0.0,0.9993001818656921,0.0,0.0,-0.0374043807387352,0.2511484622955322,0.937942385673523,0.0,0.0,0.0,-3.8630566596984863,-0.4254649579524994,0.6939477920532227,0.4200000464916229,1.0,3.7983813854225446e-06,-2.2628894384979503e-06,-1.5019897148249584e-07,0.00026373917353339493,0.00026566049200482666,-0.00010429113171994686,-0.0017053951742127538,0.004147559404373169,-0.00012979967868886888,-0.21162408590316772,0.2131713628768921,1.2352335453033447,-2.05112361907959,2.863285541534424,-1.3476190567016602,0.3536105155944824,0.7515153288841248,0.42000001668930054,-1.230018138885498,3.0000014305114746,-0.2486625611782074,-2.9999992847442627,-0.0027163878548890352,-0.0072509958408772945,-0.011996028944849968,-0.016962360590696335,-0.3371776342391968,-0.43831777572631836,-0.5377468466758728,-0.6354377865791321
0.13333333333333333,0.0676686093211174,0.0794212818145752,0.0,0.9960069060325623,0.0,0.0,-0.08927596360445023,0.936124861240387,0.7147587537765503,0.0,0.0,0.0,-7.33627462387085,-0.4254649579524994,0.6939478516578674,0.4200000464916229,0.9999999403953552,3.55046631739242e-06,-2.229890242233523e-06,2.9291771852513193e-07,0.00026703221374191344,0.00026779237668961287,-0.00010416773147881031,-0.0017439918592572212,0.0042135524563491344,-0.00012800241529475898,-0.24533629417419434,0.2664852440357208,1.2108179330825806,-1.9602305889129639,3.489034652709961,-1.6000242233276367,0.3536105155944824,0.7515153288841248,0.42000001668930054,-1.180894374847412,2.863227367401123,-0.21462081372737885,2.9999990463256836,-0.002573648700490594,-0.009428096003830433,-0.01641271263360977,-0.023535672575235367,0.13816025853157043,-0.008600052446126938,-0.14954736828804016,-0.2843843400478363
0.15,0.07635445147752762,0.09029556065797806,0.0,0.9926681518554688,0.0,0.0,-0.12087147682905197,0.44940185546875,0.598588764667511,0.0,0.0,0.0,-2.6828341484069824,-0.425464928150177,0.6939477920532227,0.4200000464916229,1.0,3.332185997351189e-06,-2.1020589429099346e-06,1.3131703724411636e-07,0.0002673070121090859,0.00026859756326302886,-0.00010459567420184612,-0.0017497788649052382,0.0042156740091741085,-0.00012928353680763394,-0.2823273241519928,0.31989505887031555,1.1787599325180054,-2.113257646560669,3.3908674716949463,-2.121079921722412,0.3536105155944824,0.7515153288841248,0.42000001668930054,-1.135964274406433,2.5241477489471436,-0.24593126773834229,-3.0000007152557373,-0.008937852457165718,-0.01710500940680504,-0.025355501100420952,-0.033697571605443954,-0.46816179156303406,-0.5345917344093323,-0.5981459021568298,-0.6588895916938782
0.16666666666666666,0.08038145303726196,0.10318723320960999,0.0,0.9866093993186951,0.0,0.0,-0.1631009578704834,0.2263253629207611,0.7521120309829712,0.0,0.0,0.0,-5.765707492828369,-0.4254649579524994,0.6939477920532227,0.4200000464916229,1.0,3.7372556107584387e-06,-2.2332371827360475e-06,-1.8763917353226134e-07,0.00026432928279973567,0.00026626777253113687,-0.00010445783846080303,-0.0017118602991104126,0.004157558549195528,-0.00013001644401811063,-0.31784921884536743,0.3791630268096924,1.1366552114486694,-2.062032699584961,3.8131394386291504,-2.8186569213867188,0.3536105155944824,0.7515153288841248,0.42000001668930054,-1.0876317024230957,3.000002861022949,-0.2959366738796234,-3.000000238418579,-0.0197430606931448,-0.028604982420802116,-0.03749896213412285,-0.046438105404376984,-0.6031583547592163,-0.6461489796638489,-0.6847659945487976,-0.7191720604896545
0.18333333333333332,0.08210528641939163,0.11409464478492737,0.0,0.9828226566314697,0.0,0.0,-0.18455243110656738,0.05528214946389198,0.5746970176696777,0.0,0.0,0.0,-1.5241084098815918,-0.4254649579524994,0.6939478516578674,0.4200000464916229,0.9999999403953552,3.660216407297412e-06,-2.302346501892316e-06,2.5286328764195787e-07,0.00026690843515098095,0.00026760369655676186,-0.00010412652045488358,-0.00174131547100842,0.004211504012346268,-0.00012787082232534885,-0.3543962240219116,0.439214289188385,1.0821442604064941,-1.9801609516143799,3.7135136127471924,-3.6689722537994385,0.3536105155944824,0.7515153288841248,0.42000001668930054,-1.04253089427948,2.42440128326416,-0.34596461057662964,-3.000000238418579,-0.030896015465259552,-0.04004931077361107,-0.049167633056640625,-0.05827146768569946,-0.7138606309890747,-0.7112510204315186,-0.705435037612915,-0.6969772577285767
0.2,0.08074279874563217,0.12532658874988556,0.0,0.9760406017303467,0.0,0.0,-0.2175883650779724,-0.1773862987756729,0.7197785377502441,0.0,0.0,0.0,-4.882201671600342,-0.4254649579524994,0.6939477920532227,0.4200000464916229,1.0,3.5907664823753294e-06,-2.3004322429187596e-06,1.387437009725545e-07,0.00026654673274606466,0.00026732226251624525,-0.00010424060747027397,-0.0017326197121292353,0.004203468095511198,-0.0001282063458347693,-0.38617801666259766,0.5024574398994446,1.015486240386963,-1.665527105331421,3.84946346282959,-4.302918434143066,0.3536105155944824,0.7515153288841248,0.42000001668930054,-0.9932483434677124,2.9999992847442627,-0.3959905505180359,-2.999999523162842,-0.04478846862912178,-0.05370432138442993,-0.06253144145011902,-0.07130120694637299,-0.9125075936317444,-0.8867461085319519,-0.8581838011741638,-0.8274520039558411
0.21666666666666667,0.08390824496746063,0.1349240094423294,0.0,0.9651601910591125,0.0,0.0,-0.26165974140167236,0.32435035705566406,0.47709548473358154,0.0,0.0,0.0,-5.5340094566345215,-0.4254649579524994,0.6939478516578674,0.4200000464916229,1.0,3.6068583995074732e-06,-2.2610586256632814e-06,1.9633484171777127e-08,0.00026447203708812594,0.00026558362878859043,-0.00010396563448011875,-0.001708743628114462,0.004164293874055147,-0.0001283248420804739,-0.4125707149505615,0.5658624768257141,0.936383068561554,-1.272301197052002,3.775390625,-5.1260666847229,0.3536105155944824,0.7515153288841248,0.42000001668930054,-0.9432433843612671,2.9999990463256836,-0.44601812958717346,-3.0000016689300537,-0.05760308727622032,-0.06597957760095596,-0.07424328476190567,-0.0824364721775055,-0.7324236631393433,-0.6879711151123047,-0.6433513164520264,-0.5991762280464172
0.23333333333333334,0.08474086225032806,0.14323119819164276,0.0,0.9594204425811768,0.0,0.0,-0.2819795310497284,-0.05186523124575615,0.46884745359420776,0.0,0.0,0.0,-1.3174277544021606,-0.425464928150177,0.6939477920532227,0.4200000464916229,0.9999999403953552,3.742156877706293e-06,-2.227542609034572e-06,4.5892250000179047e-07,0.0002647509681992233,0.00026671559317037463,-0.00010453537106513977,-0.0017190451035276055,0.004165756516158581,-0.00013019356993027031,-0.4348881244659424,0.6176977157592773,0.8469377756118774,-1.071859359741211,2.8627431392669678,-5.606479167938232,0.3536105155944824,0.7515153288841248,0.42000001668930054,-0.8932327628135681,2.9999475479125977,-0.4960474967956543,-2.9999847412109375,-0.07292737066745758,-0.08119706809520721,-0.08876107633113861,-0.0953856110572815,-0.9951890110969543,-0.9882563948631287,-0.9858872294425964,-0.8822140097618103
0.25,0.08073745667934418,0.14895477890968323,0.0,0.9504419565200806,0.0,0.0,-0.31090205907821655,-0.29562562704086304,0.2686692774295807,0.0,0.0,0.0,-4.478170871734619,-0.4254649579524994,0.6939477920532227,0.4200000464916229,1.0,3.3943140351766488e-06,-2.282112973261974e-06,1.33633321297566e-07,0.0002667937951628119,0.0002679391473066062,-0.00010439474135637283,-0.0017417421331629157,0.004206571727991104,-0.00012884227908216417,-0.4494904577732086,0.6599408984184265,0.7464491724967957,-0.5535829067230225,2.206664562225342,-6.283395767211914,0.3536105155944824,0.7515153288841248,0.42000001668930054,-0.843222439289093,2.99999737739563,-0.546077311038971,-2.999999761581421,-0.08960381150245667,-0.09782054275274277,-0.10533875972032547,-0.11191076040267944,-0.9919915199279785,-0.9932807087898254,-0.9926353693008423,-0.9906858205795288
0.26666666666666666,0.07939482480287552,0.1501305252313614,0.0,0.9476907849311829,0.0,0.0,-0.3191899359226227,-0.0033954449463635683,0.0038553131744265556,0.0,0.0,0.0,-0.0001998411025851965,-0.4254649579524994,0.6939478516578674,0.4200000464916229,1.0,3.6832957448496018e-06,-2.3101708848116687e-06,2.1012019146837702e-07,0.00026479153893887997,0.0002662580518517643,-0.00010421173647046089,-0.0017168201738968492,0.004168934654444456,-0.00012909606448374689,-0.4583168029785156,0.6849921941757202,0.6400014758110046,-0.287550151348114,0.9560413360595703,-6.461320877075195,0.3536105155944824,0.7515153288841248,0.42000001668930054,-0.7932136058807373,2.999959707260132,-0.5961070656776428,-3.000002384185791,-0.1062777116894722,-0.11443101614713669,-0.12187898904085159,-0.12839220464229584,-0.9925658106803894,-0.9937262535095215,-0.9947283267974854,-0.995177149772644
0.2833333333333333,0.07472500950098038,0.14912398159503937,0.0,0.9405718445777893,0.0,0.0,-0.3395947217941284,-0.37074726819992065,-0.10221289098262787,0.0,0.0,0.0,-3.470397472381592,-0.4254649579524994,0.6939477920532227,0.4200000464916229,1.0,3.3067838103306713e-06,-2.212570507253986e-06,2.6257987428834895e-07,0.00026660895673558116,0.0002674504357855767,-0.00010424456559121609,-0.0017353360308334231,0.004204529337584972,-0.0001282836019527167,-0.4556981027126312,0.6927748322486877,0.5340763330459595,0.6072660684585571,0.058672089129686356,-6.090119361877441,0.3536105155944824,0.7515153288841248,0.42000001668930054,-0.7432048320770264,2.999999761581421,-0.6461358070373535,-3.000002145767212,-0.12438538670539856,-0.13218307495117188,-0.13936151564121246,-0.145661860704422,-1.0092813968658447,-1.0070003271102905,-1.0052605867385864,-1.0038728713989258
0.3,0.0671030580997467,0.1459028571844101,0.0,0.9393486976623535,0.0,0.0,-0.3429635465145111,-0.43115365505218506,-0.2558434307575226,0.0,0.0,0.0,0.502021312713623,-0.4254649579524994,0.6939477920532227,0.4200000464916229,1.0,3.640822797024157e-06,-2.3780603441991843e-06,-4.194113500943786e-07,0.0002660947502590716,0.00026721262838691473,-0.00010421243496239185,-0.0017329666297882795,0.004194220993667841,-0.00012849632184952497,-0.44369184970855713,0.6932804584503174,0.4404619336128235,0.86744225025177,0.04557854309678078,-5.312536716461182,0.3536105155944824,0.7515153288841248,0.42000001668930054,-0.6931971907615662,3.0000014305114746,-0.6961626410484314,-3.0000011920928955,-0.14121124148368835,-0.14906050264835358,-0.1563022881746292,-0.16262519359588623,-0.9870798587799072,-1.0015488862991333,-1.0011347532272339,-1.0008177757263184
0.31666666666666665,0.05821054056286812,0.14006192982196808,0.0,0.9335647821426392,0.0,0.0,-0.35840871930122375,-0.5832995176315308,-0.39424771070480347,0.0,0.0,0.0,-2.9822609424591064,-0.4254748523235321,0.6938977837562561,0.4200008809566498,0.9999998211860657,0.00013811107783112675,-3.900584033544874e-06,-0.00039838103111833334,0.00892917811870575,0.035824552178382874,-0.0060237254947423935,-0.3033258318901062,0.02680869586765766,0.8976272344589233,-0.4375026226043701,0.6945637464523315,0.41225582361221313,0.30501633882522583,0.33797645568847656,-0.004616886377334595,0.3536105155944824,0.7515153288841248,0.42000001668930054,-0.6434706449508667,2.968890428543091,-0.746660590171814,-2.756887912750244,-0.14773854613304138,-0.15645699203014374,-0.16438151895999908,-0.17113599181175232,-0.09490616619586945,-0.18307100236415863,-0.24159133434295654,-0.264433890581131
0.3333333333333333,0.04707663506269455,0.13190169632434845,0.0,0.9334282279014587,0.0,0.0,-0.3587641716003418,-0.7061020135879517,-0.5292873382568359,0.0,0.0,0.0,0.899680495262146,-0.4238857924938202,0.6971315741539001,0.419999897480011,0.9987871050834656,-1.3348815173230832e-06,7.829351488908287e-06,-0.04923627898097038,0.2657071352005005,0.5448026657104492,9.190125638269819e-08,4.150060340180062e-05,-2.7287322154734284e-05,-16.525489807128906,-0.4352239966392517,0.7041887044906616,0.42458608746528625,0.3270587623119354,0.7385761737823486,-0.10460848361253738,0.3536105155944824,0.7515153288841248,0.42000001668930054,-0.5934585332870483,2.999986171722412,-0.7967258095741272,-3.0000007152557373,-0.1493445485830307,-0.15884068608283997,-0.16704724729061127,-0.17352287471294403,-0.25388094782829285,-0.248224139213562,-0.22025953233242035,-0.16828061640262604
0.35,0.039365749806165695,0.12102905660867691,0.0,0.9281539916992188,0.0,0.0,-0.3721964359283447,-0.4221477508544922,-0.6901565790176392,0.0,0.0,0.0,-2.5667200088500977,-0.41852009296417236,0.7071434259414673,0.4200001060962677,0.988182544708252,-1.532875103293918e-05,1.0821632713486906e-05,-0.15328116714954376,0.40858373045921326,0.6890128254890442,-0.00044345317292027175,0.021491920575499535,-0.00531374104321003,-2.099076509475708,-0.42815494537353516,0.7143361568450928,0.42315030097961426,0.5658640265464783,0.5844123959541321,-0.08139321953058243,0.3536105155944824,0.7515153288841248,0.42000001668930054,-0.543453574180603,2.9999749660491943,-0.8467714190483093,-2.9999451637268066,-0.15468187630176544,-0.16333571076393127,-0.1703486442565918,-0.17528444528579712,-0.4247877597808838,-0.3273380398750305,-0.21223124861717224,-0.0816648006439209
0.36666666666666664,0.028534647077322006,0.10872234404087067,0.0,0.913216233253479,0.0,0.0,-0.4074752628803253,-0.7325167655944824,-0.7642921209335327,0.0,0.0,0.0,-5.770891189575195,-0.40820831060409546,0.722037672996521,0.42006757855415344,0.9843169450759888,0.0017090719193220139,-0.00028842256870120764,-0.17640027403831482,0.8391218781471252,1.1327921152114868,0.034702617675065994,1.6497045755386353,-0.5593588948249817,-3.6328976154327393,-0.41597890853881836,0.7271991968154907,0.4230179786682129,0.9246299266815186,1.0316873788833618,0.049107491970062256,0.3536105155944824,0.7515153288841248,0.42000001668930054,-0.4934488832950592,2.999969720840454,-0.8968182802200317,-2.99999737739563,-0.16471721231937408,-0.17096306383609772,-0.1752997487783432,-0.1773574948310852,-0.610653281211853,-0.45478031039237976,-0.28357112407684326,-0.1017252653837204
0.3833333333333333,0.0208783857524395,0.0934978723526001,0.0,0.8834714889526367,0.0,0.0,-0.46848490834236145,-0.4170735478401184,-0.9584764242172241,0.0,0.0,0.0,-8.883106231689453,-0.38529539108276367,0.7499663829803467,0.42205584049224854,0.9770902395248413,0.03644029051065445,-0.017115158960223198,-0.20898286998271942,2.0156092643737793,2.2663607597351074,0.16898295283317566,-2.336212635040283,-3.570026159286499,-8.196871757507324,-0.388852059841156,0.7522296905517578,0.4246252179145813,2.4853594303131104,1.9950599670410156,0.17418333888053894,0.3536105155944824,0.7515153288841248,0.42000001668930054,-0.4434449076652527,3.000002861022949,-0.9468544721603394,-3.0000007152557373,-0.17453473806381226,-0.1776943802833557,-0.17867761850357056,-0.17721733450889587,-0.676324188709259,-0.4463575482368469,-0.20302698016166687,0.04576127976179123
0.4,0.015800781548023224,0.08230756968259811,0.0,0.8373352885246277,0.0,0.0,-0.5466896295547485,-0.22093434631824493,-0.672635555267334,0.0,0.0,0.0,-11.515942573547363,-0.32114434242248535,0.7918822169303894,0.42662346363067627,0.9586175680160522,0.06925269961357117,-0.05422379821538925,-0.2707696259021759,5.024967670440674,3.0907442569732666,0.16178950667381287,36.07001876831055,-22.930707931518555,-3.0042917728424072,-0.3234971761703491,0.7941589951515198,0.4292135238647461,4.878616809844971,3.048189640045166,0.4509890675544739,0.3536105155944824,0.7515153288841248,0.42000001668930054,-0.39938613772392273,1.7345621585845947,-0.9096315503120422,2.9935379028320312,-0.18909788131713867,-0.18986739218235016,-0.18574897944927216,-0.17936813831329346,-0.5728654265403748,-0.6187640428543091,-0.3716157376766205,-0.13700643181800842
0.4166666666666667,0.008795484900474548,0.07536560297012329,0.0,0.7995490431785583,0.0,0.0,-0.6006007790565491,-0.4225963354110718,-0.3559890389442444,0.0,0.0,0.0,-6.58840799331665,-0.236179918050766,0.8410069346427917,0.43636319041252136,0.9127001166343689,0.15265609323978424,-0.0854039117693901,-0.36929744482040405,5.532015323638916,2.045844793319702,0.7153636813163757,-6.042863845825195,-3.3914308547973633,5.427877902984619,-0.23939263820648193,0.8431929349899292,0.4386059045791626,5.326995849609375,2.763680934906006,0.5897399187088013,0.3536105155944824,0.7515153288841248,0.42000001668930054,-0.38217511773109436,0.8646367788314819,-0.859619140625,2.99999737739563,-0.2026420384645462,-0.20293942093849182,-0.19464509189128876,-0.18447336554527283,-0.774982213973999,-0.7268933653831482,-0.5074129104614258,-0.3130188286304474
0.43333333333333335,0.006004907190799713,0.0634448453783989,0.0,0.7811671495437622,0.0,0.0,-0.6243219375610352,-0.174474835395813,-0.7043207287788391,0.0,0.0,0.0,-2.4358060359954834,-0.14393672347068787,0.8765891194343567,0.4464953541755676,0.8626418113708496,0.16442421078681946,-0.09870830923318863,-0.4680494964122772,5.661285400390625,1.5776869058609009,0.451166570186615,5.518343925476074,3.2821292877197266,-0.11712627112865448,-0.14835433661937714,0.8796166777610779,0.4479767680168152,5.597273826599121,1.4125862121582031,0.6983194351196289,0.3536105155944824,0.7515153288841248,0.42000001668930054,-0.3672085404396057,1.0076591968536377,-0.8855603337287903,-2.9998068809509277,-0.21227456629276276,-0.2109130620956421,-0.19882310926914215,-0.18522648513317108,-0.7551499605178833,-0.5564485788345337,-0.2697821855545044,-0.00796088483184576
0.45,0.0001580367243150249,0.05685008317232132,0.0,0.7546493411064148,0.0,0.0,-0.6561282873153687,-0.35156330466270447,-0.3693288564682007,0.0,0.0,0.0,-5.646353244781494,-0.04935586825013161,0.8904377818107605,0.4554671347141266,0.8080167174339294,0.16320107877254486,-0.10453331470489502,-0.5563696622848511,5.7804718017578125,0.003697142004966736,0.5712423324584961,-6.079322338104248,8.919707298278809,1.3916469812393188,-0.053506139665842056,0.8949322700500488,0.4573063850402832,5.856414794921875,0.5562692284584045,0.5054181218147278,0.3536105155944824,0.7515153288841248,0.42000001668930054,-0.35025933384895325,1.066717267036438,-0.9355844259262085,-2.999347448348999,-0.22706501185894012,-0.22290802001953125,-0.2055945098400116,-0.1872439831495285,-0.7134981155395508,-0.5727298259735107,-0.31318074464797974,-0.07379256933927536
0.4666666666666667,-0.0027130835223942995,0.04695746302604675,0.0,0.7405941486358643,0.0,0.0,-0.6719526052474976,-0.10779161751270294,-0.5781251192092896,0.0,0.0,0.0,-1.3885610103607178,0.043820206075906754,0.8902577757835388,0.46092522144317627,0.759711503982544,0.1443760246038437,-0.10218045860528946,-0.6257420182228088,5.343726634979248,-1.3901649713516235,0.12781371176242828,-10.890721321105957,-11.501790046691895,17.498798370361328,0.04099198058247566,0.8953942656517029,0.4631423354148865,5.586977005004883,-0.5694605112075806,0.32896363735198975,0.3536105155944824,0.7515153288841248,0.42000001668930054,-0.33325645327568054,0.8653860092163086,-0.985608696937561,-3.000001907348633,-0.23719364404678345,-0.23001642525196075,-0.20859649777412415,-0.18657338619232178,-0.7076289653778076,-0.46510612964630127,-0.2050902098417282,0.02142021246254444
0.48333333333333334,-0.002587838564068079,0.04130809009075165,0.0,0.718629777431488,0.0,0.0,-0.6953928470611572,0.07784030586481094,-0.31499746441841125,0.0,0.0,0.0,-4.662730693817139,0.1273287832736969,0.8738196492195129,0.4605083465576172,0.7094984650611877,0.12522195279598236,-0.09541067481040955,-0.6868974566459656,4.245729923248291,-1.9951165914535522,-0.28506895899772644,-12.889678955078125,-2.875349521636963,23.57221794128418,0.12467542290687561,0.8795486092567444,0.4630327522754669,4.798020362854004,-1.244041085243225,-0.12237890809774399,0.3536105155944824,0.7515153288841248,0.42000001668930054,-0.3201712667942047,0.6145001649856567,-1.0356321334838867,-3.0000009536743164,-0.23984844982624054,-0.23874802887439728,-0.21353018283843994,-0.18821227550506592,0.023014450445771217,-0.34945327043533325,-0.1851825714111328,-0.04420273378491402
0.5,-0.0023199308197945356,0.03930068388581276,0.0,0.7112450003623962,0.0,0.0,-0.7029441595077515,-0.03819586709141731,-0.02793840877711773,0.0,0.0,0.0,-0.14014287292957306,0.19853074848651886,0.8493164777755737,0.45414087176322937,0.6732850074768066,0.08769509941339493,-0.08111844956874847,-0.7296687364578247,3.617532253265381,-2.163602352142334,-0.5409321784973145,-10.067450523376465,0.5387579798698425,11.941222190856934,0.19661255180835724,0.8542351722717285,0.4568553566932678,4.015231132507324,-1.7550697326660156,-0.4474835991859436,0.3536105155944824,0.7515153288841248,0.42000001668930054,-0.30818578600883484,0.7811864018440247,-1.0856542587280273,-3.000002861022949,-0.23993931710720062,-0.2399093508720398,-0.21684010326862335,-0.18995794653892517,-0.006921297404915094,0.02646869234740734,-0.1411111205816269,-0.0980745255947113
0.5166666666666666,-5.50087543160771e-06,0.03288215026259422,0.0,0.6947722434997559,0.0,0.0,-0.7192298173904419,0.14043398201465607,-0.39541831612586975,0.0,0.0,0.0,-3.572678565979004,0.2598950266838074,0.8221724629402161,0.44095003604888916,0.6316252946853638,0.037679918110370636,-0.08351141959428787,-0.769841194152832,3.0496933460235596,-2.0225627422332764,-0.7510451674461365,-0.9236027598381042,-0.9372786283493042,18.889436721801758,0.25819411873817444,0.8275027275085449,0.44497424364089966,3.447993278503418,-1.7112703323364258,-0.8487374782562256,0.3536105155944824,0.7515153288841248,0.42000001668930054,-0.2926638424396515,0.9626141786575317,-1.135676383972168,-3.0000011920928955,-0.23368991911411285,-0.23400536179542542,-0.21485161781311035,-0.18899069726467133,0.3165210783481598,0.3319832682609558,0.11607315391302109,0.029574250802397728
0.5333333333333333,0.004105310887098312,0.031164871528744698,0.0,0.690967857837677,0.0,0.0,-0.7228854894638062,0.2602681517601013,-0.033330634236335754,0.0,0.0,0.0,0.2928447425365448,0.31010302901268005,0.7916488647460938,0.42346808314323425,0.5807510018348694,-0.03984754905104637,-0.10354040563106537,-0.8064860105514526,2.362274169921875,-1.8922300338745117,-1.0771414041519165,-10.314997673034668,10.351202011108398,10.899706840515137,0.30799639225006104,0.7973544597625732,0.4300157427787781,2.7508673667907715,-1.8541638851165771,-0.9671947956085205,0.3536105155944824,0.7515153288841248,0.42000001668930054,-0.27593913674354553,1.0052399635314941,-1.1856985092163086,-3.000001907348633,-0.23116806149482727,-0.2305649071931839,-0.21450021862983704,-0.1902686357498169,0.21271012723445892,0.254917174577713,0.05603557452559471,-0.0858030766248703
0.55,0.01102058868855238,0.026197604835033417,0.0,0.6776919960975647,0.0,0.0,-0.7353459000587463,0.4628406763076782,-0.3441711366176605,0.0,0.0,0.0,-2.8645029067993164,0.34073832631111145,0.7741926908493042,0.42113029956817627,0.5979527235031128,0.016883157193660736,-0.022107219323515892,-0.8010485172271729,0.7261793613433838,-1.556178331375122,-0.03909821808338165,-0.18464049696922302,-1.0747883319854736,31.252328872680664,0.3395887017250061,0.7779347896575928,0.4244807958602905,1.4750040769577026,-0.9109357595443726,0.11677314341068268,0.3536105155944824,0.7515153288841248,0.42000001668930054,-0.25892582535743713,0.6950293779373169,-1.2357900142669678,-2.995431661605835,-0.22305601835250854,-0.22283202409744263,-0.2108834981918335,-0.1900695562362671,0.3747366666793823,0.37914228439331055,0.1655316799879074,-0.03268764540553093
0.5666666666666667,0.015826981514692307,0.02371201291680336,0.0,0.677875280380249,0.0,0.0,-0.7351769208908081,0.22319035232067108,-0.0929405465722084,0.0,0.0,0.0,0.8367184400558472,0.3583443760871887,0.7578865885734558,0.42050623893737793,0.5953446626663208,-0.009204443544149399,-0.002111906185746193,-0.8034148812294006,0.6876164674758911,-0.984912097454071,0.11673952639102936,5.210413455963135,-0.08597524464130402,6.299775123596191,0.3571612238883972,0.7614519596099854,0.425107479095459,0.8182278275489807,-0.9031260013580322,0.1007968932390213,0.3536105155944824,0.7515153288841248,0.42000001668930054,-0.2475428581237793,0.8306915163993835,-1.285786509513855,-2.9986658096313477,-0.2176523506641388,-0.21727606654167175,-0.20858392119407654,-0.19110314548015594,0.3537704050540924,0.3539847731590271,0.16351312398910522,-0.047519318759441376
0.5833333333333334,0.021106796339154243,0.02451782114803791,0.0,0.6681596636772156,0.0,0.0,-0.7440178990364075,0.3630911409854889,0.1161455363035202,0.0,0.0,0.0,-2.4494612216949463,0.36902207136154175,0.7489691972732544,0.4200129806995392,0.5626218318939209,0.00020181559375487268,0.0006221859366632998,-0.826714038848877,0.2617909014225006,-0.1834777444601059,-0.01663079299032688,-1.9493688344955444,-0.7742878198623657,7.6154279708862305,0.3651525378227234,0.7522330284118652,0.4238485097885132,0.27064380049705505,-0.3435683846473694,-0.08795787394046783,0.3536105155944824,0.7515153288841248,0.42000001668930054,-0.23601065576076508,0.9475989937782288,-1.247605800628662,2.9981112480163574,-0.20972594618797302,-0.21034058928489685,-0.20541983842849731,-0.19212870299816132,0.5337139368057251,0.45143166184425354,0.21934154629707336,-0.04679224267601967
0.6,0.02889198251068592,0.021012090146541595,0.0,0.6706795692443848,0.0,0.0,-0.7417472004890442,0.4511828124523163,-0.22698646783828735,0.0,0.0,0.0,1.2871007919311523,0.37197145819664,0.7458040714263916,0.4199993908405304,0.5791839361190796,-1.767899993865285e-05,-3.36563098244369e-05,-0.8151968121528625,0.09874998778104782,-0.13874034583568573,0.0014213841641321778,0.07768486440181732,0.08435508608818054,5.572939395904541,0.36640506982803345,0.7479831576347351,0.42482611536979675,-0.11980779469013214,-0.2104804664850235,0.14268635213375092,0.3536105155944824,0.7515153288841248,0.42000001668930054,-0.26590919494628906,-2.9999804496765137,-1.2680763006210327,-2.9991049766540527,-0.19809876382350922,-0.20026199519634247,-0.1991088092327118,-0.190293088555336,0.5931180119514465,0.5347942113876343,0.35523760318756104,0.12141105532646179
0.6166666666666667,0.038601353764534,0.021683940663933754,0.0,0.6622552275657654,0.0,0.0,-0.7492783069610596,0.6154823303222656,0.043258946388959885,0.0,0.0,0.0,-2.278287649154663,0.3728960156440735,0.7442240118980408,0.41999998688697815,0.601050078868866,-6.914724508533254e-07,-3.891622327500954e-06,-0.7992113828659058,0.0592598058283329,-0.07679320871829987,-3.7104440707480535e-05,0.003757924772799015,0.0011710304534062743,2.4090893268585205,0.3670535087585449,0.7481582760810852,0.42775067687034607,0.1495257467031479,0.1764790415763855,0.1882946938276291,0.3536105155944824,0.7515153288841248,0.42000001668930054,-0.3159436583518982,-2.99959397315979,-1.318028211593628,-2.998769760131836,-0.1895301342010498,-0.19277937710285187,-0.19439005851745605,-0.18924996256828308,0.6601114273071289,0.5541708469390869,0.3674960136413574,0.12918312847614288
0.6333333333333333,0.05003216117620468,0.0249477606266737,0.0,0.6659323573112488,0.0,0.0,-0.7460121512413025,0.7193409204483032,0.2571118175983429,0.0,0.0,0.0,1.5024946928024292,0.3732947111129761,0.7437231540679932,0.4200000464916229,0.6061992645263672,-4.08783449756811e-07,1.570743961565313e-06,-0.795312762260437,0.01134403981268406,-0.013729950413107872,-5.7042110711336136e-05,-0.00114457868039608,-0.002951942151412368,0.30074605345726013,0.3661356568336487,0.7506465911865234,0.4309362769126892,-0.2156556248664856,0.15295575559139252,0.21117138862609863,0.3536105155944824,0.7515153288841248,0.42000001668930054,-0.36595478653907776,-3.000000476837158,-1.368024230003357,-2.9999616146087646,-0.17995256185531616,-0.18479368090629578,-0.18909768760204315,-0.1875464767217636,0.5291277766227722,0.44540148973464966,0.30603086948394775,0.10952899605035782
0.65,0.058960188180208206,0.02398858219385147,0.0,0.6906991600990295,0.0,0.0,-0.7231422066688538,0.5022196173667908,-0.11390130966901779,0.0,0.0,0.0,4.9062323570251465,0.37159237265586853,0.7436182498931885,0.4201352000236511,0.605523407459259,0.002038998994976282,-0.0026934712659567595,-0.7958202958106995,-0.2083810418844223,-0.018477197736501694,0.025460416451096535,-0.33224716782569885,-1.235531210899353,-1.2675186395645142,0.36350637674331665,0.751966118812561,0.43476560711860657,-0.2468509078025818,-0.0017666444182395935,0.24727247655391693,0.3536105155944824,0.7515153288841248,0.42000001668930054,-0.4159742295742035,-2.9999825954437256,-1.4180036783218384,-2.9995787143707275,-0.1701941192150116,-0.17594601213932037,-0.181870698928833,-0.18287889659404755,0.43100258708000183,0.43258923292160034,0.4005376100540161,0.31009501218795776
0.6666666666666666,0.06808684766292572,0.019817065447568893,0.0,0.7007004022598267,0.0,0.0,-0.7134556174278259,0.5763282179832458,-0.2976597845554352,0.0,0.0,0.0,0.6362223625183105,0.3688122034072876,0.7433395981788635,0.4200001358985901,0.5988566875457764,-1.0780719321701326e-06,-7.109815669537056e-08,-0.8008562326431274,-0.14061886072158813,-0.014417136088013649,-1.7415964975953102e-05,-0.0003393872466403991,-0.0008781994110904634,-0.9257456064224243,0.361396849155426,0.7529758214950562,0.4398033618927002,-0.09227459132671356,0.03166875243186951,0.3296610116958618,0.3536105155944824,0.7515153288841248,0.42000001668930054,-0.46598896384239197,-2.9996721744537354,-1.4679913520812988,-2.999945640563965,-0.1654880791902542,-0.1703188121318817,-0.1756192147731781,-0.17686153948307037,0.24366050958633423,0.32893607020378113,0.40862488746643066,0.4426369071006775
0.6833333333333333,0.0789201483130455,0.012596400454640388,0.0,0.6890047788619995,0.0,0.0,-0.7247567772865295,0.6846516728401184,-0.4979323148727417,0.0,0.0,0.0,-2.8303487300872803,0.36745959520339966,0.7431914210319519,0.42000001668930054,0.5950756072998047,-1.3150752238288987e-06,8.465160590276355e-07,-0.8036696314811707,-0.05992854759097099,-0.0071618519723415375,-4.557101055979729e-05,-0.00035723956534639,-0.0019740890711545944,-0.47199660539627075,0.36376118659973145,0.7558978796005249,0.4526846408843994,0.3508765697479248,0.26319435238838196,1.2941423654556274,0.3536105155944824,0.7515153288841248,0.42000001668930054,-0.5160016417503357,-2.9999797344207764,-1.5180096626281738,-3.0,-0.163720965385437,-0.16694597899913788,-0.17060641944408417,-0.17091146111488342,0.03475901111960411,0.13671129941940308,0.24651210010051727,0.3172247111797333
0.7,0.09342198818922043,0.011100213043391705,0.0,0.6553658843040466,0.0,0.0,-0.7553115487098694,0.9449939131736755,0.048328597098588943,0.0,0.0,0.0,-6.471179008483887,0.3672698736190796,0.7431665658950806,0.4199998378753662,0.5943846702575684,5.17221815243829e-06,-1.8517284843255766e-05,-0.8041808009147644,0.0005537395481951535,-0.0007204408175311983,-0.00011753477156162262,0.021031925454735756,-0.026123367249965668,-0.0043432340025901794,0.37821656465530396,0.7557997703552246,0.47998595237731934,1.4772018194198608,-0.242568239569664,2.1053152084350586,0.3536105155944824,0.7515153288841248,0.42000001668930054,-0.5660141110420227,-2.9997377395629883,-1.5680279731750488,-2.999967336654663,-0.17162051796913147,-0.17164623737335205,-0.17198686301708221,-0.1696920096874237,-0.6544882655143738,-0.4289967715740204,-0.19417066872119904,-0.001684448798187077
0.7166666666666667,0.10488030314445496,0.015160832554101944,0.0,0.6335599422454834,0.0,0.0,-0.7736936211585999,0.5940905809402466,0.01319553516805172,0.0,0.0,0.0,-2.0646607875823975,0.3672715425491333,0.7431661486625671,0.4200000464916229,0.5943832993507385,1.6397839885939902e-07,-3.182779664712143e-06,-0.8041817545890808,0.00011444088158896193,-0.00027930125361308455,-8.865911513566971e-05,0.006471407599747181,-0.0013404340716078877,-0.0006288329022936523,0.39876824617385864,0.7542081475257874,0.5163107514381409,1.171571969985962,0.15840230882167816,2.144284248352051,0.3536105155944824,0.7515153288841248,0.42000001668930054,-0.5862088203430176,0.30044078826904297,-1.6180429458618164,-3.000000238418579,-0.18147782981395721,-0.1784055382013321,-0.1755227893590927,-0.17071299254894257,-0.09058825671672821,-0.04826805740594864,0.01167244091629982,0.04363624379038811
0.7333333333333333,0.11137618124485016,0.017144883051514626,0.0,0.6384391784667969,0.0,0.0,-0.7696722745895386,0.31473714113235474,0.16840703785419464,0.0,0.0,0.0,1.6262469291687012,0.3672715425491333,0.7431661486625671,0.4200000464916229,0.5943832397460938,2.0728616334508843e-07,-3.3824858292064164e-06,-0.8041818737983704,0.00012607991811819375,-0.0002730272535700351,-9.31324902921915e-05,0.006229995284229517,-0.0012288214638829231,-0.0006528819794766605,0.4155452251434326,0.7572886943817139,0.5462774038314819,0.7063999772071838,0.2124297320842743,1.498429298400879,0.3536105155944824,0.7515153288841248,0.42000001668930054,-0.5598400831222534,2.6366848945617676,-1.5789788961410522,2.999999523162842,-0.1812966912984848,-0.17783795297145844,-0.17427201569080353,-0.16919361054897308,0.09619952738285065,0.10593587905168533,0.13134080171585083,0.1330213099718094
0.75,0.11350732296705246,0.014257913455367088,0.0,0.6319440007209778,0.0,0.0,-0.7750140428543091,0.15196146070957184,-0.19026030600070953,0.0,0.0,0.0,-1.7158308029174805,0.3672715425491333,0.7431661486625671,0.4200000464916229,0.5943832993507385,2.1327608124011022e-07,-3.4370973480690736e-06,-0.8041817545890808,0.0001261769066331908,-0.00027271953877061605,-9.318115189671516e-05,0.00622182572260499,-0.00122666428796947,-0.0006528187077492476,0.42062142491340637,0.7621148824691772,0.5651721954345703,-0.12709331512451172,0.13674773275852203,0.8930484056472778,0.3536105155944824,0.7515153288841248,0.42000001668930054,-0.5302331447601318,1.0330135822296143,-1.528922438621521,3.0,-0.17507508397102356,-0.1722009927034378,-0.16896302998065948,-0.16454428434371948,0.19505150616168976,0.20240217447280884,0.2184043675661087,0.2095603048801422
0.7666666666666666,0.11341200023889542,0.01677296683192253,0.0,0.6383835077285767,0.0,0.0,-0.7697184085845947,-0.041229840368032455,0.16563314199447632,0.0,0.0,0.0,1.7523645162582397,0.3672715425491333,0.7431661486625671,0.4200000464916229,0.5943833589553833,3.9074637925295974e-07,-3.4800962112058187e-06,-0.8041818141937256,0.00012688012793660164,-0.00027309684082865715,-9.329570457339287e-05,0.006227337755262852,-0.0012192112626507878,-0.0006546256481669843,0.4165158271789551,0.7630119323730469,0.5768165588378906,-0.2640843689441681,0.14340099692344666,0.5243417024612427,0.3536105155944824,0.7515153288841248,0.42000001668930054,-0.5007460713386536,2.3668179512023926,-1.4788659811019897,3.0,-0.17608819901943207,-0.17230471968650818,-0.16813313961029053,-0.16327698528766632,0.08062034845352173,0.09244879335165024,0.10754884779453278,0.09861107170581818
0.7833333333333333,0.1109727993607521,0.016059046611189842,0.0,0.6330991387367249,0.0,0.0,-0.7740707397460938,-0.217744842171669,-0.0396602526307106,0.0,0.0,0.0,-1.5510720014572144,0.3672715425491333,0.7431661486625671,0.4200000464916229,0.594383180141449,2.0049576221481402e-07,-3.3465212254668586e-06,-0.8041818737983704,0.0001255662937182933,-0.00027289154240861535,-9.302631951868534e-05,0.006229480262845755,-0.001234454452060163,-0.0006514221313409507,0.4066912531852722,0.7643202543258667,0.5797970294952393,-0.9436285495758057,-0.022307083010673523,0.00144181028008461,0.3536105155944824,0.7515153288841248,0.42000001668930054,-0.48883330821990967,-0.6837571263313293,-1.4288110733032227,3.0,-0.17410387098789215,-0.17027124762535095,-0.16601599752902985,-0.16143780946731567,0.022542567923665047,0.04349230229854584,0.06314875930547714,0.06045375019311905
0.8,0.11033635586500168,0.01902284473180771,0.0,0.6403130292892456,0.0,0.0,-0.7681140899658203,0.01603327877819538,0.2048078179359436,0.0,0.0,0.0,1.7738056182861328,0.3672715425491333,0.7431661486625671,0.4200000464916229,0.5943832993507385,1.9476360080261657e-07,-3.398466333237593e-06,-0.8041818737983704,0.0001260493736481294,-0.0002727434039115906,-9.315065108239651e-05,0.006223160773515701,-0.001228179200552404,-0.0006525481003336608,0.3969809412956238,0.7640957832336426,0.578518271446228,-0.21697819232940674,0.09721922874450684,-0.11275019496679306,0.3536105155944824,0.7515153288841248,0.42000001668930054,-0.48798295855522156,0.668373167514801,-1.4397960901260376,-3.0000007152557373,-0.17499160766601562,-0.17070329189300537,-0.16591952741146088,-0.16104845702648163,0.08336800336837769,0.07293408364057541,0.07538687437772751,0.07554694265127182
0.8166666666666667,0.11213063448667526,0.01834256388247013,0.0,0.6346064805984497,0.0,0.0,-0.7728354334831238,0.13686798512935638,-0.07143062353134155,0.0,0.0,0.0,-1.7740883827209473,0.3672715425491333,0.7431661486625671,0.4200000464916229,0.5943832397460938,1.9379361049232102e-07,-3.2484708754054736e-06,-0.8041818141937256,0.0001255359675269574,-0.0002730935229919851,-9.299186058342457e-05,0.006234603933990002,-0.0012352218618616462,-0.000651718582957983,0.3959297835826874,0.7650827765464783,0.57323157787323,0.06024696305394173,-0.03838520497083664,-0.3453425168991089,0.3536105155944824,0.7515153288841248,0.42000001668930054,-0.5171706676483154,-3.000000476837158,-1.4012386798858643,3.000000238418579,-0.17159825563430786,-0.16787290573120117,-0.16339504718780518,-0.15876835584640503,0.13855314254760742,0.12345288693904877,0.12185434252023697,0.12430920451879501
0.8333333333333334,0.11633859574794769,0.017059223726391792,0.0,0.6389710307121277,0.0,0.0,-0.7692307829856873,0.29247426986694336,-0.15479202568531036,0.0,0.0,0.0,1.8583341836929321,0.3672715425491333,0.7431661486625671,0.4200000464916229,0.5943830609321594,3.8455314665952756e-07,-3.2331570309906965e-06,-0.8041820526123047,0.00012503056495916098,-0.00027372068143449724,-9.289220906794071e-05,0.0062525286339223385,-0.001245160005055368,-0.0006511251558549702,0.3996222913265228,0.7622717022895813,0.5702534914016724,0.3716380000114441,-0.236133873462677,0.0277930349111557,0.3536105155944824,0.7515153288841248,0.42000001668930054,-0.5666088461875916,-2.9007797241210938,-1.4193501472473145,-3.000000476837158,-0.17210516333580017,-0.1678473949432373,-0.16262903809547424,-0.15719038248062134,-0.04518304765224457,-9.560608305037022e-09,0.05815180763602257,0.12352294474840164
0.85,0.12253732979297638,0.012525568716228008,0.0,0.633650004863739,0.0,0.0,-0.7736198902130127,0.41058826446533203,-0.3348010778427124,0.0,0.0,0.0,-1.7162097692489624,0.3672715425491333,0.7431661486625671,0.4200000464916229,0.5943832993507385,3.703675872657186e-07,-3.447450126259355e-06,-0.8041818141937256,0.0001270933134946972,-0.0002729650295805186,-9.334785863757133e-05,0.006222738418728113,-0.0012161480262875557,-0.0006551610422320664,0.40907520055770874,0.7559288740158081,0.5656787157058716,0.7434592247009277,-0.5285248756408691,-0.3801116645336151,0.3536105155944824,0.7515153288841248,0.42000001668930054,-0.6124895215034485,-2.5933971405029297,-1.4693684577941895,-3.0,-0.17366616427898407,-0.16828466951847076,-0.1616806536912918,-0.1546763926744461,-0.08534159511327744,-2.6833731681108475e-08,0.09946870058774948,0.21270306408405304
0.8666666666666667,0.13138066232204437,0.010192637331783772,0.0,0.6078528165817261,0.0,0.0,-0.7940496802330017,0.5793828964233398,-0.07801343500614166,0.0,0.0,0.0,-4.81785249710083,0.3672715723514557,0.7431661486625671,0.4200000464916229,0.5943828821182251,3.772636887333647e-07,-3.2450948310724925e-06,-0.8041820526123047,0.00012597224849741906,-0.00027391675394028425,-9.306310676038265e-05,0.006252371706068516,-0.0012338109081611037,-0.0006532598054036498,0.4232369363307953,0.7474502325057983,0.5615993738174438,0.9458972215652466,-0.47644469141960144,0.028499439358711243,0.3536105155944824,0.7515153288841248,0.42000001668930054,-0.6424505114555359,-1.1064376831054688,-1.5193867683410645,-3.0000007152557373,-0.17506073415279388,-0.16904586553573608,-0.1615629345178604,-0.15341338515281677,-0.03237074241042137,-0.030466904863715172,-0.015912817791104317,0.014207202941179276
0.8833333333333333,0.1378718763589859,0.010542057454586029,0.0,0.596844494342804,0.0,0.0,-0.8023569583892822,0.30762186646461487,0.06487132608890533,0.0,0.0,0.0,-0.6419026851654053,0.3672715425491333,0.7431661486625671,0.4200000464916229,0.5943834185600281,2.363584741260638e-07,-3.302734057797352e-06,-0.8041817545890808,0.00012677314225584269,-0.00027275909087620676,-9.336299262940884e-05,0.0062190392054617405,-0.0012212138390168548,-0.0006542936898767948,0.43520188331604004,0.743332028388977,0.5631399154663086,0.4682943820953369,-0.08579562604427338,0.12424974143505096,0.3536105155944824,0.7515153288841248,0.42000001668930054,-0.6335970759391785,1.9003793001174927,-1.5694050788879395,-2.9999988079071045,-0.1735764741897583,-0.16813722252845764,-0.16107618808746338,-0.15312689542770386,0.1731528490781784,0.1109408289194107,0.053299564868211746,0.005909757688641548
