vladlanda/robotic-transformer/data/env_000_episode_0047.csv
sim_time_s,robot_box_x,robot_box_y,robot_box_z,robot_box_quat_w,robot_box_quat_x,robot_box_quat_y,robot_box_quat_z,robot_box_linvel_x,robot_box_linvel_y,robot_box_linvel_z,robot_box_angvel_x,robot_box_angvel_y,robot_box_angvel_z,cube_world_x,cube_world_y,cube_world_z,cube_quat_w,cube_quat_x,cube_quat_y,cube_quat_z,cube_linvel_x,cube_linvel_y,cube_linvel_z,cube_angvel_x,cube_angvel_y,cube_angvel_z,endpoint_world_x,endpoint_world_y,endpoint_world_z,endpoint_linvel_x,endpoint_linvel_y,endpoint_linvel_z,target_cube_world_x,target_cube_world_y,target_cube_world_z,gripper_actual_pos_rad_gp_leftgearjoint,gripper_actual_vel_rad_s_gp_leftgearjoint,gripper_actual_pos_rad_gp_rotatingjoint,gripper_actual_vel_rad_s_gp_rotatingjoint,motor_angle_rad_joint1,motor_angle_rad_joint2,motor_angle_rad_joint3,motor_angle_rad_joint4,motor_speed_rad_s_joint1,motor_speed_rad_s_joint2,motor_speed_rad_s_joint3,motor_speed_rad_s_joint4
0.0,0.0,0.0,0.0,1.0,0.0,0.0,0.0,0.0,0.0,0.0,0.0,0.0,0.0,-0.3721116781234741,0.7429482340812683,0.41999998688697815,1.0,0.0,0.0,0.0,0.0,0.0,0.0,0.0,0.0,0.0,3.42540442943573e-06,-0.005000244826078415,1.313499927520752,0.0,0.0,0.0,0.4115910530090332,0.6652317047119141,0.42000001668930054,-1.5707999467849731,0.0,0.0,0.0,0.0,0.0,0.0,0.0,0.0,0.0,0.0,0.0
0.016666666666666666,0.0028821404557675123,0.0021754547487944365,0.0,0.9998185038566589,0.0,0.0,0.0190516859292984,0.24099373817443848,0.1822231262922287,0.0,0.0,0.0,3.141798257827759,-0.37211179733276367,0.7429479360580444,0.41999998688697815,1.0,3.279964630564791e-06,-8.339746386809566e-07,8.465587342243452e-08,-1.9833529222523794e-05,0.00017983045836444944,-6.132945418357849e-05,0.0009432713268324733,-0.004689474124461412,-0.00031981561915017664,-0.00710815005004406,0.0033931757789105177,1.3159383535385132,-0.813913106918335,0.9873409271240234,0.18096521496772766,0.4115910530090332,0.6652317047119141,0.42000001668930054,-1.5301094055175781,3.0000011920928955,-0.04584910720586777,-3.0000014305114746,0.0008702983614057302,0.0007969524012878537,0.000711511995177716,0.0006113662384450436,0.11095715314149857,0.09759485721588135,0.08337145298719406,0.06826522946357727
0.03333333333333333,0.008966397494077682,0.006794074084609747,0.0,0.9998067021369934,0.0,0.0,0.019662216305732727,0.40710705518722534,0.31515148282051086,0.0,0.0,0.0,-0.8689903020858765,-0.3721119165420532,0.7429478764533997,0.4200000464916229,1.0,3.3908477234945167e-06,-2.1324151475710096e-06,-3.7116176798690503e-08,0.00026357846218161285,0.0002693776914384216,-0.00010509602725505829,-0.0017706857761368155,0.004130810499191284,-0.0001354778796667233,-0.026675347238779068,0.026369605213403702,1.3167037963867188,-1.4932351112365723,1.6232099533081055,-0.07194215059280396,0.4115910530090332,0.6652317047119141,0.42000001668930054,-1.4800901412963867,3.0000007152557373,-0.09588894248008728,-3.000000238418579,0.002897940343245864,0.0025272751227021217,0.0021188606042414904,0.0016694293590262532,0.153008371591568,0.12514619529247284,0.09578756242990494,0.06485482305288315
0.05,0.0184806976467371,0.013903903774917126,0.0,0.9999716877937317,0.0,0.0,-0.007525785360485315,0.6363255977630615,0.47249576449394226,0.0,0.0,0.0,-4.072175979614258,-0.3721119463443756,0.7429479360580444,0.4200000464916229,1.0,3.7651484490197618e-06,-2.211842684118892e-06,5.60227420010051e-09,0.00026531011098995805,0.000266915129031986,-0.0001044049859046936,-0.0017243394395336509,0.004177437163889408,-0.00012949485972058028,-0.05413663759827614,0.057970404624938965,1.3126497268676758,-1.8110716342926025,2.093888282775879,-0.4049452543258667,0.4115910530090332,0.6652317047119141,0.42000001668930054,-1.4300718307495117,2.9999992847442627,-0.14592763781547546,-3.000000238418579,0.005615015979856253,0.004674517083913088,0.0036616739816963673,0.0025723855942487717,0.1828741580247879,0.1387585699558258,0.0927186980843544,0.044691115617752075
0.06666666666666667,0.030823206529021263,0.023399226367473602,0.0,0.9998661279678345,0.0,0.0,-0.016361253336071968,0.7731020450592041,0.6164895296096802,0.0,0.0,0.0,-0.031891144812107086,-0.3721119463443756,0.7429478764533997,0.4200000464916229,0.9999999403953552,3.40674955623399e-06,-2.2855595034343423e-06,4.3007116801163647e-07,0.00026702447212301195,0.00026791708660311997,-0.0001043803058564663,-0.0017406379338353872,0.004211765248328447,-0.00012851084466092288,-0.08752354979515076,0.09214390814304352,1.3036274909973145,-2.0566837787628174,2.158205986022949,-0.668125569820404,0.4115910530090332,0.6652317047119141,0.42000001668930054,-1.380047082901001,3.000001907348633,-0.11870289593935013,3.000000238418579,0.007725450210273266,0.005962244234979153,0.004086213186383247,0.002092745155096054,0.1007717028260231,0.0421617366373539,-0.01861473172903061,-0.08159387856721878
0.08333333333333333,0.03686361014842987,0.03678586333990097,0.0,0.9991921186447144,0.0,0.0,-0.04018835723400116,0.22733619809150696,0.8767327070236206,0.0,0.0,0.0,-3.803884267807007,-0.3721119463443756,0.7429478764533997,0.4200000464916229,0.9999999403953552,3.6261044442653656e-06,-2.33528248827497e-06,3.0319426969072083e-07,0.00026613858062773943,0.00026685057673603296,-0.00010405061766505241,-0.0017283286433666945,0.004196317866444588,-0.0001279078860534355,-0.11636993288993835,0.13204744458198547,1.2906627655029297,-1.4391803741455078,2.638143301010132,-0.8167519569396973,0.4115910530090332,0.6652317047119141,0.42000001668930054,-1.330047845840454,3.0000016689300537,-0.15069721639156342,-3.000000238418579,0.003085131524130702,0.00049951346591115,-0.0022533684968948364,-0.005181570071727037,-0.4080832302570343,-0.47036319971084595,-0.5354104042053223,-0.6034485101699829
0.1,0.046731121838092804,0.05174695700407028,0.0,0.9957972764968872,0.0,0.0,-0.09158472716808319,0.7376426458358765,0.9043596982955933,0.0,0.0,0.0,-6.961092472076416,-0.3721119463443756,0.7429478764533997,0.4200000464916229,1.0,3.4221338864881545e-06,-2.3085876819095574e-06,1.796027504497033e-07,0.00026681541930884123,0.0002680059114936739,-0.00010440708138048649,-0.001743128290399909,0.004207063931971788,-0.0001289125211769715,-0.14180248975753784,0.1778002232313156,1.2771867513656616,-1.6108689308166504,2.8866021633148193,-0.8579753637313843,0.4115910530090332,0.6652317047119141,0.42000001668930054,-1.280040979385376,2.999999523162842,-0.18049226701259613,-0.7422559857368469,0.0007343697943724692,-0.003421059576794505,-0.007747082505375147,-0.012251670472323895,-0.051426902413368225,-0.15299434959888458,-0.25352227687835693,-0.3529329001903534
0.11666666666666667,0.055265530943870544,0.06380676478147507,0.0,0.9923648834228516,0.0,0.0,-0.12333686649799347,0.5399981141090393,0.6852420568466187,0.0,0.0,0.0,-2.5737521648406982,-0.3721119463443756,0.7429479360580444,0.4200000464916229,1.0,3.711474846568308e-06,-2.3326983864535578e-06,2.574058726168005e-07,0.0002648566442076117,0.00026635400718078017,-0.00010423525236546993,-0.0017183306626975536,0.004170096945017576,-0.00012915683328174055,-0.17293086647987366,0.22386178374290466,1.2608857154846191,-1.8412256240844727,2.9832162857055664,-1.0002471208572388,0.4115910530090332,0.6652317047119141,0.42000001668930054,-1.2300316095352173,2.9999959468841553,-0.14381185173988342,3.0000009536743164,-0.002304396126419306,-0.008033309131860733,-0.01390637457370758,-0.019931184127926826,-0.09535191208124161,-0.20753437280654907,-0.3163391053676605,-0.4215950667858124
0.13333333333333333,0.061552561819553375,0.0744064524769783,0.0,0.9863474369049072,0.0,0.0,-0.16467754542827606,0.3315363824367523,0.5653160810470581,0.0,0.0,0.0,-5.807553768157959,-0.3721119463443756,0.7429478764533997,0.4200000464916229,0.9999999403953552,3.424648184591206e-06,-2.30197656492237e-06,1.5597707658798754e-07,0.0002670702524483204,0.0002681133337318897,-0.00010444503277540207,-0.0017433364409953356,0.0042120302096009254,-0.0001287761697312817,-0.20084965229034424,0.2772831916809082,1.242513656616211,-1.4666547775268555,3.53096342086792,-1.2115603685379028,0.4115910530090332,0.6652317047119141,0.42000001668930054,-1.1818650960922241,2.7591347694396973,-0.1756507307291031,-3.0000014305114746,-0.005334749352186918,-0.012927096337080002,-0.020595675334334373,-0.028345678001642227,-0.22861404716968536,-0.3371694087982178,-0.4413398504257202,-0.5409795641899109
0.15,0.06409773975610733,0.08560200035572052,0.0,0.9810584187507629,0.0,0.0,-0.1937119960784912,0.07862205803394318,0.7106137871742249,0.0,0.0,0.0,-2.511240005493164,-0.3721119463443756,0.7429478764533997,0.4200000464916229,1.0,3.7137983781576622e-06,-2.207822262789705e-06,-1.6912022715587227e-07,0.00026353259454481304,0.0002653595001902431,-0.00010421662591397762,-0.0017011979361996055,0.004144062753766775,-0.00012960298045072705,-0.23232385516166687,0.33586156368255615,1.2154715061187744,-1.998997688293457,3.6819536685943604,-2.0030641555786133,0.4115910530090332,0.6652317047119141,0.42000001668930054,-1.1543956995010376,0.694617748260498,-0.14195986092090607,3.0000011920928955,-0.010468092747032642,-0.019470376893877983,-0.02846573479473591,-0.03745825216174126,-0.3675655424594879,-0.42696452140808105,-0.48164382576942444,-0.5316507816314697
0.16666666666666666,0.06925566494464874,0.09830280393362045,0.0,0.9717491269111633,0.0,0.0,-0.236016184091568,0.3021925389766693,0.8630056381225586,0.0,0.0,0.0,-6.053657531738281,-0.3721119463443756,0.7429478764533997,0.4200000464916229,0.9999999403953552,3.638302587205544e-06,-2.2787849047745112e-06,2.700390098198113e-07,0.0002668272063601762,0.00026750180404633284,-0.00010409974493086338,-0.0017399356001988053,0.0042100450955331326,-0.00012781673285644501,-0.26506105065345764,0.40091946721076965,1.1785993576049805,-1.8177945613861084,4.128815174102783,-2.4892868995666504,0.4115910530090332,0.6652317047119141,0.42000001668930054,-1.1122643947601318,3.000000476837158,-0.1738138645887375,-3.0000014305114746,-0.016966713592410088,-0.02675965242087841,-0.03647993877530098,-0.04613411799073219,-0.5919637680053711,-0.6056272983551025,-0.6172795295715332,-0.6272172927856445
0.18333333333333332,0.07219916582107544,0.10916442424058914,0.0,0.9657144546508789,0.0,0.0,-0.25960659980773926,0.12450545281171799,0.5779690742492676,0.0,0.0,0.0,-1.8157294988632202,-0.3721119463443756,0.7429478764533997,0.4200000464916229,1.0,3.3863352655316703e-06,-2.300278083566809e-06,1.4389989644314483e-07,0.00026674530818127096,0.0002678712480701506,-0.00010436796583235264,-0.0017412264132872224,0.0042059896513819695,-0.00012878300913143903,-0.29942768812179565,0.46717748045921326,1.1281859874725342,-1.9007611274719238,4.14449405670166,-3.5001211166381836,0.4115910530090332,0.6652317047119141,0.42000001668930054,-1.0690066814422607,2.222630739212036,-0.223842591047287,-2.999999761581421,-0.027551790699362755,-0.03714783489704132,-0.04664406552910805,-0.056056346744298935,-0.6795662045478821,-0.6479026079177856,-0.615247905254364,-0.5822563171386719
0.2,0.07392608374357224,0.12042907625436783,0.0,0.9555040597915649,0.0,0.0,-0.29497799277305603,0.08341003209352493,0.7117862701416016,0.0,0.0,0.0,-5.301548957824707,-0.3721119463443756,0.7429479360580444,0.4200000464916229,1.0,3.6754631764779333e-06,-2.3266181869985303e-06,2.2109479402843135e-07,0.0002648438676260412,0.0002663126797415316,-0.00010421546176075935,-0.0017176977125927806,0.004169917199760675,-0.00012910606164950877,-0.32964375615119934,0.5370269417762756,1.063833236694336,-1.560359001159668,4.25,-4.182892799377441,0.4115910530090332,0.6652317047119141,0.42000001668930054,-1.0200401544570923,3.000000476837158,-0.27386918663978577,-3.0,-0.04035503417253494,-0.04926327243447304,-0.058061208575963974,-0.0667775347828865,-0.8019959926605225,-0.7563669085502625,-0.7103292942047119,-0.6646082997322083
0.21666666666666667,0.07836156338453293,0.12792028486728668,0.0,0.9503405690193176,0.0,0.0,-0.31121179461479187,0.34097012877464294,0.3392486572265625,0.0,0.0,0.0,-0.9696759581565857,-0.3721119463443756,0.7429478764533997,0.4200000464916229,1.0,3.3222122510778718e-06,-2.20804554373899e-06,2.742411027156777e-07,0.00026662787422537804,0.00026749519747681916,-0.00010426202788949013,-0.0017358181066811085,0.004204723052680492,-0.0001283369492739439,-0.35686248540878296,0.6022340655326843,0.9850713014602661,-1.3762176036834717,3.7611799240112305,-5.159964561462402,0.4115910530090332,0.6652317047119141,0.42000001668930054,-0.9700344800949097,2.9999992847442627,-0.32389533519744873,-3.0000014305114746,-0.05538923293352127,-0.06308950483798981,-0.07042181491851807,-0.07773304730653763,-0.9235460162162781,-0.8484402894973755,-0.7438696622848511,-0.6443341970443726
0.23333333333333334,0.07774695754051208,0.1386255919933319,0.0,0.9400164484977722,0.0,0.0,-0.3411291837692261,-0.13880100846290588,0.6207332015037537,0.0,0.0,0.0,-4.655858039855957,-0.3721119463443756,0.7429478764533997,0.4200000464916229,1.0,3.656415628938703e-06,-2.3734403384878533e-06,-4.077129176494054e-07,0.0002661167527548969,0.0002672596601769328,-0.00010423315688967705,-0.0017335204174742103,0.004194542765617371,-0.0001285481994273141,-0.3753443956375122,0.6573560237884521,0.8916630744934082,-0.8342753052711487,2.9679529666900635,-5.773740768432617,0.4115910530090332,0.6652317047119141,0.42000001668930054,-0.9200253486633301,2.9999961853027344,-0.3739246129989624,-2.999999761581421,-0.07196065038442612,-0.07959028333425522,-0.08687593787908554,-0.09407035261392593,-0.796302318572998,-0.8325498700141907,-0.8665236830711365,-0.8970214128494263
0.25,0.08200161159038544,0.14382463693618774,0.0,0.935430645942688,0.0,0.0,-0.353510320186615,0.25078481435775757,0.23536495864391327,0.0,0.0,0.0,-0.5130123496055603,-0.3721119463443756,0.7429479360580444,0.4200000464916229,1.0,3.6304120385466376e-06,-2.2426145278586773e-06,1.1181708003960011e-08,0.00026680054725147784,0.00026706064818426967,-0.00010390975512564182,-0.0017342400969937444,0.004210646729916334,-0.00012703398533631116,-0.3898431360721588,0.6994771957397461,0.7923082113265991,-0.6151953935623169,2.0750489234924316,-6.211546421051025,0.4115910530090332,0.6652317047119141,0.42000001668930054,-0.8700152635574341,2.9999961853027344,-0.4239557683467865,-3.000002861022949,-0.08286032825708389,-0.09071502834558487,-0.09822692722082138,-0.10562664270401001,-0.9008299708366394,-0.855324923992157,-0.8137807250022888,-0.7751399874687195
0.26666666666666666,0.0807795375585556,0.152177095413208,0.0,0.9255561232566833,0.0,0.0,-0.3786104917526245,-0.09311743825674057,0.4944828450679779,0.0,0.0,0.0,-3.9168131351470947,-0.3721119165420532,0.7429478764533997,0.4200000464916229,0.9999999403953552,3.739990006579319e-06,-2.2363544758263743e-06,4.4994595782554825e-07,0.00026479660300537944,0.000266730145085603,-0.00010453932918608189,-0.0017189461505040526,0.004166724160313606,-0.00013016641605645418,-0.3948836922645569,0.7259025573730469,0.6877567172050476,-0.009693935513496399,1.2315150499343872,-6.099041938781738,0.4115910530090332,0.6652317047119141,0.42000001668930054,-0.8200057744979858,2.9999938011169434,-0.4739873707294464,-2.999999761581421,-0.09955006837844849,-0.10736290365457535,-0.11488938331604004,-0.12230148911476135,-0.7902543544769287,-0.8379119634628296,-0.8833605051040649,-0.9241365790367126
0.2833333333333333,0.07831127196550369,0.15568318963050842,0.0,0.9229692220687866,0.0,0.0,-0.38487371802330017,-0.2159840613603592,0.20818640291690826,0.0,0.0,0.0,0.15141533315181732,-0.3721119463443756,0.7429478764533997,0.4200000464916229,1.0,3.391518930584425e-06,-2.2911697215022286e-06,1.2456727915832744e-07,0.00026677147252485156,0.00026789188268594444,-0.00010437238961458206,-0.0017411535372957587,0.004206198733299971,-0.00012877908011432737,-0.39682433009147644,0.7411800622940063,0.5886021256446838,0.11013563722372055,0.481279194355011,-5.855871677398682,0.4115910530090332,0.6652317047119141,0.42000001668930054,-0.7699969410896301,2.999993085861206,-0.5240176320075989,-2.999986410140991,-0.11311373859643936,-0.12120750546455383,-0.12900404632091522,-0.1366535723209381,-0.9929941892623901,-0.9938362836837769,-0.9914252161979675,-0.992023766040802
0.3,0.07254955917596817,0.1570056825876236,0.0,0.9154269099235535,0.0,0.0,-0.4024842381477356,-0.3958599269390106,0.03386285528540611,0.0,0.0,0.0,-3.1558473110198975,-0.3721119463443756,0.7429479360580444,0.4200000464916229,1.0,3.680642066683504e-06,-2.3191096261143684e-06,2.0105352405153099e-07,0.00026479020016267896,0.00026625703321769834,-0.00010421290062367916,-0.00171678327023983,0.004168916493654251,-0.00012909506040159613,-0.39003461599349976,0.7466022968292236,0.48962587118148804,0.7377223372459412,0.0752195194363594,-5.795156002044678,0.4115910530090332,0.6652317047119141,0.42000001668930054,-0.7199884057044983,3.00000262260437,-0.5740464329719543,-2.9999983310699463,-0.1303749978542328,-0.13831929862499237,-0.14600414037704468,-0.1535663604736328,-1.0064697265625,-1.0048952102661133,-1.0036948919296265,-1.0027343034744263
0.31666666666666665,0.06447644531726837,0.15578821301460266,0.0,0.9149643778800964,0.0,0.0,-0.40353459119796753,-0.5206243395805359,-0.11597424000501633,0.0,0.0,0.0,0.7755641937255859,-0.3721119463443756,0.7429478764533997,0.4200000464916229,1.0,3.304140818727319e-06,-2.2214426280697808e-06,2.535191754304833e-07,0.00026660627918317914,0.00026745020295493305,-0.00010424340143799782,-0.0017351501155644655,0.004204238764941692,-0.00012828496983274817,-0.37592682242393494,0.7438017129898071,0.3955647051334381,1.0472898483276367,-0.49788254499435425,-5.5053300857543945,0.4115910530090332,0.6652317047119141,0.42000001668930054,-0.6699814796447754,2.999990224838257,-0.6240732669830322,-2.9999992847442627,-0.14751003682613373,-0.15532049536705017,-0.1629074513912201,-0.1703951507806778,-1.0000951290130615,-1.0000619888305664,-1.0000392198562622,-1.000023603439331
0.3333333333333333,0.054019927978515625,0.15196506679058075,0.0,0.9254249334335327,0.0,0.0,-0.3789309561252594,-0.6745710372924805,-0.2747457027435303,0.0,0.0,0.0,4.0339765548706055,-0.3715992867946625,0.7450025677680969,0.4213793873786926,0.9980524778366089,0.0002478578535374254,0.034208521246910095,-0.052162591367959976,0.0072240144945681095,0.04466017335653305,-0.012217707000672817,-0.8899396061897278,0.2722211182117462,-1.6938430070877075,-0.3813374638557434,0.7475415468215942,0.4256235957145691,-0.5118313431739807,0.2264891415834427,-0.11239176243543625,0.4115910530090332,0.6652317047119141,0.42000001668930054,-0.6203201413154602,2.99891996383667,-0.6744056344032288,-2.955958843231201,-0.1425303965806961,-0.1527596414089203,-0.16231940686702728,-0.17118708789348602,0.10099729150533676,-0.04151688516139984,-0.15784621238708496,-0.23954911530017853
0.35,0.041199102997779846,0.14571505784988403,0.0,0.9285821914672852,0.0,0.0,-0.37112677097320557,-0.8101372122764587,-0.4173373281955719,0.0,0.0,0.0,0.02184062823653221,-0.3726102113723755,0.7441397309303284,0.4200371205806732,0.9971139430999756,0.00046334313810802996,0.00023097307712305337,-0.07591740041971207,-0.13967852294445038,-0.20163998007774353,-0.02114379033446312,0.017491674050688744,-1.1927297115325928,-5.436100006103516,-0.3864862024784088,0.7472351789474487,0.4232417047023773,-0.11308136582374573,-0.15587158501148224,-0.1484842747449875,0.4115910530090332,0.6652317047119141,0.42000001668930054,-0.5703148245811462,2.996523857116699,-0.7244333624839783,-2.9996304512023926,-0.14439673721790314,-0.15550997853279114,-0.16552889347076416,-0.17433138191699982,-0.25700774788856506,-0.2369571030139923,-0.193697988986969,-0.12325748801231384
0.36666666666666664,0.031421512365341187,0.13657152652740479,0.0,0.9209403991699219,0.0,0.0,-0.3897034823894501,-0.5389835238456726,-0.5949597954750061,0.0,0.0,0.0,-3.194913387298584,-0.3736729919910431,0.742256224155426,0.42016491293907166,0.994290292263031,0.003873415756970644,-0.0002471039770171046,-0.10663807392120361,0.15064480900764465,0.09374573826789856,0.05754056200385094,3.416978359222412,-0.6248162388801575,-3.4981229305267334,-0.38529664278030396,0.7473545670509338,0.42076417803764343,0.19475799798965454,0.10787913203239441,-0.11198978126049042,0.4115910530090332,0.6652317047119141,0.42000001668930054,-0.5203099250793457,2.9998271465301514,-0.7744730114936829,-3.0000061988830566,-0.14987236261367798,-0.1598910093307495,-0.16840486228466034,-0.17524904012680054,-0.4062996804714203,-0.297905296087265,-0.16572368144989014,-0.008513258770108223
0.3833333333333333,0.018884271383285522,0.12581557035446167,0.0,0.907582700252533,0.0,0.0,-0.4198733866214752,-0.8280000686645508,-0.6704845428466797,0.0,0.0,0.0,-4.267193794250488,-0.36862799525260925,0.7469010353088379,0.420331209897995,0.9803614020347595,0.008254938758909702,-0.001492744660936296,-0.1970304548740387,0.4891708493232727,0.4722622036933899,0.014254642650485039,0.7796609401702881,-0.3025418817996979,-18.562437057495117,-0.37849509716033936,0.7531181573867798,0.420259952545166,0.6318348050117493,0.6471759080886841,0.031407542526721954,0.4115910530090332,0.6652317047119141,0.42000001668930054,-0.4703051745891571,3.0000016689300537,-0.8245123028755188,-2.999680995941162,-0.15966498851776123,-0.16698481142520905,-0.17242319881916046,-0.1758233606815338,-0.5998536944389343,-0.42177504301071167,-0.22171097993850708,-3.160691903758561e-07
0.4,0.009400904178619385,0.11207602173089981,0.0,0.882826566696167,0.0,0.0,-0.4696991443634033,-0.5251058340072632,-0.8706557154655457,0.0,0.0,0.0,-7.450160026550293,-0.3524572253227234,0.7628123164176941,0.4221399426460266,0.9725122451782227,-0.0022068978287279606,-0.024164672940969467,-0.2315835952758789,2.122779607772827,0.9371841549873352,0.44824743270874023,-1.6947532892227173,-6.445058822631836,-3.514453887939453,-0.36205407977104187,0.7675265073776245,0.4218783974647522,1.4410102367401123,1.1442927122116089,0.1554182767868042,0.4115910530090332,0.6652317047119141,0.42000001668930054,-0.4202987849712372,2.9999277591705322,-0.874557614326477,-2.9997315406799316,-0.1682354360818863,-0.17241661250591278,-0.1743287742137909,-0.17383894324302673,-0.570643961429596,-0.3453257977962494,-0.09943409264087677,0.16388195753097534
0.4166666666666667,0.0038261250592768192,0.09553726762533188,0.0,0.8433442711830139,0.0,0.0,-0.5373736023902893,-0.26386702060699463,-1.049846887588501,0.0,0.0,0.0,-10.1277437210083,-0.3047340512275696,0.7896604537963867,0.42655280232429504,0.9581326246261597,0.01763986237347126,-0.057778093963861465,-0.2798791229724884,4.134528160095215,2.2088544368743896,0.18448443710803986,23.80159568786621,-18.268991470336914,4.24307918548584,-0.3137057423591614,0.7962116003036499,0.42564839124679565,3.9551284313201904,2.212775707244873,0.3967280089855194,0.4115910530090332,0.6652317047119141,0.42000001668930054,-0.3885703980922699,1.0825082063674927,-0.8779539465904236,2.0941309928894043,-0.17994938790798187,-0.1794583648443222,-0.17651966214179993,-0.171095609664917,-0.7066953182220459,-0.4200459122657776,-0.12965810298919678,0.1579718440771103
0.43333333333333335,3.752879274543375e-05,0.08451011776924133,0.0,0.7847821116447449,0.0,0.0,-0.6197717189788818,-0.13293859362602234,-0.524131715297699,0.0,0.0,0.0,-12.914703369140625,-0.21406793594360352,0.8274232745170593,0.43372032046318054,0.9324548244476318,0.08758784830570221,-0.10183306783437729,-0.3353896141052246,7.051174640655518,2.0932488441467285,0.6233088374137878,8.882164001464844,-14.847129821777344,13.418299674987793,-0.22228160500526428,0.8356017470359802,0.43295255303382874,6.679250717163086,2.5752975940704346,0.5692086815834045,0.4115910530090332,0.6652317047119141,0.42000001668930054,-0.37098461389541626,1.0408613681793213,-0.8364927768707275,2.8183505535125732,-0.19587507843971252,-0.1931554526090622,-0.18445001542568207,-0.17340591549873352,-0.9044275283813477,-0.9022465348243713,-0.5928661227226257,-0.28139403462409973
0.45,-0.006178852170705795,0.07982809096574783,0.0,0.7346761226654053,0.0,0.0,-0.678417980670929,-0.32483354210853577,-0.3568052351474762,0.0,0.0,0.0,-7.693056583404541,-0.10729693621397018,0.8552790880203247,0.44583919644355774,0.8913971781730652,0.11391846835613251,-0.11414061486721039,-0.42356279492378235,6.546505928039551,0.5413981080055237,0.808815598487854,2.8469300270080566,-12.391404151916504,23.66861915588379,-0.11402945220470428,0.86649489402771,0.4450359046459198,6.520399570465088,1.4468746185302734,0.8247107267379761,0.4115910530090332,0.6652317047119141,0.42000001668930054,-0.3553104102611542,0.8276315331459045,-0.8646244406700134,-3.000001907348633,-0.2102011889219284,-0.20771005749702454,-0.19802486896514893,-0.18127645552158356,-0.5825755000114441,-0.6527548432350159,-0.658445417881012,-0.4021504521369934
0.4666666666666667,-0.014133033342659473,0.06707930564880371,0.0,0.7077677845954895,0.0,0.0,-0.7064451575279236,-0.555612325668335,-0.8987450003623962,0.0,0.0,0.0,-3.674765110015869,-0.0005433298647403717,0.8692502379417419,0.4584389626979828,0.8321165442466736,0.11923191696405411,-0.10097332298755646,-0.5321372747421265,6.190807819366455,-0.8225276470184326,0.4652685225009918,-6.19399356842041,1.6913341283798218,32.9654655456543,-0.007128243334591389,0.8819223642349243,0.45756012201309204,6.474578857421875,0.31822139024734497,0.9323909282684326,0.4115910530090332,0.6652317047119141,0.42000001668930054,-0.3418964445590973,0.5722813010215759,-0.9146484732627869,-3.000000238418579,-0.21678346395492554,-0.21429872512817383,-0.20389661192893982,-0.18301065266132355,-0.382754921913147,-0.3031284511089325,-0.1992824673652649,0.05791061744093895
0.48333333333333334,-0.01843413896858692,0.05919951573014259,0.0,0.7029398679733276,0.0,0.0,-0.7112492918968201,-0.1354152411222458,-0.31001293659210205,0.0,0.0,0.0,0.17908921837806702,0.09647457301616669,0.8606916069984436,0.46710479259490967,0.743026614189148,0.08446470648050308,-0.1300390660762787,-0.6510506272315979,4.940537929534912,-2.2235984802246094,0.44110679626464844,3.1873619556427,3.346491575241089,20.15669822692871,0.09024195373058319,0.8771020174026489,0.468963086605072,5.392789840698242,-0.812247633934021,0.6031622886657715,0.4115910530090332,0.6652317047119141,0.42000001668930054,-0.3341410756111145,0.1293327808380127,-0.9646725058555603,-2.999448537826538,-0.22974973917007446,-0.22383010387420654,-0.21005354821681976,-0.18425096571445465,-0.8449729681015015,-0.5974595546722412,-0.37003573775291443,-0.0936083272099495
0.5,-0.019756721332669258,0.04882916808128357,0.0,0.6900729537010193,0.0,0.0,-0.7237398028373718,-0.022280944511294365,-0.5942284464836121,0.0,0.0,0.0,-2.836243152618408,0.1740887314081192,0.8420575261116028,0.4723641872406006,0.6771118640899658,0.05900490656495094,-0.11435233801603317,-0.7245422005653381,3.896942615509033,-1.957028865814209,0.3932150602340698,-15.462447166442871,-1.5594230890274048,9.654614448547363,0.16987961530685425,0.8593342304229736,0.4746001660823822,4.461555480957031,-1.634493350982666,0.22871491312980652,0.4115910530090332,0.6652317047119141,0.42000001668930054,-0.33375418186187744,-0.23084957897663116,-1.0146958827972412,-2.999898672103882,-0.23623470962047577,-0.22741112112998962,-0.211052805185318,-0.18222224712371826,-0.489301472902298,-0.2600393295288086,-0.06440959870815277,0.12095575034618378
0.5166666666666666,-0.01797441951930523,0.043651022017002106,0.0,0.6900435090065002,0.0,0.0,-0.723767876625061,0.13301102817058563,-0.27009308338165283,0.0,0.0,0.0,0.8441842198371887,0.2393440157175064,0.8132258653640747,0.47349441051483154,0.6019048690795898,0.025601979345083237,-0.09440905600786209,-0.7925539612770081,3.4828603267669678,-2.075326681137085,-0.18261799216270447,2.4480841159820557,5.47255802154541,-10.359265327453613,0.2355695515871048,0.8279944062232971,0.47569411993026733,3.5882792472839355,-2.048758029937744,-0.06941652297973633,0.4115910530090332,0.6652317047119141,0.42000001668930054,-0.3331696391105652,0.484923392534256,-1.0647180080413818,-2.999081611633301,-0.23952573537826538,-0.23257671296596527,-0.21320953965187073,-0.18206940591335297,0.11967818439006805,-0.15037527680397034,-0.031211858615279198,0.026308458298444748
0.5333333333333333,-0.013713940978050232,0.03422783687710762,0.0,0.679169774055481,0.0,0.0,-0.733981192111969,0.27001601457595825,-0.6090168952941895,0.0,0.0,0.0,-2.6281447410583496,0.29297083616256714,0.7817041277885437,0.46618548035621643,0.5606392621994019,-0.006860519293695688,-0.08147523552179337,-0.8240134716033936,2.8002898693084717,-1.9571486711502075,-0.5724841952323914,-0.7865018844604492,7.763890266418457,-6.117347717285156,0.2907765805721283,0.7961753606796265,0.4692559242248535,2.973306655883789,-1.974210500717163,-0.5961834192276001,0.4115910530090332,0.6652317047119141,0.42000001668930054,-0.31493616104125977,1.4664419889450073,-1.1147401332855225,-2.9993717670440674,-0.23231884837150574,-0.2298353910446167,-0.20994850993156433,-0.17952057719230652,0.4783321022987366,0.2593214213848114,0.25534793734550476,0.16119490563869476
0.55,-0.00690170843154192,0.029103856533765793,0.0,0.6801484823226929,0.0,0.0,-0.7330743670463562,0.43349188566207886,-0.28151068091392517,0.0,0.0,0.0,0.9717528820037842,0.33586373925209045,0.7482640743255615,0.4545770585536957,0.5175124406814575,-0.041787900030612946,-0.0646052435040474,-0.8522092700004578,2.159473180770874,-2.9723074436187744,-0.5088900923728943,-0.1351831555366516,3.8869547843933105,13.688923835754395,0.3351558446884155,0.7616273760795593,0.45812296867370605,2.373784065246582,-1.996002197265625,-0.7683349847793579,0.4115910530090332,0.6652317047119141,0.42000001668930054,-0.29390037059783936,0.7455204129219055,-1.164762258529663,-3.0000033378601074,-0.22691525518894196,-0.22696280479431152,-0.2073330134153366,-0.17889800667762756,0.43387264013290405,0.2844868004322052,0.21044471859931946,0.03012814372777939
0.5666666666666667,-0.0015622193459421396,0.027098815888166428,0.0,0.6708095669746399,0.0,0.0,-0.7416296601295471,0.25392284989356995,-0.0532572977244854,0.0,0.0,0.0,-2.377134084701538,0.37073561549186707,0.7168582677841187,0.43722739815711975,0.48796525597572327,-0.0762767344713211,-0.05321338027715683,-0.8678939938545227,1.7020130157470703,-2.182882308959961,-1.0268144607543945,-5.6598896980285645,-0.1967180073261261,7.789588451385498,0.370035320520401,0.7298170328140259,0.4410015344619751,1.7328698635101318,-1.8092561960220337,-1.1712617874145508,0.4115910530090332,0.6652317047119141,0.42000001668930054,-0.2892363369464874,0.1216219961643219,-1.1932823657989502,-0.6111293435096741,-0.21807850897312164,-0.22086261212825775,-0.20354002714157104,-0.17909331619739532,0.5580995082855225,0.41025441884994507,0.24015428125858307,-0.030969547107815742
0.5833333333333334,0.004648702219128609,0.02114189974963665,0.0,0.6736279726028442,0.0,0.0,-0.7390705943107605,0.359308660030365,-0.3672410845756531,0.0,0.0,0.0,1.292015790939331,0.39030948281288147,0.6943216323852539,0.42611920833587646,0.4745628237724304,-0.12379126250743866,-0.03677308186888695,-0.8706971406936646,0.559661865234375,-0.7735440731048584,0.5719603896141052,19.263256072998047,-8.54049015045166,-0.23695720732212067,0.3902541995048523,0.7069412469863892,0.43104517459869385,0.5298267602920532,-0.8301841020584106,0.11263576149940491,0.4115910530090332,0.6652317047119141,0.42000001668930054,-0.2804935574531555,0.9357410669326782,-1.2386068105697632,-2.9916555881500244,-0.20489871501922607,-0.21044348180294037,-0.19685696065425873,-0.1777031123638153,0.7324865460395813,0.5938647985458374,0.36462926864624023,0.04581594094634056
0.6,0.01273615937680006,0.01931896060705185,0.0,0.6655750274658203,0.0,0.0,-0.7463309168815613,0.530083417892456,-0.09523801505565643,0.0,0.0,0.0,-2.1045479774475098,0.39895734190940857,0.6844409108161926,0.42485499382019043,0.4998089075088501,-0.10437382012605667,-0.02425622008740902,-0.859481692314148,0.49034005403518677,-0.5151994824409485,-0.08377988636493683,3.917128086090088,-2.8391618728637695,13.524459838867188,0.3975588083267212,0.6965659260749817,0.42986249923706055,0.31374800205230713,-0.44206702709198,-0.08588583767414093,0.4115910530090332,0.6652317047119141,0.42000001668930054,-0.2798306941986084,-0.6795564889907837,-1.200541615486145,2.993797540664673,-0.1942083090543747,-0.20181526243686676,-0.1921606957912445,-0.1782846599817276,0.7162086367607117,0.5881039500236511,0.33164405822753906,0.004211587831377983
0.6166666666666667,0.018522458150982857,0.01671573892235756,0.0,0.6697846055030823,0.0,0.0,-0.7425554394721985,0.29516059160232544,-0.15074118971824646,0.0,0.0,0.0,1.5137110948562622,0.403493195772171,0.6767738461494446,0.42308107018470764,0.5250080823898315,-0.06843724846839905,-0.035797618329524994,-0.8475856184959412,0.12771427631378174,-0.4440932869911194,-0.11746831983327866,0.09476800262928009,-4.827877521514893,2.748945474624634,0.40038180351257324,0.6885213851928711,0.4311653971672058,0.028611961752176285,-0.4775751829147339,0.1445435732603073,0.4115910530090332,0.6652317047119141,0.42000001668930054,-0.3207513689994812,-2.9999773502349854,-1.221665859222412,-2.9993460178375244,-0.18354834616184235,-0.19245387613773346,-0.1865035593509674,-0.17745907604694366,0.5126854181289673,0.4835979640483856,0.2966379225254059,0.04393329098820686
0.6333333333333333,0.02470380999147892,0.017116764560341835,0.0,0.6630021333694458,0.0,0.0,-0.7486175298690796,0.4017055928707123,0.07846669852733612,0.0,0.0,0.0,-1.9738210439682007,0.4042489230632782,0.6718991994857788,0.4213559329509735,0.5431752800941467,-0.02550642192363739,-0.0065092844888567924,-0.8392065167427063,0.14416439831256866,-0.035963986068964005,0.11768697202205658,5.713146209716797,6.286952972412109,0.12452095746994019,0.4021032452583313,0.6865103244781494,0.43337899446487427,0.19445094466209412,0.03759070485830307,0.13339374959468842,0.4115910530090332,0.6652317047119141,0.42000001668930054,-0.34990817308425903,-0.7205955982208252,-1.2716137170791626,-2.9993326663970947,-0.17442411184310913,-0.1842869371175766,-0.18186521530151367,-0.17718490958213806,0.6106538772583008,0.5405799746513367,0.3163470923900604,0.05120956525206566
0.65,0.03287457674741745,0.014179389923810959,0.0,0.668231725692749,0.0,0.0,-0.7439531683921814,0.5198198556900024,-0.18846581876277924,0.0,0.0,0.0,1.6908292770385742,0.40639206767082214,0.6710444092750549,0.4219913184642792,0.5434286594390869,-0.028063736855983734,0.043817467987537384,-0.8378410339355469,0.0607968233525753,-0.03479306027293205,0.0066109006293118,0.04606560990214348,0.6259338855743408,-4.388307571411133,0.40162426233291626,0.6860556602478027,0.43322673439979553,-0.2048407942056656,-0.07504679262638092,-0.05168001726269722,0.4115910530090332,0.6652317047119141,0.42000001668930054,-0.39263075590133667,-2.99998140335083,-1.245768427848816,2.999887704849243,-0.1640234887599945,-0.17457211017608643,-0.17544366419315338,-0.17470891773700714,0.42907628417015076,0.4440566897392273,0.30096864700317383,0.11815831810235977
0.6666666666666666,0.043006714433431625,0.014973597601056099,0.0,0.6621887683868408,0.0,0.0,-0.7493370771408081,0.6309464573860168,0.0776936262845993,0.0,0.0,0.0,-1.9696364402770996,0.40610113739967346,0.671265721321106,0.42135873436927795,0.545509934425354,-0.019164759665727615,0.029386775568127632,-0.8373696208000183,-0.015415827743709087,0.01905869133770466,-0.0488017275929451,-1.099941372871399,-2.4670157432556152,0.3878136873245239,0.40113916993141174,0.68708336353302,0.4354237914085388,0.03634653240442276,0.14530357718467712,0.2278388887643814,0.4115910530090332,0.6652317047119141,0.42000001668930054,-0.44261634349823,-2.998687744140625,-1.2658663988113403,-2.9994614124298096,-0.15747888386249542,-0.16800235211849213,-0.17128245532512665,-0.17343172430992126,0.48164618015289307,0.46083828806877136,0.30429792404174805,0.12782272696495056
0.6833333333333333,0.054949671030044556,0.011966281570494175,0.0,0.6676540970802307,0.0,0.0,-0.7444716095924377,0.7437799572944641,-0.19089172780513763,0.0,0.0,0.0,1.7673338651657104,0.4051536023616791,0.6718226075172424,0.4200187921524048,0.5466606020927429,-8.272221020888537e-05,-0.00015708072169218212,-0.8373542428016663,-0.027433741837739944,-0.01900855079293251,-0.01244470477104187,0.5532906651496887,-0.47148266434669495,-1.1209518909454346,0.4013776183128357,0.6890341639518738,0.44139161705970764,-0.045971352607011795,0.04390832781791687,0.524751603603363,0.4115910530090332,0.6652317047119141,0.42000001668930054,-0.49262872338294983,-3.0000007152557373,-1.315885066986084,-3.0000007152557373,-0.14970985054969788,-0.16000626981258392,-0.16512632369995117,-0.16934499144554138,0.2501058578491211,0.3241683542728424,0.2835712134838104,0.23170289397239685
0.7,0.0641414001584053,0.007136580068618059,0.0,0.6617263555526733,0.0,0.0,-0.7497454285621643,0.4536128342151642,-0.42454954981803894,0.0,0.0,0.0,-1.8173896074295044,0.40515416860580444,0.6718158721923828,0.42000001668930054,0.546660840511322,-3.1578319976688363e-06,-4.902994533040328e-06,-0.8373541235923767,-4.1306142520625144e-05,-0.00021394400391727686,-9.218207560479641e-05,0.0024442600551992655,-0.004804626107215881,-0.0008144029416143894,0.4053853452205658,0.6876051425933838,0.44738373160362244,0.48451918363571167,-0.18801158666610718,0.35544365644454956,0.4115910530090332,0.6652317047119141,0.42000001668930054,-0.542641282081604,-2.9999990463256836,-1.365903377532959,-3.000000476837158,-0.14810685813426971,-0.1564260870218277,-0.16123239696025848,-0.16521593928337097,0.06030317023396492,0.202855184674263,0.2592836320400238,0.3168639838695526
0.7166666666666667,0.07435084134340286,0.0056484476663172245,0.0,0.6339761018753052,0.0,0.0,-0.7733526229858398,0.6082000136375427,-0.041990794241428375,0.0,0.0,0.0,-5.2179789543151855,0.40515419840812683,0.671815812587738,0.41999998688697815,0.5466609001159668,-3.224822194169974e-06,-3.7553277252300177e-06,-0.8373540639877319,-3.478588769212365e-05,-0.00032648039632476866,-9.204074740409851e-05,0.008560152724385262,-0.0035118786618113518,-0.0007528262794949114,0.4169788956642151,0.6848964691162109,0.46181565523147583,0.9883923530578613,-0.046851396560668945,1.4515345096588135,0.4115910530090332,0.6652317047119141,0.42000001668930054,-0.5926526784896851,-2.9999823570251465,-1.415921688079834,-2.999999761581421,-0.15257953107357025,-0.1580594778060913,-0.16128133237361908,-0.16363310813903809,-0.2453991025686264,-0.10008414089679718,-0.01670096628367901,0.0752103179693222
0.7333333333333333,0.08629346638917923,0.006998263765126467,0.0,0.6211611032485962,0.0,0.0,-0.7836828827857971,0.7549015879631042,0.12599992752075195,0.0,0.0,0.0,-0.945271909236908,0.40515419840812683,0.6718158721923828,0.41999998688697815,0.5466609597206116,-3.269268290750915e-06,-3.852596364595229e-06,-0.8373540043830872,-3.48044304701034e-05,-0.0003272154717706144,-9.227427653968334e-05,0.008578349836170673,-0.0035228757187724113,-0.0007549754227511585,0.43553102016448975,0.6884682178497314,0.4911503791809082,1.1908619403839111,0.42365115880966187,2.043053150177002,0.4115910530090332,0.6652317047119141,0.42000001668930054,-0.6157048344612122,-0.007208184339106083,-1.465939998626709,-2.999999523162842,-0.1560095101594925,-0.15988542139530182,-0.16235153377056122,-0.1637578010559082,-0.1502077728509903,-0.09476803243160248,-0.08201812952756882,-0.05703762546181679
0.75,0.09463344514369965,0.0029758091550320387,0.0,0.6333692669868469,0.0,0.0,-0.7738497257232666,0.4993373453617096,-0.29539355635643005,0.0,0.0,0.0,2.5582971572875977,0.40515419840812683,0.6718158721923828,0.41999998688697815,0.5466607213020325,-3.250502459195559e-06,-3.947202458221e-06,-0.8373541235923767,-3.602873766794801e-05,-0.000327173009281978,-9.264773689210415e-05,0.00857519917190075,-0.0035314748529344797,-0.0007525281398557127,0.45530712604522705,0.6962975263595581,0.5185235738754272,1.0914313793182373,0.3204858601093292,1.278754711151123,0.4115910530090332,0.6652317047119141,0.42000001668930054,-0.5923959016799927,2.5648767948150635,-1.4324710369110107,2.999999523162842,-0.15263774991035461,-0.15617652237415314,-0.15891921520233154,-0.16042661666870117,0.019614113494753838,0.09091688692569733,0.12568511068820953,0.1622081995010376
0.7666666666666666,0.10002288967370987,0.0026509216986596584,0.0,0.6318856477737427,0.0,0.0,-0.7750616073608398,0.25465044379234314,0.021696295589208603,0.0,0.0,0.0,-1.164130449295044,0.40515419840812683,0.6718158721923828,0.41999998688697815,0.546660840511322,-3.2565021683694795e-06,-3.825758994935313e-06,-0.8373540043830872,-3.588534673326649e-05,-0.0003271462337579578,-9.258463978767395e-05,0.008574958890676498,-0.003530156332999468,-0.0007526787812821567,0.46653443574905396,0.7010700106620789,0.5353592038154602,0.34543174505233765,0.30192431807518005,0.8933656215667725,0.4115910530090332,0.6652317047119141,0.42000001668930054,-0.5600274205207825,1.3945680856704712,-1.3824336528778076,2.999999761581421,-0.1554374098777771,-0.15748506784439087,-0.1592911332845688,-0.159913569688797,-0.11054886877536774,-0.04168440029025078,3.6670826375484467e-08,0.03558221086859703
0.7833333333333333,0.1016438901424408,0.002652635332196951,0.0,0.6413209438323975,0.0,0.0,-0.7672727108001709,0.04768122360110283,-0.011552274227142334,0.0,0.0,0.0,2.2990269660949707,0.40515419840812683,0.6718158721923828,0.41999998688697815,0.5466609597206116,-3.2324869607691653e-06,-3.918863512808457e-06,-0.8373539447784424,-3.61979691660963e-05,-0.00032714326516725123,-9.270082227885723e-05,0.00857372023165226,-0.003531555412337184,-0.0007521309307776392,0.46829408407211304,0.7043962478637695,0.5476810932159424,-0.12642993032932281,0.18015605211257935,0.6339030265808105,0.4115910530090332,0.6652317047119141,0.42000001668930054,-0.5394951105117798,1.0788302421569824,-1.400863528251648,-3.0,-0.15835346281528473,-0.15888074040412903,-0.15957587957382202,-0.15925532579421997,-0.16436919569969177,-0.07365147024393082,-0.004212696570903063,0.053301576524972916
0.8,0.10067504644393921,0.0019614212214946747,0.0,0.63738614320755,0.0,0.0,-0.7705445289611816,-0.09898652881383896,-0.07315976172685623,0.0,0.0,0.0,-1.555045247077942,0.40515419840812683,0.671815812587738,0.41999998688697815,0.5466609597206116,-3.2694783840270247e-06,-3.730475555130397e-06,-0.8373540043830872,-3.4762571885949e-05,-0.00032717519206926227,-9.223911911249161e-05,0.008577777072787285,-0.003521667793393135,-0.0007548878202214837,0.461417019367218,0.7073100805282593,0.550896167755127,-0.6769036054611206,0.16881904006004333,-0.04957644268870354,0.4115910530090332,0.6652317047119141,0.42000001668930054,-0.5269597172737122,0.467022567987442,-1.3624190092086792,2.999999523162842,-0.16154104471206665,-0.1606227606534958,-0.16015368700027466,-0.15887267887592316,-0.17533114552497864,-0.09272494167089462,-0.024051114916801453,0.03146405145525932
0.8166666666666667,0.10118341445922852,0.0029312835540622473,0.0,0.642754077911377,0.0,0.0,-0.7660725712776184,0.07716229557991028,0.12471383064985275,0.0,0.0,0.0,1.5786939859390259,0.40515419840812683,0.6718158721923828,0.41999998688697815,0.5466607809066772,-3.2517611998628126e-06,-3.860405286104651e-06,-0.8373540639877319,-3.6568879295373335e-05,-0.0003271434979978949,-9.28191002458334e-05,0.008572965860366821,-0.0035329798702150583,-0.0007514235912822187,0.45061156153678894,0.7116600871086121,0.5499515533447266,-0.640386700630188,0.342690110206604,-0.01446564868092537,0.4115910530090332,0.6652317047119141,0.42000001668930054,-0.511858344078064,1.2637386322021484,-1.3812204599380493,-2.999999761581421,-0.16307392716407776,-0.1614944338798523,-0.16040900349617004,-0.15859633684158325,-0.03348623588681221,-0.020883386954665184,-0.004126384854316711,0.011956253089010715
0.8333333333333334,0.10345476120710373,0.0018082383321598172,0.0,0.636715292930603,0.0,0.0,-0.7710989713668823,0.19698087871074677,-0.12250757962465286,0.0,0.0,0.0,-1.8097808361053467,0.40515419840812683,0.6718158721923828,0.41999998688697815,0.5466607213020325,-3.261275196564384e-06,-3.863403435389046e-06,-0.8373541235923767,-3.520479003782384e-05,-0.00032717789872549474,-9.241141378879547e-05,0.00857611745595932,-0.0035236203111708164,-0.0007538428762927651,0.4402387738227844,0.7160780429840088,0.5452399253845215,-0.6059151887893677,0.15803945064544678,-0.367231547832489,0.4115910530090332,0.6652317047119141,0.42000001668930054,-0.5323882102966309,-3.0000009536743164,-1.3428292274475098,3.000000238418579,-0.16353093087673187,-0.16172297298908234,-0.16025270521640778,-0.15802088379859924,-0.06661457568407059,-0.038642507046461105,-7.532071322202682e-08,0.04335181415081024
0.85,0.1085442453622818,0.002358752768486738,0.0,0.6426736116409302,0.0,0.0,-0.7661401033401489,0.33098843693733215,0.11151307821273804,0.0,0.0,0.0,1.8081274032592773,0.40515419840812683,0.6718158721923828,0.41999998688697815,0.546660840511322,-3.254767534599523e-06,-3.947576260543428e-06,-0.8373540639877319,-3.602759534260258e-05,-0.00032716026180423796,-9.264331310987473e-05,0.008574781008064747,-0.0035311405081301928,-0.0007524923421442509,0.4349468946456909,0.7181487083435059,0.5421420335769653,-0.026217423379421234,0.1477264016866684,0.01001635193824768,0.4115910530090332,0.6652317047119141,0.42000001668930054,-0.5665051341056824,-1.219656229019165,-1.3619853258132935,-2.9999988079071045,-0.16571518778800964,-0.16325092315673828,-0.1608371138572693,-0.15751725435256958,-0.08844610303640366,-0.06221581622958183,-0.011750719510018826,0.0529930479824543
0.8666666666666667,0.11516954004764557,0.0006183443474583328,0.0,0.6368855834007263,0.0,0.0,-0.7709583044052124,0.42721912264823914,-0.15747326612472534,0.0,0.0,0.0,-1.8360780477523804,0.40515419840812683,0.6718158721923828,0.41999998688697815,0.5466609597206116,-3.2607820230623474e-06,-3.8261946428974625e-06,-0.8373539447784424,-3.588650724850595e-05,-0.0003271475143264979,-9.258580394089222e-05,0.008574975654482841,-0.0035301130264997482,-0.0007526828558184206,0.43589651584625244,0.7187516689300537,0.5387043952941895,0.11401017010211945,-0.12025859951972961,-0.2417186051607132,0.4115910530090332,0.6652317047119141,0.42000001668930054,-0.6065664887428284,-2.999939441680908,-1.3597385883331299,2.767765522003174,-0.16651056706905365,-0.16351854801177979,-0.16013503074645996,-0.15559130907058716,-0.09272576123476028,-0.03547912463545799,0.04732256010174751,0.14310091733932495
0.8833333333333333,0.1243889331817627,-0.0011928080348297954,0.0,0.6087262034416199,0.0,0.0,-0.7933803796768188,0.5839700698852539,-0.1435510665178299,0.0,0.0,0.0,-5.25106143951416,0.40515419840812683,0.6718158721923828,0.41999998688697815,0.5466607809066772,-3.276403276686324e-06,-3.867353825626196e-06,-0.8373541831970215,-3.284151171101257e-05,-0.0003273620386607945,-9.170058183372021e-05,0.00858570821583271,-0.0035138758830726147,-0.0007589192246086895,0.4431740343570709,0.7155860662460327,0.537988543510437,0.7729014158248901,-0.20204496383666992,0.29419848322868347,0.4115910530090332,0.6652317047119141,0.42000001668930054,-0.644212007522583,-1.6065692901611328,-1.3808798789978027,-2.999995470046997,-0.1699737310409546,-0.16594642400741577,-0.1611165553331375,-0.15493358671665192,-0.15512047708034515,-0.11222381889820099,-0.04427044838666916,0.03594883158802986
0.9,0.13135866820812225,-0.0015194624429568648,0.0,0.5954760909080505,0.0,0.0,-0.8033729791641235,0.336620569229126,0.03320698067545891,0.0,0.0,0.0,-0.9594934582710266,0.40515419840812683,0.6718158721923828,0.41999998688697815,0.546660840511322,-3.256626996517298e-06,-3.7694435377488844e-06,-0.8373540043830872,-3.6056437238585204e-05,-0.0003271698660682887,-9.265006519854069e-05,0.00857523176819086,-0.0035310920793563128,-0.0007524214452132583,0.45462125539779663,0.715534508228302,0.5449070930480957,0.5746257305145264,0.15823368728160858,0.48832404613494873,0.4115910530090332,0.6652317047119141,0.42000001668930054,-0.6421663761138916,1.5735158920288086,-1.4308981895446777,-3.000000238418579,-0.171638622879982,-0.16738012433052063,-0.16198647022247314,-0.15510956943035126,-0.024424713104963303,-0.04174268990755081,-0.04461248219013214,-0.043995436280965805
