vladlanda/robotic-transformer/data/env_000_episode_0073.csv
sim_time_s,robot_box_x,robot_box_y,robot_box_z,robot_box_quat_w,robot_box_quat_x,robot_box_quat_y,robot_box_quat_z,robot_box_linvel_x,robot_box_linvel_y,robot_box_linvel_z,robot_box_angvel_x,robot_box_angvel_y,robot_box_angvel_z,cube_world_x,cube_world_y,cube_world_z,cube_quat_w,cube_quat_x,cube_quat_y,cube_quat_z,cube_linvel_x,cube_linvel_y,cube_linvel_z,cube_angvel_x,cube_angvel_y,cube_angvel_z,endpoint_world_x,endpoint_world_y,endpoint_world_z,endpoint_linvel_x,endpoint_linvel_y,endpoint_linvel_z,target_cube_world_x,target_cube_world_y,target_cube_world_z,gripper_actual_pos_rad_gp_leftgearjoint,gripper_actual_vel_rad_s_gp_leftgearjoint,gripper_actual_pos_rad_gp_rotatingjoint,gripper_actual_vel_rad_s_gp_rotatingjoint,motor_angle_rad_joint1,motor_angle_rad_joint2,motor_angle_rad_joint3,motor_angle_rad_joint4,motor_speed_rad_s_joint1,motor_speed_rad_s_joint2,motor_speed_rad_s_joint3,motor_speed_rad_s_joint4
0.0,0.0,0.0,0.0,1.0,0.0,0.0,0.0,0.0,0.0,0.0,0.0,0.0,0.0,-0.423088014125824,0.7494253516197205,0.41999998688697815,1.0,0.0,0.0,0.0,0.0,0.0,0.0,0.0,0.0,0.0,3.42540442943573e-06,-0.005000244826078415,1.313499927520752,0.0,0.0,0.0,0.34601089358329773,0.6759636998176575,0.42000001668930054,-1.5707999467849731,0.0,0.0,0.0,0.0,0.0,0.0,0.0,0.0,0.0,0.0,0.0
0.016666666666666666,0.0028778850100934505,0.0021806680597364902,0.0,0.9998081922531128,0.0,0.0,0.019586581736803055,0.24087215960025787,0.18240931630134583,0.0,0.0,0.0,3.1418697834014893,-0.4230881333351135,0.7494250535964966,0.41999998688697815,1.0,3.279964630564791e-06,-8.339746386809566e-07,8.465587342243452e-08,-1.9833529222523794e-05,0.00017983045836444944,-6.132945418357849e-05,0.0009432713268324733,-0.004689474124461412,-0.00031981561915017664,-0.007110234349966049,0.003379564033821225,1.3159373998641968,-0.8143353462219238,0.9868683815002441,0.18095196783542633,0.34601089358329773,0.6759636998176575,0.42000001668930054,-1.5301095247268677,3.0000011920928955,-0.04584788903594017,-2.9999992847442627,0.0008691533003002405,0.0007963840034790337,0.0007110277656465769,0.0006108740926720202,0.11094217747449875,0.09756709635257721,0.08334315568208694,0.06823883205652237
0.03333333333333333,0.008960987441241741,0.006801987066864967,0.0,0.9997960329055786,0.0,0.0,0.020196836441755295,0.40702202916145325,0.315308153629303,0.0,0.0,0.0,-0.869132399559021,-0.4230882525444031,0.7494249939918518,0.4200000464916229,1.0,3.3908477234945167e-06,-2.1324151475710096e-06,-3.7116176798690503e-08,0.00026357846218161285,0.0002693776914384216,-0.00010509602725505829,-0.0017706857761368155,0.004130810499191284,-0.0001354778796667233,-0.027553241699934006,0.026206009089946747,1.3165948390960693,-1.591402530670166,1.616014003753662,-0.08518785983324051,0.34601089358329773,0.6759636998176575,0.42000001668930054,-1.4800903797149658,3.00000262260437,-0.09588771313428879,-3.0000009536743164,0.0029901054222136736,0.002652715425938368,0.002277284860610962,0.0018607400124892592,0.16421546041965485,0.13975907862186432,0.11381807178258896,0.08630019426345825
0.05,0.01753639616072178,0.013726389966905117,0.0,0.9994519352912903,0.0,0.0,0.033102650195360184,0.587074875831604,0.46314045786857605,0.0,0.0,0.0,2.6909914016723633,-0.42308828234672546,0.7494250535964966,0.4200000464916229,1.0,3.765178917092271e-06,-2.2119245386420516e-06,5.606314079642516e-09,0.00026530868490226567,0.0002669158566277474,-0.0001044049859046936,-0.0017243095207959414,0.004177443217486143,-0.00012949752272106707,-0.05954723432660103,0.05435316264629364,1.3115086555480957,-2.1854984760284424,1.7738475799560547,-0.4817163646221161,0.34601089358329773,0.6759636998176575,0.42000001668930054,-1.4300720691680908,3.000002384185791,-0.145926371216774,-2.999999523162842,0.005627879872918129,0.004840069450438023,0.003980192821472883,0.003043719567358494,0.1909678876399994,0.1541091799736023,0.11538694053888321,0.07470717281103134
0.06666666666666667,0.02874556928873062,0.02298634499311447,0.0,0.9995089769363403,0.0,0.0,0.03133459761738777,0.7140244245529175,0.5933193564414978,0.0,0.0,0.0,-1.170302152633667,-0.42308828234672546,0.7494249939918518,0.4200000464916229,0.9999999403953552,3.406791165616596e-06,-2.2856313535157824e-06,4.300777334265149e-07,0.00026702677132561803,0.00026791825075633824,-0.0001043803058564663,-0.0017406195402145386,0.00421179411932826,-0.00012850826897192746,-0.09502045810222626,0.08971718698740005,1.2999331951141357,-2.1149754524230957,2.34525203704834,-0.8812695145606995,0.34601089358329773,0.6759636998176575,0.42000001668930054,-1.3800537586212158,3.0000014305114746,-0.19595597684383392,-3.0000016689300537,0.007865624502301216,0.00627174274995923,0.004566794726997614,0.0027460285928100348,0.11199939996004105,0.0488290898501873,-0.01640678197145462,-0.08378525078296661
0.08333333333333333,0.03401912748813629,0.03561442345380783,0.0,0.9999985694885254,0.0,0.0,-0.001682877540588379,0.18456590175628662,0.8243973255157471,0.0,0.0,0.0,-4.894766330718994,-0.42308828234672546,0.7494249939918518,0.4200000464916229,0.9999999403953552,3.6260698834666982e-06,-2.335327053515357e-06,3.032084521237266e-07,0.00026613925001583993,0.00026685016928240657,-0.00010405108332633972,-0.001728382776491344,0.004196322523057461,-0.00012790641630999744,-0.1281115710735321,0.13277430832386017,1.281793236732483,-1.905931830406189,2.694216728210449,-1.2101759910583496,0.34601089358329773,0.6759636998176575,0.42000001668930054,-1.330030083656311,2.9999966621398926,-0.16219237446784973,3.0000009536743164,0.004060752689838409,0.001718552433885634,-0.0007862712955102324,-0.0034626030828803778,-0.32862359285354614,-0.3785947561264038,-0.43115755915641785,-0.4865889549255371
0.1,0.04410171136260033,0.049720391631126404,0.0,0.9993334412574768,0.0,0.0,-0.03650505840778351,0.7123531699180603,0.8677361011505127,0.0,0.0,0.0,-3.8775391578674316,-0.42308828234672546,0.7494249939918518,0.4200000464916229,1.0,3.4221220630570315e-06,-2.308592684130417e-06,1.7961252751774737e-07,0.0002668163215275854,0.00026800521300174296,-0.00010440708138048649,-0.0017430817242711782,0.0042070625349879265,-0.00012890611833427101,-0.1600695103406906,0.17648634314537048,1.264298439025879,-1.8588895797729492,2.7224817276000977,-1.0170916318893433,0.34601089358329773,0.6759636998176575,0.42000001668930054,-1.2800371646881104,3.0000007152557373,-0.19390174746513367,-3.0,0.0039031358901411295,-0.00013295930693857372,-0.004326962865889072,-0.008686894550919533,-1.41095370054245e-07,-0.11145437508821487,-0.22123998403549194,-0.33002883195877075
0.11666666666666667,0.0515894815325737,0.06520798802375793,0.0,0.9986260533332825,0.0,0.0,-0.05240204557776451,0.41831523180007935,0.9841471910476685,0.0,0.0,0.0,-0.9080712795257568,-0.42308828234672546,0.7494250535964966,0.4200000464916229,1.0,3.7114953101990977e-06,-2.3327368126047077e-06,2.574126938270638e-07,0.0002648562949616462,0.0002663532504811883,-0.00010423408821225166,-0.0017183172749355435,0.004170157015323639,-0.0001291559310629964,-0.1933637112379074,0.22089797258377075,1.2466486692428589,-1.9642038345336914,2.824993133544922,-1.0177408456802368,0.34601089358329773,0.6759636998176575,0.42000001668930054,-1.2300175428390503,2.999986410140991,-0.1601133793592453,2.9999990463256836,0.0012291549937799573,-0.004596696235239506,-0.010545279830694199,-0.016634054481983185,-0.11607576161623001,-0.24000972509384155,-0.36037677526474,-0.4774801433086395
0.13333333333333333,0.05610907822847366,0.07871822267770767,0.0,0.9967239499092102,0.0,0.0,-0.08087866008281708,0.2158968597650528,0.7465161085128784,0.0,0.0,0.0,-4.247629642486572,-0.42308828234672546,0.7494249939918518,0.4200000464916229,0.9999999403953552,3.4247075291204965e-06,-2.30203545470431e-06,1.5598085667534178e-07,0.0002670704561751336,0.00026811397401615977,-0.00010444503277540207,-0.001743327477015555,0.004212008323520422,-0.00012877430708613247,-0.22322022914886475,0.2728583812713623,1.2281465530395508,-1.673486590385437,3.359940528869629,-1.2322354316711426,0.34601089358329773,0.6759636998176575,0.42000001668930054,-1.186541199684143,2.244652271270752,-0.19185492396354675,-3.0000009536743164,-0.0016368214273825288,-0.009541329927742481,-0.01749495603144169,-0.02551843971014023,-0.24326065182685852,-0.358761191368103,-0.469791442155838,-0.5764951705932617
0.15,0.05710534378886223,0.0931595042347908,0.0,0.9907737970352173,0.0,0.0,-0.13552603125572205,-0.002574825193732977,0.9165424108505249,0.0,0.0,0.0,-7.4211835861206055,-0.42308828234672546,0.7494249939918518,0.4200000464916229,1.0,3.7138861443963833e-06,-2.2079179871070664e-06,-1.691132354153524e-07,0.0002635323617141694,0.00026536022778600454,-0.00010421965271234512,-0.001701295142993331,0.0041441405192017555,-0.00012960679305251688,-0.25399768352508545,0.3324599266052246,1.2025606632232666,-1.8912104368209839,3.809433937072754,-1.8473560810089111,0.34601089358329773,0.6759636998176575,0.42000001668930054,-1.1552774906158447,1.5403990745544434,-0.15811282396316528,3.000000476837158,-0.007068330887705088,-0.016590440645813942,-0.026077426970005035,-0.03555181622505188,-0.39460963010787964,-0.4674113094806671,-0.5354206562042236,-0.5987763404846191
0.16666666666666666,0.06318067014217377,0.10467122495174408,0.0,0.9850966930389404,0.0,0.0,-0.17200163006782532,0.40578773617744446,0.6513020992279053,0.0,0.0,0.0,-3.2097666263580322,-0.42308828234672546,0.7494249939918518,0.4200000464916229,0.9999999403953552,3.6383873975864844e-06,-2.278850388393039e-06,2.7004381308870506e-07,0.0002668264205567539,0.00026750037795864046,-0.00010410160757601261,-0.001739899511449039,0.004210035782307386,-0.0001278175914194435,-0.29127877950668335,0.3929239809513092,1.1672496795654297,-2.158278226852417,3.891947031021118,-2.485682964324951,0.34601089358329773,0.6759636998176575,0.42000001668930054,-1.1137837171554565,3.0,-0.18982762098312378,-3.0000011920928955,-0.010829443112015724,-0.021508872509002686,-0.03207000344991684,-0.042538221925497055,-0.42029181122779846,-0.44791364669799805,-0.4728250801563263,-0.4952544569969177
0.18333333333333332,0.0643208846449852,0.1184258759021759,0.0,0.9754520058631897,0.0,0.0,-0.22021226584911346,0.05981823429465294,0.8056724071502686,0.0,0.0,0.0,-6.597009658813477,-0.42308828234672546,0.7494249939918518,0.4200000464916229,1.0,3.3864146189444e-06,-2.300287860634853e-06,1.4390711555734015e-07,0.0002667455992195755,0.0002678711898624897,-0.00010436843149363995,-0.0017411891603842378,0.004205980338156223,-0.00012878818961326033,-0.3257811665534973,0.45882415771484375,1.119099736213684,-1.8707144260406494,4.212540626525879,-3.1078834533691406,0.34601089358329773,0.6759636998176575,0.42000001668930054,-1.0666240453720093,2.6450603008270264,-0.23985619843006134,-3.000002145767212,-0.02372266910970211,-0.03447645157575607,-0.045031242072582245,-0.05515395849943161,-0.6814780831336975,-0.7224923372268677,-0.7529529929161072,-0.7413212060928345
0.2,0.06370530277490616,0.12905672192573547,0.0,0.9687536954879761,0.0,0.0,-0.24802471697330475,-0.053387392312288284,0.478059321641922,0.0,0.0,0.0,-2.369295358657837,-0.42308828234672546,0.7494250535964966,0.4200000464916229,1.0,3.6755382097908296e-06,-2.32657180276874e-06,2.211032636978416e-07,0.00026484476984478533,0.00026631413493305445,-0.00010421779006719589,-0.0017177412519231439,0.00416988180950284,-0.0001290992076974362,-0.359777569770813,0.5256147384643555,1.05794358253479,-1.8189644813537598,4.120379447937012,-4.1402788162231445,0.34601089358329773,0.6759636998176575,0.42000001668930054,-1.023956060409546,2.4552035331726074,-0.2898821234703064,-2.9999988079071045,-0.035707879811525345,-0.046539295464754105,-0.05703204125165939,-0.06653104722499847,-0.6979193687438965,-0.6825073957443237,-0.6605061888694763,-0.6119011044502258
0.21666666666666667,0.06381416320800781,0.13985878229141235,0.0,0.9574216604232788,0.0,0.0,-0.2886931300163269,0.009706413373351097,0.6940233707427979,0.0,0.0,0.0,-5.764078140258789,-0.42308828234672546,0.7494249939918518,0.4200000464916229,1.0,3.3222745514649432e-06,-2.208058276664815e-06,2.742532672073139e-07,0.0002666293294169009,0.000267496972810477,-0.0001042631920427084,-0.00173582520801574,0.004204846918582916,-0.0001283418241655454,-0.38816404342651367,0.5932856798171997,0.9820687174797058,-1.4312551021575928,4.034628391265869,-4.896176815032959,0.34601089358329773,0.6759636998176575,0.42000001668930054,-0.9746139049530029,2.999995708465576,-0.3399088382720947,-3.000001907348633,-0.0503276102244854,-0.060629986226558685,-0.07028137892484665,-0.07853059470653534,-0.9784181714057922,-0.9787293076515198,-0.9217793345451355,-0.8259749412536621
0.23333333333333334,0.0613488107919693,0.15158449113368988,0.0,0.9510531425476074,0.0,0.0,-0.3090273141860962,-0.21205776929855347,0.7434762716293335,0.0,0.0,0.0,-1.5168497562408447,-0.42308828234672546,0.7494249939918518,0.4200000464916229,1.0,3.656448598121642e-06,-2.3734667138342047e-06,-4.076868265201483e-07,0.00026611698558554053,0.00026726056239567697,-0.00010423315688967705,-0.0017334865406155586,0.004194590263068676,-0.00012855575187131763,-0.41360676288604736,0.6519876718521118,0.8934135437011719,-1.262392520904541,3.2677392959594727,-5.680888652801514,0.34601089358329773,0.6759636998176575,0.42000001668930054,-0.9246070384979248,2.999999523162842,-0.3899381160736084,-2.999998092651367,-0.06665021181106567,-0.0768241286277771,-0.0863380953669548,-0.09323552250862122,-0.9885956048965454,-0.990276038646698,-0.9791589379310608,-0.8874662518501282
0.25,0.06178336963057518,0.15985609591007233,0.0,0.9405662417411804,0.0,0.0,-0.3396103084087372,0.08451951295137405,0.4184693694114685,0.0,0.0,0.0,-4.603109359741211,-0.42308828234672546,0.7494250535964966,0.4200000464916229,1.0,3.630453193181893e-06,-2.2426670511777047e-06,1.1200068428252052e-08,0.00026680133305490017,0.0002670591638889164,-0.00010390859097242355,-0.0017341704806312919,0.004210620187222958,-0.0001270287175429985,-0.4325447678565979,0.7018109560012817,0.7917647361755371,-0.833594560623169,2.6438331604003906,-6.405226707458496,0.34601089358329773,0.6759636998176575,0.42000001668930054,-0.874596357345581,3.0,-0.4399692118167877,-2.9999990463256836,-0.08275412023067474,-0.09282851964235306,-0.10220977663993835,-0.10837379097938538,-0.9899281859397888,-0.9750206470489502,-0.9550585150718689,-0.9429081082344055
0.26666666666666666,0.058277253061532974,0.1671619862318039,0.0,0.93597012758255,0.0,0.0,-0.35207948088645935,-0.28504279255867004,0.39626842737197876,0.0,0.0,0.0,-0.6003210544586182,-0.4230882525444031,0.7494249939918518,0.4200000464916229,0.9999999403953552,3.7400968722067773e-06,-2.236321961390786e-06,4.4995121584179287e-07,0.00026479564257897437,0.0002667310182005167,-0.0001045397948473692,-0.0017189527861773968,0.0041666654869914055,-0.00013017236778978258,-0.44429710507392883,0.7309601306915283,0.6831740140914917,-0.38669276237487793,1.1265097856521606,-6.572534561157227,0.34601089358329773,0.6759636998176575,0.42000001668930054,-0.8245864510536194,2.9999966621398926,-0.4900008738040924,-3.000000476837158,-0.09984304010868073,-0.10976111888885498,-0.11901119351387024,-0.12508341670036316,-0.9900420308113098,-0.9890286326408386,-0.9870038032531738,-0.9866610765457153
0.2833333333333333,0.058452192693948746,0.17039820551872253,0.0,0.9268001317977905,0.0,0.0,-0.37555497884750366,0.052506234496831894,0.11091206222772598,0.0,0.0,0.0,-3.636950969696045,-0.42308828234672546,0.7494249939918518,0.4200000464916229,1.0,3.3916114716703305e-06,-2.2911938231118256e-06,1.2457824993816757e-07,0.00026677161804400384,0.0002678929013200104,-0.00010437355376780033,-0.001741260988637805,0.004206313751637936,-0.00012878593406639993,-0.4464374780654907,0.7457693815231323,0.5702432990074158,0.22520646452903748,0.4204733669757843,-6.785832405090332,0.34601089358329773,0.6759636998176575,0.42000001668930054,-0.7745776176452637,3.00000262260437,-0.5400314331054688,-3.000000238418579,-0.11605408042669296,-0.1259392648935318,-0.13517244160175323,-0.14126114547252655,-1.0075817108154297,-1.0057164430618286,-1.004293441772461,-1.0031613111495972
0.3,0.054736796766519547,0.17066451907157898,0.0,0.9264629483222961,0.0,0.0,-0.37638598680496216,-0.30796757340431213,-0.025770138949155807,0.0,0.0,0.0,0.8982276916503906,-0.42308828234672546,0.7494250535964966,0.4200000464916229,1.0,3.680698682728689e-06,-2.319141685802606e-06,2.0107165710214758e-07,0.00026479046209715307,0.00026625796454027295,-0.00010421173647046089,-0.0017169079510495067,0.004168956074863672,-0.00012909715587738901,-0.4398745894432068,0.7484581470489502,0.4663664400577545,0.6720376014709473,-0.0948505848646164,-5.779327392578125,0.34601089358329773,0.6759636998176575,0.42000001668930054,-0.7245690226554871,3.0000009536743164,-0.5900601744651794,-3.0000038146972656,-0.1338844895362854,-0.14350295066833496,-0.15254369378089905,-0.15848641097545624,-1.0202418565750122,-1.015335202217102,-1.0115890502929688,-1.0085837841033936
0.31666666666666665,0.04651838168501854,0.16901423037052155,0.0,0.9211485981941223,0.0,0.0,-0.38921114802360535,-0.5772084593772888,-0.12909077107906342,0.0,0.0,0.0,-2.6501364707946777,-0.42347046732902527,0.7479935884475708,0.42084333300590515,0.9997019171714783,0.021043702960014343,0.00020330617553554475,-0.012376327998936176,0.012742916122078896,0.0110623799264431,-0.021828483790159225,-1.046221137046814,0.039014142006635666,1.2694824934005737,-0.4328482151031494,0.7485687732696533,0.43127208948135376,0.03805365413427353,-0.05959847941994667,-0.0870213732123375,0.34601089358329773,0.6759636998176575,0.42000001668930054,-0.674631655216217,2.978487730026245,-0.6405778527259827,-2.859815835952759,-0.1438845694065094,-0.15395446121692657,-0.16324031352996826,-0.16917137801647186,-0.39366117119789124,-0.4077216684818268,-0.40163105726242065,-0.37508490681648254
0.3333333333333333,0.037648409605026245,0.16434143483638763,0.0,0.9219563603401184,0.0,0.0,-0.3872937858104706,-0.5544066429138184,-0.3336140215396881,0.0,0.0,0.0,1.1177265644073486,-0.42339199781417847,0.7486339211463928,0.42000269889831543,0.9999508857727051,-2.2942460418562405e-05,-0.0002224063646281138,-0.00990254245698452,0.01933743990957737,-0.010967469774186611,-0.005898545030504465,0.1370537430047989,0.03698493167757988,0.060026295483112335,-0.43463194370269775,0.7506495118141174,0.4296446442604065,-0.01758260652422905,-0.006695371121168137,-0.22275355458259583,0.34601089358329773,0.6759636998176575,0.42000001668930054,-0.6246247291564941,2.9999637603759766,-0.6906202435493469,-2.999997138977051,-0.1491842120885849,-0.15913347899913788,-0.16798079013824463,-0.17325352132320404,-0.37115511298179626,-0.3260779082775116,-0.26587557792663574,-0.20196306705474854
0.35,0.026841165497899055,0.15706562995910645,0.0,0.9167236089706421,0.0,0.0,-0.39952194690704346,-0.6941773295402527,-0.47711166739463806,0.0,0.0,0.0,-2.49790096282959,-0.4231836199760437,0.7488798499107361,0.4200018346309662,0.9999093413352966,-0.00018415132944937795,0.00014463363913819194,-0.013464154675602913,0.0847819522023201,0.05698573216795921,-0.004562993533909321,0.2092595398426056,0.02017068862915039,-5.697714328765869,-0.4331529140472412,0.7511131763458252,0.4263390302658081,0.1602887213230133,0.09404826909303665,-0.17134366929531097,0.34601089358329773,0.6759636998176575,0.42000001668930054,-0.574619710445404,2.9984395503997803,-0.7406772375106812,-2.999662160873413,-0.15611900389194489,-0.16501104831695557,-0.17256447672843933,-0.17656458914279938,-0.4279882609844208,-0.348922461271286,-0.2584902346134186,-0.1752559095621109
0.36666666666666664,0.013854408636689186,0.1474849432706833,0.0,0.9180325269699097,0.0,0.0,-0.39650508761405945,-0.8179606199264526,-0.6142446994781494,0.0,0.0,0.0,1.3291499614715576,-0.42120257019996643,0.7515568733215332,0.4200000762939453,0.9971637725830078,-5.367606945583248e-07,6.3454358496528585e-06,-0.07526162266731262,0.18971827626228333,0.30174803733825684,-8.385385444853455e-05,0.004603685345500708,-0.0006634962046518922,-12.225349426269531,-0.42860203981399536,0.7554686069488525,0.4236224889755249,0.3796013593673706,0.38682323694229126,-0.13629764318466187,0.34601089358329773,0.6759636998176575,0.42000001668930054,-0.5246147513389587,2.999979019165039,-0.7907186150550842,-3.0000011920928955,-0.16444209218025208,-0.1713428795337677,-0.17670151591300964,-0.17866431176662445,-0.49061456322669983,-0.3520255982875824,-0.20096078515052795,-0.06084023416042328
0.3833333333333333,-0.0010890053818002343,0.13559205830097198,0.0,0.9131607413291931,0.0,0.0,-0.40759962797164917,-0.9510514736175537,-0.7536603212356567,0.0,0.0,0.0,-2.3980419635772705,-0.4163125455379486,0.7584744691848755,0.4200136363506317,0.9833775758743286,0.00016995356418192387,0.00021022622240707278,-0.181571826338768,0.4487951397895813,0.5800303816795349,-0.0008228604565374553,0.23028920590877533,-0.4759581685066223,-3.57207989692688,-0.4203488230705261,0.761855959892273,0.42212575674057007,0.6337908506393433,0.4668067395687103,-0.0705932155251503,0.34601089358329773,0.6759636998176575,0.42000001668930054,-0.47461050748825073,3.0000007152557373,-0.8407677412033081,-2.9998767375946045,-0.17263205349445343,-0.1770210713148117,-0.1796145886182785,-0.1789693534374237,-0.4432746469974518,-0.2893281579017639,-0.11989244073629379,0.04001397266983986
0.4,-0.013470901176333427,0.12090606242418289,0.0,0.8960732817649841,0.0,0.0,-0.44390618801116943,-0.6686729192733765,-0.933796226978302,0.0,0.0,0.0,-5.658113479614258,-0.4043991267681122,0.7724098563194275,0.4205777943134308,0.9769641160964966,0.012469242326915264,-0.004056722391396761,-0.21300008893013,1.4759435653686523,0.8584993481636047,0.17348606884479523,-29.643104553222656,-9.000052452087402,-15.039947509765625,-0.4068477749824524,0.7736455798149109,0.42247533798217773,1.0038743019104004,1.003488540649414,0.09931699931621552,0.34601089358329773,0.6759636998176575,0.42000001668930054,-0.4246070683002472,2.9537174701690674,-0.8908191919326782,-2.993901014328003,-0.17919903993606567,-0.1810133159160614,-0.18070046603679657,-0.17723606526851654,-0.34163805842399597,-0.18657056987285614,-0.010363336652517319,0.16229026019573212
0.4166666666666667,-0.021717991679906845,0.10312523692846298,0.0,0.8645929098129272,0.0,0.0,-0.502472996711731,-0.42857399582862854,-1.121660590171814,0.0,0.0,0.0,-8.810918807983398,-0.37308740615844727,0.7960944771766663,0.42426007986068726,0.9635399580001831,0.010199935175478458,-0.03128640353679657,-0.2655332386493683,3.1062161922454834,2.0019469261169434,0.21548378467559814,25.899730682373047,-16.25926399230957,4.455514430999756,-0.37530243396759033,0.7982532978057861,0.4257383942604065,2.7758989334106445,1.9439465999603271,0.46885353326797485,0.34601089358329773,0.6759636998176575,0.42000001668930054,-0.387910395860672,1.1531569957733154,-0.9408420920372009,-3.0000011920928955,-0.18629422783851624,-0.18503853678703308,-0.1813638061285019,-0.17466141283512115,-0.4723148047924042,-0.26502594351768494,-0.04487592354416847,0.16364292800426483
0.43333333333333335,-0.02750500664114952,0.0909445509314537,0.0,0.8159929513931274,0.0,0.0,-0.5780618190765381,-0.30070623755455017,-0.5925682783126831,0.0,0.0,0.0,-11.549090385437012,-0.3015678822994232,0.8333369493484497,0.43122175335884094,0.9433144330978394,0.07371824234724045,-0.0723951905965805,-0.31540828943252563,5.912456035614014,2.2700610160827637,0.5302039980888367,19.334453582763672,-10.338379859924316,17.189172744750977,-0.30375587940216064,0.8358956575393677,0.4329293370246887,5.409183025360107,2.624976396560669,0.5806307196617126,0.34601089358329773,0.6759636998176575,0.42000001668930054,-0.3716546297073364,0.9278546571731567,-0.9034459590911865,2.9975366592407227,-0.20080210268497467,-0.1956266313791275,-0.18713301420211792,-0.1761593371629715,-0.8896675109863281,-0.7183037400245667,-0.4410751461982727,-0.20585821568965912
0.45,-0.03671317175030708,0.08609307557344437,0.0,0.7755157947540283,0.0,0.0,-0.6313281655311584,-0.667723536491394,-0.2673951983451843,0.0,0.0,0.0,-6.808977127075195,-0.21139055490493774,0.8673202991485596,0.4436118006706238,0.9052905440330505,0.11108611524105072,-0.08797209709882736,-0.4004620313644409,5.6379876136779785,1.2085477113723755,0.8546900153160095,3.984994411468506,-7.2672810554504395,8.791813850402832,-0.21323347091674805,0.8710218667984009,0.445157527923584,5.493110656738281,1.7242283821105957,0.8659569025039673,0.34601089358329773,0.6759636998176575,0.42000001668930054,-0.3548540472984314,1.0885728597640991,-0.9296461343765259,-3.000000476837158,-0.21533635258674622,-0.2103622555732727,-0.198451966047287,-0.18313756585121155,-0.7025231122970581,-0.7432777285575867,-0.6459951400756836,-0.4322079122066498
0.4666666666666667,-0.04132913053035736,0.07423542439937592,0.0,0.7554396390914917,0.0,0.0,-0.655218243598938,-0.15351954102516174,-0.8696010112762451,0.0,0.0,0.0,-2.717802047729492,-0.11480552703142166,0.8899739384651184,0.45469266176223755,0.8584588766098022,0.10963621735572815,-0.08407002687454224,-0.4939233660697937,6.124666690826416,0.13040588796138763,0.682891845703125,1.0410780906677246,-9.782803535461426,11.805768966674805,-0.11659220606088638,0.893439769744873,0.45673683285713196,6.078409194946289,0.7872797846794128,0.6931862235069275,0.34601089358329773,0.6759636998176575,0.42000001668930054,-0.3343488872051239,1.1956963539123535,-0.9796701073646545,-3.0000035762786865,-0.2208172231912613,-0.21614272892475128,-0.20270738005638123,-0.18424463272094727,-0.24335291981697083,-0.20110176503658295,-0.07812091708183289,0.12036728858947754
0.48333333333333334,-0.04716815799474716,0.06408266723155975,0.0,0.7271696329116821,0.0,0.0,-0.6864578127861023,-0.3853912651538849,-0.541574239730835,0.0,0.0,0.0,-5.811581611633301,-0.01352783665060997,0.8932391405105591,0.4641774296760559,0.783456027507782,0.10755248367786407,-0.08465022593736649,-0.606187641620636,5.933671951293945,-1.1880171298980713,0.5312268733978271,-18.586366653442383,5.664022445678711,10.058528900146484,-0.01682879403233528,0.8982372283935547,0.46664589643478394,6.153999328613281,-0.11377674341201782,0.6361918449401855,0.34601089358329773,0.6759636998176575,0.42000001668930054,-0.3167154788970947,0.7743040919303894,-1.0296930074691772,-2.999417543411255,-0.22733905911445618,-0.22112536430358887,-0.20531466603279114,-0.18363238871097565,-0.36830002069473267,-0.2600494921207428,-0.12636826932430267,0.03904524818062782
0.5,-0.05085457116365433,0.05404576286673546,0.0,0.7132219076156616,0.0,0.0,-0.7009382843971252,-0.15214091539382935,-0.6235538125038147,0.0,0.0,0.0,-1.3166455030441284,0.08229784667491913,0.8779731392860413,0.4697358310222626,0.7083203196525574,0.061043769121170044,-0.11221824586391449,-0.6942355632781982,5.14678955078125,-2.305631637573242,0.3460986316204071,-6.276460647583008,4.003211498260498,13.792762756347656,0.07835585623979568,0.8852695226669312,0.4742175340652466,5.544547080993652,-1.3793063163757324,0.34134578704833984,0.34601089358329773,0.6759636998176575,0.42000001668930054,-0.3069779872894287,0.39955300092697144,-1.0797151327133179,-3.000001907348633,-0.23681841790676117,-0.22726204991340637,-0.20827974379062653,-0.18344777822494507,-0.6006969213485718,-0.36256033182144165,-0.16140511631965637,0.015378805808722973
0.5166666666666666,-0.05519259721040726,0.04730294272303581,0.0,0.691573441028595,0.0,0.0,-0.7223061323165894,-0.32074934244155884,-0.34373101592063904,0.0,0.0,0.0,-4.48954963684082,0.16497161984443665,0.8470348119735718,0.46890711784362793,0.6477567553520203,0.008321775123476982,-0.11889085173606873,-0.752467155456543,4.166380405426025,-2.6046953201293945,-0.08070157468318939,-2.2392337322235107,8.382635116577148,13.27202033996582,0.16127392649650574,0.8568258881568909,0.4758373200893402,4.692928791046143,-2.0924501419067383,-0.08101418614387512,0.34601089358329773,0.6759636998176575,0.42000001668930054,-0.29953721165657043,0.478107750415802,-1.1297372579574585,-2.9990718364715576,-0.24000284075737,-0.2340186983346939,-0.21201181411743164,-0.18470759689807892,-0.0163264237344265,-0.3109942376613617,-0.1630319207906723,-0.05578988790512085
0.5333333333333333,-0.057805631309747696,0.03941971808671951,0.0,0.6826951503753662,0.0,0.0,-0.7307033538818359,-0.10907845199108124,-0.45571258664131165,0.0,0.0,0.0,-0.500616729259491,0.23252588510513306,0.8098744750022888,0.46397581696510315,0.5901301503181458,-0.029682358726859093,-0.08782636374235153,-0.801967442035675,3.575059413909912,-2.396592855453491,-0.3455874025821686,-4.509791851043701,4.948700904846191,-10.527152061462402,0.2299061268568039,0.8198179006576538,0.4713318943977356,3.56080961227417,-2.4692697525024414,-0.4215790629386902,0.34601089358329773,0.6759636998176575,0.42000001668930054,-0.28901800513267517,0.7579046487808228,-1.1797593832015991,-3.000001907348633,-0.23786045610904694,-0.2358216792345047,-0.21223393082618713,-0.1841661036014557,0.11475358158349991,-0.04904615506529808,0.01672016642987728,0.02398291602730751
0.55,-0.05733943730592728,0.03508045896887779,0.0,0.6656920313835144,0.0,0.0,-0.7462266087532043,0.09471683204174042,-0.20410491526126862,0.0,0.0,0.0,-3.602691173553467,0.2854019105434418,0.7715094685554504,0.45197921991348267,0.5504491329193115,-0.05559595674276352,-0.06330206245183945,-0.8306067585945129,2.772935390472412,-2.3407375812530518,-1.0901806354522705,5.157543182373047,4.801549911499023,-3.8977999687194824,0.28427356481552124,0.7816444635391235,0.4589012861251831,2.9288716316223145,-2.2658133506774902,-0.8916094899177551,0.34601089358329773,0.6759636998176575,0.42000001668930054,-0.2686816155910492,1.5913214683532715,-1.2297815084457397,-3.000001907348633,-0.23463687300682068,-0.23521439731121063,-0.21174874901771545,-0.18468829989433289,0.3086005747318268,0.16181336343288422,0.09250952303409576,-0.027133658528327942
0.5666666666666667,-0.053755056113004684,0.027490150183439255,0.0,0.6615849733352661,0.0,0.0,-0.7498701810836792,0.23088625073432922,-0.4579906463623047,0.0,0.0,0.0,0.2828400135040283,0.3265596032142639,0.7347055673599243,0.4344639778137207,0.5123338103294373,-0.08699437975883484,-0.04409198462963104,-0.8532302975654602,2.16517972946167,-2.7559187412261963,-1.029382586479187,-2.4658656120300293,-1.908489465713501,20.169578552246094,0.32579314708709717,0.7440031170845032,0.44159436225891113,1.913710117340088,-2.180004119873047,-1.0722755193710327,0.34601089358329773,0.6759636998176575,0.42000001668930054,-0.2602010667324066,-0.14196892082691193,-1.2468652725219727,0.6442235708236694,-0.2268609255552292,-0.22956877946853638,-0.2080853134393692,-0.1838553547859192,0.4370899796485901,0.34761837124824524,0.2079252153635025,0.0155250933021307
0.5833333333333334,-0.04772981256246567,0.023770509287714958,0.0,0.6480262875556946,0.0,0.0,-0.7616179585456848,0.4068436324596405,-0.18561547994613647,0.0,0.0,0.0,-2.958702802658081,0.3520890176296234,0.7079036235809326,0.4234881103038788,0.5051700472831726,-0.05951043963432312,0.013321619480848312,-0.8608624935150146,0.878029465675354,-1.1898422241210938,0.1099814623594284,-2.3677375316619873,3.640012741088867,7.072646617889404,0.35017821192741394,0.7154039740562439,0.4286506175994873,0.8102439641952515,-1.060921549797058,0.15302816033363342,0.34601089358329773,0.6759636998176575,0.42000001668930054,-0.2598592936992645,0.44490090012550354,-1.2856855392456055,-2.9988582134246826,-0.21921399235725403,-0.2236669361591339,-0.20535393059253693,-0.18494798243045807,0.5838532447814941,0.4598287045955658,0.2243315577507019,-0.03570568934082985
0.6,-0.04380108788609505,0.022931739687919617,0.0,0.6480140089988708,0.0,0.0,-0.7616284489631653,0.172853484749794,0.003025480080395937,0.0,0.0,0.0,0.8121746182441711,0.3623902499675751,0.6902924180030823,0.4229074716567993,0.5120193362236023,-0.04989253357052803,0.021065078675746918,-0.8572648763656616,0.23689134418964386,-1.4556270837783813,0.03749234974384308,-8.881760597229004,-1.2461999654769897,13.428848266601562,0.36004239320755005,0.6972657442092896,0.42826417088508606,0.2894105911254883,-0.9194858074188232,0.040200117975473404,0.34601089358329773,0.6759636998176575,0.42000001668930054,-0.2477385699748993,0.6511281132698059,-1.2475566864013672,2.9990034103393555,-0.20996367931365967,-0.2160148024559021,-0.20165139436721802,-0.18556725978851318,0.5597007870674133,0.483052134513855,0.24200516939163208,-0.01883929781615734
0.6166666666666667,-0.039261993020772934,0.018142681568861008,0.0,0.6367056965827942,0.0,0.0,-0.7711068987846375,0.28506627678871155,-0.31058257818222046,0.0,0.0,0.0,-2.601412534713745,0.3658672571182251,0.6813875436782837,0.4217923581600189,0.5442022085189819,-0.02673625573515892,0.030411092564463615,-0.8379762768745422,0.025001123547554016,-0.2929900288581848,-0.06389845907688141,2.1512398719787598,-1.5758552551269531,8.31205940246582,0.3622080981731415,0.6873387098312378,0.4266873002052307,-0.1085100993514061,-0.41577833890914917,-0.1732109934091568,0.34601089358329773,0.6759636998176575,0.42000001668930054,-0.2540808320045471,-1.0367326736450195,-1.1975078582763672,2.9989640712738037,-0.19639651477336884,-0.20442041754722595,-0.19496814906597137,-0.18398313224315643,0.7564641833305359,0.6638521552085876,0.3809070587158203,0.08600994944572449
0.6333333333333333,-0.03201346844434738,0.01750914938747883,0.0,0.6380175948143005,0.0,0.0,-0.7700217962265015,0.4525240957736969,-0.017540311440825462,0.0,0.0,0.0,1.0491254329681396,0.3643393814563751,0.6770318150520325,0.420271635055542,0.5751118659973145,-0.00400907127186656,0.005050073843449354,-0.8180493712425232,-0.16293413937091827,-0.24946482479572296,-0.08964647352695465,-1.6380701065063477,-4.34951114654541,3.531473398208618,0.35887593030929565,0.6816401481628418,0.42786669731140137,-0.19321098923683167,-0.1860063672065735,0.147178053855896,0.34601089358329773,0.6759636998176575,0.42000001668930054,-0.2975045442581177,-2.9999639987945557,-1.2185713052749634,-2.999488592147827,-0.18769340217113495,-0.19650451838970184,-0.191086083650589,-0.18431507050991058,0.5629389882087708,0.5051631927490234,0.25409388542175293,-0.002240206114947796
0.65,-0.022919047623872757,0.019606688991189003,0.0,0.6600226759910583,0.0,0.0,-0.7512456774711609,0.5859598517417908,0.1900283545255661,0.0,0.0,0.0,4.34326171875,0.3619706630706787,0.6746108531951904,0.4199998676776886,0.5830129384994507,-8.78602349985158e-06,-6.282265076151816e-06,-0.8124628663063049,-0.13224901258945465,-0.11330830305814743,-0.00026955618523061275,0.013165832497179508,-0.0040182205848395824,0.5846922993659973,0.3559768795967102,0.6813676357269287,0.4303765892982483,-0.11158627271652222,0.10242331027984619,0.1667565554380417,0.34601089358329773,0.6759636998176575,0.42000001668930054,-0.3475390374660492,-3.0000030994415283,-1.2685277462005615,-2.9979546070098877,-0.17886002361774445,-0.18858586251735687,-0.18716895580291748,-0.1843852698802948,0.52320796251297,0.4756214916706085,0.2486756145954132,0.024757178500294685
0.6666666666666666,-0.011818225495517254,0.017441950738430023,0.0,0.6690592765808105,0.0,0.0,-0.7432090640068054,0.6542568206787109,-0.15736879408359528,0.0,0.0,0.0,0.4070160984992981,0.36044731736183167,0.6734544038772583,0.4199999272823334,0.5846809148788452,-1.2480896657507401e-05,-1.8107841242454015e-05,-0.8112633228302002,-0.09755589812994003,-0.04058622196316719,-0.0006212755106389523,0.04872856289148331,0.0002026985166594386,-0.9052318334579468,0.35521912574768066,0.6861556768417358,0.4341335892677307,-0.07271353900432587,0.3227921724319458,0.26788607239723206,0.34601089358329773,0.6759636998176575,0.42000001668930054,-0.397553414106369,-3.000000238418579,-1.3184930086135864,-2.9994819164276123,-0.16620184481143951,-0.1770704984664917,-0.17955677211284637,-0.1805099993944168,0.6852817535400391,0.6565418243408203,0.47054004669189453,0.293343186378479
0.6833333333333333,0.0007747416966594756,0.012562553398311138,0.0,0.6864776015281677,0.0,0.0,-0.7271509766578674,0.8035158514976501,-0.3544234335422516,0.0,0.0,0.0,3.7807095050811768,0.3582543432712555,0.6734592914581299,0.4202013909816742,0.5820383429527283,0.002934172749519348,-0.004087328445166349,-0.8131456971168518,-0.15746523439884186,0.0034931208938360214,0.022686747834086418,-0.36835208535194397,-1.0779544115066528,-0.6937134265899658,0.3531855344772339,0.6886279582977295,0.439782977104187,-0.1472337394952774,0.06792746484279633,0.4934673011302948,0.34601089358329773,0.6759636998176575,0.42000001668930054,-0.44756752252578735,-2.999997854232788,-1.3685113191604614,-2.9999990463256836,-0.15934020280838013,-0.16924196481704712,-0.17315362393856049,-0.1753896176815033,0.29406896233558655,0.40070709586143494,0.3776940405368805,0.36439278721809387
0.7,0.015412778593599796,0.004601259715855122,0.0,0.6915544271469116,0.0,0.0,-0.7223243713378906,0.9102926254272461,-0.5212297439575195,0.0,0.0,0.0,-0.16555899381637573,0.35634154081344604,0.673469603061676,0.4200004041194916,0.5786942839622498,2.8838451271440135e-06,-4.559597925890557e-07,-0.8155444860458374,-0.08840282261371613,0.00023423416132573038,-0.00016798265278339386,-0.008594341576099396,0.007720868568867445,-0.38616061210632324,0.355014443397522,0.6899467706680298,0.4465799331665039,0.2928186058998108,0.04075269401073456,0.4688522517681122,0.34601089358329773,0.6759636998176575,0.42000001668930054,-0.49758028984069824,-3.000002384185791,-1.4185296297073364,-3.0000007152557373,-0.15619809925556183,-0.16379131376743317,-0.16728942096233368,-0.16892102360725403,0.14653119444847107,0.3054129183292389,0.36466965079307556,0.43622010946273804
0.7166666666666667,0.031758032739162445,-0.006004548165947199,0.0,0.6749241948127747,0.0,0.0,-0.7378870844841003,1.0094826221466064,-0.7145971059799194,0.0,0.0,0.0,-3.62860107421875,0.3558463156223297,0.6734692454338074,0.4200000464916229,0.5778008103370667,-4.220972186885774e-06,2.4982980448839953e-06,-0.8161777257919312,-0.007031202781945467,-5.937339665251784e-05,-0.00021909945644438267,-0.0024333393666893244,-0.009522574953734875,-0.03672962635755539,0.3658209443092346,0.6914565563201904,0.4619145095348358,0.9579943418502808,0.10665605962276459,1.4749140739440918,0.34601089358329773,0.6759636998176575,0.42000001668930054,-0.5475928783416748,-2.9999799728393555,-1.4685479402542114,-2.999999761581421,-0.15662239491939545,-0.16129279136657715,-0.16332294046878815,-0.1633138209581375,-0.09942301362752914,0.08147772401571274,0.18618401885032654,0.2994013726711273
0.7333333333333333,0.04724380001425743,-0.011509454809129238,0.0,0.6613571047782898,0.0,0.0,-0.7500711679458618,0.8572738170623779,-0.18563103675842285,0.0,0.0,0.0,-1.3733538389205933,0.3558458387851715,0.6734694242477417,0.4200000464916229,0.5778010487556458,5.522433070836996e-07,-2.8945084977749502e-06,-0.8161776065826416,0.00013961132208351046,-0.00025791837833821774,-9.221606887876987e-05,0.0059630959294736385,-0.0008791888249106705,-0.0007610426400788128,0.3824719786643982,0.6946064829826355,0.4930746257305145,1.0723210573196411,0.27117568254470825,2.272757053375244,0.34601089358329773,0.6759636998176575,0.42000001668930054,-0.5975955724716187,-2.9999961853027344,-1.5185662508010864,-2.9999992847442627,-0.16318871080875397,-0.16460001468658447,-0.16456250846385956,-0.16248901188373566,-0.45964688062667847,-0.28633174300193787,-0.17665930092334747,-0.07096484303474426
0.75,0.05908203125,-0.011657812632620335,0.0,0.6689316034317017,0.0,0.0,-0.7433239817619324,0.6686763167381287,-0.1028737723827362,0.0,0.0,0.0,1.8903753757476807,0.3558458685874939,0.6734694242477417,0.4200000464916229,0.5778012275695801,4.497732390973397e-07,-3.2864429613255197e-06,-0.816177487373352,9.622178913559765e-05,-0.0002650791429914534,-8.778995834290981e-05,0.006360425613820553,-0.0015580777544528246,-0.0006848782650195062,0.3985878527164459,0.6952131390571594,0.5249371528625488,0.9648966789245605,-0.03516758978366852,1.6275177001953125,0.34601089358329773,0.6759636998176575,0.42000001668930054,-0.6165376901626587,0.4447531998157501,-1.5685845613479614,-3.0,-0.17159055173397064,-0.16987912356853485,-0.1676059365272522,-0.16340424120426178,-0.2363928258419037,-0.10380549728870392,-0.010101327672600746,0.08162614703178406
0.7666666666666666,0.06699838489294052,-0.011152692139148712,0.0,0.6669562458992004,0.0,0.0,-0.7450969219207764,0.4076455235481262,0.10155988484621048,0.0,0.0,0.0,-1.555533528327942,0.3558458387851715,0.6734694242477417,0.4200000464916229,0.5778011083602905,4.3253996295788966e-07,-3.2128975817613536e-06,-0.8161776065826416,9.588136890670285e-05,-0.000265214272076264,-8.770194835960865e-05,0.006365798879414797,-0.001562426914460957,-0.0006842901348136365,0.40955978631973267,0.6951264142990112,0.5457892417907715,0.3530212640762329,0.006455996073782444,1.045788049697876,0.34601089358329773,0.6759636998176575,0.42000001668930054,-0.6017159819602966,1.250554084777832,-1.5296640396118164,3.000000476837158,-0.17426034808158875,-0.17094509303569794,-0.16758105158805847,-0.16234590113162994,-0.08960995823144913,-0.01793675869703293,0.028017835691571236,0.06735574454069138
0.7833333333333333,0.06974665820598602,-0.01622896082699299,0.0,0.6750003099441528,0.0,0.0,-0.7378174662590027,0.07972390949726105,-0.4537420868873596,0.0,0.0,0.0,2.234008550643921,0.3558458387851715,0.6734694242477417,0.4200000464916229,0.5778009295463562,4.384489784570178e-07,-3.133901373075787e-06,-0.8161776065826416,9.600213525118306e-05,-0.00026505556888878345,-8.769542910158634e-05,0.006361604202538729,-0.0015589501708745956,-0.0006842237780801952,0.4133404493331909,0.697356104850769,0.5629377365112305,0.06724347919225693,0.21611657738685608,1.0489799976348877,0.34601089358329773,0.6759636998176575,0.42000001668930054,-0.5823543667793274,1.0726730823516846,-1.4796228408813477,3.0,-0.1684059202671051,-0.16515152156352997,-0.1621762216091156,-0.15743911266326904,0.5102452039718628,0.4735376536846161,0.4199522137641907,0.3567449450492859
0.8,0.07046203315258026,-0.017462974414229393,0.0,0.6721323728561401,0.0,0.0,-0.740431010723114,0.013074301183223724,0.05716337636113167,0.0,0.0,0.0,-1.344270944595337,0.3558458685874939,0.6734694242477417,0.4200000464916229,0.5778008103370667,4.2651197418308584e-07,-2.884397872549016e-06,-0.8161777257919312,9.538274753140286e-05,-0.0002662160259205848,-8.755992166697979e-05,0.0063942596316337585,-0.0015721255913376808,-0.0006843552691861987,0.415313184261322,0.6978586912155151,0.5756568908691406,0.1391604244709015,-0.10760338604450226,0.6586195826530457,0.34601089358329773,0.6759636998176575,0.42000001668930054,-0.5844210982322693,-1.13028085231781,-1.4295663833618164,3.000000476837158,-0.16519629955291748,-0.16192099452018738,-0.15908806025981903,-0.15466012060642242,0.0880688950419426,0.10694250464439392,0.12112011015415192,0.12482167035341263
0.8166666666666667,0.07301449775695801,-0.01924925111234188,0.0,0.6801517605781555,0.0,0.0,-0.7330713272094727,0.14334705471992493,-0.14981214702129364,0.0,0.0,0.0,1.769855260848999,0.3558458685874939,0.6734694242477417,0.4200000464916229,0.5778008103370667,3.6648614809564606e-07,-2.986146910188836e-06,-0.8161777257919312,9.51703914324753e-05,-0.00026618476840667427,-8.75396654009819e-05,0.006394341122359037,-0.001575271598994732,-0.000683903694152832,0.41439563035964966,0.6961345076560974,0.584038257598877,-0.27143803238868713,-0.061983853578567505,0.34780383110046387,0.34601089358329773,0.6759636998176575,0.42000001668930054,-0.5780380368232727,1.649570107460022,-1.4471074342727661,-2.999999761581421,-0.16257797181606293,-0.15904109179973602,-0.15602891147136688,-0.15166626870632172,0.054430097341537476,0.08535099029541016,0.11096629500389099,0.11772479861974716
0.8333333333333334,0.07304321229457855,-0.021210646256804466,0.0,0.6745724678039551,0.0,0.0,-0.7382085919380188,-0.044003404676914215,-0.12390562146902084,0.0,0.0,0.0,-1.7943445444107056,0.3558458685874939,0.6734694242477417,0.4200000464916229,0.5778008103370667,4.28789462603163e-07,-2.911520141424262e-06,-0.8161777257919312,9.560659236740321e-05,-0.0002661365724634379,-8.76416452229023e-05,0.0063907066360116005,-0.001570088672451675,-0.0006848155753687024,0.41218042373657227,0.6946530342102051,0.5860171318054199,-0.04540480300784111,-0.1467093974351883,0.0640878677368164,0.34601089358329773,0.6759636998176575,0.42000001668930054,-0.5727502703666687,-0.8081172108650208,-1.4085330963134766,3.000000238418579,-0.16175350546836853,-0.15793703496456146,-0.15457552671432495,-0.15006312727928162,0.06676095724105835,0.08067523688077927,0.1042124330997467,0.11926615983247757
0.85,0.07383187860250473,-0.02054196037352085,0.0,0.6796013116836548,0.0,0.0,-0.7335816621780396,0.088992178440094,0.10377310961484909,0.0,0.0,0.0,1.6060479879379272,0.3558458685874939,0.6734694242477417,0.4200000464916229,0.5778008103370667,4.252266876392241e-07,-2.833648750311113e-06,-0.8161777257919312,9.529360249871388e-05,-0.000266150978859514,-8.756783790886402e-05,0.0063928281888365746,-0.0015737460926175117,-0.000684131111484021,0.41284769773483276,0.6925792694091797,0.5890367031097412,0.11324620246887207,-0.08020371198654175,0.3419482707977295,0.34601089358329773,0.6759636998176575,0.42000001668930054,-0.5654050707817078,1.484837532043457,-1.4264942407608032,-2.9999992847442627,-0.1603183150291443,-0.15664644539356232,-0.1531805545091629,-0.14863546192646027,0.10533589869737625,0.08282620459794998,0.07713385671377182,0.06861361861228943
0.8666666666666667,0.07355009019374847,-0.022610053420066833,0.0,0.6734151244163513,0.0,0.0,-0.7392645478248596,-0.09009671211242676,-0.14245443046092987,0.0,0.0,0.0,-1.8174004554748535,0.3558458685874939,0.6734694242477417,0.4200000464916229,0.5778011679649353,4.3372406821617915e-07,-3.1666938866692362e-06,-0.816177487373352,9.632058936404064e-05,-0.0002651258837431669,-8.779997006058693e-05,0.006361428648233414,-0.0015565581852570176,-0.0006851088837720454,0.416086882352829,0.6911823749542236,0.592576801776886,0.20630013942718506,-0.19333907961845398,0.22304624319076538,0.34601089358329773,0.6759636998176575,0.42000001668930054,-0.571538507938385,-1.920661449432373,-1.3879766464233398,3.000000476837158,-0.15750105679035187,-0.1543935388326645,-0.15117867290973663,-0.14689521491527557,0.060075514018535614,0.05030297115445137,0.05791622772812843,0.06322809308767319
0.8833333333333333,0.07424348592758179,-0.021562403067946434,0.0,0.6785753965377808,0.0,0.0,-0.7345307469367981,0.08676858991384506,0.09063221514225006,0.0,0.0,0.0,1.5822806358337402,0.3558458685874939,0.6734694242477417,0.4200000464916229,0.5778011679649353,4.1792930005613016e-07,-3.0868593512423104e-06,-0.816177487373352,9.70643013715744e-05,-0.00026540711405687034,-8.794176392257214e-05,0.0063640964217484,-0.0015489731449633837,-0.0006873290985822678,0.4206676185131073,0.6871801018714905,0.5963121652603149,0.39394718408584595,-0.2081984281539917,0.26659896969795227,0.34601089358329773,0.6759636998176575,0.42000001668930054,-0.5765141844749451,1.0694937705993652,-1.4063212871551514,-3.0000007152557373,-0.15751314163208008,-0.15441641211509705,-0.1509154587984085,-0.14637276530265808,0.07180488854646683,0.055128201842308044,0.057802729308605194,0.06145435944199562
0.9,0.07382447272539139,-0.02342989668250084,0.0,0.6725503206253052,0.0,0.0,-0.7400513887405396,-0.08508041501045227,-0.1413317620754242,0.0,0.0,0.0,-1.7886039018630981,0.3558458685874939,0.6734694242477417,0.4200000464916229,0.5778010487556458,4.1943667383748107e-07,-3.1936297091306187e-06,-0.8161776065826416,9.663357195677236e-05,-0.0002650063834153116,-8.78975261002779e-05,0.006356293801218271,-0.0015532507095485926,-0.0006857166881673038,0.4274103045463562,0.6843825578689575,0.5983294248580933,0.3642522692680359,-0.21109846234321594,0.11690807342529297,0.34601089358329773,0.6759636998176575,0.42000001668930054,-0.5744630098342896,-0.6746212840080261,-1.3678605556488037,3.0,-0.1557406485080719,-0.15308308601379395,-0.14971458911895752,-0.14528168737888336,0.029055114835500717,0.018048254773020744,0.022069234400987625,0.025238776579499245
