vladlanda/robotic-transformer/data/env_000_episode_0230.csv
sim_time_s,robot_box_x,robot_box_y,robot_box_z,robot_box_quat_w,robot_box_quat_x,robot_box_quat_y,robot_box_quat_z,robot_box_linvel_x,robot_box_linvel_y,robot_box_linvel_z,robot_box_angvel_x,robot_box_angvel_y,robot_box_angvel_z,cube_world_x,cube_world_y,cube_world_z,cube_quat_w,cube_quat_x,cube_quat_y,cube_quat_z,cube_linvel_x,cube_linvel_y,cube_linvel_z,cube_angvel_x,cube_angvel_y,cube_angvel_z,endpoint_world_x,endpoint_world_y,endpoint_world_z,endpoint_linvel_x,endpoint_linvel_y,endpoint_linvel_z,target_cube_world_x,target_cube_world_y,target_cube_world_z,gripper_actual_pos_rad_gp_leftgearjoint,gripper_actual_vel_rad_s_gp_leftgearjoint,gripper_actual_pos_rad_gp_rotatingjoint,gripper_actual_vel_rad_s_gp_rotatingjoint,motor_angle_rad_joint1,motor_angle_rad_joint2,motor_angle_rad_joint3,motor_angle_rad_joint4,motor_speed_rad_s_joint1,motor_speed_rad_s_joint2,motor_speed_rad_s_joint3,motor_speed_rad_s_joint4
0.0,0.0,0.0,0.0,1.0,0.0,0.0,0.0,0.0,0.0,0.0,0.0,0.0,0.0,-0.38109269738197327,0.7398160099983215,0.41999998688697815,1.0,0.0,0.0,0.0,0.0,0.0,0.0,0.0,0.0,0.0,3.42540442943573e-06,-0.005000244826078415,1.313499927520752,0.0,0.0,0.0,0.46262985467910767,0.6837673187255859,0.42000001668930054,-1.5707999467849731,0.0,0.0,0.0,0.0,0.0,0.0,0.0,0.0,0.0,0.0,0.0
0.016666666666666666,0.0028810331132262945,0.00217702379450202,0.0,0.9998153448104858,0.0,0.0,0.019215572625398636,0.24096278846263885,0.18227863311767578,0.0,0.0,0.0,3.1417973041534424,-0.3810928165912628,0.7398157119750977,0.41999998688697815,1.0,3.279964630564791e-06,-8.339746386809566e-07,8.465587342243452e-08,-1.9833529222523794e-05,0.00017983045836444944,-6.132945418357849e-05,0.0009432713268324733,-0.004689474124461412,-0.00031981561915017664,-0.0071090348064899445,0.0033889675978571177,1.315938115119934,-0.8140136003494263,0.9872263669967651,0.18096087872982025,0.46262985467910767,0.6837673187255859,0.42000001668930054,-1.5301094055175781,3.0000033378601074,-0.04584881290793419,-3.000000476837158,0.0008701192564330995,0.0007967740530148149,0.0007113508181646466,0.0006112062255851924,0.11095040291547775,0.09758841246366501,0.0833650454878807,0.0682593509554863
0.03333333333333333,0.008964930661022663,0.0067963991314172745,0.0,0.9998034238815308,0.0,0.0,0.019825872033834457,0.40707752108573914,0.31519386172294617,0.0,0.0,0.0,-0.8690521121025085,-0.38109293580055237,0.7398156523704529,0.4200000464916229,1.0,3.3908179375430336e-06,-2.132458348569344e-06,-3.7097745320124886e-08,0.00026357852038927376,0.00026937833172269166,-0.00010509369894862175,-0.0017707126680761576,0.004130884539335966,-0.0001354814594378695,-0.027132585644721985,0.026341170072555542,1.3166399002075195,-1.5443401336669922,1.6200242042541504,-0.07980193942785263,0.46262985467910767,0.6837673187255859,0.42000001668930054,-1.4800901412963867,3.0000016689300537,-0.0958886668086052,-3.0000016689300537,0.0029464871622622013,0.0025930984411388636,0.002201980212703347,0.0017698099836707115,0.15886932611465454,0.1328004151582718,0.10523559898138046,0.07609432190656662
0.05,0.018479274585843086,0.013906694948673248,0.0,0.9999730587005615,0.0,0.0,-0.007341770455241203,0.636343777179718,0.4725530445575714,0.0,0.0,0.0,-4.0723347663879395,-0.38109296560287476,0.7398157119750977,0.4200000464916229,1.0,3.7651902857760433e-06,-2.2119197637948673e-06,5.609367637049445e-09,0.00026530938339419663,0.00026691678795032203,-0.00010440615005791187,-0.0017243892652913928,0.004177466034889221,-0.00012949809024576098,-0.0554187037050724,0.05811629071831703,1.3122323751449585,-1.8550570011138916,2.1149816513061523,-0.43639105558395386,0.46262985467910767,0.6837673187255859,0.42000001668930054,-1.4300718307495117,3.0000016689300537,-0.14592735469341278,-3.0000011920928955,0.005784749519079924,0.004884891211986542,0.003912705462425947,0.0028639768715947866,0.19122189283370972,0.1480182558298111,0.10289032012224197,0.05577011778950691
0.06666666666666667,0.030821437016129494,0.02340303733944893,0.0,0.9998694658279419,0.0,0.0,-0.01615704596042633,0.773125946521759,0.6165429353713989,0.0,0.0,0.0,-0.03232395648956299,-0.38109296560287476,0.7398156523704529,0.4200000464916229,0.9999999403953552,3.406832092878176e-06,-2.28558906201215e-06,4.300801492718165e-07,0.0002670248504728079,0.0002679176686797291,-0.0001043803058564663,-0.00174071139190346,0.00421183044090867,-0.00012850876373704523,-0.08929295092821121,0.09268728643655777,1.3025561571121216,-2.080136299133301,2.1917831897735596,-0.7153476476669312,0.46262985467910767,0.6837673187255859,0.42000001668930054,-1.3800451755523682,3.0000011920928955,-0.1392250657081604,3.0000011920928955,0.0080329068005085,0.006313851103186607,0.004481808748096228,0.0025330001953989267,0.10869654268026352,0.04977114126086235,-0.01132159773260355,-0.07464579492807388
0.08333333333333333,0.03686214238405228,0.03678848221898079,0.0,0.999200165271759,0.0,0.0,-0.03998725116252899,0.22732926905155182,0.8766266107559204,0.0,0.0,0.0,-3.804175853729248,-0.38109296560287476,0.7398156523704529,0.4200000464916229,0.9999999403953552,3.626166289905086e-06,-2.3353043161478126e-06,3.032100153177453e-07,0.00026614085072651505,0.0002668516826815903,-0.00010405341163277626,-0.001728349830955267,0.004196455702185631,-0.0001279077841900289,-0.11848899722099304,0.13312527537345886,1.2888281345367432,-1.4575982093811035,2.667032480239868,-0.8611388206481934,0.46262985467910767,0.6837673187255859,0.42000001668930054,-1.3300457000732422,3.0000016689300537,-0.17109526693820953,-3.0,0.0035260366275906563,0.0009755141800269485,-0.0017424392281100154,-0.0046354541555047035,-0.39985474944114685,-0.46286579966545105,-0.528648316860199,-0.597447395324707
0.1,0.046723805367946625,0.051752157509326935,0.0,0.995815098285675,0.0,0.0,-0.09139055758714676,0.7375566363334656,0.9044497013092041,0.0,0.0,0.0,-6.9616875648498535,-0.38109296560287476,0.7398156523704529,0.4200000464916229,1.0,3.4222334761579987e-06,-2.3086047349352157e-06,1.796183539681806e-07,0.0002668157103471458,0.00026800340856425464,-0.00010440708138048649,-0.0017429988365620375,0.004207124002277851,-0.00012891183723695576,-0.14409002661705017,0.17950016260147095,1.2745662927627563,-1.6137887239456177,2.92791748046875,-0.9088338613510132,0.46262985467910767,0.6837673187255859,0.42000001668930054,-1.2800387144088745,3.0000007152557373,-0.20195546746253967,-0.8591031432151794,0.0013022302882745862,-0.0028322231955826283,-0.007137742824852467,-0.01162222120910883,-0.04362434893846512,-0.14623700082302094,-0.24782709777355194,-0.34833580255508423
0.11666666666666667,0.055205971002578735,0.06396433711051941,0.0,0.992380678653717,0.0,0.0,-0.12320969998836517,0.5412142872810364,0.6845553517341614,0.0,0.0,0.0,-2.574293851852417,-0.38109296560287476,0.7398157119750977,0.4200000464916229,1.0,3.711570343511994e-06,-2.332746134925401e-06,2.5742929210537113e-07,0.0002648576919455081,0.0002663539198692888,-0.00010423408821225166,-0.0017182708252221346,0.004170178435742855,-0.0001291575754294172,-0.17521171271800995,0.2262219786643982,1.2574645280838013,-1.8345880508422852,3.0229268074035645,-1.0414459705352783,0.46262985467910767,0.6837673187255859,0.42000001668930054,-1.2300289869308472,2.999992609024048,-0.1626216471195221,3.0,-0.0017028513830155134,-0.0074259694665670395,-0.013294477947056293,-0.0193161740899086,-0.08669012039899826,-0.201029971241951,-0.3119889497756958,-0.41940057277679443
0.13333333333333333,0.061049092561006546,0.0773349404335022,0.0,0.9864761233329773,0.0,0.0,-0.163905069231987,0.28324392437934875,0.8546370267868042,0.0,0.0,0.0,-5.686098098754883,-0.38109296560287476,0.7398156523704529,0.4200000464916229,1.0,3.335774863444385e-06,-2.2319691197481006e-06,3.1131583000387764e-07,0.0002666965883690864,0.0002675943251233548,-0.00010428344830870628,-0.0017370636342093349,0.004205815959721804,-0.0001284035388380289,-0.20402881503105164,0.27951234579086304,1.2391817569732666,-1.5625509023666382,3.4882190227508545,-1.1777523756027222,0.46262985467910767,0.6837673187255859,0.42000001668930054,-1.18230402469635,2.710975170135498,-0.19434769451618195,-3.0000007152557373,-0.004882299806922674,-0.012494823895394802,-0.02018311247229576,-0.027952047064900398,-0.254853218793869,-0.3637140095233917,-0.46806198358535767,-0.5677074193954468
0.15,0.06384728848934174,0.08886272460222244,0.0,0.9825668334960938,0.0,0.0,-0.18590959906578064,0.13206937909126282,0.5681089758872986,0.0,0.0,0.0,-1.456947922706604,-0.38109296560287476,0.7398156523704529,0.4200000464916229,1.0,3.51896619577019e-06,-2.2831691239844076e-06,-3.625396516326873e-07,0.00026618328411132097,0.00026735622668638825,-0.00010425481013953686,-0.0017348447581753135,0.004195693414658308,-0.0001286104234168306,-0.23719200491905212,0.33650580048561096,1.2119622230529785,-2.1057333946228027,3.571780204772949,-2.011227607727051,0.46262985467910767,0.6837673187255859,0.42000001668930054,-1.154515027999878,0.7699524164199829,-0.16055023670196533,3.0,-0.009370613843202591,-0.018430693075060844,-0.027482688426971436,-0.03653056174516678,-0.2766694724559784,-0.34286201000213623,-0.4041275978088379,-0.460509330034256
0.16666666666666666,0.06931944936513901,0.10020619630813599,0.0,0.9755484461784363,0.0,0.0,-0.21978451311588287,0.3346100151538849,0.7053046226501465,0.0,0.0,0.0,-4.9929962158203125,-0.38109296560287476,0.7398156523704529,0.4200000464916229,1.0,3.6666901905846316e-06,-2.339151933483663e-06,-3.150083500713663e-07,0.00026595874805934727,0.0002666740329004824,-0.00010403385385870934,-0.001725255511701107,0.004192718770354986,-0.0001277866685995832,-0.27033331990242004,0.4003032445907593,1.1745765209197998,-1.8115119934082031,4.090570449829102,-2.502650022506714,0.46262985467910767,0.6837673187255859,0.42000001668930054,-1.1118649244308472,3.00000262260437,-0.19228962063789368,-3.000000476837158,-0.015379282645881176,-0.02523060329258442,-0.035012129694223404,-0.04473106190562248,-0.5245887041091919,-0.5447937250137329,-0.5628705024719238,-0.5790954828262329
0.18333333333333332,0.07193096727132797,0.11318664252758026,0.0,0.9608797430992126,0.0,0.0,-0.27696603536605835,0.10317814350128174,0.8248957991600037,0.0,0.0,0.0,-8.1907377243042,-0.38109296560287476,0.7398156523704529,0.4200000464916229,1.0,3.814420779235661e-06,-2.399499635430402e-06,-2.7027235205423494e-07,0.00026548944879323244,0.0002661115431692451,-0.00010391324758529663,-0.0017178029520437121,0.004184751771390438,-0.00012753890769090503,-0.30146530270576477,0.47083809971809387,1.124951720237732,-1.663532018661499,4.514431476593018,-3.3936519622802734,0.46262985467910767,0.6837673187255859,0.42000001668930054,-1.0704340934753418,2.0209357738494873,-0.24231785535812378,-2.999999761581421,-0.026431934908032417,-0.036248236894607544,-0.0459604449570179,-0.05558342859148979,-0.6994370818138123,-0.686296284198761,-0.6709724068641663,-0.6539188623428345
0.2,0.07762771844863892,0.12261144816875458,0.0,0.9489275217056274,0.0,0.0,-0.3154941201210022,0.4099699556827545,0.4651927947998047,0.0,0.0,0.0,-3.668224811553955,-0.38109296560287476,0.7398156523704529,0.4200000464916229,1.0,3.600102218115353e-06,-2.29119359573815e-06,-2.2019156631358783e-07,0.0002657294971868396,0.00026644946774467826,-0.00010398216545581818,-0.0017227602656930685,0.004188841208815575,-0.00012773591151926666,-0.3321376442909241,0.5427981615066528,1.0590325593948364,-1.5267385244369507,4.457815170288086,-4.475308418273926,0.46262985467910767,0.6837673187255859,0.42000001668930054,-1.0227782726287842,3.000000476837158,-0.29234424233436584,-3.0000011920928955,-0.03889358788728714,-0.04788336530327797,-0.05676666647195816,-0.06556979566812515,-0.8156553506851196,-0.741299033164978,-0.6682842373847961,-0.5973927974700928
0.21666666666666667,0.07812999188899994,0.13536977767944336,0.0,0.9400259852409363,0.0,0.0,-0.3411029279232025,-0.06233842670917511,0.7411690950393677,0.0,0.0,0.0,-2.8596174716949463,-0.38109296560287476,0.7398156523704529,0.4200000464916229,0.9999999403953552,3.639728220150573e-06,-2.261914687551325e-06,2.2246757680477458e-07,0.0002668741799425334,0.0002675442083273083,-0.00010411837138235569,-0.0017403532983735204,0.004211121238768101,-0.00012784327554982156,-0.35712337493896484,0.6068615317344666,0.9756709337234497,-1.264086127281189,3.617713451385498,-5.318324565887451,0.46262985467910767,0.6837673187255859,0.42000001668930054,-0.9727686643600464,2.999997854232788,-0.3423711359500885,-3.000000476837158,-0.054824940860271454,-0.06382770091295242,-0.07265568524599075,-0.08084601163864136,-0.7436936497688293,-0.7848461866378784,-0.8220419883728027,-0.8554254770278931
0.23333333333333334,0.08370916545391083,0.14245295524597168,0.0,0.9329931735992432,0.0,0.0,-0.3598940074443817,0.3323991298675537,0.35148704051971436,0.0,0.0,0.0,-2.067453622817993,-0.38109293580055237,0.7398156523704529,0.4200000464916229,1.0,3.4208205761387944e-06,-2.31679678108776e-06,2.9558265168816433e-07,0.0002668011875357479,0.00026803891523741186,-0.00010442500934004784,-0.0017436320194974542,0.004206853918731213,-0.00012899722787551582,-0.37749141454696655,0.6627877950668335,0.8817447423934937,-0.9620873332023621,3.0246949195861816,-6.0010223388671875,0.46262985467910767,0.6837673187255859,0.42000001668930054,-0.9227592945098877,2.9999990463256836,-0.39240044355392456,-2.999997854232788,-0.06460940837860107,-0.0740719586610794,-0.08331336826086044,-0.09189248830080032,-0.8376092910766602,-0.8068745732307434,-0.7768608927726746,-0.7501895427703857
0.25,0.08380687981843948,0.1529299020767212,0.0,0.9245977401733398,0.0,0.0,-0.38094496726989746,-0.0046741594560444355,0.599139392375946,0.0,0.0,0.0,-2.864799737930298,-0.38109296560287476,0.7398156523704529,0.4200000464916229,0.9999999403953552,3.3476744647487067e-06,-2.2591534616367426e-06,1.8083225938880787e-07,0.0002668770612217486,0.00026791077107191086,-0.00010439194738864899,-0.0017404238460585475,0.004208190366625786,-0.00012870175123680383,-0.38956475257873535,0.7023622989654541,0.7768608927726746,-0.4492485821247101,1.9316956996917725,-6.3970112800598145,0.46262985467910767,0.6837673187255859,0.42000001668930054,-0.872748613357544,2.999997615814209,-0.44243162870407104,-3.000002861022949,-0.08068966120481491,-0.09015828371047974,-0.09944671392440796,-0.1080617606639862,-0.7377073764801025,-0.7786937355995178,-0.8208656907081604,-0.8610321283340454
0.26666666666666666,0.08252305537462234,0.15790621936321259,0.0,0.9246041178703308,0.0,0.0,-0.38092944025993347,-0.16857945919036865,0.28165990114212036,0.0,0.0,0.0,0.8046987652778625,-0.38109296560287476,0.7398156523704529,0.4200000464916229,0.9999999403953552,3.5357529668544885e-06,-2.3003142359812045e-06,-1.2686169270637038e-07,0.00026601762510836124,0.0002671225811354816,-0.00010419590398669243,-0.0017317383317276835,0.004192912019789219,-0.0001284929021494463,-0.40022170543670654,0.7249855995178223,0.6710706949234009,-0.4696405529975891,0.7531958818435669,-6.369956970214844,0.46262985467910767,0.6837673187255859,0.42000001668930054,-0.8227387070655823,2.9999942779541016,-0.49246320128440857,-2.999997138977051,-0.0935271680355072,-0.10318902134895325,-0.11266179382801056,-0.12140041589736938,-0.9722523093223572,-0.972416341304779,-0.9597218036651611,-0.9122198820114136
0.2833333333333333,0.07750003784894943,0.16007301211357117,0.0,0.9191160798072815,0.0,0.0,-0.3939868211746216,-0.3552127778530121,0.08143597096204758,0.0,0.0,0.0,-2.549131155014038,-0.38109296560287476,0.7398157119750977,0.4200000464916229,1.0,3.5935311188950436e-06,-2.2625688416155754e-06,-5.654767321061627e-08,0.00026704734773375094,0.0002677497686818242,-0.00010416633449494839,-0.0017430580919608474,0.004214033950120211,-0.00012789166066795588,-0.4028094708919525,0.7362673878669739,0.5657272934913635,0.18224667012691498,0.39688196778297424,-6.025460720062256,0.46262985467910767,0.6837673187255859,0.42000001668930054,-0.7727298736572266,3.0000011920928955,-0.542493462562561,-3.000002145767212,-0.11073260009288788,-0.12027103453874588,-0.12965022027492523,-0.13832218945026398,-1.0175061225891113,-1.0132001638412476,-1.0099258422851562,-1.0073190927505493
0.3,0.07024593651294708,0.15961936116218567,0.0,0.9203097224235535,0.0,0.0,-0.3911905884742737,-0.4746261239051819,-0.06970884650945663,0.0,0.0,0.0,1.2418272495269775,-0.38109293580055237,0.7398156523704529,0.4200000464916229,0.9999999403953552,3.725058377312962e-06,-2.236010232081753e-06,3.828667161087651e-07,0.0002647990477271378,0.00026672965032048523,-0.00010453816503286362,-0.001718871295452118,0.0041667441837489605,-0.00013016721641179174,-0.3983936309814453,0.7398031949996948,0.4706246256828308,0.4614819884300232,-0.06512803584337234,-5.4681596755981445,0.46262985467910767,0.6837673187255859,0.42000001668930054,-0.722721517086029,3.0000009536743164,-0.5925220847129822,-3.0000011920928955,-0.12792818248271942,-0.137333944439888,-0.14661654829978943,-0.15521517395973206,-1.0067188739776611,-1.0050915479660034,-1.0038504600524902,-1.0028562545776367
0.31666666666666665,0.06080473214387894,0.15669837594032288,0.0,0.9155399203300476,0.0,0.0,-0.40222716331481934,-0.6121891736984253,-0.21840694546699524,0.0,0.0,0.0,-2.3033487796783447,-0.3809836804866791,0.7393540740013123,0.42047318816185,0.9999215602874756,0.0117655573412776,0.00011179561261087656,-0.004289922304451466,0.01933148503303528,-0.034577544778585434,0.052005182951688766,2.723881483078003,-0.1235843226313591,-1.0817934274673462,-0.39339444041252136,0.7407985925674438,0.42975926399230957,0.056798726320266724,-0.07143877446651459,-0.15220807492733002,0.46262985467910767,0.6837673187255859,0.42000001668930054,-0.6727171540260315,2.999979019165039,-0.6430233120918274,-3.0027356147766113,-0.1374696046113968,-0.14736348390579224,-0.156934455037117,-0.1655612587928772,-0.17690147459506989,-0.2233515977859497,-0.24669013917446136,-0.2420973926782608
0.3333333333333333,0.04928352311253548,0.15129096806049347,0.0,0.9174394011497498,0.0,0.0,-0.39787548780441284,-0.7293437719345093,-0.3661419451236725,0.0,0.0,0.0,1.4867112636566162,-0.38084664940834045,0.739158034324646,0.4203718304634094,0.9999287128448486,0.009358956478536129,-7.341984746744856e-05,-0.007405137177556753,0.006608831696212292,0.0001568586885696277,-0.022652022540569305,-1.1659809350967407,0.015548527240753174,-0.2001449018716812,-0.3948141932487488,0.7438434362411499,0.42729681730270386,0.01424434408545494,0.18342795968055725,-0.21127396821975708,0.46262985467910767,0.6837673187255859,0.42000001668930054,-0.6227105855941772,2.999985694885254,-0.6930620074272156,-3.0000011920928955,-0.14259198307991028,-0.15228913724422455,-0.1613403707742691,-0.16909505426883698,-0.3861153721809387,-0.3354852497577667,-0.26934799551963806,-0.18819734454154968
0.35,0.04063411056995392,0.14291594922542572,0.0,0.9134503602981567,0.0,0.0,-0.4069501459598541,-0.4807478189468384,-0.531073272228241,0.0,0.0,0.0,-1.9313044548034668,-0.37991905212402344,0.7412314414978027,0.41999995708465576,0.9996668100357056,1.1945960977755021e-05,-5.500252427736996e-06,-0.025812288746237755,0.0609600730240345,0.12757012248039246,-0.000295425794320181,-0.01669616810977459,0.022315960377454758,-1.9375189542770386,-0.39287421107292175,0.745467483997345,0.42408427596092224,0.2343112975358963,0.08983782678842545,-0.17334647476673126,0.46262985467910767,0.6837673187255859,0.42000001668930054,-0.5727055668830872,2.9999842643737793,-0.7431135773658752,-2.999962568283081,-0.1491566151380539,-0.15760771930217743,-0.16515877842903137,-0.17119580507278442,-0.542699933052063,-0.4215600788593292,-0.2877272069454193,-0.145541250705719
0.36666666666666664,0.029711943119764328,0.1332438588142395,0.0,0.9165870547294617,0.0,0.0,-0.39983513951301575,-0.7215157151222229,-0.6035841107368469,0.0,0.0,0.0,1.8685063123703003,-0.3761347234249115,0.7458177208900452,0.4200003147125244,0.9969906210899353,-5.5218779380084015e-06,1.0038515938504133e-05,-0.07752255350351334,0.36237776279449463,0.38052669167518616,-0.0005446496652439237,0.026199299842119217,-0.015185154043138027,-11.437112808227539,-0.38687610626220703,0.7496659755706787,0.4217350482940674,0.4893266558647156,0.4227295517921448,-0.10239163041114807,0.46262985467910767,0.6837673187255859,0.42000001668930054,-0.5227007269859314,2.999999761581421,-0.7931526899337769,-3.000006675720215,-0.16122467815876007,-0.16665798425674438,-0.17099787294864655,-0.17374008893966675,-0.7341103553771973,-0.5358737707138062,-0.32542920112609863,-0.11031446605920792
0.3833333333333333,0.017951739951968193,0.12143917381763458,0.0,0.9133456349372864,0.0,0.0,-0.4071851670742035,-0.7661274671554565,-0.7335644364356995,0.0,0.0,0.0,-1.9171481132507324,-0.369857519865036,0.7523505687713623,0.42000019550323486,0.9856899976730347,1.1611167565206415e-06,3.3698977404128527e-06,-0.16856802999973297,0.43396279215812683,0.4441048502922058,-0.00028955269954167306,0.004490879364311695,-0.0024144970811903477,-12.241296768188477,-0.3754251003265381,0.755521297454834,0.4207911491394043,0.890526294708252,0.35068145394325256,-0.046579234302043915,0.46262985467910767,0.6837673187255859,0.42000001668930054,-0.4726964831352234,2.9999611377716064,-0.8432027101516724,-2.9999983310699463,-0.17311371862888336,-0.17491017282009125,-0.17536111176013947,-0.17410746216773987,-0.7104978561401367,-0.47381269931793213,-0.22145713865756989,0.036864154040813446
0.4,0.008771815337240696,0.10719402134418488,0.0,0.8977963328361511,0.0,0.0,-0.440410852432251,-0.46934476494789124,-0.9069749116897583,0.0,0.0,0.0,-5.257723331451416,-0.3570740520954132,0.7638309001922607,0.4207015931606293,0.9673559665679932,-0.014508440159261227,0.0004881331988144666,-0.2530050277709961,1.8079513311386108,0.4934398829936981,0.3109957277774811,-3.745032548904419,-11.80953598022461,-2.8243775367736816,-0.3582559823989868,0.7649033069610596,0.4226132035255432,1.2166731357574463,0.8075605630874634,0.14157170057296753,0.46262985467910767,0.6837673187255859,0.42000001668930054,-0.4226454198360443,2.9668915271759033,-0.8932068347930908,-2.9994819164276123,-0.1832667887210846,-0.18137140572071075,-0.17777767777442932,-0.17229552567005157,-0.5261550545692444,-0.31490200757980347,-0.08105450123548508,0.16510272026062012
0.4166666666666667,0.004018823616206646,0.08987413346767426,0.0,0.8682323694229126,0.0,0.0,-0.49615776538848877,-0.2034759819507599,-1.1034690141677856,0.0,0.0,0.0,-8.367277145385742,-0.32269594073295593,0.7832417488098145,0.42520570755004883,0.9522495269775391,-0.017425915226340294,-0.02809837833046913,-0.3035253882408142,3.0972609519958496,1.5516492128372192,0.23953968286514282,24.96714210510254,-21.6119327545166,4.692718982696533,-0.3237023949623108,0.784995436668396,0.4267445504665375,2.8786308765411377,1.629775047302246,0.5596238374710083,0.46262985467910767,0.6837673187255859,0.42000001668930054,-0.3856395483016968,1.2365353107452393,-0.9432291388511658,-3.0000009536743164,-0.19254983961582184,-0.18697214126586914,-0.17936405539512634,-0.1697198748588562,-0.5519272089004517,-0.32476183772087097,-0.08104231208562851,0.1678461730480194
0.43333333333333335,0.0014434175100177526,0.07743393629789352,0.0,0.821561872959137,0.0,0.0,-0.5701193809509277,-0.051784053444862366,-0.7674115896224976,0.0,0.0,0.0,-11.112605094909668,-0.24851232767105103,0.815602719783783,0.43293699622154236,0.9306581020355225,0.040629249066114426,-0.06838338822126389,-0.35713908076286316,5.582489013671875,1.8306413888931274,0.46232008934020996,15.007614135742188,-16.69925880432129,21.580760955810547,-0.249832883477211,0.8169763088226318,0.4345454275608063,5.557428359985352,2.467405080795288,0.5790472030639648,0.46262985467910767,0.6837673187255859,0.42000001668930054,-0.36845189332962036,1.0216219425201416,-0.9059193730354309,2.995741844177246,-0.2072291374206543,-0.1977245956659317,-0.18512113392353058,-0.1707594245672226,-0.5835483074188232,-0.4944826662540436,-0.27319493889808655,-0.07022130489349365
0.45,-0.0036459965631365776,0.06897518038749695,0.0,0.7809240221977234,0.0,0.0,-0.6246259808540344,-0.2837766110897064,-0.4674898684024811,0.0,0.0,0.0,-6.449166774749756,-0.15384893119335175,0.8513219356536865,0.44509199261665344,0.8793770670890808,0.08069764077663422,-0.09048502892255783,-0.4604305922985077,6.009496688842773,1.4085021018981934,0.8786798119544983,16.50482749938965,-6.106309413909912,16.169618606567383,-0.15543986856937408,0.853428840637207,0.4464353024959564,5.913624286651611,1.9425408840179443,0.7588375806808472,0.46262985467910767,0.6837673187255859,0.42000001668930054,-0.35176828503608704,1.0163284540176392,-0.9312185645103455,-3.0000033378601074,-0.22037681937217712,-0.20877768099308014,-0.19246600568294525,-0.17488551139831543,-0.6487560868263245,-0.5550182461738586,-0.3861214518547058,-0.24544566869735718
0.4666666666666667,-0.00397697975859046,0.05477706342935562,0.0,0.7621389627456665,0.0,0.0,-0.647413432598114,-0.04920779541134834,-0.8163440823554993,0.0,0.0,0.0,-2.3005588054656982,-0.052058473229408264,0.8736305832862854,0.4578557312488556,0.8101128935813904,0.09377709776163101,-0.09061218053102493,-0.5715875029563904,5.871767520904541,-0.037523575127124786,0.6119725108146667,-10.179803848266602,-6.118809700012207,26.227697372436523,-0.054870110005140305,0.8765413761138916,0.4583812355995178,6.2917890548706055,0.6885272860527039,0.903496503829956,0.46262985467910767,0.6837673187255859,0.42000001668930054,-0.33369725942611694,0.9978300929069519,-0.9812425374984741,-3.000002145767212,-0.22669754922389984,-0.21335981786251068,-0.19438830018043518,-0.1745649129152298,-0.6022236347198486,-0.4108923077583313,-0.18647706508636475,0.00796186737716198
0.48333333333333334,-0.007918335497379303,0.04621640220284462,0.0,0.7354810833930969,0.0,0.0,-0.6775452494621277,-0.22596441209316254,-0.4907366931438446,0.0,0.0,0.0,-5.497021675109863,0.04941980168223381,0.8721125721931458,0.4691522419452667,0.7528446316719055,0.09330414980649948,-0.08585575968027115,-0.6458699703216553,5.817312717437744,-1.0946038961410522,0.5333574414253235,-7.131087779998779,-11.152817726135254,14.60838794708252,0.04674578458070755,0.8773043155670166,0.46994855999946594,6.292265892028809,-0.4259854853153229,0.6866371631622314,0.46262985467910767,0.6837673187255859,0.42000001668930054,-0.3176405429840088,0.8609887957572937,-1.0312654972076416,-3.000002861022949,-0.23932534456253052,-0.22229206562042236,-0.19938798248767853,-0.1761547327041626,-0.5874089002609253,-0.4061766266822815,-0.21882720291614532,-0.054403409361839294
0.5,-0.009049266576766968,0.04100407660007477,0.0,0.7235297560691833,0.0,0.0,-0.6902931928634644,-0.009274446405470371,-0.23405829071998596,0.0,0.0,0.0,-0.9506872296333313,0.14641815423965454,0.8548291921615601,0.4757215976715088,0.6808968186378479,0.06885099411010742,-0.09150650352239609,-0.7233709692955017,5.176605224609375,-2.17202091217041,0.5305898785591125,14.043177604675293,-3.571845531463623,25.60329246520996,0.1447426676750183,0.8612616062164307,0.4773423671722412,5.767889976501465,-1.495157241821289,0.25931087136268616,0.46262985467910767,0.6837673187255859,0.42000001668930054,-0.3064272701740265,0.44308632612228394,-1.0812876224517822,-3.0000011920928955,-0.23997850716114044,-0.23016135394573212,-0.20441217720508575,-0.17874149978160858,-0.03656703978776932,-0.3789576292037964,-0.244217649102211,-0.1349456012248993
0.5166666666666666,-0.006060842424631119,0.03126656636595726,0.0,0.7024727463722229,0.0,0.0,-0.7117106318473816,0.1677151471376419,-0.5844444632530212,0.0,0.0,0.0,-4.376445770263672,0.2339220643043518,0.8285976648330688,0.4745951294898987,0.6315599679946899,0.036276910454034805,-0.08819131553173065,-0.7694401741027832,4.543361186981201,-2.1165332794189453,-0.12422369420528412,-3.436711311340332,7.537724494934082,12.225786209106445,0.23329490423202515,0.8348698616027832,0.4774279296398163,5.014200210571289,-1.9814302921295166,-0.19564232230186462,0.46262985467910767,0.6837673187255859,0.42000001668930054,-0.2986595630645752,0.5777122974395752,-1.1313097476959229,-2.9994568824768066,-0.23490948975086212,-0.23045113682746887,-0.20395228266716003,-0.17778542637825012,0.19409559667110443,-0.023311972618103027,0.01910741813480854,0.043411433696746826
0.5333333333333333,-0.0014712512493133545,0.026590494439005852,0.0,0.6944633722305298,0.0,0.0,-0.719528079032898,0.2896895706653595,-0.20057065784931183,0.0,0.0,0.0,-0.3335285484790802,0.30779749155044556,0.7912156581878662,0.46712425351142883,0.5701422095298767,-0.014594223350286484,-0.08886024355888367,-0.816595733165741,3.704645872116089,-2.676901340484619,-0.5289192795753479,-2.1158993244171143,3.413564920425415,17.31539535522461,0.307719886302948,0.7980902791023254,0.4715736508369446,4.159543037414551,-2.4316720962524414,-0.5147700905799866,0.46262985467910767,0.6837673187255859,0.42000001668930054,-0.2858770489692688,0.8139901757240295,-1.1813318729400635,-2.999997138977051,-0.2347228229045868,-0.23221628367900848,-0.20499901473522186,-0.17850087583065033,0.07691001147031784,-0.005932517349720001,-0.009179966524243355,-0.0329374335706234
0.55,0.005847056396305561,0.02474188059568405,0.0,0.6792604923248291,0.0,0.0,-0.7338972687721252,0.4900968074798584,-0.050527509301900864,0.0,0.0,0.0,-3.3814074993133545,0.3696902394294739,0.7535099387168884,0.4510957598686218,0.5150929689407349,-0.07820983976125717,-0.09463748335838318,-0.8482959866523743,2.9428210258483887,-2.2932446002960205,-0.9425827860832214,-0.3336777091026306,6.440318584442139,23.455528259277344,0.3702582120895386,0.7610073089599609,0.4576512575149536,3.470183849334717,-2.261223554611206,-1.0749688148498535,0.46262985467910767,0.6837673187255859,0.42000001668930054,-0.27194851636886597,0.7775909304618835,-1.231353998184204,-2.9992218017578125,-0.2301105260848999,-0.22961555421352386,-0.20405736565589905,-0.17930051684379578,0.3624270558357239,0.24798640608787537,0.09643366932868958,-0.05541742965579033
0.5666666666666667,0.015301790088415146,0.026385100558400154,0.0,0.6770893931388855,0.0,0.0,-0.7359007596969604,0.5990766882896423,0.1654028445482254,0.0,0.0,0.0,0.5647615790367126,0.4178781509399414,0.7179595232009888,0.43081197142601013,0.43905141949653625,-0.134393110871315,-0.08614694327116013,-0.8841668367385864,2.4963858127593994,-2.102947950363159,-1.269251823425293,-1.9329150915145874,-2.7611782550811768,-17.835840225219727,0.41739970445632935,0.7249600887298584,0.438709020614624,2.2926316261291504,-2.0454294681549072,-1.1961504220962524,0.46262985467910767,0.6837673187255859,0.42000001668930054,-0.2579936981201172,1.1708621978759766,-1.2813665866851807,-2.9992880821228027,-0.22376514971256256,-0.22501768171787262,-0.20261511206626892,-0.18094101548194885,0.44053563475608826,0.3350253701210022,0.10490643978118896,-0.11731162667274475
0.5833333333333334,0.027678072452545166,0.022612158209085464,0.0,0.6633530855178833,0.0,0.0,-0.7483065724372864,0.8193638920783997,-0.36434128880500793,0.0,0.0,0.0,-3.2521941661834717,0.4524686932563782,0.6986948251724243,0.4230182468891144,0.4356149733066559,-0.010311223566532135,-0.05050716921687126,-0.8986557722091675,1.4361909627914429,-0.7983059287071228,-0.046605050563812256,3.2811336517333984,-7.102983474731445,9.62399673461914,0.44981300830841064,0.7029850482940674,0.42685437202453613,1.584247350692749,-0.8246290683746338,-0.05090714246034622,0.46262985467910767,0.6837673187255859,0.42000001668930054,-0.23317590355873108,1.6935113668441772,-1.243175983428955,2.999912738800049,-0.20956595242023468,-0.21273010969161987,-0.19593685865402222,-0.17946182191371918,0.9739953279495239,0.927890956401825,0.5447648167610168,0.19413352012634277
0.6,0.03666309639811516,0.0224129781126976,0.0,0.6611137986183167,0.0,0.0,-0.7502856254577637,0.47347554564476013,-0.018723230808973312,0.0,0.0,0.0,0.5296962857246399,0.47230052947998047,0.6850946545600891,0.4224441945552826,0.4682740271091461,0.001394517719745636,-0.03119019977748394,-0.8830315470695496,1.0870003700256348,-0.8496336340904236,-0.12358632683753967,2.0788583755493164,-1.3114385604858398,6.708433628082275,0.4698549807071686,0.6889874339103699,0.42599648237228394,1.0139316320419312,-0.8213468790054321,-0.1056608036160469,0.46262985467910767,0.6837673187255859,0.42000001668930054,-0.24366459250450134,-2.3235442638397217,-1.1931613683700562,2.9998066425323486,-0.19838450849056244,-0.2014601230621338,-0.1900942325592041,-0.17867517471313477,0.7071519494056702,0.6792648434638977,0.3382638990879059,0.021039536222815514
0.6166666666666667,0.04594353958964348,0.02545975148677826,0.0,0.6480944752693176,0.0,0.0,-0.7615599632263184,0.5867968797683716,0.24493619799613953,0.0,0.0,0.0,-3.018460273742676,0.4845176339149475,0.6785089373588562,0.42203617095947266,0.49831780791282654,-0.000942035811021924,-0.009483630768954754,-0.8669421076774597,0.49492213129997253,-0.10672218352556229,0.09195132553577423,-0.7528824806213379,3.6565327644348145,5.168831825256348,0.4814714789390564,0.6827495098114014,0.4266044497489929,0.5158082842826843,-0.13500508666038513,0.13184066116809845,0.46262985467910767,0.6837673187255859,0.42000001668930054,-0.27264976501464844,-0.9612030386924744,-1.214285969734192,-2.9987401962280273,-0.1868341714143753,-0.19106067717075348,-0.18556761741638184,-0.1795084923505783,0.7466142773628235,0.6483636498451233,0.2911704182624817,-0.03340761736035347
0.6333333333333333,0.05688339099287987,0.02597479335963726,0.0,0.6474905610084534,0.0,0.0,-0.7620734572410583,0.6865856647491455,-0.027031265199184418,0.0,0.0,0.0,0.8330292701721191,0.48883867263793945,0.6772153973579407,0.4225723147392273,0.5226520299911499,-0.02812068723142147,0.028941242024302483,-0.8515905737876892,0.10741433501243591,-0.05770323798060417,0.02750813588500023,2.964367151260376,5.097687721252441,2.296520233154297,0.4845361113548279,0.6805851459503174,0.4281741976737976,-0.0353463776409626,-0.09875158220529556,0.07690460979938507,0.46262985467910767,0.6837673187255859,0.42000001668930054,-0.3053165078163147,-2.7911717891693115,-1.2504836320877075,-1.4500209093093872,-0.1755398064851761,-0.18101321160793304,-0.18071706593036652,-0.17940828204154968,0.6054585576057434,0.5454836487770081,0.26984748244285583,0.015979159623384476
0.65,0.06547487527132034,0.028962314128875732,0.0,0.668673038482666,0.0,0.0,-0.743556559085846,0.4534846246242523,0.1952170431613922,0.0,0.0,0.0,4.259838104248047,0.4870785176753998,0.6764381527900696,0.42198553681373596,0.5375985503196716,-0.024991288781166077,0.03635776415467262,-0.8420458436012268,-0.21641846001148224,-0.03403521329164505,-0.03078087978065014,-1.1750036478042603,-3.1793830394744873,2.229694128036499,0.4813392162322998,0.6797902584075928,0.42978399991989136,-0.23838448524475098,0.07848607748746872,0.10266422480344772,0.46262985467910767,0.6837673187255859,0.42000001668930054,-0.34768226742744446,-2.31400990486145,-1.2985285520553589,-2.9987757205963135,-0.168100044131279,-0.1742551177740097,-0.17779618501663208,-0.18000087141990662,0.49446335434913635,0.4326859712600708,0.20757634937763214,0.0024073664098978043
0.6666666666666666,0.07464717328548431,0.02857358381152153,0.0,0.6765062808990479,0.0,0.0,-0.7364368438720703,0.5545799136161804,-0.06835880130529404,0.0,0.0,0.0,0.19582368433475494,0.4833337366580963,0.6762852668762207,0.42003846168518066,0.5526771545410156,0.0006809391779825091,0.0005483587738126516,-0.8333948850631714,-0.17790639400482178,0.027213584631681442,-0.04410913959145546,-1.9837069511413574,0.6110880970954895,0.9081857800483704,0.4794912338256836,0.6826404333114624,0.43203920125961304,-0.11359579861164093,0.20093461871147156,0.15731072425842285,0.46262985467910767,0.6837673187255859,0.42000001668930054,-0.3971676528453827,-3.0000014305114746,-1.3352934122085571,-1.5297420024871826,-0.15971699357032776,-0.16670066118240356,-0.17331840097904205,-0.1782500147819519,0.43547117710113525,0.41367241740226746,0.2801097631454468,0.16527028381824493
0.6833333333333333,0.08505173772573471,0.02490801177918911,0.0,0.6850937008857727,0.0,0.0,-0.7284549474716187,0.658619225025177,-0.28349927067756653,0.0,0.0,0.0,1.9970974922180176,0.48170819878578186,0.6765596270561218,0.4199998378753662,0.5559626221656799,3.34486753672536e-06,-6.133440365374554e-06,-0.831207275390625,-0.0758795440196991,0.011215162463486195,-4.2134546674788e-05,0.0021038209088146687,0.0011385473189875484,0.3370714485645294,0.477514386177063,0.6843067407608032,0.43616390228271484,-0.12197574973106384,0.0420309379696846,0.39177876710891724,0.46262985467910767,0.6837673187255859,0.42000001668930054,-0.4471815228462219,-2.999999761581421,-1.3834847211837769,-2.9999992847442627,-0.15531055629253387,-0.1616961508989334,-0.16915228962898254,-0.17461347579956055,0.18230627477169037,0.2550605237483978,0.26383230090141296,0.29085269570350647
0.7,0.09720857441425323,0.018294423818588257,0.0,0.68038409948349,0.0,0.0,-0.7328556776046753,0.759490966796875,-0.45512083172798157,0.0,0.0,0.0,-1.7366969585418701,0.4813995361328125,0.6766049861907959,0.4199998676776886,0.556508481502533,-2.237740955024492e-05,9.896911251416896e-06,-0.8308418989181519,-0.0014618411660194397,0.0002828702563419938,-0.0008958741091191769,-0.007931984029710293,0.009232300333678722,-0.0019167482387274504,0.4816100597381592,0.6860474348068237,0.4437994062900543,0.5326263308525085,0.10668221116065979,0.6599329113960266,0.46262985467910767,0.6837673187255859,0.42000001668930054,-0.4971943497657776,-3.0000007152557373,-1.4335030317306519,-2.9999988079071045,-0.1540902704000473,-0.1589469015598297,-0.16559050977230072,-0.1699352264404297,0.025587061420083046,0.13012774288654327,0.20914162695407867,0.3055840730667114
0.7166666666666667,0.11303379386663437,0.017030254006385803,0.0,0.6530474424362183,0.0,0.0,-0.7573170065879822,1.0317490100860596,0.08014369010925293,0.0,0.0,0.0,-5.435943603515625,0.4813966453075409,0.6766054630279541,0.41999995708465576,0.556509256362915,-1.6102991367006325e-06,-6.022333764121868e-06,-0.8308414220809937,7.306648330995813e-05,-0.00040290059405379,-7.69440084695816e-05,0.01047305017709732,-0.003433231031522155,-0.0010465600062161684,0.49503952264785767,0.6865191459655762,0.4624274969100952,1.1169356107711792,-0.04164896160364151,1.6878693103790283,0.46262985467910767,0.6837673187255859,0.42000001668930054,-0.5472069382667542,-2.9999606609344482,-1.4835213422775269,-2.999998092651367,-0.16134043037891388,-0.16334179043769836,-0.16737952828407288,-0.16895484924316406,-0.6121318340301514,-0.4182807505130768,-0.22846657037734985,-0.03272774815559387
0.7333333333333333,0.12464796751737595,0.01901444047689438,0.0,0.6387969851493835,0.0,0.0,-0.7693753242492676,0.6066625118255615,0.02522323653101921,0.0,0.0,0.0,-1.1148395538330078,0.4813966751098633,0.6766054630279541,0.41999995708465576,0.5565091967582703,-1.5154555512708612e-06,-5.4479478421853855e-06,-0.8308413624763489,7.094380998751149e-05,-0.0003837485273834318,-7.367786020040512e-05,0.009957279078662395,-0.0032034949399530888,-0.000998003757558763,0.5137743949890137,0.6897921562194824,0.49312257766723633,1.1767477989196777,0.3386576175689697,1.9848175048828125,0.46262985467910767,0.6837673187255859,0.42000001668930054,-0.5682441592216492,0.2171657681465149,-1.5335396528244019,-2.999999761581421,-0.16723567247390747,-0.1675124615430832,-0.1697295606136322,-0.16940560936927795,-0.107996866106987,-0.09227985888719559,-0.062151212245225906,-0.02736530639231205
0.75,0.1315019279718399,0.021335836499929428,0.0,0.6490657329559326,0.0,0.0,-0.7607322931289673,0.3435961604118347,0.19376429915428162,0.0,0.0,0.0,2.45896315574646,0.4813966751098633,0.6766054630279541,0.41999995708465576,0.5565090775489807,-1.378414253849769e-06,-5.309213065629592e-06,-0.8308415412902832,7.319391443161294e-05,-0.0003844269667752087,-7.348624058067799e-05,0.009988772682845592,-0.003222079249098897,-0.0010041535133495927,0.5312483906745911,0.694707453250885,0.5186820030212402,0.8889695405960083,0.30092519521713257,1.1942169666290283,0.46262985467910767,0.6837673187255859,0.42000001668930054,-0.5436196327209473,2.5159008502960205,-1.4947162866592407,2.999999761581421,-0.16805501282215118,-0.16815033555030823,-0.16986511647701263,-0.1690298318862915,0.014272907748818398,0.01865549571812153,0.04469960927963257,0.06648335605859756
0.7666666666666666,0.13414394855499268,0.01923512853682041,0.0,0.6477904915809631,0.0,0.0,-0.761818528175354,0.14420068264007568,-0.14915882050991058,0.0,0.0,0.0,-1.0030523538589478,0.4813966751098633,0.6766054630279541,0.41999995708465576,0.5565091967582703,-1.40020915750938e-06,-5.177964339964092e-06,-0.8308414220809937,7.306444604182616e-05,-0.0003843652084469795,-7.348344661295414e-05,0.009986618533730507,-0.0032211095094680786,-0.0010040217312052846,0.5399420261383057,0.7012031078338623,0.5329136848449707,0.05391368269920349,0.2963804602622986,0.6477019786834717,0.46262985467910767,0.6837673187255859,0.42000001668930054,-0.5279614329338074,-0.39698326587677,-1.444663643836975,2.9999992847442627,-0.16454176604747772,-0.16498547792434692,-0.16666139662265778,-0.1659107804298401,0.050762224942445755,0.06941317021846771,0.10789783298969269,0.1303994059562683
0.7833333333333333,0.1340619921684265,0.022449085488915443,0.0,0.6583383083343506,0.0,0.0,-0.7527221441268921,-0.03228457272052765,0.21147453784942627,0.0,0.0,0.0,2.4034881591796875,0.4813966751098633,0.6766054630279541,0.41999995708465576,0.5565090775489807,-1.4756209338884219e-06,-5.4321508287102915e-06,-0.8308415412902832,7.437768363161013e-05,-0.00038450161810033023,-7.349834777414799e-05,0.009991777129471302,-0.00322325830347836,-0.0010073543526232243,0.5379294157028198,0.7039337158203125,0.5389092564582825,-0.13838449120521545,0.18888960778713226,0.10395824909210205,0.46262985467910767,0.6837673187255859,0.42000001668930054,-0.5134520530700684,1.9270615577697754,-1.4619238376617432,-3.0000009536743164,-0.1677631288766861,-0.16702969372272491,-0.1672697514295578,-0.16548804938793182,-0.07286589592695236,-0.03287969529628754,0.02516358345746994,0.060353294014930725
0.8,0.13677693903446198,0.02066528983414173,0.0,0.6559799313545227,0.0,0.0,-0.7547783255577087,0.10603170841932297,-0.025516033172607422,0.0,0.0,0.0,-0.9152938723564148,0.4813966751098633,0.6766054630279541,0.41999995708465576,0.5565090775489807,-1.4507432979371515e-06,-5.455330665427027e-06,-0.8308414220809937,7.413546700263396e-05,-0.00038436352042481303,-7.347669452428818e-05,0.00998760387301445,-0.003220070619136095,-0.0010063869412988424,0.5310201644897461,0.7096691131591797,0.5348464250564575,-0.8614371418952942,0.3963444232940674,-0.4324747323989868,0.46262985467910767,0.6837673187255859,0.42000001668930054,-0.5087432861328125,-1.107439398765564,-1.4233046770095825,2.999999761581421,-0.16502295434474945,-0.16446523368358612,-0.16455471515655518,-0.16296151280403137,-0.055036500096321106,-0.024830341339111328,0.020931363105773926,0.04127039760351181
0.8166666666666667,0.14042618870735168,0.018875133246183395,0.0,0.666238009929657,0.0,0.0,-0.7457391619682312,0.26027917861938477,-0.22208714485168457,0.0,0.0,0.0,2.3676576614379883,0.4813966751098633,0.6766054630279541,0.41999995708465576,0.5565091371536255,-1.3823654398947838e-06,-5.335840342013398e-06,-0.8308414816856384,7.346725033130497e-05,-0.0003845610190182924,-7.349858060479164e-05,0.009993059560656548,-0.0032246264163404703,-0.0010051291901618242,0.5193681120872498,0.7136518955230713,0.5270581245422363,-0.5167745351791382,0.17894184589385986,-0.4491872787475586,0.46262985467910767,0.6837673187255859,0.42000001668930054,-0.5319032073020935,-1.6091769933700562,-1.4409904479980469,-2.999999761581421,-0.16731639206409454,-0.1657688170671463,-0.16456256806850433,-0.16204586625099182,-0.10830552130937576,-0.04730357602238655,0.03553582727909088,0.10090163350105286
0.8333333333333334,0.14612044394016266,0.01340904738754034,0.0,0.6636762619018555,0.0,0.0,-0.7480199337005615,0.37767910957336426,-0.38318800926208496,0.0,0.0,0.0,-1.3191505670547485,0.4813966751098633,0.6766054630279541,0.41999995708465576,0.5565091371536255,-1.369074198009912e-06,-5.368979600461898e-06,-0.8308414220809937,7.466188253602013e-05,-0.0003844412858597934,-7.346644997596741e-05,0.009991026483476162,-0.0032219672575592995,-0.001007801154628396,0.5139063000679016,0.7147142887115479,0.5145429372787476,-0.17896175384521484,-0.07551594078540802,-0.850888729095459,0.46262985467910767,0.6837673187255859,0.42000001668930054,-0.5767987370491028,-3.0000007152557373,-1.4910087585449219,-3.0,-0.17009130120277405,-0.16716793179512024,-0.16414859890937805,-0.16001321375370026,-0.15869909524917603,-0.06012892350554466,0.06690580397844315,0.186359703540802
0.85,0.15414683520793915,0.005364533048123121,0.0,0.6406670212745667,0.0,0.0,-0.7678188681602478,0.5187854766845703,-0.6033405065536499,0.0,0.0,0.0,-4.445703029632568,0.4813966751098633,0.6766054630279541,0.41999995708465576,0.5565094351768494,-1.4906757996868691e-06,-5.3490248319576494e-06,-0.8308411836624146,7.194924546638504e-05,-0.0003842666046693921,-7.362430915236473e-05,0.009977337904274464,-0.0032160768751055002,-0.0010016669984906912,0.5156586766242981,0.7123075723648071,0.5065260529518127,0.3829907774925232,-0.2057563215494156,0.013516221195459366,0.46262985467910767,0.6837673187255859,0.42000001668930054,-0.6268094182014465,-2.999990940093994,-1.5410270690917969,-2.9999990463256836,-0.17484374344348907,-0.1701117902994156,-0.16481280326843262,-0.1584908664226532,-0.2966349422931671,-0.1927945911884308,-0.06095662713050842,0.0676744282245636
0.8666666666666667,0.16647887229919434,0.0017565282760187984,0.0,0.6305817365646362,0.0,0.0,-0.7761228680610657,0.6478380560874939,-0.184331014752388,0.0,0.0,0.0,-0.4763139486312866,0.4813966751098633,0.6766054630279541,0.41999995708465576,0.5565091371536255,-1.3708953474633745e-06,-5.251121365290601e-06,-0.8308414816856384,7.309451757464558e-05,-0.00038452722947113216,-7.350998930633068e-05,0.009991084225475788,-0.0032238999847322702,-0.0010042086942121387,0.5214741826057434,0.7121477127075195,0.5137844085693359,0.4223857522010803,0.39329594373703003,0.7613549828529358,0.46262985467910767,0.6837673187255859,0.42000001668930054,-0.644832968711853,0.5423600673675537,-1.5910453796386719,-2.9999845027923584,-0.18411925435066223,-0.17769990861415863,-0.17044934630393982,-0.1623707264661789,-0.2898154854774475,-0.2967892587184906,-0.28706201910972595,-0.28280019760131836
0.8833333333333333,0.17438220977783203,-7.508245471399277e-05,0.0,0.6438495516777039,0.0,0.0,-0.765152096748352,0.42836081981658936,-0.11230490356683731,0.0,0.0,0.0,2.805546760559082,0.4813966751098633,0.6766054630279541,0.41999995708465576,0.5565091967582703,-1.4724108723385143e-06,-5.467230039357673e-06,-0.8308414816856384,7.438375178026035e-05,-0.0003843759768642485,-7.347320206463337e-05,0.00998841691762209,-0.0032208668999373913,-0.0010070307180285454,0.5304718017578125,0.7147046327590942,0.5210542678833008,0.6156980395317078,0.0019609592854976654,0.13595905900001526,0.46262985467910767,0.6837673187255859,0.42000001668930054,-0.6357824206352234,0.5353186130523682,-1.5520544052124023,3.0000007152557373,-0.18711677193641663,-0.18085700273513794,-0.17344485223293304,-0.165213480591774,-0.06785447895526886,-0.08372490853071213,-0.07933904975652695,-0.07187747955322266
0.9,0.17822282016277313,-0.006497201509773731,0.0,0.6437515616416931,0.0,0.0,-0.7652345299720764,0.20820225775241852,-0.3765932619571686,0.0,0.0,0.0,-0.987619936466217,0.4813966751098633,0.6766054630279541,0.41999995708465576,0.5565093159675598,-1.510069523646962e-06,-5.25126461070613e-06,-0.8308412432670593,7.326522609218955e-05,-0.00038426779792644083,-7.361359894275665e-05,0.009978778660297394,-0.0032156927045434713,-0.0010046495590358973,0.5373242497444153,0.715216875076294,0.517761766910553,0.12568718194961548,-0.11240452527999878,-0.3776533603668213,0.46262985467910767,0.6837673187255859,0.42000001668930054,-0.6496264934539795,-1.9667208194732666,-1.5020159482955933,3.0,-0.18457604944705963,-0.17915624380111694,-0.17231601476669312,-0.16460789740085602,0.003020976670086384,-0.010786380618810654,-0.017721856012940407,-0.029025092720985413
