vladlanda/robotic-transformer/data/env_000_episode_0125.csv
sim_time_s,robot_box_x,robot_box_y,robot_box_z,robot_box_quat_w,robot_box_quat_x,robot_box_quat_y,robot_box_quat_z,robot_box_linvel_x,robot_box_linvel_y,robot_box_linvel_z,robot_box_angvel_x,robot_box_angvel_y,robot_box_angvel_z,cube_world_x,cube_world_y,cube_world_z,cube_quat_w,cube_quat_x,cube_quat_y,cube_quat_z,cube_linvel_x,cube_linvel_y,cube_linvel_z,cube_angvel_x,cube_angvel_y,cube_angvel_z,endpoint_world_x,endpoint_world_y,endpoint_world_z,endpoint_linvel_x,endpoint_linvel_y,endpoint_linvel_z,target_cube_world_x,target_cube_world_y,target_cube_world_z,gripper_actual_pos_rad_gp_leftgearjoint,gripper_actual_vel_rad_s_gp_leftgearjoint,gripper_actual_pos_rad_gp_rotatingjoint,gripper_actual_vel_rad_s_gp_rotatingjoint,motor_angle_rad_joint1,motor_angle_rad_joint2,motor_angle_rad_joint3,motor_angle_rad_joint4,motor_speed_rad_s_joint1,motor_speed_rad_s_joint2,motor_speed_rad_s_joint3,motor_speed_rad_s_joint4
0.0,0.0,0.0,0.0,1.0,0.0,0.0,0.0,0.0,0.0,0.0,0.0,0.0,0.0,-0.37138909101486206,0.6859877109527588,0.41999998688697815,1.0,0.0,0.0,0.0,0.0,0.0,0.0,0.0,0.0,0.0,3.42540442943573e-06,-0.005000244826078415,1.313499927520752,0.0,0.0,0.0,0.4594590663909912,0.7072746753692627,0.42000001668930054,-1.5707999467849731,0.0,0.0,0.0,0.0,0.0,0.0,0.0,0.0,0.0,0.0,0.0
0.016666666666666666,0.002883138135075569,0.0021742996759712696,0.0,0.9998205900192261,0.0,0.0,0.018942520022392273,0.24102084338665009,0.1821841448545456,0.0,0.0,0.0,3.1417744159698486,-0.3713892102241516,0.6859874129295349,0.41999998688697815,1.0,3.279964630564791e-06,-8.339746386809566e-07,8.465587342243452e-08,-1.9833529222523794e-05,0.00017983045836444944,-6.132945418357849e-05,0.0009432713268324733,-0.004689474124461412,-0.00031981561915017664,-0.007107768207788467,0.0033954745158553123,1.3159387111663818,-0.8138192892074585,0.9874475002288818,0.18096673488616943,0.4594590663909912,0.7072746753692627,0.42000001668930054,-1.5301094055175781,3.00000262260437,-0.04584937542676926,-3.0000014305114746,0.0008704426581971347,0.0007970972219482064,0.000711655302438885,0.0006115107680670917,0.11096300929784775,0.09760020673274994,0.08337670564651489,0.06826994568109512
0.03333333333333333,0.008967325091362,0.006792199332267046,0.0,0.9998088479042053,0.0,0.0,0.01955266110599041,0.40708574652671814,0.3151044547557831,0.0,0.0,0.0,-0.8690290451049805,-0.37138932943344116,0.6859873533248901,0.4200000464916229,1.0,3.3908354453160428e-06,-2.1324485715012997e-06,-3.710144014235084e-08,0.00026357831666246057,0.00026937946677207947,-0.00010509486310184002,-0.0017707672668620944,0.004130808170884848,-0.000135478752781637,-0.02752656489610672,0.026304489001631737,1.3165867328643799,-1.5894584655761719,1.6184436082839966,-0.08634491264820099,0.4594590663909912,0.7072746753692627,0.42000001668930054,-1.4800900220870972,3.000000238418579,-0.09588921815156937,-3.0000007152557373,0.0029903524555265903,0.002652662806212902,0.0022772452794015408,0.0018607561942189932,0.16413959860801697,0.13969896733760834,0.11376378685235977,0.08624884486198425
0.05,0.01847902312874794,0.013896448537707329,0.0,0.999971866607666,0.0,0.0,-0.007500227075070143,0.6362051367759705,0.47229331731796265,0.0,0.0,0.0,-4.0733208656311035,-0.37138935923576355,0.6859874129295349,0.4200000464916229,1.0,3.7651125239790417e-06,-2.211879063906963e-06,5.622505128144439e-09,0.000265308452071622,0.0002669153327587992,-0.00010440615005791187,-0.001724260626360774,0.004177352879196405,-0.00012949221127200872,-0.057112958282232285,0.05772119015455246,1.3118431568145752,-1.9479234218597412,2.076571464538574,-0.46528881788253784,0.4594590663909912,0.7072746753692627,0.42000001668930054,-1.4300717115402222,3.000002145767212,-0.14592790603637695,-3.0000009536743164,0.006012542173266411,0.005173115991055965,0.004261388909071684,0.003273006295785308,0.20700755715370178,0.16666142642498016,0.12439228594303131,0.08012377470731735
0.06666666666666667,0.030805284157395363,0.023387400433421135,0.0,0.9998695254325867,0.0,0.0,-0.016151877120137215,0.7727373838424683,0.6162417531013489,0.0,0.0,0.0,-0.03547879680991173,-0.37138935923576355,0.6859873533248901,0.4200000464916229,0.9999999403953552,3.4066883927152958e-06,-2.285532218593289e-06,4.300976286231162e-07,0.0002670241810847074,0.00026791772688739,-0.00010438147000968456,-0.00174069800414145,0.00421178387477994,-0.00012850729399360716,-0.09339363127946854,0.09150572121143341,1.3011019229888916,-2.267622709274292,2.144960880279541,-0.8133884072303772,0.4594590663909912,0.7072746753692627,0.42000001668930054,-1.3800452947616577,3.0000007152557373,-0.14866600930690765,2.2172727584838867,0.008630525320768356,0.007041160482913256,0.005339141469448805,0.003519339021295309,0.1380196213722229,0.08396803587675095,0.02776211127638817,-0.03065621666610241
0.08333333333333333,0.04228281229734421,0.03536979481577873,0.0,0.9992249608039856,0.0,0.0,-0.039362698793411255,0.6767143607139587,0.7746537923812866,0.0,0.0,0.0,-3.6773765087127686,-0.37138935923576355,0.6859873533248901,0.4200000464916229,1.0,3.6972253383282805e-06,-2.188838152505923e-06,-2.632317830375541e-07,0.00026389729464426637,0.00026586424792185426,-0.00010433932766318321,-0.0017081560799852014,0.004150177352130413,-0.0001299097202718258,-0.1262160986661911,0.13084635138511658,1.28675377368927,-1.71091628074646,2.587092161178589,-0.8792418241500854,0.4594590663909912,0.7072746753692627,0.42000001668930054,-1.3300400972366333,2.999999523162842,-0.18490351736545563,-3.000000476837158,0.007980824448168278,0.005326652433723211,0.0025167884305119514,-0.00045516996760852635,-0.11810464411973953,-0.19771228730678558,-0.2795390784740448,-0.363639235496521
0.1,0.04744797199964523,0.05130293592810631,0.0,0.9956978559494019,0.0,0.0,-0.09265939146280289,0.3744945228099823,0.8564205765724182,0.0,0.0,0.0,-6.969039440155029,-0.37138935923576355,0.6859873533248901,0.4200000464916229,0.9999999403953552,3.620277084337431e-06,-2.2651142899121623e-06,1.7461523782458244e-07,0.0002667682128958404,0.0002674072457011789,-0.0001040794886648655,-0.0017386354738846421,0.004209177568554878,-0.00012775110371876508,-0.15594476461410522,0.17664438486099243,1.2685452699661255,-1.847493290901184,2.8580946922302246,-1.0617213249206543,0.4594590663909912,0.7072746753692627,0.42000001668930054,-1.2800238132476807,2.9999873638153076,-0.15119843184947968,3.000000476837158,0.000950614339672029,-0.0025996423792093992,-0.006348938215523958,-0.010307655669748783,-0.18991899490356445,-0.28059864044189453,-0.3706432282924652,-0.46008142828941345
0.11666666666666667,0.05855272337794304,0.06279441714286804,0.0,0.9922149777412415,0.0,0.0,-0.12453694641590118,0.694591760635376,0.6793131828308105,0.0,0.0,0.0,-2.6357550621032715,-0.37138935923576355,0.6859873533248901,0.4200000464916229,1.0,3.798308171099052e-06,-2.262737325509079e-06,-1.5021218757738097e-07,0.0002637405996210873,0.000265660259174183,-0.00010428996756672859,-0.0017054072814062238,0.00414755754172802,-0.000129801788716577,-0.1906595528125763,0.22167916595935822,1.2494449615478516,-2.090989589691162,2.9125239849090576,-1.235262393951416,0.4594590663909912,0.7072746753692627,0.42000001668930054,-1.230034589767456,3.0000007152557373,-0.18295171856880188,-3.000000476837158,-0.0005713877035304904,-0.005820319056510925,-0.011242784559726715,-0.016847403720021248,-0.22931638360023499,-0.31662097573280334,-0.4030519425868988,-0.4884367287158966
0.13333333333333333,0.06746380031108856,0.07213746756315231,0.0,0.985988199710846,0.0,0.0,-0.16681522130966187,0.4967825412750244,0.4825926125049591,0.0,0.0,0.0,-5.949100971221924,-0.37138935923576355,0.6859874129295349,0.4200000464916229,0.9999999403953552,3.55037650479062e-06,-2.229731535408064e-06,2.929058098288806e-07,0.0002670335816219449,0.0002677934826351702,-0.00010417238809168339,-0.0017440745141357183,0.004213663749396801,-0.0001280020660487935,-0.2237238883972168,0.274932324886322,1.2245486974716187,-1.8176440000534058,3.554312229156494,-1.7021548748016357,0.4594590663909912,0.7072746753692627,0.42000001668930054,-1.180018663406372,2.999995470046997,-0.149244025349617,3.0000011920928955,-0.005617899354547262,-0.012292302213609219,-0.019108649343252182,-0.026074187830090523,-0.3259008228778839,-0.40987449884414673,-0.4912140965461731,-0.5698624849319458
0.15,0.07268670946359634,0.08226866275072098,0.0,0.9787757396697998,0.0,0.0,-0.2049342840909958,0.248944491147995,0.6433692574501038,0.0,0.0,0.0,-4.088808059692383,-0.37138932943344116,0.6859873533248901,0.4200000464916229,1.0,3.3320845886919415e-06,-2.1018886400270276e-06,1.313070612241063e-07,0.00026730558602139354,0.0002685959043446928,-0.00010459567420184612,-0.0017497815424576402,0.004215646535158157,-0.00012928525393363088,-0.2583882212638855,0.3322485089302063,1.1912682056427002,-2.0284180641174316,3.630784034729004,-2.3085126876831055,0.4594590663909912,0.7072746753692627,0.42000001668930054,-1.1387121677398682,2.0098166465759277,-0.18103013932704926,-2.999999523162842,-0.012428147718310356,-0.02031479775905609,-0.02828083746135235,-0.03633363917469978,-0.4501015841960907,-0.5103325247764587,-0.5664808750152588,-0.6186030507087708
0.16666666666666666,0.08218974620103836,0.09078395366668701,0.0,0.9655798077583313,0.0,0.0,-0.2601069509983063,0.5723795294761658,0.4752263128757477,0.0,0.0,0.0,-7.372237682342529,-0.37138935923576355,0.6859873533248901,0.4200000464916229,1.0,3.7371814869402442e-06,-2.2329975308821304e-06,-1.8765943821108522e-07,0.0002643296611495316,0.0002662689657881856,-0.00010446016676723957,-0.0017119699623435736,0.004157591611146927,-0.00013001523620914668,-0.2915138006210327,0.39787688851356506,1.1451714038848877,-1.8237881660461426,4.256231307983398,-3.224039077758789,0.4594590663909912,0.7072746753692627,0.42000001668930054,-1.0911080837249756,2.9999983310699463,-0.23106028139591217,-2.999999523162842,-0.018331686034798622,-0.027092253789305687,-0.035865478217601776,-0.04466176778078079,-0.5737788677215576,-0.5831729769706726,-0.5906375646591187,-0.596443235874176
0.18333333333333332,0.08679981529712677,0.10174205899238586,0.0,0.9559361338615417,0.0,0.0,-0.2935747802257538,0.2439911663532257,0.6779945492744446,0.0,0.0,0.0,-2.9573137760162354,-0.37138935923576355,0.6859874129295349,0.4200000464916229,0.9999999403953552,3.6601361443899805e-06,-2.3021373181109084e-06,2.5284839466621634e-07,0.00026690843515098095,0.00026760276523418725,-0.00010412652045488358,-0.0017413680907338858,0.004211578983813524,-0.00012787070591002703,-0.3240472674369812,0.4636305570602417,1.0823333263397217,-1.6892822980880737,4.070862293243408,-4.137642860412598,0.4594590663909912,0.7072746753692627,0.42000001668930054,-1.041105031967163,2.9999990463256836,-0.28108781576156616,-2.999999523162842,-0.03294670954346657,-0.041077565401792526,-0.04921664297580719,-0.05738726630806923,-0.8399340510368347,-0.8066743612289429,-0.7720590829849243,-0.73675537109375
0.2,0.08969064056873322,0.1094391867518425,0.0,0.9414781332015991,0.0,0.0,-0.33707404136657715,0.1445462852716446,0.35558706521987915,0.0,0.0,0.0,-6.385321140289307,-0.37138935923576355,0.6859873533248901,0.4200000464916229,1.0,3.5907003166357754e-06,-2.30029900194495e-06,1.38729205900745e-07,0.0002665481297299266,0.0002673238341230899,-0.00010424177162349224,-0.0017326157540082932,0.004203508608043194,-0.00012821020209230483,-0.3498604893684387,0.5314515829086304,1.0059776306152344,-1.2158600091934204,4.080852031707764,-4.976334571838379,0.4594590663909912,0.7072746753692627,0.42000001668930054,-0.9910948276519775,2.999998092651367,-0.3311142325401306,-2.9999985694885254,-0.04659870266914368,-0.05411848425865173,-0.061622295528650284,-0.06914564967155457,-0.8145491480827332,-0.7721656560897827,-0.7286825776100159,-0.684790313243866
0.21666666666666667,0.0927446261048317,0.11865735054016113,0.0,0.9315064549446106,0.0,0.0,-0.36372485756874084,0.23517723381519318,0.5311337113380432,0.0,0.0,0.0,-2.367493152618408,-0.37138935923576355,0.6859874129295349,0.4200000464916229,1.0,3.6067965538677527e-06,-2.26086558541283e-06,1.9618761726292178e-08,0.00026447168784216046,0.0002655836578924209,-0.00010396330617368221,-0.0017087386222556233,0.004164193756878376,-0.00012832140782848,-0.37035754323005676,0.5904657244682312,0.9164465665817261,-0.9565938115119934,3.290592670440674,-5.670060634613037,0.4594590663909912,0.7072746753692627,0.42000001668930054,-0.9410854578018188,2.9999988079071045,-0.3811432719230652,-3.00000262260437,-0.061744529753923416,-0.06905952095985413,-0.07603106647729874,-0.08237883448600769,-0.7699227333068848,-0.7990360856056213,-0.8262097835540771,-0.781417965888977
0.23333333333333334,0.09369128197431564,0.12447285652160645,0.0,0.9325374364852905,0.0,0.0,-0.3610733449459076,-0.02926570363342762,0.29538020491600037,0.0,0.0,0.0,1.3696613311767578,-0.37138932943344116,0.6859873533248901,0.4200000464916229,0.9999999403953552,3.742101398529485e-06,-2.227345248684287e-06,4.589114155351126e-07,0.0002647513756528497,0.0002667136723175645,-0.00010453537106513977,-0.0017189161153510213,0.0041657742112874985,-0.00013019364268984646,-0.3895872235298157,0.6333283185958862,0.8191046714782715,-1.034163236618042,1.9996354579925537,-6.009721755981445,0.4594590663909912,0.7072746753692627,0.42000001668930054,-0.8910747766494751,2.9999797344207764,-0.43117398023605347,-3.000002384185791,-0.07697697728872299,-0.08436865359544754,-0.09141981601715088,-0.09736215323209763,-0.9844696521759033,-0.9793809056282043,-0.9748560190200806,-0.9718326330184937
0.25,0.09119606763124466,0.12649258971214294,0.0,0.928728461265564,0.0,0.0,-0.37076058983802795,-0.21488721668720245,0.06676024943590164,0.0,0.0,0.0,-2.0952329635620117,-0.37138935923576355,0.6859873533248901,0.4200000464916229,1.0,3.39423263540084e-06,-2.2818808247393463e-06,1.3363670348098822e-07,0.0002667944645509124,0.00026794031145982444,-0.00010439474135637283,-0.001741691492497921,0.00420658104121685,-0.0001288425555685535,-0.4010896682739258,0.6631293892860413,0.7133687734603882,-0.4165651500225067,1.3813618421554565,-6.483060359954834,0.4594590663909912,0.7072746753692627,0.42000001668930054,-0.841064453125,2.9999969005584717,-0.4812051057815552,-3.000000238418579,-0.09355074167251587,-0.1008848026394844,-0.10788805037736893,-0.11380155384540558,-0.992012619972229,-0.9934770464897156,-0.9900084137916565,-0.9849510788917542
0.26666666666666666,0.09109465777873993,0.1264692097902298,0.0,0.930558443069458,0.0,0.0,-0.3661434054374695,0.08492190390825272,-0.05063140019774437,0.0,0.0,0.0,1.5114907026290894,-0.37138935923576355,0.6859874129295349,0.4200000464916229,1.0,3.683239356178092e-06,-2.309933051947155e-06,2.1011992146213743e-07,0.0002647916553542018,0.00026625811005942523,-0.00010421057231724262,-0.001716860686428845,0.004168972373008728,-0.00012909462384413928,-0.4071505069732666,0.6770932078361511,0.606286883354187,-0.17673389613628387,0.2849977910518646,-6.309158802032471,0.4594590663909912,0.7072746753692627,0.42000001668930054,-0.7910556197166443,2.999988079071045,-0.5312352180480957,-2.9999990463256836,-0.11059267818927765,-0.11781023442745209,-0.12472737580537796,-0.13057580590248108,-0.9973934888839722,-0.9979843497276306,-0.9984949231147766,-0.9989407062530518
0.2833333333333333,0.08868365734815598,0.1247546374797821,0.0,0.9270645976066589,0.0,0.0,-0.374901682138443,-0.22798919677734375,-0.1310870498418808,0.0,0.0,0.0,-2.0174288749694824,-0.37138935923576355,0.6859873533248901,0.4200000464916229,1.0,3.306690359750064e-06,-2.2123749658931047e-06,2.6260173058290093e-07,0.0002666071231942624,0.00026745113427750766,-0.00010424456559121609,-0.001735334168188274,0.004204478580504656,-0.0001282861630897969,-0.40134406089782715,0.6808339357376099,0.5060592293739319,0.7919371128082275,0.12246838212013245,-5.565191268920898,0.4594590663909912,0.7072746753692627,0.42000001668930054,-0.7410468459129333,3.000004291534424,-0.5812638401985168,-3.0,-0.12895074486732483,-0.13578841090202332,-0.14241637289524078,-0.1480346918106079,-1.0210020542144775,-1.0158650875091553,-1.0119388103485107,-1.0088005065917969
0.3,0.08420871198177338,0.12079867720603943,0.0,0.9296354651451111,0.0,0.0,-0.36848053336143494,-0.2963006794452667,-0.28189337253570557,0.0,0.0,0.0,1.7039581537246704,-0.37138935923576355,0.6859873533248901,0.4200000464916229,1.0,3.6410058328328887e-06,-2.377771352257696e-06,-4.1935263084269536e-07,0.0002661160542629659,0.00026725951465778053,-0.00010423478670418262,-0.0017336473101750016,0.004194711335003376,-0.00012854898523073643,-0.3871415853500366,0.6850364208221436,0.4186040163040161,1.03774094581604,0.2420085072517395,-5.035964012145996,0.4594590663909912,0.7072746753692627,0.42000001668930054,-0.6910396218299866,3.000000476837158,-0.6312905550003052,-3.000001907348633,-0.14534883201122284,-0.1522616297006607,-0.15898609161376953,-0.16470693051815033,-1.0126056671142578,-1.0095692873001099,-1.0072394609451294,-1.0053645372390747
0.31666666666666665,0.07774144411087036,0.11464232951402664,0.0,0.9262803792953491,0.0,0.0,-0.3768351376056671,-0.4330903887748718,-0.40707236528396606,0.0,0.0,0.0,-1.9944876432418823,-0.3713766932487488,0.6853249669075012,0.42009928822517395,0.9999493360519409,0.0024652716238051653,-2.029297138506081e-05,-0.009752501733601093,0.006248314864933491,0.015353475697338581,-0.021062815561890602,-1.0640300512313843,0.029320888221263885,0.28221219778060913,-0.38931959867477417,0.6872103214263916,0.4273878335952759,-0.13234469294548035,0.11013351380825043,-0.135772243142128,0.4594590663909912,0.7072746753692627,0.42000001668930054,-0.6411232948303223,2.999988555908203,-0.6817905306816101,-3.0000014305114746,-0.1507398933172226,-0.15753360092639923,-0.16371823847293854,-0.16844429075717926,-0.46967098116874695,-0.4129598140716553,-0.3369140028953552,-0.24267561733722687
0.3333333333333333,0.06895560026168823,0.10628332942724228,0.0,0.9289387464523315,0.0,0.0,-0.370233416557312,-0.569068193435669,-0.5392785668373108,0.0,0.0,0.0,1.7685680389404297,-0.3713749349117279,0.6854233741760254,0.4199999272823334,0.9999523758888245,1.1443424909884925e-06,2.0388995380926644e-06,-0.009755750186741352,-0.00021954101976007223,-0.00011479586828500032,-5.838228389620781e-06,0.005726445000618696,-0.008459332399070263,-0.00010262664000038058,-0.38865888118743896,0.6909351348876953,0.424831748008728,0.20733723044395447,0.3070378303527832,-0.1463596373796463,0.4594590663909912,0.7072746753692627,0.42000001668930054,-0.5911175608634949,2.999983549118042,-0.7318269610404968,-2.9999911785125732,-0.1599663347005844,-0.1651008427143097,-0.16929234564304352,-0.1717604547739029,-0.5699446797370911,-0.442297101020813,-0.29548001289367676,-0.13570551574230194
0.35,0.0578824058175087,0.09571212530136108,0.0,0.9257047772407532,0.0,0.0,-0.37824684381484985,-0.7073081731796265,-0.6734679937362671,0.0,0.0,0.0,-1.9772047996520996,-0.36785098910331726,0.689142644405365,0.42000019550323486,0.9988415837287903,3.030339485121658e-06,5.591898570855847e-06,-0.048117801547050476,0.31333205103874207,0.2684430778026581,-0.000279681698884815,0.000505763222463429,-0.00827852077782154,-9.647899627685547,-0.3834646940231323,0.6946779489517212,0.42278313636779785,0.47729942202568054,0.2900153696537018,-0.11299477517604828,0.4594590663909912,0.7072746753692627,0.42000001668930054,-0.5411126613616943,3.000000476837158,-0.7818719148635864,-2.999998092651367,-0.1694822460412979,-0.17230969667434692,-0.17384742200374603,-0.1734461933374405,-0.5455923676490784,-0.39729946851730347,-0.2295016348361969,-0.051231153309345245
0.36666666666666664,0.04944417625665665,0.08245871216058731,0.0,0.9112902283668518,0.0,0.0,-0.41176459193229675,-0.4320240616798401,-0.8470458984375,0.0,0.0,0.0,-5.221184730529785,-0.3609147071838379,0.695446252822876,0.42000049352645874,0.9908110499382019,-1.2030592188239098e-05,4.607150913216174e-06,-0.1352532058954239,0.5346844792366028,0.5251296758651733,-0.0009495788253843784,0.047033172100782394,-0.008920910768210888,-15.349823951721191,-0.3727511167526245,0.701807975769043,0.4219726324081421,0.8562029600143433,0.6375054121017456,0.008713118731975555,0.4594590663909912,0.7072746753692627,0.42000001668930054,-0.4911079406738281,3.000000476837158,-0.8319215774536133,-2.9999988079071045,-0.178105890750885,-0.17831915616989136,-0.17687024176120758,-0.17328065633773804,-0.45654162764549255,-0.29834240674972534,-0.1175994798541069,0.074842169880867
0.3833333333333333,0.03871592879295349,0.06740423291921616,0.0,0.8825735449790955,0.0,0.0,-0.4701744318008423,-0.7159302830696106,-0.932049572467804,0.0,0.0,0.0,-8.72161865234375,-0.3417336642742157,0.7158533930778503,0.42096513509750366,0.9759089350700378,0.005320190452039242,-0.007463288027793169,-0.21798540651798248,1.972865104675293,1.880576252937317,0.17874251306056976,1.0672872066497803,-1.9757030010223389,-5.920560359954834,-0.34814631938934326,0.7196453809738159,0.42367827892303467,2.301305055618286,1.679095983505249,0.16780813038349152,0.4594590663909912,0.7072746753692627,0.42000001668930054,-0.4411020278930664,2.999999761581421,-0.8819595575332642,-2.9991703033447266,-0.18810737133026123,-0.18510012328624725,-0.1800958812236786,-0.17282097041606903,-0.6266578435897827,-0.4170212745666504,-0.19055144488811493,0.03982611745595932
0.4,0.030042409896850586,0.05521022528409958,0.0,0.8367628455162048,0.0,0.0,-0.5475654602050781,-0.4549866318702698,-0.6639339923858643,0.0,0.0,0.0,-11.323076248168945,-0.28191715478897095,0.7536040544509888,0.4250769019126892,0.958892822265625,0.03232654184103012,-0.017229389399290085,-0.28139424324035645,4.763027191162109,2.580014228820801,0.1727612465620041,27.749469757080078,-18.247955322265625,-3.522911548614502,-0.28573697805404663,0.7565546035766602,0.4280986189842224,4.7483720779418945,2.7513883113861084,0.41370874643325806,0.4594590663909912,0.7072746753692627,0.42000001668930054,-0.3952119052410126,1.9202330112457275,-0.844962477684021,2.9955954551696777,-0.20081797242164612,-0.193814218044281,-0.18440550565719604,-0.17283062636852264,-0.6227056980133057,-0.43976283073425293,-0.2173331081867218,-0.0012538403971120715
0.4166666666666667,0.025284510105848312,0.046714622527360916,0.0,0.7718929648399353,0.0,0.0,-0.6357524394989014,-0.22787082195281982,-0.4512330889701843,0.0,0.0,0.0,-13.949311256408691,-0.17796240746974945,0.801169753074646,0.432359904050827,0.9316848516464233,0.09520522505044937,-0.053994420915842056,-0.3463866412639618,7.840541362762451,2.6161446571350098,0.5497982501983643,8.039006233215332,-6.9849419593811035,15.682441711425781,-0.18194034695625305,0.8056744337081909,0.4355337619781494,7.429226875305176,3.1156299114227295,0.5914508104324341,0.4594590663909912,0.7072746753692627,0.42000001668930054,-0.3782270550727844,0.7250387072563171,-0.8428654670715332,-2.2554843425750732,-0.21277029812335968,-0.20239567756652832,-0.18929113447666168,-0.17434431612491608,-0.6896653771400452,-0.5052672028541565,-0.3154393136501312,-0.15221154689788818
0.43333333333333335,0.01977512612938881,0.04266940429806709,0.0,0.716327428817749,0.0,0.0,-0.6977643370628357,-0.39642226696014404,-0.17081229388713837,0.0,0.0,0.0,-8.75821590423584,-0.057064224034547806,0.8381029367446899,0.4423566162586212,0.8876448273658752,0.14206688106060028,-0.07798589766025543,-0.4310706555843353,7.296209335327148,0.8355914950370789,0.5774049758911133,2.9024853706359863,-10.401005744934082,21.129974365234375,-0.061312928795814514,0.8447996973991394,0.4452850818634033,7.2646989822387695,1.665116786956787,0.6595409512519836,0.4594590663909912,0.7072746753692627,0.42000001668930054,-0.3654146194458008,0.7716720700263977,-0.8371855020523071,2.4472944736480713,-0.22801779210567474,-0.2138785421848297,-0.19661350548267365,-0.1781768947839737,-0.9126837849617004,-0.690590500831604,-0.44784700870513916,-0.2492748200893402
0.45,0.015967026352882385,0.034950874745845795,0.0,0.6831465363502502,0.0,0.0,-0.7302813529968262,-0.20974402129650116,-0.5170963406562805,0.0,0.0,0.0,-4.368961334228516,0.05978676304221153,0.8545606136322021,0.4518139660358429,0.819642961025238,0.16522234678268433,-0.08023159205913544,-0.5426324009895325,6.7928619384765625,-0.5117743611335754,0.6545140743255615,11.097504615783691,-4.115141868591309,18.188697814941406,0.05485343933105469,0.8613855838775635,0.45432958006858826,6.833475112915039,0.14950378239154816,0.5884470343589783,0.4594590663909912,0.7072746753692627,0.42000001668930054,-0.3496486246585846,1.013693928718567,-0.8674097061157227,-3.0000014305114746,-0.24003764986991882,-0.22419527173042297,-0.20232945680618286,-0.18007150292396545,-0.03417744114995003,-0.7965933084487915,-0.4767775535583496,-0.2054002732038498
0.4666666666666667,0.015531319193542004,0.032347146421670914,0.0,0.6752885580062866,0.0,0.0,-0.7375536561012268,0.04366564005613327,-0.06748142838478088,0.0,0.0,0.0,-0.22552461922168732,0.16383516788482666,0.8451488614082336,0.4582006633281708,0.7450448870658875,0.1604783982038498,-0.09217667579650879,-0.6408261656761169,5.358370780944824,-1.952736735343933,0.17722858488559723,-2.4602110385894775,0.8977581858634949,18.983535766601562,0.1589120626449585,0.8551127910614014,0.46157169342041016,5.812422752380371,-0.8178210258483887,0.34900176525115967,0.4594590663909912,0.7072746753692627,0.42000001668930054,-0.33395346999168396,0.6633951663970947,-0.9174352288246155,-3.000000238418579,-0.2400268167257309,-0.23852798342704773,-0.21364672482013702,-0.1863662302494049,-0.04520215466618538,-0.6678234934806824,-0.5571568012237549,-0.31117329001426697
0.48333333333333334,0.018433168530464172,0.02627091482281685,0.0,0.6581249237060547,0.0,0.0,-0.7529087662696838,0.19779765605926514,-0.4019494950771332,0.0,0.0,0.0,-3.632795810699463,0.25080612301826477,0.8244937062263489,0.45679736137390137,0.6703588366508484,0.114738330245018,-0.12025661021471024,-0.7231821417808533,4.7893781661987305,-2.1953258514404297,-0.33711671829223633,23.51522445678711,-7.818032741546631,7.268413066864014,0.2453819215297699,0.8369878530502319,0.4621812701225281,4.751804351806641,-1.541042685508728,-0.04640643298625946,0.4594590663909912,0.7072746753692627,0.42000001668930054,-0.3241881728172302,0.44696804881095886,-0.9674592018127441,-2.9982783794403076,-0.2385188192129135,-0.24001000821590424,-0.21930302679538727,-0.18913862109184265,0.03130276873707771,-0.019094480201601982,-0.2465309500694275,-0.10372214019298553
0.5,0.023760663345456123,0.024230975657701492,0.0,0.6537714004516602,0.0,0.0,-0.756692111492157,0.3455131947994232,-0.0929422676563263,0.0,0.0,0.0,0.2285756915807724,0.3223221004009247,0.7950893640518188,0.45126667618751526,0.6092446446418762,0.09103133529424667,-0.10866915434598923,-0.7802083492279053,3.811635971069336,-2.3442513942718506,-0.3366684317588806,-3.3913381099700928,9.105775833129883,4.51963996887207,0.31797194480895996,0.8075034022331238,0.457105815410614,3.974203109741211,-1.9018537998199463,-0.4764588177204132,0.4594590663909912,0.7072746753692627,0.42000001668930054,-0.32042959332466125,0.24186111986637115,-1.0174825191497803,-2.9999146461486816,-0.2397317886352539,-0.2397148758172989,-0.2240206003189087,-0.19218672811985016,0.06114315241575241,0.07515227049589157,-0.1444767713546753,-0.12490664422512054
0.5166666666666666,0.03110145777463913,0.02520580217242241,0.0,0.6399911046028137,0.0,0.0,-0.7683823108673096,0.4864165782928467,0.11678483337163925,0.0,0.0,0.0,-3.080482244491577,0.3800528943538666,0.7657431960105896,0.4381997883319855,0.5679798722267151,0.06053820252418518,-0.10097315162420273,-0.814578652381897,3.013943910598755,-1.7417893409729004,-0.9364126920700073,-0.9006887674331665,2.095916986465454,-4.29275369644165,0.3761601746082306,0.7775087356567383,0.4445240795612335,3.026615619659424,-1.783394455909729,-0.9218884706497192,0.4594590663909912,0.7072746753692627,0.42000001668930054,-0.3106316924095154,0.9367738962173462,-1.067504644393921,-3.0,-0.23689045011997223,-0.2370542287826538,-0.2252526432275772,-0.19447876513004303,0.26263293623924255,0.2451484054327011,0.012049687094986439,-0.11599432677030563
0.5333333333333333,0.04118923470377922,0.021319318562746048,0.0,0.6387449502944946,0.0,0.0,-0.7694185376167297,0.5786058306694031,-0.2074144035577774,0.0,0.0,0.0,0.7244256138801575,0.4224238097667694,0.7397342920303345,0.4219464659690857,0.5364509224891663,0.021257923915982246,-0.03397956117987633,-0.8429791927337646,1.7919952869415283,-1.4097108840942383,-0.4378126859664917,0.24514423310756683,11.878881454467773,-8.422959327697754,0.42031580209732056,0.7499265670776367,0.42786306142807007,1.7839585542678833,-1.3392393589019775,-0.3551039695739746,0.4594590663909912,0.7072746753692627,0.42000001668930054,-0.29160812497138977,1.1362730264663696,-1.1175267696380615,-3.0000240802764893,-0.2280443161725998,-0.22892358899116516,-0.2212526947259903,-0.19381864368915558,0.4441281259059906,0.4381846487522125,0.23812569677829742,0.03301069512963295
0.55,0.047851722687482834,0.021290797740221024,0.0,0.6266270875930786,0.0,0.0,-0.7793192267417908,0.3706398904323578,0.011151912622153759,0.0,0.0,0.0,-2.6958391666412354,0.44494372606277466,0.7253252863883972,0.42044156789779663,0.5276303887367249,0.004159530624747276,-0.008889086544513702,-0.8494173884391785,1.0496163368225098,-1.37418794631958,-0.008685953915119171,-3.3457658290863037,7.539990425109863,11.963196754455566,0.442528635263443,0.7343525886535645,0.4272768497467041,1.118457317352295,-0.7891718149185181,-0.08753266930580139,0.4594590663909912,0.7072746753692627,0.42000001668930054,-0.2771318554878235,0.5903225541114807,-1.1675492525100708,-2.9976673126220703,-0.22014524042606354,-0.22135838866233826,-0.21691599488258362,-0.19340813159942627,0.5122150778770447,0.48183372616767883,0.29382604360580444,0.030437028035521507
0.5666666666666667,0.05603472515940666,0.022611485794186592,0.0,0.6278367042541504,0.0,0.0,-0.7783451080322266,0.4986759126186371,0.13641081750392914,0.0,0.0,0.0,1.1024949550628662,0.4570299983024597,0.7147701382637024,0.4208149313926697,0.5286575555801392,-0.011117719113826752,0.017742957919836044,-0.8485769033432007,0.14297111332416534,-0.7344616055488586,0.39924895763397217,9.049518585205078,18.53107452392578,3.9372270107269287,0.4544079601764679,0.722929060459137,0.42800360918045044,0.33035051822662354,-0.41784095764160156,0.28409087657928467,0.4594590663909912,0.7072746753692627,0.42000001668930054,-0.26858434081077576,0.46749553084373474,-1.2175712585449219,-2.9945755004882812,-0.2114497274160385,-0.21314457058906555,-0.21150125563144684,-0.19248627126216888,0.5567731857299805,0.5215241312980652,0.36544471979141235,0.08823034912347794
0.5833333333333334,0.06479480862617493,0.021925773471593857,0.0,0.6177440881729126,0.0,0.0,-0.7863791584968567,0.589879035949707,-0.0991143211722374,0.0,0.0,0.0,-2.523906707763672,0.4596750736236572,0.70908522605896,0.4209379255771637,0.556565523147583,-0.013411895371973515,0.01996695250272751,-0.830455482006073,0.0015820051776245236,-0.31040939688682556,-0.020673289895057678,-0.45560330152511597,-0.9739355444908142,4.95680570602417,0.45564135909080505,0.7175098657608032,0.4260360598564148,-0.11605507135391235,-0.24575462937355042,-0.3713308572769165,0.4594590663909912,0.7072746753692627,0.42000001668930054,-0.28461983799934387,-1.9545444250106812,-1.1796380281448364,3.000000238418579,-0.20211707055568695,-0.20439355075359344,-0.2050929069519043,-0.19072148203849792,0.5669984221458435,0.533699095249176,0.4071635603904724,0.12874136865139008
0.6,0.07395753264427185,0.023747531697154045,0.0,0.619886577129364,0.0,0.0,-0.7846914529800415,0.4945807456970215,0.12943831086158752,0.0,0.0,0.0,1.2285840511322021,0.4595964252948761,0.7046131491661072,0.42000478506088257,0.583225667476654,-5.343699740478769e-05,-5.116473403177224e-05,-0.8123102188110352,-0.008808890357613564,-0.22132083773612976,-0.0005354667082428932,-0.013538125902414322,0.017353393137454987,2.8080155849456787,0.4540865421295166,0.7146228551864624,0.4252272844314575,-0.02223891392350197,-0.018409213051199913,0.1571059376001358,0.4594590663909912,0.7072746753692627,0.42000001668930054,-0.3327449560165405,-2.999986410140991,-1.200977087020874,-2.9997406005859375,-0.19521252810955048,-0.19767393171787262,-0.19985321164131165,-0.18960225582122803,0.45652487874031067,0.4280683994293213,0.3376472294330597,0.08847851306200027
0.6166666666666667,0.08360039442777634,0.027779780328273773,0.0,0.6404421925544739,0.0,0.0,-0.7680063843727112,0.6180723905563354,0.35070618987083435,0.0,0.0,0.0,4.390386581420898,0.4591364562511444,0.7022356986999512,0.42000046372413635,0.5893006920814514,2.922967951235478e-06,-1.670932579145301e-05,-0.8079137802124023,-0.1015385091304779,-0.05375504121184349,-0.0005387614946812391,0.018229935318231583,0.01955425553023815,-2.61602520942688,0.4529426097869873,0.7162656784057617,0.4281545579433441,-0.1441287100315094,0.17566761374473572,0.19847741723060608,0.4594590663909912,0.7072746753692627,0.42000001668930054,-0.3827461898326874,-3.000000476837158,-1.2509427070617676,-2.998816728591919,-0.18665805459022522,-0.19004547595977783,-0.19387754797935486,-0.1878042072057724,0.5201771259307861,0.45633411407470703,0.36157315969467163,0.11988849937915802
0.6333333333333333,0.09513599425554276,0.028870530426502228,0.0,0.6497678756713867,0.0,0.0,-0.7601326704025269,0.7007206082344055,0.029795704409480095,0.0,0.0,0.0,0.4080188572406769,0.45716363191604614,0.7022080421447754,0.42000019550323486,0.5847263932228088,6.325862614176003e-06,7.650251973245759e-06,-0.8112305402755737,-0.13145530223846436,0.014429272152483463,-0.00022114482999313623,-0.01011058408766985,0.00016174088523257524,0.621243417263031,0.45120182633399963,0.7214603424072266,0.4325052499771118,-0.10337646305561066,0.2876814603805542,0.3023630976676941,0.4594590663909912,0.7072746753692627,0.42000001668930054,-0.4327664077281952,-2.999999523162842,-1.3009086847305298,-2.999659538269043,-0.17487798631191254,-0.17960569262504578,-0.1850261688232422,-0.18277978897094727,0.6364722847938538,0.5929087996482849,0.5429683327674866,0.3643178641796112
0.65,0.10797930508852005,0.026918191462755203,0.0,0.6374343037605286,0.0,0.0,-0.7705047130584717,0.8033604621887207,-0.17913559079170227,0.0,0.0,0.0,-3.1883580684661865,0.4559679627418518,0.7023371458053589,0.4200003743171692,0.5868110060691833,-8.585701039010019e-08,6.307687726803124e-06,-0.8097238540649414,-0.050780538469552994,0.005122094880789518,-0.0006400456186383963,-0.017723262310028076,-0.014020987786352634,0.20141898095607758,0.45257240533828735,0.7254859209060669,0.43922123312950134,0.2761787474155426,0.19370225071907043,0.6192206144332886,0.4594590663909912,0.7072746753692627,0.42000001668930054,-0.4827796220779419,-2.999988317489624,-1.3509269952774048,-2.999999523162842,-0.16764676570892334,-0.17231565713882446,-0.17761477828025818,-0.17722073197364807,0.32902029156684875,0.3630436658859253,0.40873488783836365,0.34609395265579224
0.6666666666666666,0.12361350655555725,0.025676613673567772,0.0,0.6014178991317749,0.0,0.0,-0.7989346385002136,0.994814395904541,-0.043865419924259186,0.0,0.0,0.0,-6.721466064453125,0.45585936307907104,0.7023476958274841,0.4200000762939453,0.5869584083557129,7.993849067133851e-06,-5.349948537514138e-07,-0.8096169829368591,0.0005705250077880919,0.0002829665900208056,-0.0002767720725387335,-0.01753539778292179,-0.0009495934355072677,-0.0017708941595628858,0.46453964710235596,0.7247523069381714,0.45661208033561707,1.3381710052490234,-0.35971468687057495,1.5735129117965698,0.4594590663909912,0.7072746753692627,0.42000001668930054,-0.5327922105789185,-2.999502420425415,-1.4009453058242798,-2.999934196472168,-0.16797570884227753,-0.17097048461437225,-0.1743706613779068,-0.17378991842269897,-0.21647696197032928,-0.0707794800400734,0.09025656431913376,0.15538087487220764
0.6833333333333333,0.13671480119228363,0.02689945325255394,0.0,0.5773494243621826,0.0,0.0,-0.8164972066879272,0.708818793296814,0.05389123409986496,0.0,0.0,0.0,-2.4742555618286133,0.45586007833480835,0.7023479342460632,0.4200000464916229,0.5869574546813965,4.15744125348283e-07,-3.3131445889011957e-06,-0.8096176981925964,0.00011558435653569177,-0.0002745440579019487,-9.077577851712704e-05,0.00642821192741394,-0.0013367681531235576,-0.0006779010873287916,0.4871727526187897,0.7243174910545349,0.4839402437210083,1.3823906183242798,0.25352242588996887,1.6656348705291748,0.4594590663909912,0.7072746753692627,0.42000001668930054,-0.5539751052856445,0.17654834687709808,-1.4509634971618652,-3.0,-0.17037703096866608,-0.17181086540222168,-0.1733894646167755,-0.1724432110786438,0.016911543905735016,0.04106484726071358,0.08265097439289093,0.04701344296336174
0.7,0.1451873630285263,0.029889389872550964,0.0,0.579957127571106,0.0,0.0,-0.8146469593048096,0.4346284568309784,0.2329666018486023,0.0,0.0,0.0,1.2683743238449097,0.45586007833480835,0.702347993850708,0.4200000464916229,0.5869579315185547,4.2686420442805684e-07,-2.869093805202283e-06,-0.8096174001693726,0.00011291521514067426,-0.0002692303969524801,-9.089312516152859e-05,0.006283425260335207,-0.0013786773197352886,-0.0006690718582831323,0.5069544911384583,0.7300436496734619,0.5064045190811157,0.9037431478500366,0.4142921268939972,1.0592008829116821,0.4594590663909912,0.7072746753692627,0.42000001668930054,-0.5305797457695007,2.415846586227417,-1.4475085735321045,2.900104284286499,-0.17038442194461823,-0.1712740808725357,-0.17203272879123688,-0.17141921818256378,0.025768358260393143,0.05747592821717262,0.1040617972612381,0.0886736512184143
0.7166666666666667,0.14909712970256805,0.030285779386758804,0.0,0.5943132638931274,0.0,0.0,-0.8042336106300354,0.17282766103744507,-0.04742540046572685,0.0,0.0,0.0,2.7221341133117676,0.45586007833480835,0.702347993850708,0.4200000464916229,0.5869579911231995,2.886395691348298e-07,-3.2329221539839637e-06,-0.8096174001693726,0.00010926680261036381,-0.0002721361815929413,-8.996808901429176e-05,0.006376734934747219,-0.0014336364110931754,-0.0006642898079007864,0.5134267210960388,0.7363901138305664,0.5192141532897949,-0.11553794145584106,0.3763645887374878,0.5908296704292297,0.4594590663909912,0.7072746753692627,0.42000001668930054,-0.5004236698150635,1.2761589288711548,-1.397486686706543,2.999999761581421,-0.17071183025836945,-0.17067399621009827,-0.17032034695148468,-0.16954389214515686,-0.014085119590163231,0.04856428503990173,0.11884094774723053,0.1375424712896347
0.7333333333333333,0.14963474869728088,0.03215901926159859,0.0,0.5932380557060242,0.0,0.0,-0.8050270676612854,-0.018863940611481667,0.22626470029354095,0.0,0.0,0.0,-1.1274815797805786,0.45586007833480835,0.7023479342460632,0.4200000464916229,0.5869576334953308,4.82690893477411e-07,-3.2040295536717167e-06,-0.8096175789833069,0.00011532764619914815,-0.0002687279775273055,-9.137834422290325e-05,0.006258679088205099,-0.00134549499489367,-0.0006733945920132101,0.506605863571167,0.741031289100647,0.5239753723144531,-0.6517642736434937,0.2174612134695053,0.1383306384086609,0.4594590663909912,0.7072746753692627,0.42000001668930054,-0.5007027387619019,-1.1023168563842773,-1.382146954536438,-0.8394185304641724,-0.1738387942314148,-0.17229901254177094,-0.1703629344701767,-0.1687701940536499,-0.2398035228252411,-0.14416031539440155,-0.04548361897468567,0.013651272282004356
0.75,0.1519763320684433,0.032130829989910126,0.0,0.6034761667251587,0.0,0.0,-0.7973810434341431,0.1688002645969391,-0.03409585356712341,0.0,0.0,0.0,2.2829315662384033,0.45586007833480835,0.702347993850708,0.4200000464916229,0.5869579315185547,4.496663166264625e-07,-3.2954528705886332e-06,-0.8096174001693726,0.00011366364196874201,-0.0002695060975383967,-9.102257899940014e-05,0.006285983137786388,-0.0013704849407076836,-0.0006709457957185805,0.49663326144218445,0.74483323097229,0.5236926078796387,-0.6264888048171997,0.231469988822937,-0.10782743990421295,0.4594590663909912,0.7072746753692627,0.42000001668930054,-0.5110363364219666,-0.2089231163263321,-1.427959680557251,-3.0000016689300537,-0.17658546566963196,-0.1735306978225708,-0.1700030416250229,-0.1673174649477005,-0.17365555465221405,-0.07914897799491882,0.020678145810961723,0.0983796939253807
0.7666666666666666,0.15579073131084442,0.0294488612562418,0.0,0.6003727316856384,0.0,0.0,-0.799720287322998,0.28437140583992004,-0.21746166050434113,0.0,0.0,0.0,-1.3470693826675415,0.45586007833480835,0.7023479342460632,0.4200000464916229,0.5869576334953308,4.961418653692817e-07,-3.269891521995305e-06,-0.8096175789833069,0.00011485523282317445,-0.0002687465166673064,-9.125634096562862e-05,0.0062616486102342606,-0.001350896549411118,-0.0006723516271449625,0.48799440264701843,0.7462894916534424,0.5181446075439453,-0.3886227011680603,0.0023193492088466883,-0.36879774928092957,0.4594590663909912,0.7072746753692627,0.42000001668930054,-0.5482411980628967,-3.0,-1.4184467792510986,3.000000476837158,-0.17999351024627686,-0.1753164678812027,-0.17000167071819305,-0.16571706533432007,-0.17463846504688263,-0.08125972747802734,0.024925807490944862,0.12872624397277832
0.7833333333333333,0.16253231465816498,0.025442730635404587,0.0,0.5755993127822876,0.0,0.0,-0.8177319169044495,0.44137004017829895,-0.31005793809890747,0.0,0.0,0.0,-4.513190746307373,0.45586007833480835,0.702347993850708,0.4200000464916229,0.5869579315185547,4.775578759108612e-07,-2.9958082450320944e-06,-0.8096174001693726,0.00011390323925297707,-0.0002694474533200264,-9.107752703130245e-05,0.006283322349190712,-0.0013673717621713877,-0.0006714048213325441,0.48602181673049927,0.7437530755996704,0.5155325531959534,0.1863066852092743,-0.2540692985057831,0.1899799406528473,0.4594590663909912,0.7072746753692627,0.42000001668930054,-0.5982580780982971,-2.999911069869995,-1.4362562894821167,-2.9999945163726807,-0.1839541643857956,-0.17784515023231506,-0.17082956433296204,-0.16474184393882751,-0.19841912388801575,-0.13114021718502045,-0.0450354628264904,0.05480251461267471
0.8,0.1714920550584793,0.023467237129807472,0.0,0.5670762062072754,0.0,0.0,-0.8236653208732605,0.5745413899421692,-0.036349568516016006,0.0,0.0,0.0,-0.26242753863334656,0.45586007833480835,0.702347993850708,0.4200000464916229,0.5869578123092651,3.9661256323597627e-07,-3.0717319532413967e-06,-0.8096174001693726,0.00011246316717006266,-0.0002696585434023291,-9.074457921087742e-05,0.006297251209616661,-0.0013846351066604257,-0.0006682531675323844,0.4901267886161804,0.7445158362388611,0.5212899446487427,0.2567233443260193,0.24530582129955292,0.4750424027442932,0.4594590663909912,0.7072746753692627,0.42000001668930054,-0.6172489523887634,0.43590059876441956,-1.4862746000289917,-3.0000009536743164,-0.1864500343799591,-0.18013207614421844,-0.17262758314609528,-0.16577227413654327,-0.08102914690971375,-0.11359457671642303,-0.13341858983039856,-0.135865718126297
0.8166666666666667,0.17738962173461914,0.017897913232445717,0.0,0.5835204124450684,0.0,0.0,-0.812098503112793,0.28492069244384766,-0.4003106355667114,0.0,0.0,0.0,2.987328052520752,0.45586007833480835,0.702347993850708,0.4200000464916229,0.5869579911231995,4.617345155111252e-07,-3.1358649721369147e-06,-0.8096174001693726,0.00011431105667725205,-0.0002698351163417101,-9.114248678088188e-05,0.006291608791798353,-0.0013631454203277826,-0.0006726781139150262,0.49576497077941895,0.749391496181488,0.5248801708221436,0.29918599128723145,0.20311002433300018,-0.03515907749533653,0.4594590663909912,0.7072746753692627,0.42000001668930054,-0.6132200360298157,0.07350393384695053,-1.447583794593811,3.000000476837158,-0.18395793437957764,-0.17844273149967194,-0.17156864702701569,-0.16503910720348358,0.04910975322127342,0.03883371502161026,0.033345069736242294,0.04185309633612633
0.8333333333333334,0.17983001470565796,0.016316816210746765,0.0,0.5846014022827148,0.0,0.0,-0.8113206624984741,0.08343084901571274,-0.10287877172231674,0.0,0.0,0.0,-0.685234785079956,0.45586007833480835,0.702347993850708,0.4200000464916229,0.5869578123092651,3.6150765936326934e-07,-3.039745024580043e-06,-0.8096174001693726,0.00011315308802295476,-0.00026995514053851366,-9.087403304874897e-05,0.006300888489931822,-0.0013773770770058036,-0.0006702429382130504,0.49955257773399353,0.7485083937644958,0.521235466003418,0.27489393949508667,-0.11947324872016907,-0.2747045159339905,0.4594590663909912,0.7072746753692627,0.42000001668930054,-0.6369864344596863,-2.665900945663452,-1.4618282318115234,-2.999999523162842,-0.18714264035224915,-0.18105682730674744,-0.17358075082302094,-0.16625624895095825,-0.03277680650353432,-0.03440243378281593,-0.030186010524630547,-0.008498854003846645
0.85,0.18397632241249084,0.01090916432440281,0.0,0.5964364409446716,0.0,0.0,-0.8026602864265442,0.27161088585853577,-0.32045578956604004,0.0,0.0,0.0,2.6794466972351074,0.45586007833480835,0.702347993850708,0.4200000464916229,0.586958110332489,5.06366802710545e-07,-3.107458724116441e-06,-0.809617280960083,0.00011301056656520814,-0.00026959378737956285,-9.087612852454185e-05,0.006292746867984533,-0.0013779007131233811,-0.0006696111522614956,0.5062702298164368,0.7467975616455078,0.5182932019233704,0.413484662771225,-0.13765299320220947,-0.025961831212043762,0.4594590663909912,0.7072746753692627,0.42000001668930054,-0.6698363423347473,-1.36455237865448,-1.5118465423583984,-2.999999523162842,-0.18667341768741608,-0.18057093024253845,-0.17295439541339874,-0.16516225039958954,-0.07341760396957397,-0.04440867528319359,-0.008407486602663994,0.04659124091267586
0.8666666666666667,0.18614646792411804,0.003923335578292608,0.0,0.5951687693595886,0.0,0.0,-0.8036007285118103,0.031150318682193756,-0.4599941074848175,0.0,0.0,0.0,-1.2330375909805298,0.45586007833480835,0.702347993850708,0.4200000464916229,0.5869578719139099,2.7296982807456516e-07,-3.120328074146528e-06,-0.8096174001693726,0.00010808541264850646,-0.0002724437217693776,-8.968310430645943e-05,0.006391000002622604,-0.001448734081350267,-0.0006620096974074841,0.5145077705383301,0.7416250109672546,0.516258716583252,0.575248122215271,-0.43434807658195496,-0.06047753989696503,0.4594590663909912,0.7072746753692627,0.42000001668930054,-0.7095561027526855,-3.0000007152557373,-1.5618648529052734,-2.999999523162842,-0.18887843191623688,-0.18197189271450043,-0.17340528964996338,-0.1643294394016266,-0.11462614685297012,-0.06031361594796181,0.003791355062276125,0.08867527544498444
