vladlanda/robotic-transformer/data/env_000_episode_0051.csv
sim_time_s,robot_box_x,robot_box_y,robot_box_z,robot_box_quat_w,robot_box_quat_x,robot_box_quat_y,robot_box_quat_z,robot_box_linvel_x,robot_box_linvel_y,robot_box_linvel_z,robot_box_angvel_x,robot_box_angvel_y,robot_box_angvel_z,cube_world_x,cube_world_y,cube_world_z,cube_quat_w,cube_quat_x,cube_quat_y,cube_quat_z,cube_linvel_x,cube_linvel_y,cube_linvel_z,cube_angvel_x,cube_angvel_y,cube_angvel_z,endpoint_world_x,endpoint_world_y,endpoint_world_z,endpoint_linvel_x,endpoint_linvel_y,endpoint_linvel_z,target_cube_world_x,target_cube_world_y,target_cube_world_z,gripper_actual_pos_rad_gp_leftgearjoint,gripper_actual_vel_rad_s_gp_leftgearjoint,gripper_actual_pos_rad_gp_rotatingjoint,gripper_actual_vel_rad_s_gp_rotatingjoint,motor_angle_rad_joint1,motor_angle_rad_joint2,motor_angle_rad_joint3,motor_angle_rad_joint4,motor_speed_rad_s_joint1,motor_speed_rad_s_joint2,motor_speed_rad_s_joint3,motor_speed_rad_s_joint4
0.0,0.0,0.0,0.0,1.0,0.0,0.0,0.0,0.0,0.0,0.0,0.0,0.0,0.0,-0.3572034537792206,0.7258392572402954,0.41999998688697815,1.0,0.0,0.0,0.0,0.0,0.0,0.0,0.0,0.0,0.0,3.42540442943573e-06,-0.005000244826078415,1.313499927520752,0.0,0.0,0.0,0.35500234365463257,0.6409862041473389,0.42000001668930054,-1.5707999467849731,0.0,0.0,0.0,0.0,0.0,0.0,0.0,0.0,0.0,0.0,0.0
0.016666666666666666,0.0028871020767837763,0.0021692027803510427,0.0,0.999829113483429,0.0,0.0,0.018485968932509422,0.24111606180667877,0.18202409148216248,0.0,0.0,0.0,3.141735315322876,-0.35720357298851013,0.7258389592170715,0.41999998688697815,1.0,3.279964630564791e-06,-8.339746386809566e-07,8.465587342243452e-08,-1.9833529222523794e-05,0.00017983045836444944,-6.132945418357849e-05,0.0009432713268324733,-0.004689474124461412,-0.00031981561915017664,-0.007106386125087738,0.0034067227970808744,1.3159395456314087,-0.813485324382782,0.9878227710723877,0.18097524344921112,0.35500234365463257,0.6409862041473389,0.42000001668930054,-1.5301094055175781,3.000002861022949,-0.04585033282637596,-3.0000016689300537,0.0008706170483492315,0.0007973862229846418,0.0007118540816009045,0.0006117388256825507,0.11098823696374893,0.09762219339609146,0.08339966088533401,0.06829164177179337
0.03333333333333333,0.008972241543233395,0.006784851662814617,0.0,0.9998176693916321,0.0,0.0,0.019096599891781807,0.4071599841117859,0.31497302651405334,0.0,0.0,0.0,-0.8688843846321106,-0.3572036921977997,0.7258388996124268,0.4200000464916229,1.0,3.3908270324900514e-06,-2.1324347017070977e-06,-3.710694684855298e-08,0.00026357820024713874,0.00026937710936181247,-0.00010509532876312733,-0.001770618837326765,0.00413075927644968,-0.00013547429989557713,-0.026595357805490494,0.02637942135334015,1.316716194152832,-1.4855406284332275,1.6252691745758057,-0.07046595215797424,0.35500234365463257,0.6409862041473389,0.42000001668930054,-1.4800900220870972,3.000002145767212,-0.09589017182588577,-3.000000476837158,0.002891752403229475,0.0025191549211740494,0.0021086803171783686,0.001657262910157442,0.15225569903850555,0.1241799145936966,0.09461258351802826,0.06346842646598816
0.05,0.01848500408232212,0.013890697620809078,0.0,0.9999672770500183,0.0,0.0,-0.008093166165053844,0.6361830234527588,0.47223371267318726,0.0,0.0,0.0,-4.072509765625,-0.35720372200012207,0.7258389592170715,0.4200000464916229,1.0,3.765094106711331e-06,-2.2119131699582795e-06,5.62348079213848e-09,0.000265309150563553,0.0002669146633706987,-0.0001044049859046936,-0.0017243881011381745,0.004177483730018139,-0.00012949890515301377,-0.05423238128423691,0.05770739167928696,1.3127080202102661,-1.8343384265899658,2.06203031539917,-0.40036076307296753,0.35500234365463257,0.6409862041473389,0.42000001668930054,-1.4300717115402222,3.000002145767212,-0.14590682089328766,-3.0000009536743164,0.005625186022371054,0.00469169719144702,0.003685812931507826,0.0026035106275230646,0.18575307726860046,0.1426122784614563,0.09755171090364456,0.05049972981214523
0.06666666666666667,0.030827639624476433,0.023382574319839478,0.0,0.999856173992157,0.0,0.0,-0.0169601421803236,0.7730031609535217,0.6162897944450378,0.0,0.0,0.0,-0.031401555985212326,-0.35720372200012207,0.7258388996124268,0.4200000464916229,0.9999999403953552,3.406720225029858e-06,-2.2855888346384745e-06,4.300961506942258e-07,0.00026702549075707793,0.0002679164754226804,-0.0001043803058564663,-0.0017406074330210686,0.0042117200791835785,-0.00012850081839133054,-0.08801229298114777,0.0912422239780426,1.3038239479064941,-2.0786612033843994,2.1126747131347656,-0.6556780338287354,0.35500234365463257,0.6409862041473389,0.42000001668930054,-1.3800474405288696,2.999997138977051,-0.11235053092241287,3.000000238418579,0.00778344739228487,0.006036950740963221,0.00417907303199172,0.00220255134627223,0.1036362573504448,0.04534479230642319,-0.015144353732466698,-0.0778135433793068
0.08333333333333333,0.036965083330869675,0.036415718495845795,0.0,0.999163806438446,0.0,0.0,-0.040886059403419495,0.22478334605693817,0.8782649636268616,0.0,0.0,0.0,-3.802849054336548,-0.35720372200012207,0.7258388996124268,0.4200000464916229,1.0,3.697269676194992e-06,-2.1889511572226183e-06,-2.6322581447857374e-07,0.0002638967416714877,0.0002658639568835497,-0.00010433699935674667,-0.0017080875113606453,0.0041501629166305065,-0.00012991549738217145,-0.11721833050251007,0.13040372729301453,1.291114091873169,-1.4680373668670654,2.5921216011047363,-0.7944058179855347,0.35500234365463257,0.6409862041473389,0.42000001668930054,-1.3300477266311646,2.999999761581421,-0.14438310265541077,-3.0000016689300537,0.0033271797001361847,0.0007453149883076549,-0.002001764252781868,-0.0049239108338952065,-0.4099123179912567,-0.4714837968349457,-0.5359082818031311,-0.6033623814582825
0.1,0.046728234738111496,0.05142412334680557,0.0,0.9957310557365417,0.0,0.0,-0.09230218082666397,0.7357919812202454,0.9050773978233337,0.0,0.0,0.0,-6.960320472717285,-0.35720372200012207,0.7258388996124268,0.4200000464916229,0.9999999403953552,3.6203141462465283e-06,-2.265253215227858e-06,1.746318503137445e-07,0.00026676879497244954,0.0002674081188160926,-0.00010407879017293453,-0.0017386438557878137,0.004209273494780064,-0.0001277548144571483,-0.14374321699142456,0.17549094557762146,1.277610182762146,-1.7035713195800781,2.8478455543518066,-0.8740744590759277,0.35500234365463257,0.6409862041473389,0.42000001668930054,-1.2800331115722656,2.9999961853027344,-0.13337111473083496,3.00000262260437,0.0008810811559669673,-0.0032323626801371574,-0.007516331039369106,-0.01197995524853468,-0.04776693880558014,-0.1473931521177292,-0.2460273653268814,-0.34355613589286804
0.11666666666666667,0.055316366255283356,0.06350845098495483,0.0,0.9922793507575989,0.0,0.0,-0.12402284890413284,0.5377155542373657,0.6851333379745483,0.0,0.0,0.0,-2.575575351715088,-0.35720372200012207,0.7258388996124268,0.4200000464916229,1.0,3.798288844336639e-06,-2.2628514670941513e-06,-1.5018666488231247e-07,0.0002637412981130183,0.0002656615397427231,-0.00010428996756672859,-0.001705456874333322,0.004147560801357031,-0.00012980263272766024,-0.17551138997077942,0.22047942876815796,1.261509895324707,-1.8547227382659912,2.907957077026367,-0.9752166271209717,0.35500234365463257,0.6409862041473389,0.42000001668930054,-1.2300504446029663,2.9971835613250732,-0.1652352511882782,-3.0000009536743164,-0.0019845671486109495,-0.0076877097599208355,-0.013534546829760075,-0.019533153623342514,-0.0944247618317604,-0.2077816128730774,-0.31781694293022156,-0.4243282377719879
0.13333333333333333,0.06162542104721069,0.07272431254386902,0.0,0.9862315654754639,0.0,0.0,-0.16537021100521088,0.32866108417510986,0.48014599084854126,0.0,0.0,0.0,-5.800821304321289,-0.35720372200012207,0.7258389592170715,0.4200000464916229,0.9999999403953552,3.5503762774169445e-06,-2.229836809419794e-06,2.929272397977911e-07,0.0002670331741683185,0.0002677924057934433,-0.00010416889563202858,-0.0017440018709748983,0.0042136176489293575,-0.0001280039141420275,-0.20492267608642578,0.2745191156864166,1.2413233518600464,-1.6197896003723145,3.6283297538757324,-1.4128165245056152,0.35500234365463257,0.6409862041473389,0.42000001668930054,-1.1801190376281738,2.9723455905914307,-0.13161873817443848,3.0,-0.005046759732067585,-0.012507706880569458,-0.0200490839779377,-0.027676701545715332,-0.22728686034679413,-0.32567670941352844,-0.41996175050735474,-0.5100228786468506
0.15,0.06403947621583939,0.0829206332564354,0.0,0.9730569124221802,0.0,0.0,-0.23056507110595703,0.07097820937633514,0.6709386706352234,0.0,0.0,0.0,-8.842309951782227,-0.35720372200012207,0.7258388996124268,0.4200000464916229,0.9999999403953552,3.337968792038737e-06,-2.2429373984778067e-06,-2.8018940056995234e-08,0.00026674504624679685,0.0002675800060387701,-0.00010427739471197128,-0.0017367404652759433,0.004206856247037649,-0.00012831475760322064,-0.23477241396903992,0.3365536332130432,1.213054895401001,-1.7469154596328735,3.9400429725646973,-1.9969642162322998,0.35500234365463257,0.6409862041473389,0.42000001668930054,-1.1511080265045166,0.6836103796958923,-0.16353929042816162,-2.999999523162842,-0.01048494502902031,-0.019352411851286888,-0.02821974642574787,-0.03709126636385918,-0.4012739956378937,-0.4661027193069458,-0.5262719988822937,-0.5817734003067017
0.16666666666666666,0.07037614285945892,0.09019310027360916,0.0,0.9612569212913513,0.0,0.0,-0.2756539285182953,0.42932412028312683,0.3514344096183777,0.0,0.0,0.0,-4.275508403778076,-0.35720372200012207,0.7258389592170715,0.4200000464916229,0.9999999403953552,3.647729727163096e-06,-2.30736554840405e-06,3.5264164921500196e-08,0.000267269613686949,0.00026801388594321907,-0.00010418449528515339,-0.0017471675528213382,0.004217584151774645,-0.0001279856078326702,-0.27014797925949097,0.40234512090682983,1.1716713905334473,-2.002680778503418,4.3040642738342285,-2.949169874191284,0.35500234365463257,0.6409862041473389,0.42000001668930054,-1.1091102361679077,3.0000007152557373,-0.21356424689292908,-2.9999990463256836,-0.016208341345191002,-0.025795623660087585,-0.03531621769070625,-0.044776055961847305,-0.4721497595310211,-0.48029616475105286,-0.4860960841178894,-0.48972776532173157
0.18333333333333332,0.07129034399986267,0.10038330405950546,0.0,0.9436205625534058,0.0,0.0,-0.3310289978981018,0.054137080907821655,0.6063593626022339,0.0,0.0,0.0,-7.682602405548096,-0.35720372200012207,0.7258388996124268,0.4200000464916229,0.9999999403953552,3.290470658612321e-06,-2.1939799808023963e-06,-2.7924841106141685e-07,0.0002667807275429368,0.0002677615557331592,-0.00010434072464704514,-0.0017391022993251681,0.004207039717584848,-0.00012845966557506472,-0.30082666873931885,0.4732697606086731,1.1136960983276367,-1.4878640174865723,4.501077175140381,-3.7252120971679688,0.35500234365463257,0.6409862041473389,0.42000001668930054,-1.0591071844100952,2.9997708797454834,-0.2635919749736786,-2.999997615814209,-0.030118953436613083,-0.03956226631999016,-0.048907533288002014,-0.05817186459898949,-0.6186957359313965,-0.6757354736328125,-0.7289957404136658,-0.7773939371109009
0.2,0.07779324054718018,0.10553602874279022,0.0,0.9303306341171265,0.0,0.0,-0.3667218089103699,0.39464515447616577,0.2398766279220581,0.0,0.0,0.0,-3.228903293609619,-0.35720372200012207,0.7258388996124268,0.4200000464916229,1.0,3.2806892704684287e-06,-2.219290763605386e-06,1.5945947495765722e-07,0.0002662788610905409,0.00026740162866190076,-0.0001042510848492384,-0.0017356666503474116,0.004197742324322462,-0.0001286540791625157,-0.3273962438106537,0.544327974319458,1.0431809425354004,-1.2414305210113525,4.330671310424805,-4.751873970031738,0.35500234365463257,0.6409862041473389,0.42000001668930054,-1.0118403434753418,2.6593427658081055,-0.3136174976825714,-3.0000009536743164,-0.03885228559374809,-0.048776302486658096,-0.05856410413980484,-0.06822220981121063,-0.7488430142402649,-0.7243403792381287,-0.7002527117729187,-0.6763525009155273
0.21666666666666667,0.07860445976257324,0.11451715975999832,0.0,0.9138331413269043,0.0,0.0,-0.4060899019241333,0.04491584375500679,0.5148809552192688,0.0,0.0,0.0,-5.81543493270874,-0.35720372200012207,0.7258389592170715,0.4200000464916229,1.0,3.613114131439943e-06,-2.270194727316266e-06,2.2099975183209608e-07,0.0002671250840649009,0.0002678171149455011,-0.00010414235293865204,-0.0017445179400965571,0.0042151790112257,-0.0001278658164665103,-0.34566184878349304,0.6087971925735474,0.9539414048194885,-0.7293869256973267,3.746992588043213,-5.714239597320557,0.35500234365463257,0.6409862041473389,0.42000001668930054,-0.9619808197021484,2.9999961853027344,-0.36364465951919556,-2.9999992847442627,-0.05450852960348129,-0.06448672711849213,-0.07429393380880356,-0.08393724262714386,-0.6509501934051514,-0.7047777771949768,-0.7553486824035645,-0.8008880019187927
0.23333333333333334,0.08206033706665039,0.11841290444135666,0.0,0.9041616320610046,0.0,0.0,-0.42719054222106934,0.27290627360343933,0.18672692775726318,0.0,0.0,0.0,-1.6584943532943726,-0.35720372200012207,0.7258388996124268,0.4200000464916229,1.0,3.3818296287790872e-06,-2.2910207917448133e-06,2.727893502196821e-07,0.0002669137320481241,0.00026779892505146563,-0.00010433257557451725,-0.00173950067255646,0.0042096939869225025,-0.0001284372410736978,-0.3595876097679138,0.6613445281982422,0.8547515869140625,-0.4870033264160156,2.789212226867676,-6.242255210876465,0.35500234365463257,0.6409862041473389,0.42000001668930054,-0.9119709134101868,2.9999988079071045,-0.41367483139038086,-3.000001907348633,-0.06576024740934372,-0.07584938406944275,-0.08576946705579758,-0.09551132470369339,-0.8432576060295105,-0.8014360666275024,-0.7625459432601929,-0.7262168526649475
0.25,0.08181357383728027,0.12480363249778748,0.0,0.9071488380432129,0.0,0.0,-0.42080986499786377,-0.07111485302448273,0.3890174925327301,0.0,0.0,0.0,1.8302589654922485,-0.3572036921977997,0.7258388996124268,0.4200000464916229,0.9999999403953552,3.7065447031636722e-06,-2.2230522063182434e-06,-2.255173967569135e-07,0.0002642475883476436,0.00026656806585378945,-0.00010457867756485939,-0.0017169867642223835,0.004155563656240702,-0.00013063008373137563,-0.3720465302467346,0.6953200101852417,0.7507669925689697,-0.7953623533248901,1.5060287714004517,-6.188032150268555,0.35500234365463257,0.6409862041473389,0.42000001668930054,-0.861960232257843,2.9999842643737793,-0.46370601654052734,-2.999999761581421,-0.08156297355890274,-0.09181235730648041,-0.10183750838041306,-0.11162176728248596,-0.955441415309906,-0.9654237627983093,-0.9725385904312134,-0.9764719605445862
0.26666666666666666,0.07892313599586487,0.1277441829442978,0.0,0.9039828777313232,0.0,0.0,-0.4275687038898468,-0.2338627278804779,0.13856306672096252,0.0,0.0,0.0,-1.746765375137329,-0.35720372200012207,0.7258388996124268,0.4200000464916229,0.9999999403953552,3.719609367180965e-06,-2.4035084607021417e-06,-1.8308776361664059e-07,0.0002662318293005228,0.00026729123783297837,-0.00010425737127661705,-0.0017326679080724716,0.004196602385491133,-0.00012851582141593099,-0.37989452481269836,0.7170816659927368,0.6443101167678833,-0.17544254660606384,0.8335515856742859,-6.410196304321289,0.35500234365463257,0.6409862041473389,0.42000001668930054,-0.8119508624076843,3.00000262260437,-0.5137370228767395,-3.0000009536743164,-0.09833873063325882,-0.10848589241504669,-0.11842945218086243,-0.12814223766326904,-1.0018806457519531,-1.0014156103134155,-1.001063346862793,-1.0007836818695068
0.2833333333333333,0.0735640600323677,0.1281495839357376,0.0,0.9075552225112915,0.0,0.0,-0.4199327528476715,-0.3657431900501251,-0.019762400537729263,0.0,0.0,0.0,1.8426543474197388,-0.35720372200012207,0.7258389592170715,0.4200000464916229,0.9999999403953552,3.584005526136025e-06,-2.315522124263225e-06,7.4028370988799e-08,0.00026522111147642136,0.00026455186889506876,-0.00010317121632397175,-0.0017020652303472161,0.004185104742646217,-0.00012499566946644336,-0.3812018632888794,0.7257304191589355,0.5421962738037109,0.08172377943992615,0.13443009555339813,-5.856369495391846,0.35500234365463257,0.6409862041473389,0.42000001668930054,-0.7619420886039734,3.000000238418579,-0.5637667179107666,-3.0000009536743164,-0.11568953841924667,-0.12567247450351715,-0.1354954093694687,-0.1451154500246048,-1.0093640089035034,-1.0070812702178955,-1.0053448677062988,-1.0039576292037964
0.3,0.06605780869722366,0.1259174793958664,0.0,0.9043765068054199,0.0,0.0,-0.4267354905605316,-0.49330952763557434,-0.179108127951622,0.0,0.0,0.0,-1.7668770551681519,-0.35720372200012207,0.7258388996124268,0.4200000464916229,1.0,3.7242141388560412e-06,-2.2719709704688285e-06,9.634165820671114e-08,0.00026312493719160557,0.000265259004663676,-0.00010438216850161552,-0.001696135732345283,0.004134783986955881,-0.0001302803138969466,-0.3737609386444092,0.7272298336029053,0.4467976689338684,0.7760362029075623,-0.04185809567570686,-5.439767360687256,0.35500234365463257,0.6409862041473389,0.42000001668930054,-0.7119342088699341,3.000000476837158,-0.6137943863868713,-3.0000033378601074,-0.13325431942939758,-0.1430361121892929,-0.1527080088853836,-0.16220884025096893,-1.014473795890808,-1.010988473892212,-1.0083286762237549,-1.0061932802200317
0.31666666666666665,0.05652829259634018,0.12120147794485092,0.0,0.9080312252044678,0.0,0.0,-0.4189024567604065,-0.6123468279838562,-0.32360002398490906,0.0,0.0,0.0,1.9060986042022705,-0.357270747423172,0.725529670715332,0.42041516304016113,0.9999690055847168,0.007180890068411827,-0.003023519180715084,-0.0010448780376464128,-0.013218041509389877,-0.021878959611058235,0.03178420662879944,1.3038042783737183,-0.5973876714706421,-0.00449603796005249,-0.36787211894989014,0.7279031276702881,0.41686224937438965,0.33468183875083923,0.3150031864643097,-0.13442541658878326,0.35500234365463257,0.6409862041473389,0.42000001668930054,-0.6620628833770752,2.9335598945617676,-0.6643380522727966,-2.8232686519622803,-0.14068160951137543,-0.15119975805282593,-0.16145718097686768,-0.17131857573986053,-0.181847482919693,-0.23480021953582764,-0.266446053981781,-0.26973989605903625
0.3333333333333333,0.04487301781773567,0.1140383630990982,0.0,0.9048754572868347,0.0,0.0,-0.4256763756275177,-0.7409622669219971,-0.47084730863571167,0.0,0.0,0.0,-1.8313863277435303,-0.3557172119617462,0.7290858626365662,0.4226216673851013,0.9954185485839844,0.02034468948841095,0.049202170222997665,-0.07941693067550659,0.11746343970298767,0.23818765580654144,0.12041062116622925,1.1877202987670898,5.539393901824951,-9.255565643310547,-0.3648614287376404,0.7325940132141113,0.4254600405693054,0.345350444316864,0.2763877213001251,-0.15906469523906708,0.35500234365463257,0.6409862041473389,0.42000001668930054,-0.6120548248291016,2.9999866485595703,-0.714408814907074,-2.9999959468841553,-0.14342908561229706,-0.15433017909526825,-0.16456124186515808,-0.17389309406280518,-0.3282591998577118,-0.29843977093696594,-0.24971672892570496,-0.17846272885799408
0.35,0.031115371733903885,0.10453817248344421,0.0,0.9084301590919495,0.0,0.0,-0.41803666949272156,-0.8646081686019897,-0.6099244952201843,0.0,0.0,0.0,1.929896354675293,-0.3536999225616455,0.7330969572067261,0.4230199158191681,0.9846508502960205,0.01247318834066391,0.0808931440114975,-0.15415361523628235,0.2177993804216385,0.36009377241134644,-0.01195497065782547,-0.23354549705982208,-0.37134015560150146,-13.977422714233398,-0.3575625419616699,0.7389240264892578,0.422924667596817,0.49816206097602844,0.4227061867713928,-0.13141998648643494,0.35500234365463257,0.6409862041473389,0.42000001668930054,-0.5620498061180115,3.00000262260437,-0.7644464373588562,-3.000007390975952,-0.15092416107654572,-0.16049808263778687,-0.16909907758235931,-0.17647004127502441,-0.47893738746643066,-0.37325605750083923,-0.25042450428009033,-0.10992821305990219
0.36666666666666664,0.016814736649394035,0.09271427243947983,0.0,0.9052943587303162,0.0,0.0,-0.4247848689556122,-0.8782278299331665,-0.7503408789634705,0.0,0.0,0.0,-1.8487818241119385,-0.34868597984313965,0.7403098940849304,0.42188265919685364,0.9716066718101501,0.01169537752866745,0.04749898612499237,-0.23148967325687408,0.3483467400074005,0.47381308674812317,-0.09132979810237885,-2.2514736652374268,-4.862250328063965,0.4908355176448822,-0.3482716679573059,0.7439139485359192,0.42134690284729004,0.6790813207626343,0.308205246925354,-0.08536015450954437,0.35500234365463257,0.6409862041473389,0.42000001668930054,-0.5120450258255005,2.9999985694885254,-0.8144951462745667,-2.9999895095825195,-0.16004152595996857,-0.16727282106876373,-0.1732308566570282,-0.177675262093544,-0.5390859246253967,-0.3821328580379486,-0.20763885974884033,-0.01751822791993618
0.3833333333333333,0.005279858596622944,0.07819616794586182,0.0,0.8892970681190491,0.0,0.0,-0.45732998847961426,-0.5888065695762634,-0.9280716180801392,0.0,0.0,0.0,-5.198374271392822,-0.33891215920448303,0.7516645193099976,0.42082202434539795,0.9677868485450745,0.012721912004053593,-0.009207985363900661,-0.2512804865837097,0.8269997835159302,0.871082067489624,0.01709558442234993,-3.4950904846191406,-1.9279875755310059,-4.882031440734863,-0.3354337811470032,0.7515205144882202,0.42117634415626526,0.9374056458473206,0.6542210578918457,0.054943107068538666,0.35500234365463257,0.6409862041473389,0.42000001668930054,-0.46204105019569397,2.9999914169311523,-0.8645510077476501,-3.0000007152557373,-0.16832594573497772,-0.1728537380695343,-0.17574542760849,-0.1768062263727188,-0.4177910089492798,-0.25764116644859314,-0.07410591840744019,0.12966343760490417
0.4,-0.007404608186334372,0.06167752668261528,0.0,0.857804536819458,0.0,0.0,-0.5139760971069336,-0.8325003385543823,-1.019112467765808,0.0,0.0,0.0,-8.6945219039917,-0.3113557696342468,0.7712441086769104,0.42312970757484436,0.9534353613853455,-0.0019078600453212857,-0.03302923962473869,-0.2997772693634033,2.857466459274292,1.2501598596572876,0.15296408534049988,34.313236236572266,-21.27286720275879,11.98129940032959,-0.307553231716156,0.7690033316612244,0.42399197816848755,2.5450944900512695,1.483586311340332,0.4370132088661194,0.35500234365463257,0.6409862041473389,0.42000001668930054,-0.41313010454177856,2.4097602367401123,-0.9145813584327698,-3.0000007152557373,-0.1781414896249771,-0.17923034727573395,-0.17834198474884033,-0.17536573112010956,-0.6817751526832581,-0.4383542239665985,-0.17827178537845612,0.09194058924913406
0.4166666666666667,-0.017625942826271057,0.042954254895448685,0.0,0.8089702129364014,0.0,0.0,-0.5878496170043945,-0.5386933088302612,-1.1923805475234985,0.0,0.0,0.0,-11.321942329406738,-0.2438623607158661,0.8006160259246826,0.4287854731082916,0.9290502071380615,0.055323369801044464,-0.07552285492420197,-0.35791242122650146,5.435004711151123,1.5707740783691406,0.4688822627067566,7.525212287902832,-12.467729568481445,20.772689819335938,-0.24044156074523926,0.798162579536438,0.4300893247127533,5.203765869140625,2.0994224548339844,0.5218625664710999,0.35500234365463257,0.6409862041473389,0.42000001668930054,-0.38592761754989624,1.2634729146957397,-0.8773354291915894,2.9976003170013428,-0.19190290570259094,-0.18814174830913544,-0.18235431611537933,-0.1745714545249939,-0.8523433804512024,-0.556770920753479,-0.2673713266849518,0.006923739332705736
0.43333333333333335,-0.024246487766504288,0.02968544326722622,0.0,0.7683804631233215,0.0,0.0,-0.6399933099746704,-0.3468548655509949,-0.8506265878677368,0.0,0.0,0.0,-6.657784938812256,-0.15731802582740784,0.8276898860931396,0.4400220215320587,0.8938037753105164,0.09089037030935287,-0.10225722193717957,-0.4270797669887543,5.185995578765869,1.1733163595199585,0.6572737693786621,7.702279567718506,-9.859909057617188,-0.603356122970581,-0.15428268909454346,0.8255156874656677,0.4410236179828644,5.238913536071777,1.3728352785110474,0.7470136284828186,0.35500234365463257,0.6409862041473389,0.42000001668930054,-0.3658701777458191,1.3003339767456055,-0.9035429954528809,-3.000004291534424,-0.20702284574508667,-0.2025531828403473,-0.19234105944633484,-0.17938004434108734,-0.5042687058448792,-0.5852309465408325,-0.48130279779434204,-0.2536168098449707
0.45,-0.028299281373620033,0.018893156200647354,0.0,0.7500385046005249,0.0,0.0,-0.6613941788673401,-0.15358760952949524,-0.5853300094604492,0.0,0.0,0.0,-2.252408266067505,-0.07086791843175888,0.841083288192749,0.4532603919506073,0.8417154550552368,0.11206107586622238,-0.07340268045663834,-0.5230385065078735,4.9642486572265625,-0.11116302758455276,0.5565779209136963,6.353856086730957,1.660455346107483,20.80095672607422,-0.06886731088161469,0.8389402627944946,0.4517965316772461,5.1703948974609375,0.2612352967262268,0.7458245754241943,0.35500234365463257,0.6409862041473389,0.42000001668930054,-0.34215328097343445,1.2914530038833618,-0.9535670280456543,-2.99870228767395,-0.21796274185180664,-0.21326828002929688,-0.20044755935668945,-0.1832977682352066,-0.6370682716369629,-0.5740561485290527,-0.4025147259235382,-0.15813733637332916
0.4666666666666667,-0.03311882168054581,0.01188431866466999,0.0,0.7241906523704529,0.0,0.0,-0.6895998120307922,-0.2967170774936676,-0.33851951360702515,0.0,0.0,0.0,-5.293589115142822,0.011407770216464996,0.8360819816589355,0.4615388810634613,0.7845728993415833,0.10437659174203873,-0.06220264732837677,-0.6080144643783569,4.601254940032959,-1.3463776111602783,0.23084591329097748,-4.5111002922058105,-12.2287015914917,18.980628967285156,0.01157955639064312,0.834530234336853,0.45971137285232544,4.770033836364746,-0.7082629203796387,0.4668787717819214,0.35500234365463257,0.6409862041473389,0.42000001668930054,-0.32401397824287415,0.8726236820220947,-1.0035909414291382,-3.0000035762786865,-0.22863805294036865,-0.22227555513381958,-0.20644162595272064,-0.18534882366657257,-0.5715534687042236,-0.45074915885925293,-0.27308255434036255,-0.053760651499032974
0.48333333333333334,-0.03454970195889473,-0.0003031260275747627,0.0,0.7105084657669067,0.0,0.0,-0.7036886811256409,-0.011227070353925228,-0.8602959513664246,0.0,0.0,0.0,-1.3904505968093872,0.08565287292003632,0.8216719627380371,0.46460452675819397,0.7488476037979126,0.07816039770841599,-0.046429991722106934,-0.6564772725105286,3.9908316135406494,-1.7082390785217285,-0.05794926732778549,-5.639319896697998,-7.00656795501709,17.395416259765625,0.08575353026390076,0.8195473551750183,0.46291643381118774,4.263612747192383,-1.1483118534088135,0.1318816989660263,0.35500234365463257,0.6409862041473389,0.42000001668930054,-0.30685538053512573,0.9555846452713013,-1.0536130666732788,-3.00000262260437,-0.231230229139328,-0.22351756691932678,-0.205910325050354,-0.1826697438955307,0.015064180828630924,0.09146363288164139,0.16456973552703857,0.24068239331245422
0.5,-0.039236098527908325,-0.008361879736185074,0.0,0.6870339512825012,0.0,0.0,-0.7266252636909485,-0.266439288854599,-0.4461924731731415,0.0,0.0,0.0,-4.5597734451293945,0.15163356065750122,0.7995942234992981,0.4626026153564453,0.7120208144187927,0.047366801649332047,-0.05905687436461449,-0.6980651021003723,3.5627996921539307,-2.027689218521118,-0.21768000721931458,1.7351996898651123,-7.851635932922363,20.029226303100586,0.15117892622947693,0.7973009347915649,0.46161288022994995,3.9259276390075684,-1.4325531721115112,-0.1841708868741989,0.35500234365463257,0.6409862041473389,0.42000001668930054,-0.28743991255760193,1.0414587259292603,-1.1036351919174194,-3.0000011920928955,-0.23397459089756012,-0.22455036640167236,-0.20573610067367554,-0.18157997727394104,-0.035440340638160706,0.024087753146886826,0.03993605077266693,0.03151420131325722
0.5166666666666666,-0.040811460465192795,-0.01178810279816389,0.0,0.679746687412262,0.0,0.0,-0.7334469556808472,-0.02216729335486889,-0.08129104226827621,0.0,0.0,0.0,-0.13426990807056427,0.2104586809873581,0.7731249928474426,0.4555681645870209,0.6761373281478882,0.017126183956861496,-0.038732822984457016,-0.7355574369430542,2.9135594367980957,-2.1542882919311523,-0.565054714679718,0.33856236934661865,-1.2419198751449585,13.169463157653809,0.20949861407279968,0.7702903747558594,0.45469415187835693,3.2525107860565186,-1.7954134941101074,-0.5378902554512024,0.35500234365463257,0.6409862041473389,0.42000001668930054,-0.27195122838020325,0.8206799626350403,-1.15365731716156,-3.000002145767212,-0.23455369472503662,-0.22428689897060394,-0.20554965734481812,-0.18200121819972992,-0.003218051977455616,0.0390988364815712,0.015140105038881302,-0.04823916032910347
0.5333333333333333,-0.03865883871912956,-0.018758680671453476,0.0,0.6629773378372192,0.0,0.0,-0.7486394643783569,0.14145715534687042,-0.4313272535800934,0.0,0.0,0.0,-3.526130199432373,0.25757649540901184,0.7416333556175232,0.4410870373249054,0.6839916706085205,-0.013254390098154545,-0.022334076464176178,-0.7290272116661072,2.2373580932617188,-2.8189799785614014,-0.9822443127632141,-0.7123050689697266,-13.432758331298828,37.079185485839844,0.2594012916088104,0.7420362830162048,0.4404929578304291,2.726475954055786,-1.7725000381469727,-0.9546682238578796,0.35500234365463257,0.6409862041473389,0.42000001668930054,-0.25547632575035095,0.552169144153595,-1.2036794424057007,-3.0000016689300537,-0.22894169390201569,-0.219072163105011,-0.20187462866306305,-0.1804867386817932,0.26388949155807495,0.2639455497264862,0.1863229125738144,0.06329253315925598
0.55,-0.034523334354162216,-0.020924249663949013,0.0,0.6592385768890381,0.0,0.0,-0.7519338726997375,0.29530084133148193,-0.12754368782043457,0.0,0.0,0.0,0.265487939119339,0.2967502474784851,0.71348637342453,0.42623385787010193,0.6482411026954651,-0.08165953308343887,-0.027874106541275978,-0.7565303444862366,1.4950073957443237,-0.9413518905639648,-0.0483369305729866,-2.5829017162323,6.0741987228393555,37.55038070678711,0.29657843708992004,0.7128139734268188,0.4278128743171692,1.7408621311187744,-1.3997224569320679,0.11790777742862701,0.35500234365463257,0.6409862041473389,0.42000001668930054,-0.2522450387477875,0.20569972693920135,-1.2536184787750244,-2.9995460510253906,-0.22635439038276672,-0.21644824743270874,-0.20056943595409393,-0.181311696767807,0.3368474245071411,0.27587002515792847,0.1432691216468811,-0.027211153879761696
0.5666666666666667,-0.032240185886621475,-0.027297193184494972,0.0,0.6449704170227051,0.0,0.0,-0.7642075419425964,0.08892481029033661,-0.41577139496803284,0.0,0.0,0.0,-2.9283154010772705,0.3193114995956421,0.6981152296066284,0.42445844411849976,0.7877853512763977,-0.07992195338010788,-0.025764858350157738,-0.610198974609375,1.2409344911575317,-0.9270287156105042,-0.0826479122042656,5.508369445800781,0.6838986873626709,17.368331909179688,0.321983277797699,0.6931802034378052,0.4268643260002136,1.2139952182769775,-1.1440112590789795,-0.09584273397922516,0.35500234365463257,0.6409862041473389,0.42000001668930054,-0.23921963572502136,1.24886953830719,-1.2155249118804932,2.999753475189209,-0.21754243969917297,-0.209218829870224,-0.1960759311914444,-0.18013694882392883,0.41627737879753113,0.3481508195400238,0.2089109867811203,0.03105456754565239
0.5833333333333334,-0.028578532859683037,-0.029492171481251717,0.0,0.6442399024963379,0.0,0.0,-0.7648234963417053,0.240291565656662,-0.10381915420293808,0.0,0.0,0.0,0.6983404755592346,0.3359068036079407,0.6833913326263428,0.42311111092567444,0.80372554063797,-0.04724126681685448,-0.0020143110305070877,-0.5931182503700256,0.8388994932174683,-0.6299936175346375,0.14988401532173157,1.2365474700927734,0.679435133934021,-7.857771873474121,0.3391437530517578,0.6762356758117676,0.42710423469543457,0.8959799408912659,-0.8265857696533203,0.051503416150808334,0.35500234365463257,0.6409862041473389,0.42000001668930054,-0.21256034076213837,1.8542085886001587,-1.2365623712539673,-3.0000836849212646,-0.21303214132785797,-0.20575125515460968,-0.19479189813137054,-0.18166734278202057,0.3918973207473755,0.2818337082862854,0.11072961241006851,-0.09115343540906906
0.6,-0.022921528667211533,-0.035698194056749344,0.0,0.6321693658828735,0.0,0.0,-0.7748302221298218,0.3553899824619293,-0.42424434423446655,0.0,0.0,0.0,-2.736835241317749,0.34598615765571594,0.6760833859443665,0.423310786485672,0.7757173180580139,-0.061880361288785934,0.0043565453961491585,-0.6280242204666138,0.4311034083366394,-0.6743301153182983,0.11647967249155045,-8.902555465698242,-5.602295875549316,4.0622053146362305,0.3502500057220459,0.6675344705581665,0.42537927627563477,0.33725303411483765,-0.3510701656341553,-0.09326757490634918,0.35500234365463257,0.6409862041473389,0.42000001668930054,-0.18372204899787903,0.666168212890625,-1.1985435485839844,2.999242067337036,-0.20253263413906097,-0.19799421727657318,-0.19064895808696747,-0.18151092529296875,0.5979315638542175,0.44388025999069214,0.24017862975597382,0.014658728614449501
0.6166666666666667,-0.019459377974271774,-0.038438864052295685,0.0,0.6332754492759705,0.0,0.0,-0.7739264965057373,0.15487055480480194,-0.1392706334590912,0.0,0.0,0.0,1.0166106224060059,0.35069704055786133,0.6681437492370605,0.42300665378570557,0.7851195335388184,-0.05680084228515625,0.006993491668254137,-0.6166943907737732,0.16597497463226318,-0.5461295247077942,-0.042631808668375015,0.18350781500339508,-2.88519024848938,6.286928176879883,0.3541467487812042,0.6603021621704102,0.4256729483604431,0.17327629029750824,-0.34836333990097046,0.08374983072280884,0.35500234365463257,0.6409862041473389,0.42000001668930054,-0.20243418216705322,-2.3086750507354736,-1.2199571132659912,-3.000007390975952,-0.1964091807603836,-0.19361013174057007,-0.188778817653656,-0.1825333833694458,0.3958115875720978,0.285526305437088,0.13510826230049133,-0.033727314323186874
0.6333333333333333,-0.014622279442846775,-0.037629976868629456,0.0,0.6240225434303284,0.0,0.0,-0.7814063429832458,0.3079262673854828,0.09062988311052322,0.0,0.0,0.0,-2.261725902557373,0.35121244192123413,0.6617584824562073,0.42183202505111694,0.7942662835121155,-0.03310881182551384,-0.0027494248934090137,-0.6066607236862183,0.06869208812713623,-0.25906187295913696,-0.05240675061941147,1.7110339403152466,-0.9847239851951599,-6.444997787475586,0.35609403252601624,0.6585693359375,0.42733943462371826,0.14751014113426208,0.02510157600045204,0.11553367227315903,0.35500234365463257,0.6409862041473389,0.42000001668930054,-0.23104964196681976,-1.2262510061264038,-1.2699236869812012,-2.99924635887146,-0.18960292637348175,-0.18903003633022308,-0.18688909709453583,-0.1834717094898224,0.5172111392021179,0.3603079319000244,0.18358822166919708,0.005162108223885298
0.65,-0.007940961048007011,-0.041352204978466034,0.0,0.6278806924819946,0.0,0.0,-0.7783095836639404,0.38959136605262756,-0.2243097871541977,0.0,0.0,0.0,1.4600902795791626,0.3521263599395752,0.6604741215705872,0.42146486043930054,0.776818573474884,-0.0267826896160841,0.005733442958444357,-0.6291283965110779,-0.08221004158258438,-0.12976910173892975,-0.11312355846166611,2.6390628814697266,-3.9739956855773926,-1.9413528442382812,0.3556811809539795,0.6592231392860413,0.4298620820045471,-0.114344522356987,0.016274061053991318,0.16538427770137787,0.35500234365463257,0.6409862041473389,0.42000001668930054,-0.27767613530158997,-2.9999918937683105,-1.3198989629745483,-2.999011278152466,-0.17826777696609497,-0.18035303056240082,-0.1811431348323822,-0.1806575357913971,0.5075792670249939,0.40914398431777954,0.29251107573509216,0.17053401470184326
0.6666666666666666,0.0011027350556105375,-0.04091417044401169,0.0,0.6529324650764465,0.0,0.0,-0.7574161291122437,0.5938619375228882,0.027253495529294014,0.0,0.0,0.0,4.735487461090088,0.35068804025650024,0.6591113805770874,0.42000022530555725,0.7759290337562561,-1.265026457986096e-05,1.2827807040594053e-05,-0.630820095539093,-0.07942420989274979,-0.04241587594151497,-0.0008260704344138503,0.007449507247656584,-0.040396079421043396,0.925739049911499,0.35390228033065796,0.658063530921936,0.4333442747592926,-0.05637133866548538,-0.07384288311004639,0.25398191809654236,0.35500234365463257,0.6409862041473389,0.42000001668930054,-0.32767778635025024,-2.9999406337738037,-1.3698861598968506,-2.999985456466675,-0.17322860658168793,-0.17592355608940125,-0.17747096717357635,-0.17774146795272827,0.348684698343277,0.32312723994255066,0.29886165261268616,0.282667338848114
0.6833333333333333,0.012151937000453472,-0.04401063174009323,0.0,0.6639631390571594,0.0,0.0,-0.747765302658081,0.6915366649627686,-0.20041464269161224,0.0,0.0,0.0,0.691931426525116,0.35022488236427307,0.6588513255119324,0.42000001668930054,0.7775417566299438,-6.750227043994528e-08,-1.2848715869040461e-06,-0.6288312673568726,-0.008214975707232952,-0.004835469648241997,-2.2016698494553566e-05,0.0018948365468531847,0.0015652398578822613,0.08850675821304321,0.35307732224464417,0.657662570476532,0.4384109377861023,-0.10582728683948517,-0.1329006850719452,0.30566248297691345,0.35500234365463257,0.6409862041473389,0.42000001668930054,-0.3776836693286896,-2.9999685287475586,-1.4198877811431885,-2.9999337196350098,-0.1672799438238144,-0.16996346414089203,-0.17139288783073425,-0.17136260867118835,0.22914059460163116,0.27768775820732117,0.33370885252952576,0.399277001619339
0.7,0.024836504831910133,-0.049665674567222595,0.0,0.6518746018409729,0.0,0.0,-0.7583267688751221,0.7917730808258057,-0.40733423829078674,0.0,0.0,0.0,-2.8386001586914062,0.35022467374801636,0.6588514447212219,0.42000001668930054,0.7775415778160095,1.4244208159652771e-06,-3.626525767685962e-06,-0.6288315057754517,0.00024097805726341903,-0.00017739461327437311,-7.418729364871979e-05,0.0025415699928998947,0.003470869269222021,0.0003524141211528331,0.3557802736759186,0.6565937995910645,0.4499545097351074,0.39058583974838257,-0.0308957789093256,1.154550552368164,0.35500234365463257,0.6409862041473389,0.42000001668930054,-0.4276975393295288,-2.999992609024048,-1.4699060916900635,-3.000000238418579,-0.16551350057125092,-0.16711074113845825,-0.16730011999607086,-0.1658676117658615,0.05692019313573837,0.13092443346977234,0.2149682193994522,0.308501660823822
0.7166666666666667,0.04032323509454727,-0.05136752501130104,0.0,0.6176604628562927,0.0,0.0,-0.7864448428153992,0.9521054625511169,-0.1240411102771759,0.0,0.0,0.0,-6.082777976989746,0.35022464394569397,0.6588515043258667,0.42000001668930054,0.7775418162345886,1.0188089163420955e-06,-3.951966391468886e-06,-0.6288312077522278,0.0002635506971273571,-0.00021895740064792335,-8.145719766616821e-05,0.0031936343293637037,0.003610059153288603,0.0004339233273640275,0.37103497982025146,0.6534291505813599,0.4753434956073761,1.4971505403518677,-0.24501383304595947,1.9692590236663818,0.35500234365463257,0.6409862041473389,0.42000001668930054,-0.47771066427230835,-2.9999992847442627,-1.5199244022369385,-3.000000238418579,-0.16942287981510162,-0.1691092699766159,-0.16723252832889557,-0.16362091898918152,-0.141415536403656,-0.05651336908340454,0.042146243155002594,0.15176576375961304
0.7333333333333333,0.05301005020737648,-0.051752012223005295,0.0,0.5982890129089355,0.0,0.0,-0.8012803792953491,0.6806362867355347,0.023905768990516663,0.0,0.0,0.0,-1.9056670665740967,0.35022464394569397,0.6588515043258667,0.42000001668930054,0.7775416970252991,1.0792118700919673e-06,-4.172199624008499e-06,-0.6288313865661621,0.0002635827986523509,-0.000220234869630076,-8.114054799079895e-05,0.0032198925036937,0.0036160822492092848,0.00043614808237180114,0.3963136672973633,0.6540563106536865,0.5108451843261719,1.446309208869934,0.27069172263145447,2.2337021827697754,0.35500234365463257,0.6409862041473389,0.42000001668930054,-0.5013912916183472,-0.07676741480827332,-1.5699424743652344,-3.0,-0.1699121594429016,-0.16905276477336884,-0.16646799445152283,-0.16202875971794128,0.07515496015548706,0.060206297785043716,0.05057794973254204,0.04437797889113426
0.75,0.06075858324766159,-0.049722351133823395,0.0,0.604303240776062,0.0,0.0,-0.7967544198036194,0.3873749375343323,0.16551734507083893,0.0,0.0,0.0,1.772857666015625,0.35022464394569397,0.6588515043258667,0.42000001668930054,0.7775418162345886,1.0396752259111963e-06,-3.9319152165262494e-06,-0.6288312077522278,0.00026807887479662895,-0.00022669734607916325,-8.223927579820156e-05,0.0033375544007867575,0.003686661599203944,0.00044785524369217455,0.41560107469558716,0.6596431732177734,0.5432668924331665,0.8088380098342896,0.38006114959716797,1.6931350231170654,0.35500234365463257,0.6409862041473389,0.42000001668930054,-0.4835467040538788,2.020608425140381,-1.5310121774673462,3.0000009536743164,-0.16711747646331787,-0.1666741520166397,-0.16445130109786987,-0.16035625338554382,0.22629962861537933,0.19808511435985565,0.16950877010822296,0.13837715983390808
0.7666666666666666,0.06427256762981415,-0.051706790924072266,0.0,0.5982886552810669,0.0,0.0,-0.801280677318573,0.1724703162908554,-0.19499461352825165,0.0,0.0,0.0,-1.8307693004608154,0.3502246141433716,0.6588515043258667,0.42000001668930054,0.7775416374206543,9.508321454632096e-07,-3.7948011595290154e-06,-0.6288313269615173,0.00026404671370983124,-0.00022019159223418683,-8.141947910189629e-05,0.003217288525775075,0.003620607079938054,0.00043611996807157993,0.42192769050598145,0.6658798456192017,0.5646864175796509,-0.07168237119913101,0.32286813855171204,1.0573022365570068,0.35500234365463257,0.6409862041473389,0.42000001668930054,-0.45468389987945557,1.4660658836364746,-1.480955719947815,2.9999992847442627,-0.16221599280834198,-0.16223758459091187,-0.1605454683303833,-0.15708379447460175,0.23893675208091736,0.23269151151180267,0.2172594517469406,0.19007845222949982
0.7833333333333333,0.06461654603481293,-0.048731885850429535,0.0,0.6047242879867554,0.0,0.0,-0.7964348793029785,-0.028976652771234512,0.312141478061676,0.0,0.0,0.0,1.8437016010284424,0.3502246141433716,0.6588515043258667,0.42000001668930054,0.7775415182113647,1.0195973345616949e-06,-4.0063496271613985e-06,-0.6288315057754517,0.0002640842576511204,-0.00021948732319287956,-8.162041194736958e-05,0.0032031310256570578,0.0036186303477734327,0.0004351099778432399,0.41752058267593384,0.6693638563156128,0.5783876180648804,-0.4152839779853821,0.19388258457183838,0.6210876703262329,0.35500234365463257,0.6409862041473389,0.42000001668930054,-0.41728290915489197,2.8701324462890625,-1.430902361869812,3.000000238418579,-0.16378548741340637,-0.1626366525888443,-0.16005685925483704,-0.1560588777065277,-0.1543903648853302,-0.06990933418273926,-0.004740316420793533,0.036871522665023804
0.8,0.06291869282722473,-0.049021366983652115,0.0,0.5990837812423706,0.0,0.0,-0.8006863594055176,-0.14087635278701782,-0.12260257452726364,0.0,0.0,0.0,-1.7541768550872803,0.35022464394569397,0.6588515043258667,0.42000001668930054,0.7775413990020752,1.0274507076246664e-06,-4.0145168895833194e-06,-0.6288316249847412,0.00026404144591651857,-0.0002193934633396566,-8.16036481410265e-05,0.003201568964868784,0.0036183707416057587,0.00043493133853189647,0.4058970808982849,0.6711979508399963,0.5837994813919067,-0.9985840320587158,0.020721010863780975,0.2181396335363388,0.35500234365463257,0.6409862041473389,0.42000001668930054,-0.400560200214386,-0.5798556804656982,-1.3808497190475464,3.000000476837158,-0.16400392353534698,-0.1618110090494156,-0.1584462672472,-0.15398390591144562,0.03145980462431908,0.09283372759819031,0.13969014585018158,0.16860243678092957
0.8166666666666667,0.06288745999336243,-0.045450422912836075,0.0,0.6052657961845398,0.0,0.0,-0.796023428440094,0.016738273203372955,0.17450885474681854,0.0,0.0,0.0,1.4348186254501343,0.3502246141433716,0.6588515043258667,0.42000001668930054,0.77754145860672,1.0551962077443022e-06,-3.9708947952021845e-06,-0.6288315653800964,0.0002635160053614527,-0.00021964435291010886,-8.124555461108685e-05,0.0032081236131489277,0.003613227279856801,0.00043534536962397397,0.3932263255119324,0.6714538335800171,0.585944414138794,-0.3970834016799927,0.17847289144992828,0.05682176351547241,0.35500234365463257,0.6409862041473389,0.42000001668930054,-0.39329254627227783,1.2880486249923706,-1.3584246635437012,-0.06183014065027237,-0.16746826469898224,-0.16376228630542755,-0.15909326076507568,-0.15360702574253082,0.04799644649028778,0.06569895148277283,0.08195450901985168,0.09366089850664139
0.8333333333333334,0.060838744044303894,-0.0469590499997139,0.0,0.597953736782074,0.0,0.0,-0.8015305995941162,-0.17447002232074738,-0.11505541950464249,0.0,0.0,0.0,-1.864637851715088,0.35022464394569397,0.6588515043258667,0.42000001668930054,0.7775413393974304,1.0022744163507014e-06,-3.996648047177587e-06,-0.628831684589386,0.00026392319705337286,-0.00021919076971244067,-8.158572018146515e-05,0.0031976865138858557,0.003616172354668379,0.00043457504943944514,0.3894892930984497,0.672681450843811,0.5857498049736023,-0.10699889063835144,-0.07414783537387848,0.06356865912675858,0.35500234365463257,0.6409862041473389,0.42000001668930054,-0.41782787442207336,-3.0000007152557373,-1.311173915863037,2.999999523162842,-0.16486458480358124,-0.16114036738872528,-0.15640829503536224,-0.1508561074733734,0.03982950374484062,0.0671430453658104,0.09717755019664764,0.12708327174186707
0.85,0.0609031617641449,-0.04476002976298332,0.0,0.6031187176704407,0.0,0.0,-0.7976514101028442,0.04457663372159004,0.17335475981235504,0.0,0.0,0.0,1.57436203956604,0.3502246141433716,0.6588515043258667,0.42000001668930054,0.7775413990020752,1.0801211374200648e-06,-4.120040102861822e-06,-0.6288316249847412,0.0002638085570652038,-0.00022025511134415865,-8.125603199005127e-05,0.0032194966915994883,0.0036186822690069675,0.0004364431952126324,0.3906881809234619,0.6696726679801941,0.5883345603942871,0.29503268003463745,-0.19246913492679596,0.257371187210083,0.35500234365463257,0.6409862041473389,0.42000001668930054,-0.45611295104026794,-1.6753418445587158,-1.3308773040771484,-3.000000238418579,-0.1668679118156433,-0.16209526360034943,-0.15624968707561493,-0.14957782626152039,-0.008250400424003601,0.030248522758483887,0.07911130785942078,0.13517354428768158
0.8666666666666667,0.06312324851751328,-0.04572846367955208,0.0,0.596032440662384,0.0,0.0,-0.8029603362083435,0.1669006496667862,-0.07639337331056595,0.0,0.0,0.0,-1.9650638103485107,0.3502246141433716,0.6588515043258667,0.42000001668930054,0.7775413990020752,9.92535092336766e-07,-3.962324626627378e-06,-0.6288316249847412,0.00026378448819741607,-0.0002189121296396479,-8.157733827829361e-05,0.003192485310137272,0.0036136603448539972,0.0004340693703852594,0.3985236585140228,0.6639543771743774,0.5888903141021729,0.5726774334907532,-0.5413190126419067,-0.009518895298242569,0.35500234365463257,0.6409862041473389,0.42000001668930054,-0.49917513132095337,-3.0000014305114746,-1.3655110597610474,-1.276987910270691,-0.16520752012729645,-0.1599203646183014,-0.1533394157886505,-0.14575780928134918,0.026042096316814423,0.08764830976724625,0.16059111058712006,0.24180929362773895
0.8833333333333333,0.06799611449241638,-0.044113390147686005,0.0,0.5674326419830322,0.0,0.0,-0.8234198093414307,0.34474635124206543,0.1767931878566742,0.0,0.0,0.0,-5.054218292236328,0.3502246141433716,0.6588515043258667,0.42000001668930054,0.7775415182113647,1.0996774335580994e-06,-4.134492428420344e-06,-0.6288316249847412,0.00026378940674476326,-0.00022012834961060435,-8.126511238515377e-05,0.003217331599444151,0.0036187972873449326,0.00043620727956295013,0.4130975604057312,0.6545535326004028,0.5896404981613159,1.14263117313385,-0.560552716255188,0.24858622252941132,0.35500234365463257,0.6409862041473389,0.42000001668930054,-0.5218073129653931,0.03900022432208061,-1.4129444360733032,-3.000000238418579,-0.16483865678310394,-0.15916189551353455,-0.15197445452213287,-0.14360883831977844,0.0699695497751236,0.060548026114702225,0.06408008933067322,0.07907509058713913
0.9,0.07073435187339783,-0.03989734873175621,0.0,0.5549063086509705,0.0,0.0,-0.8319128155708313,0.09092671424150467,0.29915300011634827,0.0,0.0,0.0,-0.7678346037864685,0.3502246141433716,0.6588515043258667,0.42000001668930054,0.7775417566299438,1.0439396191941341e-06,-3.954241492465371e-06,-0.6288312673568726,0.00026344682555645704,-0.00021938294230494648,-8.125021122395992e-05,0.003203035332262516,0.0036119658034294844,0.00043468206422403455,0.42890310287475586,0.6496831178665161,0.5957958102226257,0.7453097105026245,-0.10539238154888153,0.43985515832901,0.35500234365463257,0.6409862041473389,0.42000001668930054,-0.5016040802001953,2.1827940940856934,-1.3744611740112305,3.0,-0.1611132174730301,-0.15627984702587128,-0.14978459477424622,-0.1419650912284851,0.30716413259506226,0.228019580245018,0.1532149463891983,0.08361143618822098
