vladlanda/robotic-transformer/data/env_000_episode_0014.csv
sim_time_s,robot_box_x,robot_box_y,robot_box_z,robot_box_quat_w,robot_box_quat_x,robot_box_quat_y,robot_box_quat_z,robot_box_linvel_x,robot_box_linvel_y,robot_box_linvel_z,robot_box_angvel_x,robot_box_angvel_y,robot_box_angvel_z,cube_world_x,cube_world_y,cube_world_z,cube_quat_w,cube_quat_x,cube_quat_y,cube_quat_z,cube_linvel_x,cube_linvel_y,cube_linvel_z,cube_angvel_x,cube_angvel_y,cube_angvel_z,endpoint_world_x,endpoint_world_y,endpoint_world_z,endpoint_linvel_x,endpoint_linvel_y,endpoint_linvel_z,target_cube_world_x,target_cube_world_y,target_cube_world_z,gripper_actual_pos_rad_gp_leftgearjoint,gripper_actual_vel_rad_s_gp_leftgearjoint,gripper_actual_pos_rad_gp_rotatingjoint,gripper_actual_vel_rad_s_gp_rotatingjoint,motor_angle_rad_joint1,motor_angle_rad_joint2,motor_angle_rad_joint3,motor_angle_rad_joint4,motor_speed_rad_s_joint1,motor_speed_rad_s_joint2,motor_speed_rad_s_joint3,motor_speed_rad_s_joint4
0.0,0.0,0.0,0.0,1.0,0.0,0.0,0.0,0.0,0.0,0.0,0.0,0.0,0.0,-0.36684876680374146,0.6352294683456421,0.41999998688697815,1.0,0.0,0.0,0.0,0.0,0.0,0.0,0.0,0.0,0.0,3.42540442943573e-06,-0.005000244826078415,1.313499927520752,0.0,0.0,0.0,0.47082799673080444,0.7420960664749146,0.42000001668930054,-1.5707999467849731,0.0,0.0,0.0,0.0,0.0,0.0,0.0,0.0,0.0,0.0,0.0
0.016666666666666666,0.0028823423199355602,0.00217520073056221,0.0,0.9998189806938171,0.0,0.0,0.019027264788746834,0.24100013077259064,0.18221446871757507,0.0,0.0,0.0,3.141792058944702,-0.366848886013031,0.6352291703224182,0.41999998688697815,1.0,3.279964630564791e-06,-8.339746386809566e-07,8.465587342243452e-08,-1.9833529222523794e-05,0.00017983045836444944,-6.132945418357849e-05,0.0009432713268324733,-0.004689474124461412,-0.00031981561915017664,-0.0071084219962358475,0.003393471473827958,1.3159384727478027,-0.8138916492462158,0.9873647689819336,0.1809660643339157,0.47082799673080444,0.7420960664749146,0.42000001668930054,-1.5301094055175781,3.00000262260437,-0.04584916681051254,-3.000000476837158,0.0008703046478331089,0.0007969619473442435,0.0007115246262401342,0.0006113819545134902,0.11095919460058212,0.09759660065174103,0.08337300270795822,0.06826654076576233
0.03333333333333333,0.008966359309852123,0.006793488282710314,0.0,0.9998071789741516,0.0,0.0,0.019637415185570717,0.40707579255104065,0.3151329457759857,0.0,0.0,0.0,-0.8690370917320251,-0.36684900522232056,0.6352291107177734,0.4200000464916229,1.0,3.3908354453160428e-06,-2.1324485715012997e-06,-3.710144014235084e-08,0.00026357831666246057,0.00026937946677207947,-0.00010509486310184002,-0.0017707672668620944,0.004130808170884848,-0.000135478752781637,-0.027525832876563072,0.02611943706870079,1.3166146278381348,-1.589874267578125,1.6175274848937988,-0.0829153060913086,0.47082799673080444,0.7420960664749146,0.42000001668930054,-1.4800900220870972,3.0000011920928955,-0.09588900208473206,-3.000000238418579,0.0029903845861554146,0.0026527070440351963,0.0022772939410060644,0.001860816148109734,0.164155974984169,0.13971616327762604,0.11378107219934464,0.08626674860715866
0.05,0.01847512647509575,0.013891265727579594,0.0,0.9999737739562988,0.0,0.0,-0.007241945713758469,0.63615483045578,0.4721061587333679,0.0,0.0,0.0,-4.074251174926758,-0.36684903502464294,0.6352291703224182,0.4200000464916229,1.0,3.7651125239790417e-06,-2.211879063906963e-06,5.622505128144439e-09,0.000265308452071622,0.0002669153327587992,-0.00010440615005791187,-0.001724260626360774,0.004177352879196405,-0.00012949221127200872,-0.05719223618507385,0.056739792227745056,1.3121161460876465,-1.95554780960083,1.9900363683700562,-0.43693336844444275,0.47082799673080444,0.7420960664749146,0.42000001668930054,-1.4300717115402222,2.999999523162842,-0.1459248661994934,-2.9999990463256836,0.006011046469211578,0.005172321107238531,0.004261254798620939,0.003273524809628725,0.20700867474079132,0.16671575605869293,0.12449643015861511,0.08027579635381699
0.06666666666666667,0.030778363347053528,0.023375127464532852,0.0,0.9998770356178284,0.0,0.0,-0.015681099146604538,0.7722988128662109,0.6159182786941528,0.0,0.0,0.0,-0.039719030261039734,-0.36684903502464294,0.6352291107177734,0.4200000464916229,0.9999999403953552,3.4066883927152958e-06,-2.285532218593289e-06,4.300976286231162e-07,0.0002670241810847074,0.00026791772688739,-0.00010438147000968456,-0.00174069800414145,0.00421178387477994,-0.00012850729399360716,-0.09495287388563156,0.08867460489273071,1.3015156984329224,-2.420091152191162,2.0188658237457275,-0.8237322568893433,0.47082799673080444,0.7420960664749146,0.42000001668930054,-1.380045771598816,2.999998092651367,-0.15340591967105865,1.696987509727478,0.008786392398178577,0.007253579795360565,0.005608227103948593,0.0038449016865342855,0.15675945580005646,0.10795510560274124,0.05701615288853645,0.0038760355673730373
0.08333333333333333,0.04555583372712135,0.030977651476860046,0.0,0.9992630481719971,0.0,0.0,-0.038384921848773956,0.9508868455886841,0.3747977018356323,0.0,0.0,0.0,-3.541060447692871,-0.36684903502464294,0.6352291107177734,0.4200000464916229,1.0,3.6972253383282805e-06,-2.188838152505923e-06,-2.632317830375541e-07,0.00026389729464426637,0.00026586424792185426,-0.00010433932766318321,-0.0017081560799852014,0.004150177352130413,-0.0001299097202718258,-0.13060730695724487,0.1270797848701477,1.2869459390640259,-1.899964690208435,2.5630903244018555,-0.9107201099395752,0.47082799673080444,0.7420960664749146,0.42000001668930054,-1.3300360441207886,3.0000011920928955,-0.19225896894931793,-3.0,0.009973278269171715,0.007337979972362518,0.0045477175153791904,0.0015968004008755088,0.020982423797249794,-0.06289482116699219,-0.14906500279903412,-0.23744305968284607
0.1,0.05443818122148514,0.04058064520359039,0.0,0.9959123730659485,0.0,0.0,-0.09032489359378815,0.3933774530887604,0.6578078269958496,0.0,0.0,0.0,-7.292377471923828,-0.36684903502464294,0.6352291107177734,0.4200000464916229,0.9999999403953552,3.620277084337431e-06,-2.2651142899121623e-06,1.7461523782458244e-07,0.0002667682128958404,0.0002674072457011789,-0.0001040794886648655,-0.0017386354738846421,0.004209177568554878,-0.00012775110371876508,-0.16386371850967407,0.17279990017414093,1.266329288482666,-2.031649351119995,2.9163403511047363,-1.4737615585327148,0.47082799673080444,0.7420960664749146,0.42000001668930054,-1.2800170183181763,2.9999942779541016,-0.1585138738155365,3.0000011920928955,0.003799957223236561,0.000381069490686059,-0.0032460386864840984,-0.0070900870487093925,-0.4884667694568634,-0.527164876461029,-0.5684130787849426,-0.6124811768531799
0.11666666666666667,0.06520634889602661,0.0528949610888958,0.0,0.9923354387283325,0.0,0.0,-0.123573437333107,0.8433593511581421,0.6855749487876892,0.0,0.0,0.0,-2.8401591777801514,-0.36684903502464294,0.6352291107177734,0.4200000464916229,1.0,3.798308171099052e-06,-2.262737325509079e-06,-1.5021218757738097e-07,0.0002637405996210873,0.000265660259174183,-0.00010428996756672859,-0.0017054072814062238,0.00414755754172802,-0.000129801788716577,-0.20330126583576202,0.21521905064582825,1.239444375038147,-2.37471866607666,2.650294303894043,-1.7123377323150635,0.47082799673080444,0.7420960664749146,0.42000001668930054,-1.2300209999084473,2.9999961853027344,-0.19022540748119354,-2.999999761581421,-0.002903050510212779,-0.007237046957015991,-0.0117955869063735,-0.01658959873020649,-0.19332915544509888,-0.27994802594184875,-0.3649364709854126,-0.4482515752315521
0.13333333333333333,0.07551173865795135,0.061356693506240845,0.0,0.9857836365699768,0.0,0.0,-0.16801957786083221,0.7005932927131653,0.5004474520683289,0.0,0.0,0.0,-6.037479877471924,-0.36684903502464294,0.6352291703224182,0.4200000464916229,0.9999999403953552,3.55037650479062e-06,-2.229731535408064e-06,2.929058098288806e-07,0.0002670335816219449,0.0002677934826351702,-0.00010417238809168339,-0.0017440745141357183,0.004213663749396801,-0.0001280020660487935,-0.24012276530265808,0.26381009817123413,1.2075693607330322,-1.9666481018066406,3.3264899253845215,-2.0154051780700684,0.47082799673080444,0.7420960664749146,0.42000001668930054,-1.1800005435943604,2.999997615814209,-0.15648092329502106,3.0000009536743164,-0.008780846372246742,-0.014484421350061893,-0.020378317683935165,-0.02647457830607891,-0.210566908121109,-0.32248708605766296,-0.4298721253871918,-0.5325863361358643
0.15,0.08485256135463715,0.06709253787994385,0.0,0.9816328287124634,0.0,0.0,-0.190779909491539,0.5005735754966736,0.2684507966041565,0.0,0.0,0.0,-1.631910800933838,-0.36684900522232056,0.6352291107177734,0.4200000464916229,1.0,3.332105279696407e-06,-2.1019018277002033e-06,1.3129569254033413e-07,0.0002673073613550514,0.00026859616627916694,-0.00010459683835506439,-0.0017497853841632605,0.004215648397803307,-0.00012928245996590704,-0.27609527111053467,0.31655675172805786,1.168332576751709,-2.0387532711029053,3.3642184734344482,-2.689444065093994,0.47082799673080444,0.7420960664749146,0.42000001668930054,-1.1300065517425537,2.9999992847442627,-0.18819881975650787,-3.0000007152557373,-0.013239889405667782,-0.020519889891147614,-0.027907181531190872,-0.03541410341858864,-0.3221726715564728,-0.3991107642650604,-0.47125038504600525,-0.5387009978294373
0.16666666666666666,0.0898047611117363,0.07384679466485977,0.0,0.9749488830566406,0.0,0.0,-0.22242918610572815,0.2196008265018463,0.4621715247631073,0.0,0.0,0.0,-4.642546653747559,-0.36684903502464294,0.6352291107177734,0.4200000464916229,1.0,3.737186489161104e-06,-2.233031182186096e-06,-1.876633604069866e-07,0.0002643294574227184,0.00026626838371157646,-0.00010445830412209034,-0.0017118845134973526,0.004157516174018383,-0.00013001053594052792,-0.3101496696472168,0.3753276467323303,1.1159173250198364,-1.8885762691497803,3.689340114593506,-3.543919086456299,0.47082799673080444,0.7420960664749146,0.42000001668930054,-1.0800002813339233,3.0000035762786865,-0.1544647365808487,2.9999992847442627,-0.020911280065774918,-0.02915254235267639,-0.03741546720266342,-0.04571627825498581,-0.5416356921195984,-0.580254077911377,-0.6141032576560974,-0.6434878706932068
0.18333333333333332,0.09783806651830673,0.08160515874624252,0.0,0.9597163200378418,0.0,0.0,-0.28097081184387207,0.48969095945358276,0.5196977853775024,0.0,0.0,0.0,-8.048417091369629,-0.36684903502464294,0.6352291703224182,0.4200000464916229,0.9999999403953552,3.660124548332533e-06,-2.302147322552628e-06,2.52845069326213e-07,0.0002669083187356591,0.0002676025324035436,-0.00010412652045488358,-0.0017412957968190312,0.004211513791233301,-0.0001278699201066047,-0.33786970376968384,0.4421156346797943,1.0486507415771484,-1.3159576654434204,4.201118469238281,-4.436618804931641,0.47082799673080444,0.7420960664749146,0.42000001668930054,-1.029991865158081,2.9999992847442627,-0.18623550236225128,-3.0,-0.030069300904870033,-0.038751207292079926,-0.04738770052790642,-0.056001435965299606,-0.724225640296936,-0.7180262804031372,-0.7096860408782959,-0.699705958366394
0.2,0.10263321548700333,0.08830489963293076,0.0,0.9478877782821655,0.0,0.0,-0.31860435009002686,0.26611432433128357,0.33210161328315735,0.0,0.0,0.0,-3.56706166267395,-0.36684903502464294,0.6352291107177734,0.4200000464916229,1.0,3.5906891753256787e-06,-2.300306277902564e-06,1.3872099202671961e-07,0.0002665471110958606,0.00026732077822089195,-0.00010423827916383743,-0.0017326769884675741,0.004203524440526962,-0.00012820553092751652,-0.36040252447128296,0.5035649538040161,0.966977059841156,-0.9771565198898315,3.6156070232391357,-5.250008583068848,0.47082799673080444,0.7420960664749146,0.42000001668930054,-0.9799819588661194,2.9999988079071045,-0.23626427352428436,-2.999999523162842,-0.04581651836633682,-0.05432998761534691,-0.061948347836732864,-0.06956300139427185,-0.9555212259292603,-0.9322209358215332,-0.863290011882782,-0.7958149909973145
0.21666666666666667,0.10373683273792267,0.09605801105499268,0.0,0.9459199905395508,0.0,0.0,-0.32440000772476196,-0.007723232265561819,0.48401939868927,0.0,0.0,0.0,0.5333420634269714,-0.36684903502464294,0.6352291703224182,0.4200000464916229,1.0,3.6067892779101385e-06,-2.2609169718634803e-06,1.961327633637211e-08,0.00026447148411534727,0.0002655840653460473,-0.00010396447032690048,-0.0017088138265535235,0.0041642808355391026,-0.00012832574429921806,-0.38021281361579895,0.5514758825302124,0.8765634298324585,-1.0449153184890747,2.433976650238037,-5.583395957946777,0.47082799673080444,0.7420960664749146,0.42000001668930054,-0.9299717545509338,2.999993085861206,-0.28629544377326965,-3.000000476837158,-0.06130421534180641,-0.069879449903965,-0.0775555670261383,-0.08514907211065292,-0.9641613364219666,-0.9532091021537781,-0.9431514739990234,-0.932684063911438
0.23333333333333334,0.10890930145978928,0.09911683946847916,0.0,0.9400965571403503,0.0,0.0,-0.3409082293510437,0.3284432888031006,0.12307839840650558,0.0,0.0,0.0,-2.693352460861206,-0.36684900522232056,0.6352291107177734,0.4200000464916229,0.9999999403953552,3.742087073987932e-06,-2.227409822808113e-06,4.589062712057057e-07,0.00026475198683328927,0.00026671282830648124,-0.0001045342069119215,-0.0017188993515446782,0.0041658165864646435,-0.00013019447214901447,-0.394428014755249,0.5910384654998779,0.7779229879379272,-0.5871303081512451,2.015908718109131,-6.14086389541626,0.47082799673080444,0.7420960664749146,0.42000001668930054,-0.8799610733985901,2.999998092651367,-0.3363277316093445,-3.0000014305114746,-0.07582488656044006,-0.08428742736577988,-0.0918775200843811,-0.09936103969812393,-0.9900650382041931,-0.9916200041770935,-0.9928534030914307,-0.9903440475463867
0.25,0.1085180938243866,0.10621045529842377,0.0,0.9405534863471985,0.0,0.0,-0.3396455645561218,-0.012066434137523174,0.37930911779403687,0.0,0.0,0.0,1.016933798789978,-0.36684903502464294,0.6352291107177734,0.4200000464916229,1.0,3.394239683984779e-06,-2.282012019350077e-06,1.3362385686832567e-07,0.0002667936496436596,0.0002679401950445026,-0.00010439474135637283,-0.0017418229253962636,0.00420664856210351,-0.00012884348689112812,-0.40015286207199097,0.6095777750015259,0.6785344481468201,-0.12400373816490173,0.5155544281005859,-5.707135200500488,0.47082799673080444,0.7420960664749146,0.42000001668930054,-0.8299515843391418,2.9999773502349854,-0.386359840631485,-3.0000033378601074,-0.093291737139225,-0.10149399936199188,-0.10891511291265488,-0.11628282070159912,-0.691791296005249,-0.7508565783500671,-0.8070600628852844,-0.8576588034629822
0.26666666666666666,0.11321467161178589,0.1076584905385971,0.0,0.936142086982727,0.0,0.0,-0.35162192583084106,0.30683523416519165,0.03168497607111931,0.0,0.0,0.0,-2.106106758117676,-0.36684903502464294,0.6352291703224182,0.4200000464916229,1.0,3.6832336718362058e-06,-2.31005606110557e-06,2.1009948625305697e-07,0.0002647906949277967,0.00026625851751305163,-0.00010421290062367916,-0.0017168435733765364,0.004168881103396416,-0.00012909741781186312,-0.40006223320961,0.6218118667602539,0.583051860332489,0.25799286365509033,0.6624256372451782,-5.535167694091797,0.47082799673080444,0.7420960664749146,0.42000001668930054,-0.7799428105354309,3.000001907348633,-0.43639102578163147,-3.000000238418579,-0.10538876056671143,-0.11442353576421738,-0.12265829741954803,-0.13076141476631165,-1.0109519958496094,-1.0082414150238037,-1.006176233291626,-1.0045338869094849
0.2833333333333333,0.11302457749843597,0.10706273466348648,0.0,0.9382550120353699,0.0,0.0,-0.34594443440437317,-0.0980849415063858,-0.06616521626710892,0.0,0.0,0.0,1.5779598951339722,-0.36684903502464294,0.6352291107177734,0.4200000464916229,1.0,3.3067506137740565e-06,-2.2124868337414227e-06,2.625712340886821e-07,0.0002666061627678573,0.0002674513962119818,-0.00010424340143799782,-0.0017352820141240954,0.004204321652650833,-0.00012828712351620197,-0.3926543593406677,0.6303380727767944,0.4982585906982422,0.685104250907898,0.4200633466243744,-4.733380317687988,0.47082799673080444,0.7420960664749146,0.42000001668930054,-0.7299340963363647,3.000002861022949,-0.4864201247692108,-2.9999988079071045,-0.12342335283756256,-0.13214105367660522,-0.14013755321502686,-0.14805366098880768,-1.013994812965393,-1.0105818510055542,-1.0079740285873413,-1.005887746810913
0.3,0.11014310270547867,0.10424203425645828,0.0,0.9349609613418579,0.0,0.0,-0.3547506630420685,-0.18276245892047882,-0.2205219715833664,0.0,0.0,0.0,-2.002964735031128,-0.36684903502464294,0.6352291107177734,0.4200000464916229,1.0,3.6407882362254895e-06,-2.3779157345416024e-06,-4.194236282728525e-07,0.0002660918398760259,0.00026721289032138884,-0.00010421476326882839,-0.0017330169212073088,0.004194211680442095,-0.00012849405175074935,-0.3754449486732483,0.635989785194397,0.41834476590156555,1.3342351913452148,0.27606236934661865,-4.808797836303711,0.47082799673080444,0.7420960664749146,0.42000001668930054,-0.6799271702766418,2.999990940093994,-0.5364479422569275,-2.9999988079071045,-0.13981695473194122,-0.14851851761341095,-0.15649746358394623,-0.16436804831027985,-1.0000019073486328,-1.000000238418579,-0.9973661303520203,-0.9764500856399536
0.31666666666666665,0.10550404340028763,0.09911755472421646,0.0,0.9374115467071533,0.0,0.0,-0.3482235372066498,-0.3216197192668915,-0.3449387848377228,0.0,0.0,0.0,1.7248612642288208,-0.36684903502464294,0.6352291703224182,0.4200000464916229,1.0,3.6215142245055176e-06,-2.2889792035130085e-06,1.9687607277774077e-07,0.00026734027778729796,0.00026802680804394186,-0.00010420684702694416,-0.0017466372810304165,0.004219007212668657,-0.00012793985661119223,-0.3768412470817566,0.6384047269821167,0.42519906163215637,-0.14704608917236328,0.12008504569530487,-0.16732390224933624,0.47082799673080444,0.7420960664749146,0.42000001668930054,-0.6300025582313538,2.999979257583618,-0.5869097709655762,-3.0000014305114746,-0.14759856462478638,-0.15538813173770905,-0.16211672127246857,-0.1683616042137146,-0.5105592608451843,-0.43508943915367126,-0.3453272879123688,-0.23845195770263672
0.3333333333333333,0.09844806045293808,0.0918830931186676,0.0,0.9342741966247559,0.0,0.0,-0.356555312871933,-0.4688285291194916,-0.4719599783420563,0.0,0.0,0.0,-1.9919233322143555,-0.366910457611084,0.6359732747077942,0.42000025510787964,0.999953031539917,-2.721187001952785e-06,2.1982290490996093e-05,-0.009683535434305668,0.010717345401644707,0.11926855146884918,-0.0007027380634099245,0.016140837222337723,-0.026776621118187904,-2.8769938945770264,-0.3758796751499176,0.6394201517105103,0.4224852919578552,0.19024810194969177,0.08214003592729568,-0.15546783804893494,0.47082799673080444,0.7420960664749146,0.42000001668930054,-0.5799974799156189,2.999980926513672,-0.636970043182373,-2.9999964237213135,-0.15648265182971954,-0.16268552839756012,-0.16760313510894775,-0.17176130414009094,-0.5395553708076477,-0.42482978105545044,-0.2992766797542572,-0.1596192717552185
0.35,0.08912517130374908,0.0825200006365776,0.0,0.9368188977241516,0.0,0.0,-0.3498147130012512,-0.6000336408615112,-0.5996195673942566,0.0,0.0,0.0,1.7868582010269165,-0.36429980397224426,0.6414397954940796,0.42027637362480164,0.9972425103187561,0.0016471710987389088,0.005419704131782055,-0.07399488985538483,0.27387183904647827,0.4916389584541321,0.04815913736820221,1.7329882383346558,0.6265008449554443,-11.870184898376465,-0.3728412687778473,0.6451225280761719,0.4215622544288635,0.22484886646270752,0.5944176912307739,-0.03314904868602753,0.47082799673080444,0.7420960664749146,0.42000001668930054,-0.5299924612045288,2.999985456466675,-0.68700110912323,-2.999999761581421,-0.1656060814857483,-0.16955815255641937,-0.17204070091247559,-0.17352958023548126,-0.5113182663917542,-0.36867931485176086,-0.21564151346683502,-0.04911866411566734
0.36666666666666664,0.0819486528635025,0.07082034647464752,0.0,0.9338836669921875,0.0,0.0,-0.35757699608802795,-0.3158859312534332,-0.7502853870391846,0.0,0.0,0.0,-1.8894824981689453,-0.359380841255188,0.6499859094619751,0.420000821352005,0.9886590838432312,7.853724673623219e-05,-2.3029719159239903e-05,-0.1501767486333847,0.37815019488334656,0.6096886396408081,-0.0005879587843082845,-0.026583097875118256,0.022102177143096924,-3.9094924926757812,-0.3657253384590149,0.6540864706039429,0.42026281356811523,0.5710023045539856,0.4985176920890808,-0.012227721512317657,0.47082799673080444,0.7420960664749146,0.42000001668930054,-0.4799880087375641,2.9999732971191406,-0.7370453476905823,-2.9999988079071045,-0.17494334280490875,-0.17591342329978943,-0.17519859969615936,-0.17324523627758026,-0.5180349349975586,-0.3239593505859375,-0.11556949466466904,0.10826587677001953
0.3833333333333333,0.07323290407657623,0.057355448603630066,0.0,0.919581413269043,0.0,0.0,-0.3928995430469513,-0.5400024056434631,-0.8590253591537476,0.0,0.0,0.0,-5.4747209548950195,-0.348836749792099,0.6649606227874756,0.4203890860080719,0.982552170753479,-0.0017182365991175175,-0.003651820123195648,-0.1859428435564041,0.9311967492103577,1.22942316532135,0.07029610127210617,-3.3003523349761963,-0.9672056436538696,-6.177692890167236,-0.35231029987335205,0.6665598154067993,0.4215813875198364,1.0555353164672852,1.0806297063827515,0.14599716663360596,0.47082799673080444,0.7420960664749146,0.42000001668930054,-0.42998427152633667,2.999986171722412,-0.7870962619781494,-2.999810218811035,-0.18426716327667236,-0.18192361295223236,-0.17762690782546997,-0.17181545495986938,-0.3989964723587036,-0.2352864146232605,-0.053259871900081635,0.14805598556995392
0.4,0.0677524209022522,0.040871214121580124,0.0,0.8920736312866211,0.0,0.0,-0.45189008116722107,-0.2746381461620331,-1.039149284362793,0.0,0.0,0.0,-8.57778263092041,-0.31799396872520447,0.6900721192359924,0.4250161647796631,0.9705014824867249,0.0011924036080017686,-0.03675282746553421,-0.23827402293682098,2.8650145530700684,2.144707441329956,0.2887061536312103,23.563819885253906,-11.33560562133789,6.454385757446289,-0.321260929107666,0.6926038265228271,0.42575785517692566,2.674790382385254,2.046154499053955,0.5190891027450562,0.47082799673080444,0.7420960664749146,0.42000001668930054,-0.3914811611175537,1.3214900493621826,-0.8371202349662781,-3.0000009536743164,-0.19210496544837952,-0.18657277524471283,-0.17883123457431793,-0.16932837665081024,-0.5154628157615662,-0.30327484011650085,-0.07953734695911407,0.15409058332443237
0.4166666666666667,0.06452860683202744,0.028987828642129898,0.0,0.8485152721405029,0.0,0.0,-0.5291708707809448,-0.11140350252389908,-0.721397340297699,0.0,0.0,0.0,-11.28287410736084,-0.24750997126102448,0.7313488721847534,0.4319058060646057,0.9521900415420532,0.06449316442012787,-0.07927727699279785,-0.28790605068206787,5.48164701461792,2.7328972816467285,0.46701323986053467,2.7237279415130615,-11.252032279968262,8.440771102905273,-0.2506222724914551,0.7342931032180786,0.43268221616744995,5.2663116455078125,3.060997724533081,0.4820767343044281,0.47082799673080444,0.7420960664749146,0.42000001668930054,-0.3739260733127594,0.9465394616127014,-0.8002098798751831,2.999413251876831,-0.2062896490097046,-0.196724534034729,-0.18422381579875946,-0.17015793919563293,-0.5862711668014526,-0.4702036380767822,-0.2554723024368286,-0.05532434210181236
0.43333333333333335,0.06504064053297043,0.019416801631450653,0.0,0.8117700219154358,0.0,0.0,-0.583977222442627,0.08522111922502518,-0.514211893081665,0.0,0.0,0.0,-6.624528408050537,-0.15777912735939026,0.7796945571899414,0.4422580897808075,0.9066505432128906,0.10471951961517334,-0.107810378074646,-0.39420241117477417,5.7690582275390625,2.113863945007324,0.7321479916572571,13.907841682434082,-7.215295314788818,13.557207107543945,-0.16130611300468445,0.7834044694900513,0.4424768388271332,5.564912796020508,2.6175336837768555,0.6725848913192749,0.47082799673080444,0.7420960664749146,0.42000001668930054,-0.35754311084747314,1.0040793418884277,-0.8269947171211243,-3.0000007152557373,-0.21593782305717468,-0.20455485582351685,-0.18907490372657776,-0.17238503694534302,-0.5350688099861145,-0.42824581265449524,-0.27446362376213074,-0.14623470604419708
0.45,0.06211571395397186,0.015424618497490883,0.0,0.7948759198188782,0.0,0.0,-0.6067720055580139,-0.13040141761302948,-0.20692837238311768,0.0,0.0,0.0,-1.927940011024475,-0.06308616697788239,0.8134737610816956,0.45371368527412415,0.8486967086791992,0.1192995086312294,-0.11584509909152985,-0.5020570755004883,5.9567131996154785,0.9686682224273682,0.6304274201393127,-2.123197555541992,-12.243790626525879,14.374812126159668,-0.06648783385753632,0.8182073831558228,0.4532589316368103,5.990950584411621,1.8073019981384277,0.7763227224349976,0.47082799673080444,0.7420960664749146,0.42000001668930054,-0.34004515409469604,0.9910844564437866,-0.8770186305046082,-3.000002384185791,-0.2282654047012329,-0.21425491571426392,-0.1957310140132904,-0.17652840912342072,-0.5792904496192932,-0.4650447964668274,-0.33476096391677856,-0.22980979084968567
0.4666666666666667,0.06428691744804382,0.006158984266221523,0.0,0.7706403732299805,0.0,0.0,-0.6372702717781067,0.08459503203630447,-0.6133949756622314,0.0,0.0,0.0,-5.3639912605285645,0.03893863037228584,0.8328786492347717,0.4622417986392975,0.7637521028518677,0.11321418732404709,-0.14390061795711517,-0.6189975142478943,5.9974141120910645,-0.1572369635105133,0.5725101232528687,-13.835661888122559,4.907046794891357,2.692365884780884,0.034345224499702454,0.839497447013855,0.46256113052368164,6.2709641456604,0.6365005373954773,0.6441518664360046,0.47082799673080444,0.7420960664749146,0.42000001668930054,-0.3248656988143921,0.755011260509491,-0.9270428419113159,-2.999290704727173,-0.23236823081970215,-0.21700991690158844,-0.1969214677810669,-0.17639772593975067,-0.39410459995269775,-0.25150778889656067,-0.10667235404253006,0.021947000175714493
0.48333333333333334,0.0675722137093544,0.0007998858345672488,0.0,0.7586755752563477,0.0,0.0,-0.6514686346054077,0.22870367765426636,-0.26337218284606934,0.0,0.0,0.0,-1.1573861837387085,0.13909444212913513,0.8339108824729919,0.47245004773139954,0.6863451600074768,0.11159460991621017,-0.13903215527534485,-0.7050865888595581,5.611391067504883,-0.6340320706367493,0.6214788556098938,-6.27764892578125,-1.1930463314056396,2.8310489654541016,0.13522952795028687,0.8420954942703247,0.4725431203842163,6.0838518142700195,-0.2584790587425232,0.6745240688323975,0.47082799673080444,0.7420960664749146,0.42000001668930054,-0.3119222819805145,0.8419497013092041,-0.9770670533180237,-2.9992942810058594,-0.23997832834720612,-0.22378508746623993,-0.20128248631954193,-0.17876657843589783,-0.01206131000071764,-0.4096061587333679,-0.30749648809432983,-0.2309684008359909
0.5,0.07189713418483734,-0.001171356183476746,0.0,0.7396997809410095,0.0,0.0,-0.6729370355606079,0.31376731395721436,-0.08162901550531387,0.0,0.0,0.0,-4.2322869300842285,0.2300969511270523,0.8230884075164795,0.4775482416152954,0.6127992272377014,0.11016825586557388,-0.13801145553588867,-0.7702550888061523,4.683252334594727,-1.5439289808273315,0.021892478689551353,-14.39531135559082,-4.227554798126221,21.77903175354004,0.22768738865852356,0.8332352042198181,0.4782907962799072,5.337882041931152,-0.8991514444351196,0.2515844404697418,0.47082799673080444,0.7420960664749146,0.42000001668930054,-0.301466703414917,0.34033408761024475,-1.0270915031433105,-3.0000009536743164,-0.23906566202640533,-0.22922201454639435,-0.20586197078227997,-0.18277432024478912,0.08546348661184311,-0.21457095444202423,-0.20083753764629364,-0.1997390240430832
0.5166666666666666,0.07579871267080307,-5.718947795685381e-05,0.0,0.7340978980064392,0.0,0.0,-0.6790436506271362,0.17146112024784088,0.12439915537834167,0.0,0.0,0.0,-0.030746163800358772,0.3078264594078064,0.8035004734992981,0.4748746454715729,0.5632652044296265,0.09355057030916214,-0.13213567435741425,-0.8102596402168274,4.05523157119751,-1.7360663414001465,-0.4015931785106659,-4.473485946655273,-1.514403223991394,2.82096529006958,0.3065536618232727,0.8126420974731445,0.47631391882896423,4.302441120147705,-1.5502302646636963,-0.28536683320999146,0.47082799673080444,0.7420960664749146,0.42000001668930054,-0.29565533995628357,0.42853111028671265,-1.0771139860153198,-3.0,-0.2379857301712036,-0.23209336400032043,-0.20881961286067963,-0.18600617349147797,0.08983433246612549,-0.09798329323530197,-0.12691085040569305,-0.16622471809387207
0.5333333333333333,0.08092082291841507,0.0003675474436022341,0.0,0.7187285423278809,0.0,0.0,-0.6952908039093018,0.3607952892780304,0.010229901410639286,0.0,0.0,0.0,-3.6514832973480225,0.37415871024131775,0.7807984352111816,0.46235230565071106,0.4767548441886902,0.06434643268585205,-0.1393756866455078,-0.8655279874801636,3.5152382850646973,-1.3449375629425049,-0.9721364378929138,-1.9643727540969849,4.096773147583008,-8.035215377807617,0.37157607078552246,0.7906969785690308,0.46469801664352417,3.5978829860687256,-1.3380316495895386,-0.9352854490280151,0.47082799673080444,0.7420960664749146,0.42000001668930054,-0.2835453748703003,1.1022182703018188,-1.1271361112594604,-2.9998061656951904,-0.23227661848068237,-0.22982515394687653,-0.20833690464496613,-0.18732036650180817,0.45475539565086365,0.2625102698802948,0.11430008709430695,-0.03102887235581875
0.55,0.08795517683029175,0.0030865913722664118,0.0,0.7150006294250488,0.0,0.0,-0.6991237998008728,0.4618646800518036,0.20904889702796936,0.0,0.0,0.0,0.306632399559021,0.42486146092414856,0.7573251128196716,0.44312191009521484,0.44006577134132385,0.033217597752809525,-0.13672025501728058,-0.8868743777275085,2.3580689430236816,-2.011486053466797,-1.0529499053955078,6.454765796661377,11.024910926818848,6.845152854919434,0.42354267835617065,0.7671338319778442,0.4460252523422241,2.680664539337158,-1.4363592863082886,-1.2549865245819092,0.47082799673080444,0.7420960664749146,0.42000001668930054,-0.26290416717529297,0.907264232635498,-1.177158236503601,-2.9988973140716553,-0.22568534314632416,-0.2257702797651291,-0.2069060057401657,-0.18845435976982117,0.39873483777046204,0.2704429030418396,0.09486754983663559,-0.07641825079917908
0.5666666666666667,0.09670515358448029,0.003150966251268983,0.0,0.7018902897834778,0.0,0.0,-0.712285041809082,0.5535520315170288,-0.061759039759635925,0.0,0.0,0.0,-3.1222851276397705,0.4589349329471588,0.7425104975700378,0.4262499511241913,0.4338952898979187,0.006970967631787062,-0.12024570256471634,-0.8928758502006531,1.1227515935897827,-0.6683821678161621,0.059163276106119156,3.547482490539551,11.289621353149414,9.281594276428223,0.457364559173584,0.7519769668579102,0.42940449714660645,1.2084002494812012,-0.3470422625541687,-0.16975264251232147,0.47082799673080444,0.7420960664749146,0.42000001668930054,-0.25585421919822693,0.09220518916845322,-1.2273246049880981,-3.0002987384796143,-0.21802613139152527,-0.22024954855442047,-0.2047770768404007,-0.1895252913236618,0.5325530767440796,0.4024010896682739,0.1770118921995163,-0.028350796550512314
0.5833333333333334,0.10268862545490265,0.006298813037574291,0.0,0.7005913257598877,0.0,0.0,-0.7135627865791321,0.2975378632545471,0.1877521425485611,0.0,0.0,0.0,0.7062147855758667,0.47336432337760925,0.7349309921264648,0.42368781566619873,0.4586959183216095,-0.029577042907476425,-0.060364026576280594,-0.8860471248626709,0.5881332755088806,-0.40730607509613037,-0.12558096647262573,4.353224754333496,7.874844074249268,0.574869692325592,0.4705718159675598,0.7429059147834778,0.4261215925216675,0.5321570634841919,-0.5252771377563477,-0.21047191321849823,0.47082799673080444,0.7420960664749146,0.42000001668930054,-0.2639448344707489,-0.772459864616394,-1.2773560285568237,-2.999803304672241,-0.21227188408374786,-0.21561294794082642,-0.20323698222637177,-0.1908126175403595,0.44516992568969727,0.3725855350494385,0.167955681681633,-0.016945432871580124
0.6,0.10974763333797455,0.005398452747613192,0.0,0.6892288327217102,0.0,0.0,-0.7245437502861023,0.4216839671134949,-0.10888049751520157,0.0,0.0,0.0,-2.74824857711792,0.478981614112854,0.7333096861839294,0.4217710793018341,0.47079914808273315,-0.036235079169273376,-0.023030264303088188,-0.881195068359375,0.19352801144123077,0.0334714837372303,-0.035553328692913055,1.5412237644195557,-0.8400892019271851,5.452729225158691,0.47563862800598145,0.7413443922996521,0.424228310585022,0.1400928944349289,0.07558643817901611,-0.013446222059428692,0.47082799673080444,0.7420960664749146,0.42000001668930054,-0.28754183650016785,-1.9241098165512085,-1.287909746170044,1.386572241783142,-0.20295733213424683,-0.20762908458709717,-0.19889794290065765,-0.1897249072790146,0.5155742168426514,0.4627581536769867,0.2633301019668579,0.08575985580682755
0.6166666666666667,0.11889664828777313,0.00892897229641676,0.0,0.6899085640907288,0.0,0.0,-0.7238965034484863,0.5269785523414612,0.24694761633872986,0.0,0.0,0.0,1.0151780843734741,0.48152098059654236,0.7334918975830078,0.4203588664531708,0.4966866970062256,-0.007391517516225576,-0.004369453061372042,-0.8678874373435974,0.13824138045310974,0.002527897944673896,-0.0954480990767479,4.334445953369141,-2.6481943130493164,3.144514322280884,0.47484493255615234,0.7399834394454956,0.4245799779891968,0.009066924452781677,0.00888684019446373,0.16461674869060516,0.47082799673080444,0.7420960664749146,0.42000001668930054,-0.334229975938797,-3.000009775161743,-1.32154381275177,-2.9996089935302734,-0.19887912273406982,-0.2035529613494873,-0.19738711416721344,-0.19053250551223755,0.3307863473892212,0.30741390585899353,0.13239528238773346,-0.025587351992726326
0.6333333333333333,0.12978975474834442,0.00801293458789587,0.0,0.6802398562431335,0.0,0.0,-0.7329896092414856,0.6738053560256958,-0.09698684513568878,0.0,0.0,0.0,-2.541386127471924,0.48239025473594666,0.7333853840827942,0.4200000464916229,0.5104766488075256,-9.242448868462816e-06,-1.0360647138440982e-05,-0.8598915934562683,0.025359980762004852,0.00642468361184001,-0.0003228358691558242,0.012380696833133698,-0.009466329589486122,0.9406760334968567,0.4763150215148926,0.7443039417266846,0.4275065064430237,-0.023869160562753677,0.29413390159606934,0.2027714103460312,0.47082799673080444,0.7420960664749146,0.42000001668930054,-0.3842636048793793,-3.000000238418579,-1.3715049028396606,-2.99893856048584,-0.1890636682510376,-0.1948901116847992,-0.19225719571113586,-0.18856078386306763,0.509653627872467,0.4692107141017914,0.2891635298728943,0.12779030203819275
0.65,0.14238636195659637,0.009821271523833275,0.0,0.6823375225067139,0.0,0.0,-0.7310372591018677,0.7850878834724426,0.15995243191719055,0.0,0.0,0.0,1.2660372257232666,0.4814462959766388,0.7339665293693542,0.4201596975326538,0.5284987688064575,0.002028293674811721,-0.0034816833212971687,-0.8489243984222412,-0.17740537226200104,0.08650878816843033,0.0476565808057785,-1.130205750465393,-2.1041512489318848,2.8677127361297607,0.4735370874404907,0.7472363710403442,0.43081867694854736,-0.2380199432373047,0.16354519128799438,0.2360803782939911,0.47082799673080444,0.7420960664749146,0.42000001668930054,-0.43427881598472595,-2.9999876022338867,-1.4215233325958252,-2.9999396800994873,-0.183292955160141,-0.18931244313716888,-0.18903174996376038,-0.18738307058811188,0.3156244158744812,0.3111612796783447,0.18684810400009155,0.08072257041931152
0.6666666666666666,0.1521805077791214,0.00800601951777935,0.0,0.6758278012275696,0.0,0.0,-0.7370595335960388,0.4996773302555084,-0.1504368931055069,0.0,0.0,0.0,-2.388017416000366,0.47897252440452576,0.7351353764533997,0.42006978392601013,0.5434748530387878,0.0009693625033833086,-0.001426108879968524,-0.8394235968589783,-0.13812057673931122,0.0647406280040741,-0.02276330068707466,0.488716721534729,1.0446014404296875,1.916658878326416,0.4732171297073364,0.7495975494384766,0.43524473905563354,0.02496904321014881,0.04471714049577713,0.2878173589706421,0.47082799673080444,0.7420960664749146,0.42000001668930054,-0.48429813981056213,-3.000011444091797,-1.4715138673782349,-2.9996297359466553,-0.17684847116470337,-0.1826322078704834,-0.18382728099822998,-0.1832706481218338,0.25985002517700195,0.3266598880290985,0.3028762936592102,0.301222562789917
0.6833333333333333,0.16285809874534607,0.0077355303801596165,0.0,0.645016074180603,0.0,0.0,-0.7641689777374268,0.6586581468582153,-0.05160851776599884,0.0,0.0,0.0,-5.850369453430176,0.4776981472969055,0.7357081770896912,0.41999998688697815,0.5494385957717896,-8.90810554210475e-07,4.2351399542894796e-07,-0.8355340957641602,-0.056097835302352905,0.02444218285381794,-1.06393126770854e-05,-0.0001406313240295276,-0.00045797176426276565,0.5267972946166992,0.4751630425453186,0.7512770891189575,0.44806772470474243,0.35793426632881165,0.1905244141817093,1.3176560401916504,0.47082799673080444,0.7420960664749146,0.42000001668930054,-0.5343111753463745,-3.000000476837158,-1.5215321779251099,-2.9999938011169434,-0.1772221028804779,-0.18120627105236053,-0.18197356164455414,-0.18070825934410095,0.016892701387405396,0.10489623248577118,0.12310093641281128,0.1595066785812378
0.7,0.17517346143722534,0.009633680805563927,0.0,0.627861738204956,0.0,0.0,-0.7783249020576477,0.7824804186820984,0.15593254566192627,0.0,0.0,0.0,-1.6213529109954834,0.4775199890136719,0.7357844114303589,0.4199998676776886,0.5499475002288818,1.4422997992369346e-05,-1.554216032673139e-05,-0.8351991772651672,0.0016007496742531657,-8.878627704689279e-05,-0.0005522953579202294,-0.027377186343073845,0.019459418952465057,-0.003300027223303914,0.48180389404296875,0.7574514746665955,0.4754655361175537,0.45200109481811523,0.5420957803726196,1.9631438255310059,0.47082799673080444,0.7420960664749146,0.42000001668930054,-0.574892520904541,-1.930140495300293,-1.5715504884719849,-3.000000238418579,-0.177850604057312,-0.18081089854240417,-0.18154464662075043,-0.17996792495250702,-0.0023387987166643143,0.02262905053794384,-0.0027200328186154366,-0.012525968253612518
0.7166666666666667,0.18477655947208405,0.01370688620954752,0.0,0.6354916095733643,0.0,0.0,-0.7721077799797058,0.5037313103675842,0.2982421815395355,0.0,0.0,0.0,2.0615899562835693,0.47752144932746887,0.7357836961746216,0.4200000464916229,0.5499467849731445,3.5083400007351884e-07,-2.79724031315709e-06,-0.8351995944976807,4.5097134716343135e-05,-0.0002527347533032298,-7.653655484318733e-05,0.006561097223311663,-0.002026170492172241,-0.0007042712531983852,0.492356538772583,0.7660448551177979,0.5001283288002014,0.6993827819824219,0.4975440800189972,1.0849719047546387,0.47082799673080444,0.7420960664749146,0.42000001668930054,-0.579756498336792,1.0857267379760742,-1.621557354927063,-2.999999761581421,-0.17679879069328308,-0.17937445640563965,-0.18044061958789825,-0.17900896072387695,0.10704418271780014,0.13277722895145416,0.12010540813207626,0.11298717558383942
0.7333333333333333,0.19000481069087982,0.013716391287744045,0.0,0.631260871887207,0.0,0.0,-0.7755705714225769,0.2230793535709381,-0.014528174884617329,0.0,0.0,0.0,-1.4701799154281616,0.47752144932746887,0.7357836365699768,0.4200000464916229,0.5499468445777893,3.1687108048572554e-07,-2.8410336199158337e-06,-0.8351995348930359,4.957113560521975e-05,-0.0002500388363841921,-7.840502075850964e-05,0.006459382828325033,-0.0019882931374013424,-0.000710768683347851,0.5000185966491699,0.772343635559082,0.5116748809814453,0.17928102612495422,0.17073293030261993,0.4657023549079895,0.47082799673080444,0.7420960664749146,0.42000001668930054,-0.6001900434494019,-3.0000007152557373,-1.5824861526489258,3.0000007152557373,-0.17352977395057678,-0.17565199732780457,-0.17684656381607056,-0.1755562573671341,0.04270820692181587,0.1146521344780922,0.15172958374023438,0.17812839150428772
0.75,0.19689832627773285,0.019274838268756866,0.0,0.640052318572998,0.0,0.0,-0.7683313488960266,0.3832671344280243,0.36977100372314453,0.0,0.0,0.0,2.1969387531280518,0.47752144932746887,0.7357836961746216,0.4200000464916229,0.5499468445777893,2.1125724458670447e-07,-2.682180820556823e-06,-0.8351996541023254,4.641989653464407e-05,-0.00025246632867492735,-7.786788046360016e-05,0.006538156419992447,-0.0020397286862134933,-0.0007094450993463397,0.5048803687095642,0.7742295265197754,0.5204014778137207,0.41797393560409546,0.27045270800590515,0.6054729223251343,0.47082799673080444,0.7420960664749146,0.42000001668930054,-0.6207244992256165,0.2669612467288971,-1.596859097480774,-3.0,-0.17765630781650543,-0.17783479392528534,-0.1776137799024582,-0.17518679797649384,-0.12266512215137482,-0.048962753266096115,0.0032069049775600433,0.042948219925165176
0.7666666666666666,0.20016485452651978,0.019937632605433464,0.0,0.6366127729415894,0.0,0.0,-0.7711836099624634,0.13932935893535614,-0.002429989166557789,0.0,0.0,0.0,-1.3761178255081177,0.47752144932746887,0.7357836961746216,0.4200000464916229,0.5499468445777893,4.985994337403099e-07,-2.67406107923307e-06,-0.8351995944976807,4.953137249685824e-05,-0.00025305544841103256,-7.850956171751022e-05,0.006536920554935932,-0.002006126567721367,-0.0007176367798820138,0.5121325850486755,0.7764896154403687,0.5252788066864014,0.4063650667667389,-0.09092965722084045,0.12666286528110504,0.47082799673080444,0.7420960664749146,0.42000001668930054,-0.6513928771018982,-3.0000007152557373,-1.557859182357788,2.999999523162842,-0.17695187032222748,-0.1761559396982193,-0.1752042919397354,-0.1722366362810135,-0.0852685496211052,0.011722547933459282,0.09605231136083603,0.16457387804985046
0.7833333333333333,0.20440374314785004,0.020340431481599808,0.0,0.6448706984519958,0.0,0.0,-0.7642917037010193,0.30055680871009827,-0.0028784063179045916,0.0,0.0,0.0,2.275557518005371,0.47752144932746887,0.7357836961746216,0.4200000464916229,0.5499466061592102,2.891041503971792e-07,-2.7014559691451723e-06,-0.835199773311615,4.8686342779546976e-05,-0.000251127639785409,-7.827160879969597e-05,0.006492051761597395,-0.002005018526688218,-0.0007111016311682761,0.5210086703300476,0.7742974162101746,0.531995415687561,0.6532450914382935,-0.10455021262168884,0.7060651779174805,0.47082799673080444,0.7420960664749146,0.42000001668930054,-0.6824380159378052,-0.8838024735450745,-1.5727887153625488,-3.000000476837158,-0.18064503371715546,-0.17782820761203766,-0.17497089505195618,-0.1703510880470276,-0.22192510962486267,-0.10610919445753098,0.009467110969126225,0.11298774927854538
0.8,0.20617838203907013,0.017393099144101143,0.0,0.6421433687210083,0.0,0.0,-0.766584575176239,0.04207814484834671,-0.2495831698179245,0.0,0.0,0.0,-1.2363767623901367,0.4775214195251465,0.7357836961746216,0.4200000464916229,0.5499467253684998,2.43839025415582e-07,-2.5484366688033333e-06,-0.8351997137069702,4.733343666885048e-05,-0.00025113142328336835,-7.797381840646267e-05,0.0064998650923371315,-0.002020104555413127,-0.0007081596413627267,0.5334417819976807,0.770190417766571,0.5405120849609375,0.816601037979126,-0.3782844543457031,0.46653449535369873,0.47082799673080444,0.7420960664749146,0.42000001668930054,-0.7057196497917175,-1.810571312904358,-1.6179029941558838,-2.42596435546875,-0.1846413016319275,-0.17969483137130737,-0.17461268603801727,-0.16793061792850494,-0.20143462717533112,-0.07208144664764404,0.06720282137393951,0.19852706789970398
0.8166666666666667,0.20943164825439453,0.01770767569541931,0.0,0.6178758144378662,0.0,0.0,-0.7862756848335266,0.20917879045009613,0.11468584835529327,0.0,0.0,0.0,-4.5158610343933105,0.47752144932746887,0.7357836961746216,0.4200000464916229,0.5499464869499207,2.5608525788811676e-07,-2.661393864400452e-06,-0.8351998329162598,4.7441109927603975e-05,-0.0002513398649170995,-7.797684520483017e-05,0.006504710763692856,-0.002019238658249378,-0.0007085172110237181,0.5468270182609558,0.7647397518157959,0.5512921810150146,0.8663230538368225,-0.21753504872322083,0.9097045660018921,0.47082799673080444,0.7420960664749146,0.42000001668930054,-0.7224256992340088,-0.30950862169265747,-1.6676477193832397,-3.000000476837158,-0.19032050669193268,-0.18332190811634064,-0.17597347497940063,-0.16713641583919525,-0.2314658761024475,-0.15703792870044708,-0.0630388930439949,0.030714405700564384
0.8333333333333334,0.2140294909477234,0.020764444023370743,0.0,0.6097089052200317,0.0,0.0,-0.7926254272460938,0.322587251663208,0.23997920751571655,0.0,0.0,0.0,-0.25676631927490234,0.4775214195251465,0.7357836961746216,0.4200000464916229,0.549946665763855,4.0708943060963065e-07,-2.807436430884991e-06,-0.8351996541023254,4.663137951865792e-05,-0.0002545689349062741,-7.794657722115517e-05,0.006591849960386753,-0.0020478141959756613,-0.0007141958922147751,0.5569823980331421,0.7643532752990723,0.5672181844711304,0.28364700078964233,0.17445196211338043,1.0330148935317993,0.47082799673080444,0.7420960664749146,0.42000001668930054,-0.6994786858558655,2.774691343307495,-1.7176622152328491,-2.9999990463256836,-0.19174563884735107,-0.18450994789600372,-0.17659902572631836,-0.16719111800193787,-3.0675437301397324e-08,-0.02440589666366577,-0.03335977718234062,-0.04409366473555565
0.85,0.215574711561203,0.018569044768810272,0.0,0.6260946393013,0.0,0.0,-0.7797470688819885,0.11924123764038086,-0.17404618859291077,0.0,0.0,0.0,3.1466808319091797,0.47752144932746887,0.7357836961746216,0.4200000464916229,0.549946665763855,4.312676651352376e-07,-2.8895772175019374e-06,-0.8351996541023254,5.162434172234498e-05,-0.0002515626256354153,-7.885205559432507e-05,0.0064873830415308475,-0.001972383353859186,-0.0007185724680311978,0.556167721748352,0.7688299417495728,0.5826060771942139,-0.41371265053749084,0.203178271651268,0.8321832418441772,0.47082799673080444,0.7420960664749146,0.42000001668930054,-0.6712433695793152,0.7665587067604065,-1.678330659866333,2.999999523162842,-0.18588291108608246,-0.1799001395702362,-0.17301011085510254,-0.16464655101299286,0.23602892458438873,0.18974466621875763,0.1503380686044693,0.10237020999193192
0.8666666666666667,0.21544529497623444,0.020747913047671318,0.0,0.6281190514564514,0.0,0.0,-0.7781172394752502,-0.04066034033894539,0.18393246829509735,0.0,0.0,0.0,-0.5125572085380554,0.47752144932746887,0.7357836365699768,0.4200000464916229,0.5499469637870789,2.599167601147201e-07,-2.933711130026495e-06,-0.8351994752883911,5.264938954496756e-05,-0.00025031500263139606,-7.906835526227951e-05,0.006449404638260603,-0.001954750856384635,-0.0007183534908108413,0.545931875705719,0.7711739540100098,0.5913794040679932,-0.6909707188606262,0.14628693461418152,0.3569921851158142,0.47082799673080444,0.7420960664749146,0.42000001668930054,-0.6661253571510315,-0.08245055377483368,-1.6282703876495361,3.0,-0.18553784489631653,-0.17976005375385284,-0.17301033437252045,-0.1649831384420395,0.10078907012939453,0.06644607335329056,0.037968799471855164,-3.9814040064811707e-08
0.8833333333333333,0.21243220567703247,0.020135285332798958,0.0,0.6405654549598694,0.0,0.0,-0.7679035663604736,-0.2360876202583313,-0.06241906061768532,0.0,0.0,0.0,2.6004650592803955,0.4775214195251465,0.7357836961746216,0.4200000464916229,0.5499467849731445,2.0765412500622915e-07,-2.595214027678594e-06,-0.8351995944976807,4.5064636651659384e-05,-0.0002523608272895217,-7.759383879601955e-05,0.006542844232171774,-0.002055103424936533,-0.0007060300558805466,0.5337271094322205,0.7729787826538086,0.5963733196258545,-0.81557297706604,0.08941587060689926,0.2857876420021057,0.47082799673080444,0.7420960664749146,0.42000001668930054,-0.6511551141738892,1.7095409631729126,-1.5782139301300049,3.0000007152557373,-0.18347793817520142,-0.17813704907894135,-0.17177607119083405,-0.16432692110538483,0.055712468922138214,0.043590180575847626,0.031238341704010963,0.005424303933978081
