vladlanda/robotic-transformer/data/env_000_episode_0121.csv
sim_time_s,robot_box_x,robot_box_y,robot_box_z,robot_box_quat_w,robot_box_quat_x,robot_box_quat_y,robot_box_quat_z,robot_box_linvel_x,robot_box_linvel_y,robot_box_linvel_z,robot_box_angvel_x,robot_box_angvel_y,robot_box_angvel_z,cube_world_x,cube_world_y,cube_world_z,cube_quat_w,cube_quat_x,cube_quat_y,cube_quat_z,cube_linvel_x,cube_linvel_y,cube_linvel_z,cube_angvel_x,cube_angvel_y,cube_angvel_z,endpoint_world_x,endpoint_world_y,endpoint_world_z,endpoint_linvel_x,endpoint_linvel_y,endpoint_linvel_z,target_cube_world_x,target_cube_world_y,target_cube_world_z,gripper_actual_pos_rad_gp_leftgearjoint,gripper_actual_vel_rad_s_gp_leftgearjoint,gripper_actual_pos_rad_gp_rotatingjoint,gripper_actual_vel_rad_s_gp_rotatingjoint,motor_angle_rad_joint1,motor_angle_rad_joint2,motor_angle_rad_joint3,motor_angle_rad_joint4,motor_speed_rad_s_joint1,motor_speed_rad_s_joint2,motor_speed_rad_s_joint3,motor_speed_rad_s_joint4
0.0,0.0,0.0,0.0,1.0,0.0,0.0,0.0,0.0,0.0,0.0,0.0,0.0,0.0,-0.4699936807155609,0.6683389544487,0.41999998688697815,1.0,0.0,0.0,0.0,0.0,0.0,0.0,0.0,0.0,0.0,3.42540442943573e-06,-0.005000244826078415,1.313499927520752,0.0,0.0,0.0,0.432695597410202,0.6825334429740906,0.42000001668930054,-1.5707999467849731,0.0,0.0,0.0,0.0,0.0,0.0,0.0,0.0,0.0,0.0,0.0
0.016666666666666666,0.0028778850100934505,0.0021806680597364902,0.0,0.9998081922531128,0.0,0.0,0.019586581736803055,0.24087215960025787,0.18240931630134583,0.0,0.0,0.0,3.1418697834014893,-0.46999379992485046,0.6683386564254761,0.41999998688697815,1.0,3.2799914606584935e-06,-8.339814598912199e-07,8.465387679734704e-08,-1.9833554688375443e-05,0.00017983050202019513,-6.133061833679676e-05,0.0009432226070202887,-0.004689437802881002,-0.0003198152990080416,-0.007110234349966049,0.003379564033821225,1.3159373998641968,-0.8143353462219238,0.9868683815002441,0.18095196783542633,0.432695597410202,0.6825334429740906,0.42000001668930054,-1.5301095247268677,3.0000011920928955,-0.04584788903594017,-2.9999992847442627,0.0008691533003002405,0.0007963840034790337,0.0007110277656465769,0.0006108740926720202,0.11094217747449875,0.09756709635257721,0.08334315568208694,0.06823883205652237
0.03333333333333333,0.008959240280091763,0.0068051558919250965,0.0,0.9997953176498413,0.0,0.0,0.020231477916240692,0.40705227851867676,0.31532156467437744,0.0,0.0,0.0,-0.870032787322998,-0.46999391913414,0.6683385968208313,0.4200000464916229,1.0,3.390885240150965e-06,-2.1324319732229924e-06,-3.711133800265998e-08,0.00026357753085903823,0.00026937859365716577,-0.00010509602725505829,-0.0017706351354718208,0.004130707122385502,-0.00013548039714805782,-0.027545839548110962,0.025883616879582405,1.3166439533233643,-1.5913493633270264,1.6083154678344727,-0.07926918566226959,0.432695597410202,0.6825334429740906,0.42000001668930054,-1.4800903797149658,3.0000035762786865,-0.09588771313428879,-3.000000476837158,0.0029894053004682064,0.002652120776474476,0.0022767921909689903,0.001860343967564404,0.1642511636018753,0.13979460299015045,0.11385331302881241,0.08633489161729813
0.05,0.017758075147867203,0.013776581734418869,0.0,0.9993736743927002,0.0,0.0,0.03538711369037628,0.5939867496490479,0.46517711877822876,0.0,0.0,0.0,2.6467297077178955,-0.4699939489364624,0.6683386564254761,0.4200000464916229,1.0,3.7652134778909385e-06,-2.2118977085483493e-06,5.605784725304375e-09,0.0002653079864103347,0.00026691483799368143,-0.00010440615005791187,-0.0017242918256670237,0.0041773696430027485,-0.00012949654774274677,-0.05968055501580238,0.05356019735336304,1.3117488622665405,-2.187741994857788,1.7470879554748535,-0.46964502334594727,0.432695597410202,0.6825334429740906,0.42000001668930054,-1.4300720691680908,3.000000238418579,-0.145926371216774,-3.0000007152557373,0.005712057929486036,0.004919920116662979,0.004055638797581196,0.0031147778499871492,0.19280283153057098,0.15590383112430573,0.11712944507598877,0.07638604193925858
0.06666666666666667,0.029076172038912773,0.02307155169546604,0.0,0.999446451663971,0.0,0.0,0.033268701285123825,0.720534086227417,0.5952844619750977,0.0,0.0,0.0,-1.2125388383865356,-0.4699939489364624,0.6683385968208313,0.4200000464916229,0.9999999403953552,3.4068298191414215e-06,-2.28560702453251e-06,4.300801776935259e-07,0.00026702682953327894,0.0002679186000023037,-0.00010437914170324802,-0.0017406968399882317,0.004211870953440666,-0.00012850748316850513,-0.09853065013885498,0.08725515007972717,1.2991924285888672,-2.474930763244629,2.1849887371063232,-1.0078221559524536,0.432695597410202,0.6825334429740906,0.42000001668930054,-1.3800537586212158,3.0000011920928955,-0.19596369564533234,-3.000000238418579,0.008363785222172737,0.006901525426656008,0.005328356754034758,0.0036373415496200323,0.15812309086322784,0.10860036313533783,0.05704798549413681,0.0034043225459754467
0.08333333333333333,0.04158969223499298,0.03477156534790993,0.0,0.9989662766456604,0.0,0.0,0.04545697569847107,0.8496948480606079,0.7420404553413391,0.0,0.0,0.0,2.524989366531372,-0.4699939489364624,0.6683385968208313,0.4200000464916229,0.9999999403953552,3.6261494642531034e-06,-2.3353520646196557e-06,3.03220957675876e-07,0.00026613869704306126,0.00026685185730457306,-0.00010405178181827068,-0.001728373346850276,0.0041963220573961735,-0.0001279099815292284,-0.14296884834766388,0.12187092006206512,1.2784010171890259,-2.782623767852783,2.0413827896118164,-1.4253206253051758,0.432695597410202,0.6825334429740906,0.42000001668930054,-1.3300354480743408,3.000000476837158,-0.24386852979660034,-2.7356133460998535,0.009614248760044575,0.0073378379456698895,0.004910897463560104,0.0023264552000910044,0.08406544476747513,0.025825731456279755,-0.03434818983078003,-0.09647619724273682
0.1,0.04904020205140114,0.04957672953605652,0.0,0.9991008639335632,0.0,0.0,0.04239681735634804,0.31713035702705383,0.9437270760536194,0.0,0.0,0.0,-1.3151030540466309,-0.4699939489364624,0.6683385968208313,0.4200000464916229,1.0,3.422180270717945e-06,-2.3086204237188213e-06,1.7963316167879384e-07,0.0002668162633199245,0.00026800515479408205,-0.00010440475307404995,-0.001743071130476892,0.0042070611380040646,-0.00012891352525912225,-0.18560238182544708,0.16173896193504333,1.2507104873657227,-2.401545524597168,2.5637149810791016,-1.8047187328338623,0.432695597410202,0.6825334429740906,0.42000001668930054,-1.2800055742263794,2.999994993209839,-0.20843611657619476,3.000000238418579,0.004947054665535688,0.001942957635037601,-0.0012591632548719645,-0.004669643472880125,-0.39657333493232727,-0.44916170835494995,-0.5040507912635803,-0.5614619255065918
0.11666666666666667,0.05307665839791298,0.06477643549442291,0.0,0.9999349117279053,0.0,0.0,0.01141100749373436,0.23720234632492065,0.9209644794464111,0.0,0.0,0.0,-4.499855995178223,-0.4699939489364624,0.6683386564254761,0.4200000464916229,1.0,3.7115075883775717e-06,-2.3327127109951107e-06,2.5744481035872013e-07,0.00026485862326808274,0.0002663535997271538,-0.00010423525236546993,-0.0017182156443595886,0.004170025233179331,-0.00012915159459225833,-0.22475428879261017,0.20538240671157837,1.2240016460418701,-2.3563106060028076,2.5783934593200684,-1.5299170017242432,0.432695597410202,0.6825334429740906,0.42000001668930054,-1.2300142049789429,2.9999992847442627,-0.2398533970117569,-2.9999992847442627,-5.3020944505988155e-06,-0.004425566177815199,-0.009038361720740795,-0.013855361379683018,-0.239961639046669,-0.34119725227355957,-0.44053521752357483,-0.5379770994186401
0.13333333333333333,0.05578074976801872,0.08199262619018555,0.0,0.9999994039535522,0.0,0.0,0.0010903964284807444,0.10034097731113434,1.0922176837921143,0.0,0.0,0.0,-0.24256755411624908,-0.4699939489364624,0.6683385968208313,0.4200000464916229,1.0,3.335707560836454e-06,-2.231929784102249e-06,3.113250670594425e-07,0.00026669655926525593,0.00026759272441267967,-0.00010428344830870628,-0.0017370833083987236,0.004205867648124695,-0.00012840259296353906,-0.2673330008983612,0.24707135558128357,1.1974314451217651,-2.517061233520508,2.632939338684082,-1.662895679473877,0.432695597410202,0.6825334429740906,0.42000001668930054,-1.1799919605255127,2.999997138977051,-0.21823465824127197,3.0000009536743164,-0.0021673364099115133,-0.008672475814819336,-0.015296507626771927,-0.022048506885766983,-0.1672966331243515,-0.2918497323989868,-0.41151028871536255,-0.5261064767837524
0.15,0.06368758529424667,0.09685946255922318,0.0,0.9997041821479797,0.0,0.0,-0.024321718141436577,0.6536688208580017,0.8141273260116577,0.0,0.0,0.0,-4.0063371658325195,-0.4699939489364624,0.6683385968208313,0.4200000464916229,1.0,3.518910716593382e-06,-2.283128196722828e-06,-3.6253297253097116e-07,0.00026618537958711386,0.0002673573326319456,-0.00010425900109112263,-0.001734911696985364,0.004195764660835266,-0.0001286038022954017,-0.3071519732475281,0.29510146379470825,1.1693369150161743,-2.277646064758301,3.099217653274536,-1.791183590888977,0.432695597410202,0.6825334429740906,0.42000001668930054,-1.1324288845062256,2.6916697025299072,-0.24957053363323212,-3.000000476837158,-0.0016772184753790498,-0.01062046643346548,-0.019576312974095345,-0.02854975126683712,0.045962899923324585,-0.09513732045888901,-0.22997212409973145,-0.3583186864852905
0.16666666666666666,0.07034893333911896,0.1085674986243248,0.0,0.9969899654388428,0.0,0.0,-0.07753033936023712,0.22200199961662292,0.6937682628631592,0.0,0.0,0.0,-7.161048412322998,-0.4699939489364624,0.6683385968208313,0.4200000464916229,1.0,3.6666367577709025e-06,-2.339185357413953e-06,-3.1499951091973344e-07,0.00026595836970955133,0.00026667435304261744,-0.0001040350180119276,-0.001725263660773635,0.004192706663161516,-0.0001277874398510903,-0.3432525396347046,0.3541208505630493,1.1326932907104492,-1.9865633249282837,3.8764843940734863,-2.544271469116211,0.432695597410202,0.6825334429740906,0.42000001668930054,-1.0935020446777344,2.003661632537842,-0.21551698446273804,2.999999761581421,-0.006127560045570135,-0.01672942191362381,-0.02726178616285324,-0.03773079439997673,-0.5748828649520874,-0.626667857170105,-0.6756190061569214,-0.7220379710197449
0.18333333333333332,0.06970693916082382,0.1237567663192749,0.0,0.9936953783035278,0.0,0.0,-0.11211361736059189,0.015583186410367489,0.7984127998352051,0.0,0.0,0.0,-2.847524642944336,-0.4699939489364624,0.6683385968208313,0.4200000464916229,1.0,3.81432801077608e-06,-2.3995953597477637e-06,-2.702601591408893e-07,0.00026549241738393903,0.00026611125213094056,-0.0001039144117385149,-0.001717846025712788,0.004184907767921686,-0.0001275365357287228,-0.3790225684642792,0.41307514905929565,1.0811614990234375,-2.1561009883880615,3.6722049713134766,-3.3822104930877686,0.432695597410202,0.6825334429740906,0.42000001668930054,-1.0523022413253784,2.8304076194763184,-0.2468353807926178,-3.0000009536743164,-0.01992623135447502,-0.030749451369047165,-0.041456639766693115,-0.05206941440701485,-0.5902109146118164,-0.6449590921401978,-0.6929957270622253,-0.7357403635978699
0.2,0.06919323652982712,0.13444511592388153,0.0,0.9876179695129395,0.0,0.0,-0.15687808394432068,-0.14434725046157837,0.5712872743606567,0.0,0.0,0.0,-6.236386775970459,-0.4699939489364624,0.6683385968208313,0.4200000464916229,1.0,3.600060153985396e-06,-2.291302735102363e-06,-2.201773270371632e-07,0.0002657297591213137,0.00026644914760254323,-0.00010398100130259991,-0.001722595770843327,0.004188771825283766,-0.00012773473281413317,-0.41387131810188293,0.4759752154350281,1.0166332721710205,-1.844008207321167,3.9024112224578857,-4.300918102264404,0.432695597410202,0.6825334429740906,0.42000001668930054,-1.0028926134109497,2.9999992847442627,-0.29686370491981506,-3.000000238418579,-0.03150295093655586,-0.04276769608259201,-0.05382208526134491,-0.06471185386180878,-0.8217729330062866,-0.8160827159881592,-0.806237518787384,-0.7936469316482544
0.21666666666666667,0.07193666696548462,0.1454717367887497,0.0,0.9830106496810913,0.0,0.0,-0.183548703789711,0.11644384264945984,0.6332924365997314,0.0,0.0,0.0,-2.123600959777832,-0.4699939489364624,0.6683385968208313,0.4200000464916229,0.9999999403953552,3.639672286226414e-06,-2.2620502022618894e-06,2.2248650566325523e-07,0.000266873772488907,0.00026754458667710423,-0.00010411953553557396,-0.0017403344390913844,0.004211024381220341,-0.00012783858983311802,-0.4462280869483948,0.5335040092468262,0.9390164613723755,-1.7239198684692383,3.2716078758239746,-5.023055076599121,0.432695597410202,0.6825334429740906,0.42000001668930054,-0.9528893232345581,2.9999988079071045,-0.34689274430274963,-3.0,-0.04410363733768463,-0.0548664815723896,-0.0653793215751648,-0.07571278512477875,-0.9786176681518555,-0.8984041810035706,-0.8191541433334351,-0.7424250841140747
0.23333333333333334,0.07012911885976791,0.15615573525428772,0.0,0.9749340415000916,0.0,0.0,-0.22249405086040497,-0.10662124305963516,0.626681387424469,0.0,0.0,0.0,-5.543326377868652,-0.46999391913414,0.6683385968208313,0.4200000464916229,1.0,3.4207396311103366e-06,-2.316890231668367e-06,2.956003868348489e-07,0.0002668009256012738,0.0002680391480680555,-0.00010442500934004784,-0.001743813743814826,0.004206887446343899,-0.00012899574358016253,-0.4722782373428345,0.5852340459823608,0.8484514951705933,-1.275439739227295,3.021285057067871,-5.660261154174805,0.432695597410202,0.6825334429740906,0.42000001668930054,-0.9028786420822144,2.999999761581421,-0.39692336320877075,-2.9999990463256836,-0.0601700134575367,-0.07102348655462265,-0.08158666640520096,-0.09188448637723923,-0.9589665532112122,-0.962128221988678,-0.9608812928199768,-0.9545502662658691
0.25,0.07146977633237839,0.16264718770980835,0.0,0.9708898663520813,0.0,0.0,-0.23952630162239075,0.15224984288215637,0.29502159357070923,0.0,0.0,0.0,-0.9951146245002747,-0.4699939489364624,0.6683385968208313,0.4200000464916229,0.9999999403953552,3.3476337648608023e-06,-2.259205075461068e-06,1.8083990482864465e-07,0.00026687842910178006,0.00026791240088641644,-0.00010439497418701649,-0.0017405577236786485,0.004208357073366642,-0.00012870198406744748,-0.4926455020904541,0.6245183944702148,0.750414252281189,-0.9014652967453003,1.964371681213379,-6.087017059326172,0.432695597410202,0.6825334429740906,0.42000001668930054,-0.8528679609298706,2.9999988079071045,-0.44695502519607544,-2.9999992847442627,-0.07668939977884293,-0.08749470114707947,-0.09799706935882568,-0.10813967138528824,-0.9909347295761108,-0.9922161102294922,-0.9933071732521057,-0.9702552556991577
0.26666666666666666,0.06870625168085098,0.16566355526447296,0.0,0.9632113575935364,0.0,0.0,-0.2687451243400574,-0.27536270022392273,0.13702668249607086,0.0,0.0,0.0,-4.520833492279053,-0.4699939489364624,0.6683385968208313,0.4200000464916229,0.9999999403953552,3.5357140859559877e-06,-2.3003274236543803e-06,-1.2686156480867794e-07,0.00026601788704283535,0.00026712179533205926,-0.00010419590398669243,-0.0017317213350906968,0.0041928826831281185,-0.0001284949539694935,-0.5003547668457031,0.6470065116882324,0.6461598873138428,0.05457426607608795,0.849708080291748,-6.226116180419922,0.432695597410202,0.6825334429740906,0.42000001668930054,-0.8028585910797119,3.000000238418579,-0.49698635935783386,-3.0000016689300537,-0.09466789662837982,-0.10512406378984451,-0.11536151170730591,-0.12529756128787994,-1.0026757717132568,-1.002004861831665,-1.001495122909546,-1.0010919570922852
0.2833333333333333,0.06802383065223694,0.16579937934875488,0.0,0.9603421092033386,0.0,0.0,-0.2788243889808655,0.12360908836126328,-0.044220104813575745,0.0,0.0,0.0,-0.22478161752223969,-0.4699939489364624,0.6683386564254761,0.4200000464916229,1.0,3.5934606330556562e-06,-2.2626402369496645e-06,-5.653511081504803e-08,0.0002670461544767022,0.0002677498559933156,-0.00010416866280138493,-0.001743200235068798,0.004214190412312746,-0.00012789414904545993,-0.49863654375076294,0.6589345932006836,0.5480912923812866,0.31833553314208984,0.6280655860900879,-5.620931148529053,0.432695597410202,0.6825334429740906,0.42000001668930054,-0.752849817276001,3.000001907348633,-0.5470161437988281,-3.0000009536743164,-0.11117632687091827,-0.12170936912298203,-0.13202840089797974,-0.14202599227428436,-0.9809854030609131,-0.9945679306983948,-1.0002481937408447,-1.000167965888977
0.3,0.0651884377002716,0.16374725103378296,0.0,0.9535446166992188,0.0,0.0,-0.3012517988681793,-0.27521777153015137,-0.15761598944664001,0.0,0.0,0.0,-3.688702344894409,-0.46999391913414,0.6683385968208313,0.4200000464916229,0.9999999403953552,3.725018814293435e-06,-2.2360595721693244e-06,3.828810974937369e-07,0.0002647961082402617,0.0002667308726813644,-0.00010453863069415092,-0.0017189140198752284,0.004166588187217712,-0.00013016707089263946,-0.4864022135734558,0.6655110120773315,0.45730751752853394,1.1605466604232788,0.2491060495376587,-5.155228137969971,0.432695597410202,0.6825334429740906,0.42000001668930054,-0.7028419375419617,3.0000009536743164,-0.5970444679260254,-3.0000016689300537,-0.12941350042819977,-0.13957370817661285,-0.14960846304893494,-0.1593797206878662,-1.0107594728469849,-1.0081428289413452,-1.0061432123184204,-1.0045394897460938
0.31666666666666665,0.06007439270615578,0.15944120287895203,0.0,0.952193558216095,0.0,0.0,-0.30549535155296326,-0.3238954544067383,-0.3235909640789032,0.0,0.0,0.0,0.4039517343044281,-0.4699939489364624,0.6683385968208313,0.4200000464916229,0.9999999403953552,3.55773545379634e-06,-2.278906777064549e-06,2.2836061930320284e-07,0.00026598561089485884,0.00026658637216314673,-0.00010399054735898972,-0.001724138157442212,0.004193493630737066,-0.0001276934490306303,-0.4763863682746887,0.6686273813247681,0.4279009699821472,0.0981532484292984,-0.09012824296951294,-0.12005297839641571,0.432695597410202,0.6825334429740906,0.42000001668930054,-0.6528935432434082,2.9821321964263916,-0.647539496421814,-2.849613666534424,-0.13681937754154205,-0.1478504091501236,-0.15844763815402985,-0.16841569542884827,-0.17721635103225708,-0.2301926165819168,-0.2517792284488678,-0.2386922389268875
0.3333333333333333,0.05321855843067169,0.1526954472064972,0.0,0.9526289105415344,0.0,0.0,-0.30413514375686646,-0.45046061277389526,-0.443325012922287,0.0,0.0,0.0,0.06698661297559738,-0.4699939489364624,0.6683385968208313,0.4200000464916229,1.0,3.782574367505731e-06,-2.2364465621649288e-06,-9.631799713361033e-08,0.0002636528224684298,0.00026555152726359665,-0.00010426435619592667,-0.0017039329977706075,0.004146020859479904,-0.00012974656419828534,-0.47669076919555664,0.6707777976989746,0.42624732851982117,0.06975937634706497,0.19071315228939056,-0.17202217876911163,0.432695597410202,0.6825334429740906,0.42000001668930054,-0.6028871536254883,2.9999842643737793,-0.6975880265235901,-2.9998936653137207,-0.1412428766489029,-0.1526148021221161,-0.16309258341789246,-0.17244692146778107,-0.3297930955886841,-0.3204432725906372,-0.2893301248550415,-0.23540128767490387
0.35,0.04390277341008186,0.14373354613780975,0.0,0.9464762806892395,0.0,0.0,-0.32277345657348633,-0.6122977137565613,-0.5791170001029968,0.0,0.0,0.0,-3.4250524044036865,-0.46923428773880005,0.6700270175933838,0.4200001060962677,0.999718427658081,-3.4574234177853214e-06,4.853898190049222e-06,-0.023727865889668465,0.10975518077611923,0.2383102923631668,-0.00011843733955174685,0.005845335312187672,-0.0010059438645839691,-6.968960762023926,-0.4736630320549011,0.6740082502365112,0.4235301613807678,0.3088408410549164,0.2734518051147461,-0.14605775475502014,0.432695597410202,0.6825334429740906,0.42000001668930054,-0.5528822541236877,2.9999818801879883,-0.747642457485199,-2.999981164932251,-0.14787697792053223,-0.15850770473480225,-0.16786155104637146,-0.17570863664150238,-0.4353080093860626,-0.3576529324054718,-0.2585834562778473,-0.13890781998634338
0.36666666666666664,0.03214902803301811,0.13257147371768951,0.0,0.945235550403595,0.0,0.0,-0.32638901472091675,-0.744238018989563,-0.7080175280570984,0.0,0.0,0.0,0.4962431788444519,-0.46452853083610535,0.6792325377464294,0.42040562629699707,0.9945852160453796,0.009962004609405994,-0.0007776316488161683,-0.10344266146421432,0.3122924864292145,0.8157612681388855,0.04023180902004242,2.4615931510925293,-0.6162495017051697,-4.087194919586182,-0.46827903389930725,0.6827316284179688,0.42172425985336304,0.37917494773864746,0.7569067478179932,-0.06637203693389893,0.432695597410202,0.6825334429740906,0.42000001668930054,-0.502877414226532,3.0000016689300537,-0.7976793646812439,-2.999924421310425,-0.15584300458431244,-0.16475637257099152,-0.17203402519226074,-0.17747367918491364,-0.454579621553421,-0.3414672017097473,-0.20770199596881866,-0.05519568547606468
0.3833333333333333,0.01944303885102272,0.11921965330839157,0.0,0.9390385150909424,0.0,0.0,-0.343811959028244,-0.8002380132675171,-0.8402777910232544,0.0,0.0,0.0,-3.1324284076690674,-0.4577527642250061,0.6945483088493347,0.4205251634120941,0.9901860952377319,0.013091301545500755,-0.0017286160727962852,-0.13912998139858246,0.5419387221336365,1.0820752382278442,0.03176242113113403,1.9808604717254639,-0.642519474029541,-4.921889781951904,-0.45868316292762756,0.6961908340454102,0.42137035727500916,0.7794424295425415,0.950890064239502,0.0031855031847953796,0.432695597410202,0.6825334429740906,0.42000001668930054,-0.452873557806015,2.9999840259552,-0.847726047039032,-2.9996392726898193,-0.16406652331352234,-0.17055058479309082,-0.17501908540725708,-0.17731980979442596,-0.46850430965423584,-0.30456995964050293,-0.11779483407735825,0.08823033422231674
0.4,0.009384876117110252,0.10320740938186646,0.0,0.9223058819770813,0.0,0.0,-0.38646066188812256,-0.5295827984809875,-1.0127298831939697,0.0,0.0,0.0,-6.326882839202881,-0.44217008352279663,0.7166498899459839,0.42186325788497925,0.9815447330474854,-0.00030951318331062794,-0.020030202344059944,-0.19018015265464783,1.4059456586837769,1.4681941270828247,0.1074831485748291,25.493751525878906,-14.078083038330078,4.554705619812012,-0.44195806980133057,0.7174562215805054,0.42303466796875,1.2843518257141113,1.5399634838104248,0.23482933640480042,0.432695597410202,0.6825334429740906,0.42000001668930054,-0.4038792550563812,2.5307576656341553,-0.8977637887001038,-2.9998598098754883,-0.17145898938179016,-0.17513325810432434,-0.17638562619686127,-0.17513243854045868,-0.4233129322528839,-0.25028929114341736,-0.05539155751466751,0.15700113773345947
0.4166666666666667,0.0034487054217606783,0.0842115581035614,0.0,0.8922732472419739,0.0,0.0,-0.4514957368373871,-0.28663715720176697,-1.1890078783035278,0.0,0.0,0.0,-9.37529468536377,-0.40615472197532654,0.7507784366607666,0.4270084798336029,0.9671990871429443,0.052670858800411224,-0.05901271104812622,-0.24139022827148438,3.495534896850586,2.115999698638916,0.5785385370254517,13.296566009521484,-13.184431076049805,26.29924774169922,-0.40564364194869995,0.7509080171585083,0.4282827079296112,3.081695795059204,2.6267523765563965,0.5458965301513672,0.432695597410202,0.6825334429740906,0.42000001668930054,-0.37871330976486206,1.0463330745697021,-0.8608755469322205,2.9974920749664307,-0.18090282380580902,-0.18090474605560303,-0.17825081944465637,-0.17295989394187927,-0.6495800018310547,-0.3966285288333893,-0.13702458143234253,0.12200872600078583
0.43333333333333335,-0.00037846039049327374,0.0703713670372963,0.0,0.8457195162773132,0.0,0.0,-0.5336276292800903,-0.1909678876399994,-0.7005882859230042,0.0,0.0,0.0,-12.075881958007812,-0.3300873637199402,0.799257218837738,0.4360945522785187,0.9427218437194824,0.1225758045911789,-0.09953049570322037,-0.29384416341781616,6.018801212310791,2.9195806980133057,0.6308019757270813,17.26021385192871,-17.013715744018555,16.64242935180664,-0.32993853092193604,0.7993506193161011,0.4375179409980774,5.703284740447998,3.3259878158569336,0.7000762224197388,0.432695597410202,0.6825334429740906,0.42000001668930054,-0.3617343306541443,1.0876448154449463,-0.8108553886413574,2.99497127532959,-0.1968127191066742,-0.1935727447271347,-0.1853821873664856,-0.1749427765607834,-0.9178412556648254,-0.8569576740264893,-0.5305526852607727,-0.2384614497423172
0.45,-0.008071203716099262,0.06410828977823257,0.0,0.8046212196350098,0.0,0.0,-0.5937884449958801,-0.5774716734886169,-0.37833765149116516,0.0,0.0,0.0,-7.4327497482299805,-0.23187467455863953,0.8414740562438965,0.4492896497249603,0.9012291431427002,0.16043075919151306,-0.1182146817445755,-0.384802907705307,6.135934829711914,1.9249995946884155,0.6714816093444824,-4.547638416290283,-8.400069236755371,-4.3267130851745605,-0.2322908341884613,0.8431835770606995,0.45024222135543823,6.035671234130859,2.2163352966308594,0.8774279356002808,0.432695597410202,0.6825334429740906,0.42000001668930054,-0.34152254462242126,1.3314647674560547,-0.8378075957298279,-3.000002861022949,-0.21105682849884033,-0.20809489488601685,-0.19920159876346588,-0.18373608589172363,-0.5870873332023621,-0.6552112102508545,-0.727920413017273,-0.5392903685569763
0.4666666666666667,-0.011490672826766968,0.050655797123909,0.0,0.7820354104042053,0.0,0.0,-0.62323397397995,-0.054342880845069885,-0.971889317035675,0.0,0.0,0.0,-3.347914934158325,-0.1233147531747818,0.8705195188522339,0.4610985219478607,0.8408774137496948,0.158302441239357,-0.1277298927307129,-0.5015481114387512,6.979036331176758,0.4476761519908905,0.6013625264167786,8.767822265625,-10.696073532104492,19.199369430541992,-0.12471997737884521,0.8730893135070801,0.46145686507225037,6.886989593505859,1.212807297706604,0.6941510438919067,0.432695597410202,0.6825334429740906,0.42000001668930054,-0.3212375342845917,0.965239405632019,-0.8878321647644043,-3.000001907348633,-0.21585065126419067,-0.2131950557231903,-0.2047608196735382,-0.18629257380962372,-0.20049704611301422,-0.1563268005847931,-0.12571988999843597,0.06431423127651215
0.48333333333333334,-0.015595178119838238,0.03931907191872597,0.0,0.7513769865036011,0.0,0.0,-0.6598731875419617,-0.2961088716983795,-0.6251255869865417,0.0,0.0,0.0,-6.433274745941162,-0.010152269154787064,0.8789098262786865,0.4698827266693115,0.800029993057251,0.1335001289844513,-0.15525759756565094,-0.5639368891716003,6.81699275970459,-0.6895254254341125,0.670685350894928,4.453790664672852,-10.05749225616455,22.469858169555664,-0.010538192465901375,0.8837100267410278,0.4719422161579132,6.944189548492432,0.1492878794670105,0.6431671380996704,0.432695597410202,0.6825334429740906,0.42000001668930054,-0.30726733803749084,0.5972322821617126,-0.9378573298454285,-3.000001907348633,-0.22289150953292847,-0.218547523021698,-0.20888379216194153,-0.18745683133602142,-0.37899044156074524,-0.2781851291656494,-0.2119712382555008,-0.08413383364677429
0.5,-0.018122710287570953,0.03270258009433746,0.0,0.7353465557098389,0.0,0.0,-0.6776912808418274,-0.08884798735380173,-0.31555360555648804,0.0,0.0,0.0,-1.7137360572814941,0.09930931776762009,0.8685891628265381,0.4772551953792572,0.7051652669906616,0.12128854542970657,-0.14948724210262299,-0.6824107766151428,5.966653347015381,-1.885295033454895,0.28588104248046875,-0.09601440280675888,-7.187441825866699,20.070362091064453,0.09770473837852478,0.8748193979263306,0.4787829518318176,6.300897121429443,-1.177247405052185,0.3096328377723694,0.432695597410202,0.6825334429740906,0.42000001668930054,-0.29994526505470276,0.235944464802742,-0.9878817200660706,-2.999999523162842,-0.23194698989391327,-0.224850133061409,-0.21316157281398773,-0.18942245841026306,-0.5387589931488037,-0.34826332330703735,-0.20813970267772675,-0.08627871423959732
0.5166666666666666,-0.01729905977845192,0.029880588874220848,0.0,0.7122863531112671,0.0,0.0,-0.7018889784812927,0.10210397839546204,-0.09130819141864777,0.0,0.0,0.0,-4.882571697235107,0.19596925377845764,0.8426035046577454,0.47306135296821594,0.6110590696334839,0.008198716677725315,-0.22206462919712067,-0.7597544193267822,5.329935073852539,-1.980275273323059,-0.7502553462982178,-34.39015579223633,3.2110702991485596,-9.197265625,0.19231374561786652,0.8517886400222778,0.47968316078186035,5.257185935974121,-1.7640044689178467,-0.02513902634382248,0.432695597410202,0.6825334429740906,0.42000001668930054,-0.29597651958465576,0.36018264293670654,-1.037906289100647,-2.9999992847442627,-0.2394530326128006,-0.22942115366458893,-0.2155323326587677,-0.19021575152873993,-0.3507499694824219,-0.1839815080165863,-0.058130644261837006,0.012491191737353802
0.5333333333333333,-0.013396513648331165,0.02414463646709919,0.0,0.7014486193656921,0.0,0.0,-0.7127200365066528,0.27126869559288025,-0.33067548274993896,0.0,0.0,0.0,-0.7932779788970947,0.27781155705451965,0.8086656332015991,0.4615873098373413,0.5028306245803833,-0.12472391128540039,-0.2804321050643921,-0.8080613017082214,4.597299575805664,-1.9853410720825195,-0.7817841172218323,-6.903719902038574,-1.8701061010360718,-20.319143295288086,0.27248749136924744,0.8186994791030884,0.47407832741737366,4.279110908508301,-2.3341832160949707,-0.5421276092529297,0.432695597410202,0.6825334429740906,0.42000001668930054,-0.2835608422756195,1.1994686126708984,-1.0879284143447876,-2.9999938011169434,-0.2399485558271408,-0.2303895801305771,-0.21450121700763702,-0.1885150671005249,-0.03605032339692116,-0.06558634340763092,0.05620403215289116,0.07830621302127838
0.55,-0.0077696205116808414,0.022316375747323036,0.0,0.6820317506790161,0.0,0.0,-0.7313225865364075,0.40373459458351135,-0.07645925879478455,0.0,0.0,0.0,-4.019479274749756,0.3460735082626343,0.7747079133987427,0.4442180395126343,0.44484081864356995,-0.1103886142373085,-0.3349849581718445,-0.8232351541519165,3.6791884899139404,-2.070579767227173,-1.244576334953308,-4.065625190734863,-8.753185272216797,0.6573834419250488,0.33906078338623047,0.7817304730415344,0.46005237102508545,3.699572801589966,-2.19435977935791,-1.042378306388855,0.432695597410202,0.6825334429740906,0.42000001668930054,-0.2570563554763794,1.9056925773620605,-1.1379505395889282,-3.000000238418579,-0.23914304375648499,-0.2312629222869873,-0.21409791707992554,-0.18857590854167938,0.15840572118759155,0.1087833046913147,0.11761243641376495,0.022701861336827278
0.5666666666666667,0.0008370255236513913,0.018483329564332962,0.0,0.6757628917694092,0.0,0.0,-0.7371190786361694,0.5485248565673828,-0.26194432377815247,0.0,0.0,0.0,-0.05500252544879913,0.3936394453048706,0.7402765154838562,0.43057966232299805,0.5357648134231567,-0.18988746404647827,-0.03771504387259483,-0.8218736052513123,1.9848134517669678,-1.323251485824585,0.5544406175613403,52.041160583496094,53.31896209716797,14.141515731811523,0.39265841245651245,0.7446712255477905,0.4410470724105835,2.4269630908966064,-2.0628843307495117,-0.7532716989517212,0.432695597410202,0.6825334429740906,0.42000001668930054,-0.22233141958713531,2.129199504852295,-1.1879726648330688,-2.9993555545806885,-0.23531785607337952,-0.2280484139919281,-0.2110878825187683,-0.18759900331497192,0.24156025052070618,0.21048888564109802,0.1786036193370819,0.03701912611722946
0.5833333333333334,0.0071490914560854435,0.016603732481598854,0.0,0.6606668829917908,0.0,0.0,-0.7506791949272156,0.3228362500667572,-0.05640043690800667,0.0,0.0,0.0,-3.320361375808716,0.42733779549598694,0.7146115899085999,0.42378297448158264,0.5589812994003296,-0.032430004328489304,-0.06658927351236343,-0.8258656859397888,1.18302321434021,-1.8992305994033813,-0.40098610520362854,-1.317240595817566,50.77287673950195,8.105243682861328,0.4282070994377136,0.715484619140625,0.4280189275741577,2.0406861305236816,-1.6825621128082275,-0.8989801406860352,0.432695597410202,0.6825334429740906,0.42000001668930054,-0.20651589334011078,0.28582388162612915,-1.150382161140442,2.9998536109924316,-0.22987811267375946,-0.2238311916589737,-0.20834210515022278,-0.1879700869321823,0.3818759322166443,0.28892484307289124,0.1636359542608261,-0.05522850528359413
0.6,0.013925531879067421,0.018190572038292885,0.0,0.6591074466705322,0.0,0.0,-0.7520487904548645,0.4401991367340088,0.15819478034973145,0.0,0.0,0.0,0.6589028239250183,0.44849544763565063,0.6956028938293457,0.42095109820365906,0.5393892526626587,-0.01023496501147747,-0.014401793479919434,-0.8418710827827454,-0.0790596455335617,-1.7816377878189087,0.09398173540830612,-2.1580348014831543,-3.60382080078125,49.644737243652344,0.4474939703941345,0.6943061351776123,0.42384809255599976,0.7929503917694092,-1.0412516593933105,0.045891690999269485,0.432695597410202,0.6825334429740906,0.42000001668930054,-0.21618348360061646,-1.2638494968414307,-1.1735236644744873,-3.000014305114746,-0.2229333072900772,-0.21862994134426117,-0.2055114060640335,-0.1888371706008911,0.4145694673061371,0.31578004360198975,0.16899359226226807,-0.05056840181350708
0.6166666666666667,0.022830281406641006,0.01580038294196129,0.0,0.6462804675102234,0.0,0.0,-0.7630999684333801,0.5203765034675598,-0.2033766210079193,0.0,0.0,0.0,-2.9376165866851807,0.4574700593948364,0.6863977313041687,0.4214308559894562,0.5658916234970093,-0.021428976207971573,0.024454917758703232,-0.8238382339477539,0.1986900418996811,-0.30995866656303406,0.07968300580978394,-0.45007652044296265,2.8958237171173096,5.446458339691162,0.45590031147003174,0.6861751675605774,0.4244515299797058,0.2677651345729828,-0.1759343147277832,0.18867972493171692,0.432695597410202,0.6825334429740906,0.42000001668930054,-0.23358312249183655,-0.6097305417060852,-1.2234934568405151,-2.9993605613708496,-0.209243506193161,-0.20805248618125916,-0.1988702118396759,-0.1870357096195221,0.8667714595794678,0.6801099181175232,0.43560105562210083,0.14373810589313507
0.6333333333333333,0.033975064754486084,0.01713179424405098,0.0,0.6458084583282471,0.0,0.0,-0.7634994387626648,0.6876686215400696,0.09295815229415894,0.0,0.0,0.0,0.8416361212730408,0.4597974121570587,0.6818442940711975,0.4211755096912384,0.5718206763267517,-0.01729593425989151,0.02482851780951023,-0.8198203444480896,0.0821421816945076,-0.21614763140678406,-0.04425523430109024,-0.7909438014030457,-2.2372043132781982,-1.384192705154419,0.45521247386932373,0.6817153692245483,0.42404037714004517,-0.13432003557682037,-0.17589008808135986,-0.045279908925294876,0.432695597410202,0.6825334429740906,0.42000001668930054,-0.2724250257015228,-2.999918222427368,-1.189719557762146,2.9998042583465576,-0.19856218993663788,-0.19971361756324768,-0.19396471977233887,-0.1863250434398651,0.7038183212280273,0.5498678684234619,0.3304482400417328,0.0745210126042366
0.65,0.042675185948610306,0.020677274093031883,0.0,0.6673604249954224,0.0,0.0,-0.7447348833084106,0.44243860244750977,0.2656823694705963,0.0,0.0,0.0,4.263021945953369,0.45973849296569824,0.6800013184547424,0.4200074374675751,0.5480324625968933,0.00011450173769844696,-5.8828409237321466e-05,-0.8364569544792175,-0.1342448741197586,0.016258852556347847,0.002504796488210559,-0.047788217663764954,-0.11559828370809555,-6.660655975341797,0.45114922523498535,0.6802159547805786,0.42594802379608154,-0.3623102009296417,0.02603965438902378,0.17969770729541779,0.432695597410202,0.6825334429740906,0.42000001668930054,-0.32247620820999146,-3.0000040531158447,-1.2108821868896484,-2.9989895820617676,-0.18753857910633087,-0.19109107553958893,-0.18880727887153625,-0.18510806560516357,0.6523230075836182,0.5154403448104858,0.31424063444137573,0.0895460918545723
0.6666666666666666,0.05126223713159561,0.02120496891438961,0.0,0.6751822233200073,0.0,0.0,-0.737650990486145,0.5369319319725037,-0.00606509717181325,0.0,0.0,0.0,0.2048664391040802,0.4580656886100769,0.6800220608711243,0.4199999272823334,0.5277742743492126,7.321401790250093e-05,-3.6698937037726864e-05,-0.849384605884552,-0.11623825132846832,0.04171352833509445,-0.0016784809995442629,-0.012981603853404522,0.08914539963006973,2.5826222896575928,0.44859158992767334,0.6831851601600647,0.4299083352088928,-0.1430073231458664,0.18844300508499146,0.26824620366096497,0.432695597410202,0.6825334429740906,0.42000001668930054,-0.3725494146347046,-3.000000238418579,-1.260842204093933,-2.9992918968200684,-0.17565982043743134,-0.18126903474330902,-0.18202075362205505,-0.18160055577754974,0.6208901405334473,0.5388297438621521,0.3998880982398987,0.2497231364250183
0.6833333333333333,0.061394102871418,0.018243588507175446,0.0,0.6880688071250916,0.0,0.0,-0.7256454825401306,0.6462329030036926,-0.2527928948402405,0.0,0.0,0.0,3.2035107612609863,0.4564661383628845,0.6804273128509521,0.4201948642730713,0.537233829498291,0.0026235769037157297,-0.004125403240323067,-0.8434191346168518,-0.18139079213142395,0.036304112523794174,0.058689266443252563,-1.308740258216858,-2.660912275314331,1.1547197103500366,0.44416165351867676,0.6840912699699402,0.43639230728149414,-0.3309386968612671,-0.03499545902013779,0.5699306726455688,0.432695597410202,0.6825334429740906,0.42000001668930054,-0.4225638508796692,-2.9999728202819824,-1.310860514640808,-3.000000238418579,-0.16829608380794525,-0.17405124008655548,-0.1757969707250595,-0.17647503316402435,0.35523802042007446,0.39550232887268066,0.3903590738773346,0.38362249732017517
0.7,0.0733654722571373,0.011960407719016075,0.0,0.6899221539497375,0.0,0.0,-0.7238835692405701,0.750177264213562,-0.4224110245704651,0.0,0.0,0.0,-0.6889347434043884,0.45243099331855774,0.6812882423400879,0.42051002383232117,0.5435364842414856,0.007022755686193705,-0.010841894894838333,-0.8392860293388367,-0.13636507093906403,0.023390455171465874,-0.0018406389281153679,0.03909321129322052,0.08606689423322678,0.6514033675193787,0.44503092765808105,0.6843091249465942,0.44548702239990234,0.27886122465133667,0.020119477063417435,0.6552683115005493,0.432695597410202,0.6825334429740906,0.42000001668930054,-0.47257715463638306,-2.999999761581421,-1.360878825187683,-2.999999761581421,-0.16388939321041107,-0.16850954294204712,-0.1697632223367691,-0.16988679766654968,0.2326691448688507,0.31882157921791077,0.37197819352149963,0.43298831582069397
0.7166666666666667,0.08709608763456345,0.0027453801594674587,0.0,0.6707427501678467,0.0,0.0,-0.7416900396347046,0.8571047186851501,-0.636580765247345,0.0,0.0,0.0,-4.004848957061768,0.45091474056243896,0.6814876794815063,0.42000070214271545,0.5467134118080139,1.819458520913031e-05,-2.4748964278842323e-05,-0.8373196721076965,-0.05617756396532059,0.006173575296998024,-0.0007288262713700533,0.021838173270225525,0.03003409132361412,0.28339844942092896,0.45581290125846863,0.6858301162719727,0.4638499617576599,0.958654522895813,0.11618529260158539,1.6503856182098389,0.432695597410202,0.6825334429740906,0.42000001668930054,-0.5225897431373596,-2.999983549118042,-1.410897135734558,-3.0000009536743164,-0.1627059280872345,-0.16556233167648315,-0.1655447632074356,-0.16425086557865143,-0.003431189339607954,0.11326249688863754,0.20318378508090973,0.30229422450065613
0.7333333333333333,0.10505413264036179,-0.0010501956567168236,0.0,0.6621250510215759,0.0,0.0,-0.7493933439254761,1.1670149564743042,-0.08956179767847061,0.0,0.0,0.0,-0.10853472352027893,0.45076319575309753,0.6815033555030823,0.4200000464916229,0.5470318794250488,1.6193984265555628e-05,-1.2888150195067283e-05,-0.83711177110672,0.001876846537925303,-0.0004896094906143844,-0.0007410754915326834,-0.004470038693398237,0.012728911824524403,-0.005352485924959183,0.4717743396759033,0.6872632503509521,0.4985175132751465,1.0292953252792358,0.12906044721603394,2.5150837898254395,0.432695597410202,0.6825334429740906,0.42000001668930054,-0.5725947022438049,-2.999998092651367,-1.460915446281433,-2.9999992847442627,-0.16904784739017487,-0.16927535831928253,-0.16710598766803741,-0.16360028088092804,-0.43661513924598694,-0.2927490770816803,-0.1749516874551773,-0.05342082306742668
0.75,0.12007052451372147,0.0011082962155342102,0.0,0.678373396396637,0.0,0.0,-0.7347173094749451,0.8165589570999146,-0.12389708310365677,0.0,0.0,0.0,3.0201711654663086,0.4507652819156647,0.6815029382705688,0.4200000464916229,0.5470302700996399,3.2225592860868346e-08,-2.4837636374286376e-06,-0.8371128439903259,3.5178891266696155e-05,-0.0002516558743081987,-7.3977280408144e-05,0.006611543241888285,-0.0021135681308805943,-0.0006927826325409114,0.4863041639328003,0.6878081560134888,0.5334792137145996,0.9731428623199463,0.07377835363149643,1.6976186037063599,0.432695597410202,0.6825334429740906,0.42000001668930054,-0.5925642848014832,0.33775800466537476,-1.510933756828308,-3.000000238418579,-0.17528504133224487,-0.17316368222236633,-0.16910432279109955,-0.16372717916965485,0.13895514607429504,0.16425110399723053,0.17378179728984833,0.19277188181877136
0.7666666666666666,0.13031768798828125,0.001485968823544681,0.0,0.6791689395904541,0.0,0.0,-0.7339819669723511,0.5423612594604492,0.09334443509578705,0.0,0.0,0.0,-0.8541098237037659,0.4507652819156647,0.6815029382705688,0.4200000464916229,0.5470298528671265,4.0216042407337227e-07,-2.951545639007236e-06,-0.8371129631996155,4.553092730930075e-05,-0.00024976651184260845,-7.755542173981667e-05,0.006494013126939535,-0.002026200760155916,-0.0007150379242375493,0.4986162781715393,0.6898237466812134,0.5547220706939697,0.4759170413017273,0.09072203934192657,1.0488624572753906,0.432695597410202,0.6825334429740906,0.42000001668930054,-0.6028387546539307,-1.4113038778305054,-1.4721753597259521,2.9999988079071045,-0.1724923998117447,-0.17031854391098022,-0.166442409157753,-0.16111540794372559,0.199908047914505,0.19515427947044373,0.17492617666721344,0.15857210755348206
0.7833333333333333,0.13558311760425568,-0.0029526303987950087,0.0,0.6911086440086365,0.0,0.0,-0.7227509021759033,0.361318975687027,-0.27525603771209717,0.0,0.0,0.0,2.5412449836730957,0.4507652819156647,0.6815029382705688,0.4200000464916229,0.5470300316810608,2.4013621668927954e-07,-2.639756985445274e-06,-0.8371129035949707,4.403407365316525e-05,-0.00024962887982837856,-7.725483737885952e-05,0.006498195696622133,-0.0020433554891496897,-0.0007115987245924771,0.5036628246307373,0.6918923258781433,0.5679212212562561,0.05067133158445358,-0.038620367646217346,0.5580517649650574,0.432695597410202,0.6825334429740906,0.42000001668930054,-0.6023091077804565,1.2475311756134033,-1.4888520240783691,-3.0,-0.16323256492614746,-0.16169370710849762,-0.15871945023536682,-0.15427258610725403,0.29416733980178833,0.3185337781906128,0.3196674585342407,0.3108152151107788
0.8,0.13878102600574493,-0.003074088366702199,0.0,0.6895338296890259,0.0,0.0,-0.7242534756660461,0.14148853719234467,0.05870850756764412,0.0,0.0,0.0,-1.1502306461334229,0.4507652819156647,0.6815029382705688,0.4200000464916229,0.5470298528671265,3.8893418263796775e-07,-2.9243815333757084e-06,-0.8371130228042603,4.539680958259851e-05,-0.0002497516106814146,-7.753772661089897e-05,0.006494258530437946,-0.00202811392955482,-0.0007147379801608622,0.5034231543540955,0.6923762559890747,0.5715023279190063,-0.05351452901959419,0.06275704503059387,0.04374957084655762,0.432695597410202,0.6825334429740906,0.42000001668930054,-0.5943955779075623,-0.18100522458553314,-1.4501622915267944,3.000000238418579,-0.16053515672683716,-0.15872922539710999,-0.15585635602474213,-0.151701882481575,0.18776537477970123,0.1811315268278122,0.1538807898759842,0.11481956392526627
0.8166666666666667,0.14305610954761505,-0.0058853705413639545,0.0,0.6983984112739563,0.0,0.0,-0.7157092094421387,0.25815489888191223,-0.18283452093601227,0.0,0.0,0.0,2.162533760070801,0.4507652819156647,0.6815029382705688,0.4200000464916229,0.5470300316810608,2.2697196300214273e-07,-2.6123352654394694e-06,-0.8371129631996155,4.403165075927973e-05,-0.0002496303932275623,-7.725413888692856e-05,0.006498152390122414,-0.0020435352344065905,-0.0007116060587577522,0.5011407136917114,0.6928116083145142,0.5712494850158691,-0.22329503297805786,0.03295943886041641,-0.0578206367790699,0.432695597410202,0.6825334429740906,0.42000001668930054,-0.5926082730293274,0.34802067279815674,-1.4673219919204712,-2.999999761581421,-0.15656083822250366,-0.154917374253273,-0.15256500244140625,-0.1491772085428238,0.13341104984283447,0.13582466542720795,0.11568690836429596,0.07753033936023712
0.8333333333333334,0.14469899237155914,-0.00905393622815609,0.0,0.6948938369750977,0.0,0.0,-0.7191123366355896,0.049505412578582764,-0.2652328312397003,0.0,0.0,0.0,-1.3967691659927368,0.4507652819156647,0.6815029382705688,0.4200000464916229,0.5470300316810608,2.0771135211816727e-07,-2.7421613140177215e-06,-0.8371129631996155,4.282591544324532e-05,-0.0002513811341486871,-7.707532495260239e-05,0.0065502203069627285,-0.0020672164391726255,-0.0007132223108783364,0.4992690086364746,0.6907790899276733,0.5632419586181641,-0.025821788236498833,-0.26517778635025024,-0.7129456996917725,0.432695597410202,0.6825334429740906,0.42000001668930054,-0.6011977791786194,-1.2362070083618164,-1.4286887645721436,3.0,-0.15680356323719025,-0.15456171333789825,-0.15190155804157257,-0.14846476912498474,-0.024755416437983513,0.026258744299411774,0.06466429680585861,0.09049288183450699
0.85,0.14726857841014862,-0.010820307768881321,0.0,0.6889057755470276,0.0,0.0,-0.7248508930206299,0.19088773429393768,-0.05351412668824196,0.0,0.0,0.0,-0.9529554843902588,0.4507652819156647,0.6815029382705688,0.4200000464916229,0.5470300316810608,2.3699999474047218e-07,-2.7553176096262177e-06,-0.8371129631996155,4.4311429519439116e-05,-0.00024951956584118307,-7.73104839026928e-05,0.0064943027682602406,-0.0020393384620547295,-0.0007118958747014403,0.5003006458282471,0.6871684789657593,0.5531569719314575,0.13780537247657776,-0.18188633024692535,-0.4194828271865845,0.432695597410202,0.6825334429740906,0.42000001668930054,-0.614052414894104,-0.3703012764453888,-1.4462780952453613,-3.0,-0.1570652425289154,-0.15448006987571716,-0.1515451818704605,-0.14793142676353455,0.004282048437744379,0.007272784132510424,0.010770107619464397,0.01178012602031231
0.8666666666666667,0.15208856761455536,-0.014787602238357067,0.0,0.6888201832771301,0.0,0.0,-0.7249322533607483,0.3229076862335205,-0.24982383847236633,0.0,0.0,0.0,0.4364694356918335,0.4507652819156647,0.6815029382705688,0.4200000464916229,0.5470300316810608,2.3721486286376603e-07,-2.770826995401876e-06,-0.8371129631996155,4.444234218681231e-05,-0.00024945923360064626,-7.733749225735664e-05,0.006491940468549728,-0.0020375328604131937,-0.0007120554219000041,0.504987895488739,0.6832573413848877,0.5468853116035461,0.37602272629737854,-0.3411831557750702,-0.2630639374256134,0.432695597410202,0.6825334429740906,0.42000001668930054,-0.6279526352882385,-1.213084101676941,-1.4962953329086304,-3.0,-0.15625403821468353,-0.15357829630374908,-0.1504875272512436,-0.1467154324054718,-0.04423772543668747,-0.015281897969543934,0.018442148342728615,0.052301667630672455
0.8833333333333333,0.1591159552335739,-0.016048861667513847,0.0,0.6768319010734558,0.0,0.0,-0.7361375689506531,0.4650295376777649,-0.018010467290878296,0.0,0.0,0.0,-2.8002681732177734,0.4507652819156647,0.6815029382705688,0.4200000464916229,0.5470300316810608,2.443667312945763e-07,-2.7859543934027897e-06,-0.8371129631996155,4.443190118763596e-05,-0.000249462085776031,-7.73346982896328e-05,0.0064921448938548565,-0.002037688624113798,-0.0007120321388356388,0.5140297412872314,0.6781418919563293,0.5393908619880676,0.6507855653762817,-0.3320253789424896,-0.4642946720123291,0.432695597410202,0.6825334429740906,0.42000001668930054,-0.6499118804931641,-1.3887300491333008,-1.5463136434555054,-3.0,-0.15705740451812744,-0.15426474809646606,-0.15085934102535248,-0.1466580331325531,-0.017626717686653137,-0.017852650955319405,-0.0031963095534592867,0.021175960078835487
0.9,0.16811513900756836,-0.014377031475305557,0.0,0.6769003868103027,0.0,0.0,-0.7360746264457703,0.5675151348114014,0.20374669134616852,0.0,0.0,0.0,1.0962419509887695,0.4507652819156647,0.6815029382705688,0.4200000464916229,0.5470300316810608,2.2506536367927765e-07,-2.799347157633747e-06,-0.8371129631996155,4.4550091843120754e-05,-0.00024941115407273173,-7.735821418464184e-05,0.006490190513432026,-0.002035995712503791,-0.0007121816743165255,0.5237511396408081,0.6759113073348999,0.5355867147445679,0.5413123369216919,0.06320095807313919,0.02171049453318119,0.432695597410202,0.6825334429740906,0.42000001668930054,-0.659882128238678,0.07412849366664886,-1.5963319540023804,-3.000000238418579,-0.15628516674041748,-0.1541878879070282,-0.15124554932117462,-0.14735041558742523,0.05800681933760643,-0.010917006060481071,-0.06846202164888382,-0.11845927685499191
