vladlanda/robotic-transformer/data/env_000_episode_0243.csv
sim_time_s,robot_box_x,robot_box_y,robot_box_z,robot_box_quat_w,robot_box_quat_x,robot_box_quat_y,robot_box_quat_z,robot_box_linvel_x,robot_box_linvel_y,robot_box_linvel_z,robot_box_angvel_x,robot_box_angvel_y,robot_box_angvel_z,cube_world_x,cube_world_y,cube_world_z,cube_quat_w,cube_quat_x,cube_quat_y,cube_quat_z,cube_linvel_x,cube_linvel_y,cube_linvel_z,cube_angvel_x,cube_angvel_y,cube_angvel_z,endpoint_world_x,endpoint_world_y,endpoint_world_z,endpoint_linvel_x,endpoint_linvel_y,endpoint_linvel_z,target_cube_world_x,target_cube_world_y,target_cube_world_z,gripper_actual_pos_rad_gp_leftgearjoint,gripper_actual_vel_rad_s_gp_leftgearjoint,gripper_actual_pos_rad_gp_rotatingjoint,gripper_actual_vel_rad_s_gp_rotatingjoint,motor_angle_rad_joint1,motor_angle_rad_joint2,motor_angle_rad_joint3,motor_angle_rad_joint4,motor_speed_rad_s_joint1,motor_speed_rad_s_joint2,motor_speed_rad_s_joint3,motor_speed_rad_s_joint4
0.0,0.0,0.0,0.0,1.0,0.0,0.0,0.0,0.0,0.0,0.0,0.0,0.0,0.0,-0.328929603099823,0.6867626309394836,0.41999998688697815,1.0,0.0,0.0,0.0,0.0,0.0,0.0,0.0,0.0,0.0,3.42540442943573e-06,-0.005000244826078415,1.313499927520752,0.0,0.0,0.0,0.3343883156776428,0.6433377861976624,0.42000001668930054,-1.5707999467849731,0.0,0.0,0.0,0.0,0.0,0.0,0.0,0.0,0.0,0.0,0.0
0.016666666666666666,0.0028871321119368076,0.002130619715899229,0.0,0.9998589754104614,0.0,0.0,-0.01679304428398609,0.2396003007888794,0.17953824996948242,0.0,0.0,0.0,-3.145655632019043,-0.32892972230911255,0.6867623329162598,0.41999998688697815,1.0,3.2799905511637917e-06,-8.339794135281409e-07,8.465515577427141e-08,-1.9833774786093272e-05,0.00017983047291636467,-6.132945418357849e-05,0.0009432245860807598,-0.004689525347203016,-0.00031981084612198174,-0.006991539150476456,0.004067376721650362,1.3159325122833252,-0.7949069142341614,1.043856143951416,0.17934980988502502,0.3343883156776428,0.6433377861976624,0.42000001668930054,-1.5301094055175781,3.000002384185791,-0.04586702957749367,-3.0,0.0008710204274393618,0.0007971621234901249,0.0007111625745892525,0.0006120703183114529,0.11048520356416702,0.09705120325088501,0.08275555074214935,0.0675329864025116
0.03333333333333333,0.00889452826231718,0.006695328280329704,0.0,0.9998471140861511,0.0,0.0,-0.01748534105718136,0.40290921926498413,0.3133092224597931,0.0,0.0,0.0,0.8609039783477783,-0.3289298415184021,0.686762273311615,0.4200000464916229,1.0,3.3908531804627273e-06,-2.132488134520827e-06,-3.710428941872124e-08,0.0002635785494931042,0.0002693783608265221,-0.00010509602725505829,-0.0017707846127450466,0.004130862653255463,-0.00013547409616876394,-0.026516765356063843,0.025007598102092743,1.316875696182251,-1.4797706604003906,1.506871223449707,-0.04441402107477188,0.3343883156776428,0.6433377861976624,0.42000001668930054,-1.4800900220870972,3.000001907348633,-0.0959068164229393,-3.0000009536743164,0.002928673755377531,0.0025852348189800978,0.002204025397077203,0.0017826438415795565,0.15897972881793976,0.1343289464712143,0.10819052159786224,0.0804397240281105
0.05,0.017556246370077133,0.013484311290085316,0.0,0.9994692206382751,0.0,0.0,-0.03257787972688675,0.5821866393089294,0.4499824047088623,0.0,0.0,0.0,-2.642184019088745,-0.3289298713207245,0.6867623329162598,0.4200000464916229,1.0,3.7651284401363228e-06,-2.2118861124909017e-06,5.622759147172474e-09,0.00026530996547080576,0.00026691515813581645,-0.00010440382175147533,-0.00172425655182451,0.004177390597760677,-0.00012948956282343715,-0.052297938615083694,0.056025803089141846,1.3132092952728271,-1.598585605621338,2.168086528778076,-0.36663511395454407,0.3343883156776428,0.6433377861976624,0.42000001668930054,-1.4300678968429565,3.0000011920928955,-0.12944823503494263,-1.1529288291931152,0.005171347875148058,0.004229715093970299,0.003216140903532505,0.0021269223652780056,0.14090915024280548,0.08995422720909119,0.03712749108672142,-0.01768426038324833
0.06666666666666667,0.029748467728495598,0.022750727832317352,0.0,0.9972440004348755,0.0,0.0,-0.07419150322675705,0.7914496064186096,0.6009257435798645,0.0,0.0,0.0,-5.8651957511901855,-0.3289298713207245,0.686762273311615,0.4200000464916229,0.9999999403953552,3.406779342185473e-06,-2.285526988998754e-06,4.300881926155853e-07,0.00026702668401412666,0.00026791810523718596,-0.00010437914170324802,-0.0017406379338353872,0.004211799707263708,-0.00012850595521740615,-0.08014584332704544,0.0952465608716011,1.3048235177993774,-1.7313525676727295,2.5099449157714844,-0.6375976800918579,0.3343883156776428,0.6433377861976624,0.42000001668930054,-1.380048155784607,3.000000476837158,-0.09864146262407303,3.0000007152557373,0.0071077970787882805,0.005264518782496452,0.0033113639801740646,0.0012416751123964787,0.11013809591531754,0.049707163125276566,-0.012824611738324165,-0.07746994495391846
0.08333333333333333,0.036651965230703354,0.03448881581425667,0.0,0.9951185584068298,0.0,0.0,-0.09868640452623367,0.28843170404434204,0.7796310186386108,0.0,0.0,0.0,-1.9648445844650269,-0.3289298713207245,0.686762273311615,0.4200000464916229,0.9999999403953552,3.6260987599234795e-06,-2.3352677089860663e-06,3.032194797469856e-07,0.00026614003581926227,0.0002668494707904756,-0.00010405294597148895,-0.001728319562971592,0.004196429159492254,-0.00012790538312401623,-0.11229652166366577,0.13384868204593658,1.2910418510437012,-1.9318528175354004,2.3847992420196533,-0.9326680898666382,0.3343883156776428,0.6433377861976624,0.42000001668930054,-1.3300480842590332,3.0000007152557373,-0.13071314990520477,-3.0000014305114746,0.003686147276312113,0.0011409097351133823,-0.0015612608985975385,-0.004430489148944616,-0.29925549030303955,-0.3452970087528229,-0.39360374212265015,-0.4444296061992645
0.1,0.046710990369319916,0.04359433799982071,0.0,0.9908136129379272,0.0,0.0,-0.13523460924625397,0.7152323126792908,0.47553959488868713,0.0,0.0,0.0,-4.859638690948486,-0.3289298713207245,0.686762273311615,0.4200000464916229,1.0,3.422146846787655e-06,-2.30855562222132e-06,1.7962889842237928e-07,0.0002668158267624676,0.00026800387422554195,-0.00010440708138048649,-0.001743036205880344,0.00420708442106843,-0.00012890443031210452,-0.14115501940250397,0.17883086204528809,1.2743048667907715,-1.5584475994110107,3.0857558250427246,-1.023144006729126,0.3343883156776428,0.6433377861976624,0.42000001668930054,-1.2800241708755493,3.000002145767212,-0.11641649156808853,2.999999761581421,0.0015249463031068444,-0.0023718117736279964,-0.006436068564653397,-0.01067825872451067,-0.1213916540145874,-0.21614377200603485,-0.31090599298477173,-0.4055123031139374
0.11666666666666667,0.05565870553255081,0.05241840332746506,0.0,0.9813265800476074,0.0,0.0,-0.19234900176525116,0.4628651738166809,0.5785425305366516,0.0,0.0,0.0,-7.9343085289001465,-0.3289298713207245,0.6867623329162598,0.4200000464916229,1.0,3.7115689792699413e-06,-2.332697931706207e-06,2.574186908077536e-07,0.0002648586523719132,0.0002663538616616279,-0.00010423408821225166,-0.001718218787573278,0.004170075990259647,-0.00012914866965729743,-0.16859246790409088,0.231918066740036,1.2553012371063232,-1.635807991027832,3.3735194206237793,-1.2776024341583252,0.3343883156776428,0.6433377861976624,0.42000001668930054,-1.2303284406661987,2.936234712600708,-0.14842572808265686,-2.9999990463256836,-0.001156975282356143,-0.006678679026663303,-0.012343537993729115,-0.018159346655011177,-0.20310351252555847,-0.2956136465072632,-0.385954886674881,-0.4740038812160492
0.13333333333333333,0.061641644686460495,0.05946069955825806,0.0,0.9732068181037903,0.0,0.0,-0.22993157804012299,0.31670325994491577,0.35002636909484863,0.0,0.0,0.0,-3.5007448196411133,-0.3289298713207245,0.686762273311615,0.4200000464916229,0.9999999403953552,3.4248023439431563e-06,-2.3019676973490277e-06,1.55990974803899e-07,0.00026707074721343815,0.00026811487623490393,-0.0001044438686221838,-0.0017434153705835342,0.004212110303342342,-0.0001287730992771685,-0.20240283012390137,0.28697606921195984,1.2274595499038696,-1.9967892169952393,3.558391571044922,-2.0046098232269287,0.3343883156776428,0.6433377861976624,0.42000001668930054,-1.18037748336792,2.9999942779541016,-0.11485390365123749,3.000000476837158,-0.004465057048946619,-0.01142938993871212,-0.01848161406815052,-0.025628631934523582,-0.22004982829093933,-0.29542332887649536,-0.36721736192703247,-0.4354538917541504
0.15,0.06467702984809875,0.06723710149526596,0.0,0.9607731103897095,0.0,0.0,-0.27733561396598816,0.056768424808979034,0.5576592087745667,0.0,0.0,0.0,-6.569228172302246,-0.3289298713207245,0.686762273311615,0.4200000464916229,1.0,3.7139620872039814e-06,-2.2077986159274587e-06,-1.6908892064293468e-07,0.0002635350974742323,0.0002653622650541365,-0.00010421848855912685,-0.0017012546304613352,0.004144175443798304,-0.00012960522144567221,-0.23302915692329407,0.3486558198928833,1.1910898685455322,-1.5539002418518066,3.9465818405151367,-2.325448513031006,0.3343883156776428,0.6433377861976624,0.42000001668930054,-1.1303794384002686,3.000002145767212,-0.14686211943626404,-3.0,-0.009941992349922657,-0.018161199986934662,-0.02639923058450222,-0.03466390445828438,-0.42156273126602173,-0.49374479055404663,-0.5615367293357849,-0.6249508857727051
0.16666666666666666,0.07193184643983841,0.07148008048534393,0.0,0.952009379863739,0.0,0.0,-0.30606892704963684,0.5223729610443115,0.23600292205810547,0.0,0.0,0.0,-2.3583953380584717,-0.3289298713207245,0.686762273311615,0.4200000464916229,0.9999999403953552,3.63843651030038e-06,-2.278771944475011e-06,2.7007371272702585e-07,0.0002668274973984808,0.0002675004070624709,-0.00010410207323729992,-0.0017399153439328074,0.004210097715258598,-0.00012781354598701,-0.2623867988586426,0.4124763011932373,1.1450868844985962,-1.544920802116394,4.025350570678711,-3.224780559539795,0.3343883156776428,0.6433377861976624,0.42000001668930054,-1.0871391296386719,2.219318389892578,-0.19689136743545532,-3.0,-0.013153569772839546,-0.022573133930563927,-0.031929753720760345,-0.041233476251363754,-0.3437926769256592,-0.3759099841117859,-0.4051312804222107,-0.4317231774330139
0.18333333333333332,0.07381259649991989,0.07947851717472076,0.0,0.9384918212890625,0.0,0.0,-0.34530141949653625,0.09178870171308517,0.47120657563209534,0.0,0.0,0.0,-5.57124137878418,-0.3289298713207245,0.686762273311615,0.4200000464916229,1.0,3.3865092063933844e-06,-2.3002239686320536e-06,1.4393610570095916e-07,0.00026674469700083137,0.0002678720047697425,-0.00010436843149363995,-0.0017412101151421666,0.004205914679914713,-0.0001287828345084563,-0.28678861260414124,0.47955596446990967,1.081237554550171,-1.2547985315322876,4.12333345413208,-4.179812431335449,0.3343883156776428,0.6433377861976624,0.42000001668930054,-1.0381861925125122,3.0000014305114746,-0.2469041794538498,-3.000000476837158,-0.02604115940630436,-0.03538225591182709,-0.0446343757212162,-0.05386398360133171,-0.6223159432411194,-0.659413754940033,-0.6946317553520203,-0.7350721955299377
0.2,0.07970159500837326,0.08334726095199585,0.0,0.9310442805290222,0.0,0.0,-0.36490628123283386,0.36985084414482117,0.10407625883817673,0.0,0.0,0.0,-1.323513150215149,-0.3289298713207245,0.6867623329162598,0.4200000464916229,1.0,3.675592324725585e-06,-2.326503590666107e-06,2.2113523812095082e-07,0.00026484555564820766,0.0002663125633262098,-0.00010421546176075935,-0.0017177078407257795,0.004169898107647896,-0.00012909245560877025,-0.30948829650878906,0.5419843792915344,1.005120038986206,-1.0960181951522827,3.6127142906188965,-4.9356889724731445,0.3343883156776428,0.6433377861976624,0.42000001668930054,-0.9881798028945923,3.0,-0.2969307005405426,-3.000000476837158,-0.035912882536649704,-0.04541046917438507,-0.05481167882680893,-0.06428492069244385,-0.7502180933952332,-0.7212756276130676,-0.6937199831008911,-0.6726478338241577
0.21666666666666667,0.08040668815374374,0.08987296372652054,0.0,0.91827791929245,0.0,0.0,-0.3959364593029022,0.02790653705596924,0.39357805252075195,0.0,0.0,0.0,-4.711543560028076,-0.3289298713207245,0.686762273311615,0.4200000464916229,1.0,3.322369366287603e-06,-2.2079589143686462e-06,2.742768288044317e-07,0.00026662732125259936,0.0002674952265806496,-0.00010426435619592667,-0.0017357958713546395,0.004204710014164448,-0.0001283393648918718,-0.3239898681640625,0.596413254737854,0.9142582416534424,-0.6042769551277161,2.992208957672119,-5.681361198425293,0.3343883156776428,0.6433377861976624,0.42000001668930054,-0.9381704926490784,2.9999990463256836,-0.3469599783420563,-3.000000476837158,-0.05155613273382187,-0.06106923148036003,-0.07049250602722168,-0.07998593896627426,-0.7393882274627686,-0.771152675151825,-0.8043146729469299,-0.8356983065605164
0.23333333333333334,0.08447364717721939,0.09690141677856445,0.0,0.9126789569854736,0.0,0.0,-0.408677339553833,0.320855975151062,0.46477633714675903,0.0,0.0,0.0,-0.6763833165168762,-0.3289298713207245,0.686762273311615,0.4200000464916229,1.0,3.6565743357641622e-06,-2.3733584839646937e-06,-4.0767665154817223e-07,0.00026611756766214967,0.0002672596601769328,-0.00010423432104289532,-0.0017335788579657674,0.004194698762148619,-0.00012854607484769076,-0.33723172545433044,0.6369410753250122,0.8179768919944763,-0.6405373215675354,1.9881573915481567,-5.891900062561035,0.3343883156776428,0.6433377861976624,0.42000001668930054,-0.8881598114967346,2.999997615814209,-0.39699095487594604,-2.9999985694885254,-0.06429602950811386,-0.07385607063770294,-0.08336643874645233,-0.09294335544109344,-0.8089281916618347,-0.7936153411865234,-0.7808883190155029,-0.7683788537979126
0.25,0.08650428056716919,0.10160999000072479,0.0,0.9020640254020691,0.0,0.0,-0.43160226941108704,0.056135546416044235,0.26649418473243713,0.0,0.0,0.0,-4.059292793273926,-0.3289298713207245,0.6867623329162598,0.4200000464916229,1.0,3.6305725643615006e-06,-2.2425567749451147e-06,1.1221782614256881e-08,0.0002667990338522941,0.0002670611720532179,-0.00010390859097242355,-0.0017342250794172287,0.004210473503917456,-0.00012702550156973302,-0.3455336093902588,0.6663379669189453,0.7162230014801025,-0.2039884477853775,1.4244177341461182,-6.16651725769043,0.3343883156776428,0.6433377861976624,0.42000001668930054,-0.8381497859954834,3.0000007152557373,-0.4470224380493164,-2.9999983310699463,-0.08038084954023361,-0.08953457325696945,-0.09869362413883209,-0.10793209820985794,-1.0005667209625244,-1.0004245042800903,-1.0003162622451782,-1.0002307891845703
0.26666666666666666,0.08525802940130234,0.10416767746210098,0.0,0.8988209962844849,0.0,0.0,-0.43831589818000793,-0.11252182722091675,0.057763438671827316,0.0,0.0,0.0,0.09961256384849548,-0.3289298415184021,0.686762273311615,0.4200000464916229,0.9999999403953552,3.740199190360727e-06,-2.2362416984833544e-06,4.4997000259172637e-07,0.0002647960209287703,0.0002667310182005167,-0.00010454165749251842,-0.0017190045909956098,0.004166723228991032,-0.00013016752200201154,-0.35076725482940674,0.6803172826766968,0.6160985231399536,-0.16825716197490692,0.25051119923591614,-5.8759565353393555,0.3343883156776428,0.6433377861976624,0.42000001668930054,-0.7881410121917725,2.9999992847442627,-0.4970528781414032,-3.0,-0.0975143313407898,-0.10653418302536011,-0.11559514701366425,-0.12475921213626862,-1.0058895349502563,-1.0044347047805786,-1.0033265352249146,-1.0024467706680298
0.2833333333333333,0.08137442171573639,0.10338427871465683,0.0,0.8914149403572083,0.0,0.0,-0.45318809151649475,-0.28536349534988403,-0.11050660908222198,0.0,0.0,0.0,-3.1204521656036377,-0.3289298713207245,0.686762273311615,0.4200000464916229,1.0,3.3916567190317437e-06,-2.2910930965736043e-06,1.2460451159768127e-07,0.0002667719090823084,0.00026789281400851905,-0.00010437355376780033,-0.0017412637826055288,0.004206368234008551,-0.0001287830382352695,-0.3494455814361572,0.6825827360153198,0.5212990045547485,0.37292423844337463,-0.08758582919836044,-5.380873680114746,0.3343883156776428,0.6433377861976624,0.42000001668930054,-0.7381322383880615,3.0000009536743164,-0.547081470489502,-3.0000009536743164,-0.11509579420089722,-0.12391439825296402,-0.13282357156276703,-0.1418677419424057,-1.0173490047454834,-1.0131189823150635,-1.0098962783813477,-1.0073250532150269
0.3,0.07515031844377518,0.09991909563541412,0.0,0.8912420868873596,0.0,0.0,-0.45352792739868164,-0.4086911678314209,-0.2477135956287384,0.0,0.0,0.0,0.8699037432670593,-0.3289298713207245,0.6867623329162598,0.4200000464916229,1.0,3.68071960110683e-06,-2.3190264073491562e-06,2.0110041987209115e-07,0.00026479086955077946,0.00026625796454027295,-0.00010421173647046089,-0.0017167659243568778,0.004168913699686527,-0.0001290974614676088,-0.34411105513572693,0.6815437078475952,0.4371316432952881,0.436474472284317,-0.18043863773345947,-4.809465408325195,0.3343883156776428,0.6433377861976624,0.42000001668930054,-0.6881252527236938,3.0000007152557373,-0.5971081852912903,-3.000000238418579,-0.1322970986366272,-0.14099231362342834,-0.14981167018413544,-0.15878722071647644,-1.0100715160369873,-1.0076576471328735,-1.0058127641677856,-1.004326343536377
0.31666666666666665,0.06658105552196503,0.09419044107198715,0.0,0.9025647640228271,0.0,0.0,-0.4305541217327118,-0.5574474334716797,-0.387710303068161,0.0,0.0,0.0,4.1082072257995605,-0.33059147000312805,0.6723029017448425,0.4200000464916229,0.9893862009048462,-8.732565675018122e-07,-9.685204531706404e-06,-0.14530950784683228,-0.09555330872535706,-0.8576186299324036,-2.1889572963118553e-06,-2.055329423455987e-05,-0.00010840391041710973,-16.98492431640625,-0.341839998960495,0.685722291469574,0.4165157675743103,-0.04727885127067566,0.27676984667778015,-0.05542260408401489,0.3343883156776428,0.6433377861976624,0.42000001668930054,-0.6381489634513855,2.9893038272857666,-0.6475318670272827,-2.8356969356536865,-0.1383696049451828,-0.14804281294345856,-0.15772093832492828,-0.16736653447151184,0.2808722257614136,0.06625480204820633,-0.12818922102451324,-0.2924608886241913
0.3333333333333333,0.055676672607660294,0.08609418570995331,0.0,0.9064260721206665,0.0,0.0,-0.42236456274986267,-0.6927306652069092,-0.5268433094024658,0.0,0.0,0.0,0.09826693683862686,-0.3292831480503082,0.6755996346473694,0.4252167046070099,0.9867743849754333,0.09748532623052597,0.020913608372211456,-0.12781038880348206,0.04584742337465286,0.05195920541882515,0.2194747030735016,11.969073295593262,0.45970961451530457,1.2659748792648315,-0.3422391414642334,0.6863124370574951,0.4217645823955536,0.20665165781974792,-0.07267062366008759,-0.17759208381175995,0.3343883156776428,0.6433377861976624,0.42000001668930054,-0.5881455540657043,2.999992609024048,-0.6975816488265991,-3.0000011920928955,-0.1359955221414566,-0.14783591032028198,-0.1592487245798111,-0.17006635665893555,-0.08727750927209854,-0.12893857061862946,-0.1458335816860199,-0.13242043554782867
0.35,0.04263709485530853,0.07574988156557083,0.0,0.9153516292572021,0.0,0.0,-0.4026554226875305,-0.8303017616271973,-0.6594092845916748,0.0,0.0,0.0,3.6805641651153564,-0.32661470770835876,0.6786192655563354,0.42758244276046753,0.9732215404510498,0.18867535889148712,0.017653025686740875,-0.13011434674263,0.20015369355678558,0.22474032640457153,0.12831170856952667,9.46950626373291,-2.705828905105591,-1.2957814931869507,-0.33836960792541504,0.6884478330612183,0.41922977566719055,0.14982639253139496,0.23271813988685608,-0.09614644944667816,0.3343883156776428,0.6433377861976624,0.42000001668930054,-0.538140594959259,2.9999887943267822,-0.74760901927948,-2.9999992847442627,-0.13968825340270996,-0.15134753286838531,-0.162135511636734,-0.171817809343338,-0.2463824450969696,-0.21316972374916077,-0.15200968086719513,-0.05955485999584198
0.36666666666666664,0.03282926231622696,0.06264945864677429,0.0,0.91765958070755,0.0,0.0,-0.3973674774169922,-0.4977235198020935,-0.8358297944068909,0.0,0.0,0.0,-0.2843346893787384,-0.32237154245376587,0.6818311810493469,0.4282892644405365,0.9738010168075562,0.13266587257385254,0.00687554432079196,-0.18456460535526276,0.37671202421188354,0.22852981090545654,0.08471367508172989,-11.87197494506836,0.9047011733055115,-8.080824851989746,-0.3340461254119873,0.6909260749816895,0.41989874839782715,0.4038100838661194,0.13334204256534576,0.10305607318878174,0.3343883156776428,0.6433377861976624,0.42000001668930054,-0.48812830448150635,3.000004291534424,-0.7976188659667969,-3.0000016689300537,-0.1453504115343094,-0.15549327433109283,-0.16427406668663025,-0.17143239080905914,-0.38184985518455505,-0.24893543124198914,-0.08760406821966171,0.10236652940511703
0.3833333333333333,0.02110457420349121,0.04797273501753807,0.0,0.9072803258895874,0.0,0.0,-0.4205263555049896,-0.7813261151313782,-0.905938982963562,0.0,0.0,0.0,-3.999873399734497,-0.3109963834285736,0.6897118091583252,0.4284520447254181,0.9688432812690735,0.022330347448587418,-0.013745157048106194,-0.24628236889839172,0.9366810917854309,0.6851782202720642,0.005076318513602018,-12.234352111816406,0.5717216730117798,-8.342467308044434,-0.3226749897003174,0.6967858076095581,0.4219987988471985,0.9558475017547607,0.5735262632369995,0.14835819602012634,0.3343883156776428,0.6433377861976624,0.42000001668930054,-0.43810024857521057,2.9999983310699463,-0.8476320505142212,-2.999976396560669,-0.15426605939865112,-0.16133517026901245,-0.16657868027687073,-0.1697610318660736,-0.537144124507904,-0.33211228251457214,-0.10011924058198929,0.15644708275794983
0.4,0.012322244234383106,0.030448172241449356,0.0,0.8832092881202698,0.0,0.0,-0.46897900104522705,-0.47818806767463684,-1.0956462621688843,0.0,0.0,0.0,-7.315004825592041,-0.2877650260925293,0.7021461129188538,0.43264034390449524,0.9549834132194519,0.008768941275775433,-0.04419765993952751,-0.29321709275245667,1.8470711708068848,0.6359546780586243,-0.01856001280248165,27.874555587768555,-21.856048583984375,3.8230106830596924,-0.29755908250808716,0.7117612361907959,0.42481163144111633,2.009474277496338,1.1979691982269287,0.47564220428466797,0.3343883156776428,0.6433377861976624,0.42000001668930054,-0.39896202087402344,1.7090424299240112,-0.8976548910140991,-3.000004291534424,-0.16270172595977783,-0.1663004606962204,-0.16765403747558594,-0.16658005118370056,-0.5526857376098633,-0.3287721574306488,-0.08338754624128342,0.17929312586784363
0.4166666666666667,0.005688190925866365,0.017772363498806953,0.0,0.8424904346466064,0.0,0.0,-0.5387113094329834,-0.3534315824508667,-0.6402320265769958,0.0,0.0,0.0,-10.534440040588379,-0.23023968935012817,0.7256574630737305,0.4376562833786011,0.9336032271385193,0.04523944854736328,-0.08685453981161118,-0.3446657955646515,4.913177490234375,1.1572667360305786,0.3570195436477661,6.417941570281982,-14.515880584716797,25.310279846191406,-0.23851193487644196,0.7355479598045349,0.428879976272583,4.822679042816162,1.8937746286392212,0.33485761284828186,0.3343883156776428,0.6433377861976624,0.42000001668930054,-0.3828972280025482,0.5958911776542664,-0.8607029318809509,2.9969420433044434,-0.17805089056491852,-0.17820590734481812,-0.17391882836818695,-0.16729284822940826,-0.9227025508880615,-0.8338190317153931,-0.4824831485748291,-0.14940905570983887
0.43333333333333335,0.002696407726034522,0.008188667707145214,0.0,0.8046219944953918,0.0,0.0,-0.5937873125076294,-0.11478228121995926,-0.5482573509216309,0.0,0.0,0.0,-6.82672119140625,-0.1513618379831314,0.7558143734931946,0.4451061189174652,0.8893165588378906,0.07074278593063354,-0.11800578236579895,-0.43610328435897827,4.85516881942749,1.269189476966858,0.3298652768135071,13.75710678100586,-22.391782760620117,7.170957565307617,-0.1583467721939087,0.7679086327552795,0.43564894795417786,5.041720390319824,1.9407260417938232,0.6124927401542664,0.3343883156776428,0.6433377861976624,0.42000001668930054,-0.3703632056713104,0.8285232186317444,-0.8870345950126648,-3.0000016689300537,-0.1867121011018753,-0.18819069862365723,-0.18137453496456146,-0.17091184854507446,-0.4212874174118042,-0.4965395927429199,-0.3956473171710968,-0.23013994097709656
0.45,-0.002549962140619755,0.0029593929648399353,0.0,0.7866325974464417,0.0,0.0,-0.6174213886260986,-0.2800567150115967,-0.25255611538887024,0.0,0.0,0.0,-2.1649162769317627,-0.07012070715427399,0.7769894599914551,0.45519357919692993,0.8339585661888123,0.0653906911611557,-0.12835228443145752,-0.5326938033103943,4.830153942108154,-0.04651591181755066,0.5642953515052795,16.911367416381836,-14.12987232208252,21.032522201538086,-0.07523052394390106,0.7903405427932739,0.445737361907959,5.220876693725586,0.9810302257537842,0.7599413394927979,0.3343883156776428,0.6433377861976624,0.42000001668930054,-0.3566135764122009,0.7224509716033936,-0.9370585083961487,-3.0000076293945312,-0.19782821834087372,-0.19870030879974365,-0.18918173015117645,-0.17534098029136658,-0.6328510046005249,-0.5631648898124695,-0.40283459424972534,-0.21333101391792297
0.4666666666666667,-0.002537568798288703,-0.007912828586995602,0.0,0.7604231834411621,0.0,0.0,-0.6494278907775879,0.09288963675498962,-0.7998351454734802,0.0,0.0,0.0,-5.99846887588501,0.01292666420340538,0.7832968235015869,0.4627138674259186,0.7665116786956787,0.02281789854168892,-0.14379200339317322,-0.6255101561546326,4.525454521179199,-0.6837743520736694,0.2529042661190033,-20.353849411010742,-34.57436752319336,9.300704956054688,0.007684227079153061,0.7981470227241516,0.4544095993041992,5.021132469177246,-0.013513267040252686,0.6287198066711426,0.3343883156776428,0.6433377861976624,0.42000001668930054,-0.34624040126800537,0.43582168221473694,-0.9870825409889221,-3.0000076293945312,-0.20248126983642578,-0.20219838619232178,-0.19048471748828888,-0.17405124008655548,-0.19149383902549744,-0.0776500329375267,0.07047154754400253,0.2327086180448532
0.48333333333333334,-0.006524739786982536,-0.014793203212320805,0.0,0.7449761629104614,0.0,0.0,-0.6670910716056824,-0.2017662674188614,-0.34048905968666077,0.0,0.0,0.0,-1.4146006107330322,0.0875777006149292,0.7775653600692749,0.4722961485385895,0.7023175954818726,0.006639137864112854,-0.10987478494644165,-0.7033017873764038,3.804377555847168,-1.2488912343978882,0.4777410626411438,-11.393054962158203,-10.773213386535645,29.918907165527344,0.08295276761054993,0.7929204702377319,0.46429598331451416,4.5027689933776855,-0.46489691734313965,0.7208765745162964,0.3343883156776428,0.6433377861976624,0.42000001668930054,-0.3408900201320648,0.20253965258598328,-1.0371050834655762,-3.0000030994415283,-0.2109629064798355,-0.20766635239124298,-0.19305656850337982,-0.17391450703144073,-0.4169231355190277,-0.27002790570259094,-0.15298804640769958,-0.05466303601861
0.5,-0.007420544046908617,-0.021048707887530327,0.0,0.723087728023529,0.0,0.0,-0.6907562017440796,-0.0023456604685634375,-0.3302462100982666,0.0,0.0,0.0,-4.626680850982666,0.15296727418899536,0.7661486268043518,0.477656751871109,0.6702084541320801,-0.005444092210382223,-0.09223224967718124,-0.7363994121551514,3.355044364929199,-1.4402635097503662,0.16563168168067932,-4.462666988372803,-4.177521705627441,15.481925010681152,0.1494724005460739,0.781083881855011,0.4707576334476471,3.7856526374816895,-1.0476471185684204,0.30936843156814575,0.3343883156776428,0.6433377861976624,0.42000001668930054,-0.33494439721107483,0.4508301317691803,-1.0871272087097168,-2.9999845027923584,-0.21607771515846252,-0.21040970087051392,-0.19416847825050354,-0.17375622689723969,-0.36606794595718384,-0.1909264177083969,-0.07590324431657791,0.010212205350399017
0.5166666666666666,-0.009239820763468742,-0.023104140534996986,0.0,0.715783417224884,0.0,0.0,-0.6983223557472229,-0.1366393119096756,-0.04517941549420357,0.0,0.0,0.0,-0.21180064976215363,0.20906881988048553,0.747512698173523,0.4782199263572693,0.6126567721366882,-0.020316099748015404,-0.07153137028217316,-0.7868431806564331,3.025360584259033,-1.3040971755981445,-0.11431388556957245,3.0290966033935547,5.222959995269775,-10.795303344726562,0.20507577061653137,0.7605128288269043,0.47235360741615295,3.0030531883239746,-1.3980977535247803,-0.02730230987071991,0.3343883156776428,0.6433377861976624,0.42000001668930054,-0.32244712114334106,1.1448997259140015,-1.1371493339538574,-3.0000014305114746,-0.22152146697044373,-0.21320176124572754,-0.19552749395370483,-0.17425519227981567,-0.21706409752368927,-0.08558741211891174,-0.0383036807179451,-0.02961311861872673
0.5333333333333333,-0.008888904005289078,-0.02861955761909485,0.0,0.6994912624359131,0.0,0.0,-0.7146411538124084,0.04792981594800949,-0.36480003595352173,0.0,0.0,0.0,-3.6207096576690674,0.255033016204834,0.7260489463806152,0.47147634625434875,0.5828971266746521,-0.04923875629901886,-0.0527166910469532,-0.8093376755714417,2.4350881576538086,-1.9605799913406372,-0.47468140721321106,-3.244258165359497,0.3859291076660156,9.297850608825684,0.25206127762794495,0.7385650873184204,0.46634405851364136,2.534970760345459,-1.3824925422668457,-0.5342609882354736,0.3343883156776428,0.6433377861976624,0.42000001668930054,-0.298225075006485,1.3121936321258545,-1.187171459197998,-2.999988555908203,-0.22054888308048248,-0.21094176173210144,-0.19342303276062012,-0.17290131747722626,0.0738677978515625,0.1501554697751999,0.13397932052612305,0.07886439561843872
0.55,-0.006098137702792883,-0.03038851171731949,0.0,0.6954492330551147,0.0,0.0,-0.7185752391815186,0.19812560081481934,-0.09058309346437454,0.0,0.0,0.0,0.2312241494655609,0.2927689254283905,0.7022457122802734,0.46020111441612244,0.5437614321708679,-0.08753150701522827,-0.018286580219864845,-0.8344623446464539,1.9458904266357422,-2.034795045852661,-0.7911130785942078,-12.611486434936523,-15.94259262084961,9.318704605102539,0.28963446617126465,0.7137193083763123,0.4551161527633667,2.022902250289917,-1.4298465251922607,-0.7398717403411865,0.3343883156776428,0.6433377861976624,0.42000001668930054,-0.2850748300552368,0.3179844915866852,-1.2371934652328491,-3.000002145767212,-0.2199946939945221,-0.2093762755393982,-0.19244731962680817,-0.17320367693901062,0.18770065903663635,0.19378536939620972,0.10664892941713333,-0.017538970336318016
0.5666666666666667,-0.0008673713309690356,-0.03531450033187866,0.0,0.6820389032363892,0.0,0.0,-0.7313159108161926,0.3599759340286255,-0.3508942127227783,0.0,0.0,0.0,-3.0079333782196045,0.3208228349685669,0.6816394925117493,0.4422439634799957,0.5344558358192444,-0.09375586360692978,-0.030906187370419502,-0.8394113779067993,1.2449928522109985,-1.4115219116210938,-1.1172116994857788,1.7496788501739502,-2.723494529724121,4.516078472137451,0.3172987997531891,0.6923767924308777,0.4370996356010437,1.2760335206985474,-1.1948127746582031,-1.2239820957183838,0.3343883156776428,0.6433377861976624,0.42000001668930054,-0.28015846014022827,0.3892814815044403,-1.1991844177246094,2.9996249675750732,-0.2140357792377472,-0.20424741506576538,-0.18963465094566345,-0.17325451970100403,0.3456963896751404,0.28463658690452576,0.13515658676624298,-0.047516655176877975
0.5833333333333334,0.0025306479074060917,-0.03731066733598709,0.0,0.6815086007118225,0.0,0.0,-0.7318100929260254,0.15233930945396423,-0.07857397943735123,0.0,0.0,0.0,0.7434077858924866,0.3338851034641266,0.6677737236022949,0.43247026205062866,0.5376980900764465,-0.15176698565483093,-0.05705353990197182,-0.8274009227752686,0.42935335636138916,-0.6318981051445007,0.4155057370662689,11.150455474853516,-3.7896759510040283,-0.11057485640048981,0.33021995425224304,0.6773281097412109,0.4302884638309479,0.4230561852455139,-0.5479915142059326,0.06432724744081497,0.3343883156776428,0.6433377861976624,0.42000001668930054,-0.26780179142951965,1.061863660812378,-1.2200779914855957,-2.9982261657714844,-0.2094736546278,-0.2008451223373413,-0.18871085345745087,-0.17526337504386902,0.3199410140514374,0.22211407124996185,0.05396018177270889,-0.13512083888053894
0.6,0.0067947558127343655,-0.042323704808950424,0.0,0.6706288456916809,0.0,0.0,-0.7417930364608765,0.2984717786312103,-0.33218806982040405,0.0,0.0,0.0,-2.5793888568878174,0.33976149559020996,0.66387939453125,0.43299400806427,0.5577887892723083,-0.07740384340286255,0.025810275226831436,-0.8259625434875488,0.22914332151412964,-0.23569341003894806,-0.21545778214931488,8.08761978149414,0.1477944701910019,6.769325256347656,0.3343506455421448,0.6715235710144043,0.4282284677028656,0.1390700489282608,-0.29058414697647095,-0.1461719274520874,0.3343883156776428,0.6433377861976624,0.42000001668930054,-0.25264355540275574,0.744379997253418,-1.1820741891860962,3.000354528427124,-0.20196063816547394,-0.19541704654693604,-0.18636855483055115,-0.17623783648014069,0.3902808129787445,0.28176894783973694,0.11873333156108856,-0.05683906376361847
0.6166666666666667,0.00918891467154026,-0.04425406455993652,0.0,0.6725347638130188,0.0,0.0,-0.7400655150413513,0.08132552355527878,-0.07864391058683395,0.0,0.0,0.0,1.0834240913391113,0.33982253074645996,0.6558505296707153,0.4316270649433136,0.5826512575149536,-0.052789635956287384,0.0015687085688114166,-0.8110045194625854,-0.04918016865849495,-0.6066290140151978,-0.14591163396835327,-1.5306150913238525,-8.185205459594727,3.4919161796569824,0.3354276418685913,0.6657330989837646,0.42879295349121094,-0.014076724648475647,-0.2700551152229309,0.10373015701770782,0.3343883156776428,0.6433377861976624,0.42000001668930054,-0.28996482491493225,-2.999983072280884,-1.2034670114517212,-2.9999258518218994,-0.1977333426475525,-0.19259335100650787,-0.1857345700263977,-0.17796733975410461,0.304919958114624,0.2071586549282074,0.07026210427284241,-0.07258801907300949
0.6333333333333333,0.012111935764551163,-0.0430556982755661,0.0,0.664401113986969,0.0,0.0,-0.7473762035369873,0.22480739653110504,0.13123902678489685,0.0,0.0,0.0,-2.1939830780029297,0.339346706867218,0.6512892246246338,0.4306834638118744,0.5974607467651367,-0.041415873914957047,-0.024556009098887444,-0.8004512786865234,-0.12708206474781036,-0.5275343656539917,-0.29068562388420105,-2.807908773422241,-9.376094818115234,-0.690980076789856,0.3347235321998596,0.6653823852539062,0.4309258460998535,-0.03518298640847206,0.1136675626039505,0.15205641090869904,0.3343883156776428,0.6433377861976624,0.42000001668930054,-0.3388673663139343,-2.7334306240081787,-1.2534148693084717,-3.0011446475982666,-0.19093842804431915,-0.18818794190883636,-0.18412980437278748,-0.17907783389091492,0.46119266748428345,0.3076164424419403,0.1360577940940857,-0.027026327326893806
0.65,0.01763894408941269,-0.04637033864855766,0.0,0.6683573126792908,0.0,0.0,-0.7438403367996216,0.3084186911582947,-0.22505290806293488,0.0,0.0,0.0,1.4588509798049927,0.33740079402923584,0.6455879211425781,0.4241940975189209,0.6003491878509521,-0.05005713924765587,-0.059865374118089676,-0.7959216237068176,-0.25447461009025574,-0.3727495074272156,-0.37713176012039185,-3.091010332107544,-5.941835403442383,2.7293663024902344,0.3332033157348633,0.6669782400131226,0.4338035583496094,-0.20716486871242523,0.06166064366698265,0.206824392080307,0.3343883156776428,0.6433377861976624,0.42000001668930054,-0.3888249695301056,-2.999943256378174,-1.3034296035766602,-2.99991774559021,-0.18056537210941315,-0.1803583800792694,-0.17903853952884674,-0.17653709650039673,0.4919276833534241,0.3899083137512207,0.27789679169654846,0.17427274584770203
0.6666666666666666,0.025225738063454628,-0.047560207545757294,0.0,0.6737073063850403,0.0,0.0,-0.738998293876648,0.4755239188671112,-0.08348174393177032,0.0,0.0,0.0,0.520671546459198,0.3345263600349426,0.6405370831489563,0.42026710510253906,0.61704021692276,0.004560097586363554,0.003506318898871541,-0.7869104743003845,-0.046105172485113144,-0.25017231702804565,-0.031074313446879387,-1.2663298845291138,0.09157028794288635,3.5000364780426025,0.33148494362831116,0.6666949987411499,0.43766868114471436,0.025609156116843224,-0.03556579723954201,0.26106908917427063,0.3343883156776428,0.6433377861976624,0.42000001668930054,-0.4388355016708374,-2.9996285438537598,-1.3534351587295532,-2.99996018409729,-0.1764434576034546,-0.17682400345802307,-0.17614620923995972,-0.17411978542804718,0.2775605320930481,0.24770741164684296,0.22493167221546173,0.21927917003631592
0.6833333333333333,0.034322187304496765,-0.051631826907396317,0.0,0.6612961888313293,0.0,0.0,-0.7501248717308044,0.5834071040153503,-0.31877022981643677,0.0,0.0,0.0,-2.862788677215576,0.33391594886779785,0.6374742388725281,0.4200000464916229,0.631809651851654,-8.410871714659152e-07,8.221251164286514e-07,-0.7751235365867615,-0.0317823588848114,-0.15646173059940338,-5.625304765999317e-06,-0.0002045336877927184,0.00013403092452790588,1.7691045999526978,0.3350652754306793,0.6669760346412659,0.4461965262889862,0.4122685194015503,0.04115183651447296,0.8796775341033936,0.3343883156776428,0.6433377861976624,0.42000001668930054,-0.488847553730011,-2.9999921321868896,-1.4034533500671387,-2.999999761581421,-0.17357733845710754,-0.17411521077156067,-0.1734124720096588,-0.1710643768310547,0.11835915595293045,0.12553341686725616,0.14563366770744324,0.18300782144069672
0.7,0.046134624630212784,-0.05301851034164429,0.0,0.6279526948928833,0.0,0.0,-0.7782515287399292,0.7489025592803955,-0.051410410553216934,0.0,0.0,0.0,-6.076857566833496,0.33356600999832153,0.6358475685119629,0.4200000464916229,0.6376209259033203,-6.563447385588006e-08,3.2589670695415407e-07,-0.7703502774238586,-0.017322126775979996,-0.07737107574939728,-1.1659576557576656e-05,-0.0003038875584024936,0.0005048757302574813,0.645161509513855,0.3492530286312103,0.6666902303695679,0.46667909622192383,1.2981054782867432,-0.02374349534511566,1.69203782081604,0.3343883156776428,0.6433377861976624,0.42000001668930054,-0.5388601422309875,-2.9998860359191895,-1.4534716606140137,-2.999987840652466,-0.17474500834941864,-0.17483699321746826,-0.17343120276927948,-0.17009876668453217,-0.06398768723011017,-0.04628577083349228,-0.010467580519616604,0.04363415762782097
0.7166666666666667,0.05561930686235428,-0.05210461840033531,0.0,0.6090635061264038,0.0,0.0,-0.7931214570999146,0.4916132688522339,0.09885883331298828,0.0,0.0,0.0,-1.846850037574768,0.3334878385066986,0.6355085372924805,0.42000001668930054,0.6384778022766113,-1.0839416972885374e-06,1.2077662177034654e-06,-0.7696400880813599,0.00037447235081344843,0.0018867991166189313,-4.200718831270933e-05,-0.0001036804897012189,-0.0013733236119151115,-0.01301820483058691,0.3696419298648834,0.6702716946601868,0.4961925745010376,1.0751895904541016,0.40528440475463867,1.823891282081604,0.3343883156776428,0.6433377861976624,0.42000001668930054,-0.5601626038551331,0.18042662739753723,-1.5034899711608887,-3.000000238418579,-0.1749657541513443,-0.1752125769853592,-0.173746719956398,-0.17015069723129272,0.05431145802140236,0.01601516082882881,-0.014550469815731049,-0.038247913122177124
0.7333333333333333,0.06029171496629715,-0.05087851732969284,0.0,0.6151711940765381,0.0,0.0,-0.7883935570716858,0.23878225684165955,0.17311522364616394,0.0,0.0,0.0,1.718492031097412,0.3334873914718628,0.6355089545249939,0.41999998688697815,0.6384779214859009,-4.819837045033637e-07,-6.343345376080833e-06,-0.7696400284767151,0.00021894196106586605,-0.0004274030798114836,-9.30659007281065e-05,0.009351644665002823,-0.0012172972783446312,-0.0005829971050843596,0.38343778252601624,0.6780980825424194,0.5213729739189148,0.4880160093307495,0.4437216520309448,1.2277182340621948,0.3343883156776428,0.6433377861976624,0.42000001668930054,-0.5365042686462402,2.442256450653076,-1.464751958847046,3.0000011920928955,-0.17224594950675964,-0.17313739657402039,-0.17223826050758362,-0.16916437447071075,0.07097723335027695,0.0643773302435875,0.05660555139183998,0.044250186532735825
0.75,0.06153847277164459,-0.05243098735809326,0.0,0.609414279460907,0.0,0.0,-0.792851984500885,-0.006480791140347719,-0.11276550590991974,0.0,0.0,0.0,-1.599501132965088,0.3334874212741852,0.6355088949203491,0.41999998688697815,0.6384779214859009,-5.599139853984525e-07,-5.646711088047596e-06,-0.7696401476860046,0.00021365114662330598,-0.000409900676459074,-8.89711081981659e-05,0.009005868807435036,-0.0011844603577628732,-0.0005715377628803253,0.38446909189224243,0.6840887665748596,0.5348310470581055,-0.4150809943675995,0.2735212445259094,0.5800119638442993,0.3343883156776428,0.6433377861976624,0.42000001668930054,-0.5111278295516968,0.7279664874076843,-1.4146993160247803,3.0,-0.17049643397331238,-0.17133407294750214,-0.17045927047729492,-0.16755813360214233,0.01759176515042782,0.051603276282548904,0.07573991268873215,0.08467330783605576
0.7666666666666666,0.05953417718410492,-0.04852847009897232,0.0,0.6171250343322754,0.0,0.0,-0.7868651151657104,-0.1547764241695404,0.20640626549720764,0.0,0.0,0.0,1.9219878911972046,0.3334874212741852,0.6355088949203491,0.41999998688697815,0.6384777426719666,-6.262222882469359e-07,-5.732547379011521e-06,-0.7696402072906494,0.00021337084763217717,-0.00040954045834951103,-8.898647502064705e-05,0.008994500152766705,-0.00118599075358361,-0.0005707727978006005,0.37492966651916504,0.686221718788147,0.5422395467758179,-0.6009080410003662,0.17943978309631348,0.31229954957962036,0.3343883156776428,0.6433377861976624,0.42000001668930054,-0.49546462297439575,1.1085011959075928,-1.364647626876831,3.0000007152557373,-0.17533300817012787,-0.17439749836921692,-0.17201270163059235,-0.16798710823059082,-0.08637401461601257,-0.026976287364959717,0.02198764681816101,0.054130785167217255
0.7833333333333333,0.05991138890385628,-0.04910501092672348,0.0,0.6125176548957825,0.0,0.0,-0.7904568910598755,0.03585505485534668,-0.020632607862353325,0.0,0.0,0.0,-1.4152084589004517,0.3334873914718628,0.6355088949203491,0.41999998688697815,0.6384781002998352,-6.015529265823716e-07,-5.750307991547743e-06,-0.7696399092674255,0.00021377431403379887,-0.00041018109186552465,-8.90376977622509e-05,0.009012296795845032,-0.001187386573292315,-0.0005719925393350422,0.3613463044166565,0.6875486373901367,0.5424463748931885,-1.0838901996612549,-0.06608207523822784,-0.10023128241300583,0.3343883156776428,0.6433377861976624,0.42000001668930054,-0.5040680170059204,-1.876159906387329,-1.3145949840545654,3.0000007152557373,-0.17510023713111877,-0.17346861958503723,-0.1705472618341446,-0.16624172031879425,-0.09678933024406433,-0.029370630159974098,0.026232806965708733,0.06361270695924759
0.8,0.062315795570611954,-0.05122191086411476,0.0,0.6200865507125854,0.0,0.0,-0.7845334410667419,0.18557825684547424,-0.216183602809906,0.0,0.0,0.0,1.9290999174118042,0.3334874212741852,0.6355088949203491,0.41999998688697815,0.6384778022766113,-6.292248713180015e-07,-5.8845876083069015e-06,-0.7696402072906494,0.00021314375044312328,-0.00040923309279605746,-8.892687037587166e-05,0.008987885899841785,-0.0011874322080984712,-0.0005703310016542673,0.35014110803604126,0.6870887279510498,0.5410001277923584,-0.3150593042373657,0.041018325835466385,-0.025131091475486755,0.3343883156776428,0.6433377861976624,0.42000001668930054,-0.5230322480201721,-0.5036883354187012,-1.3342280387878418,-3.0000009536743164,-0.1776868849992752,-0.17458291351795197,-0.17029720544815063,-0.16484956443309784,-0.11657612770795822,-0.030977679416537285,0.05392080917954445,0.131221741437912
0.8166666666666667,0.06701574474573135,-0.05641220510005951,0.0,0.6151085495948792,0.0,0.0,-0.7884424328804016,0.32156607508659363,-0.37073373794555664,0.0,0.0,0.0,-1.642927885055542,0.3334874212741852,0.6355088949203491,0.41999998688697815,0.638477623462677,-6.355170967253798e-07,-5.698830136680044e-06,-0.7696402668952942,0.00021322531392797828,-0.00040944915963336825,-8.897390216588974e-05,0.008991777896881104,-0.0011862535029649734,-0.0005703825154341757,0.3478274345397949,0.6841894388198853,0.5370335578918457,0.07410480827093124,-0.32334157824516296,-0.2485150694847107,0.3343883156776428,0.6433377861976624,0.42000001668930054,-0.5619163513183594,-2.9999985694885254,-1.2959705591201782,3.000000238418579,-0.18066929280757904,-0.17581476271152496,-0.16971789300441742,-0.16252173483371735,-0.16231182217597961,-0.04876084253191948,0.07145591080188751,0.19096039235591888
0.8333333333333334,0.0745990201830864,-0.058884721249341965,0.0,0.5891039967536926,0.0,0.0,-0.8080572485923767,0.49357545375823975,-0.117160864174366,0.0,0.0,0.0,-4.704065799713135,0.3334874212741852,0.6355089545249939,0.41999998688697815,0.6384778618812561,-6.470545486081392e-07,-5.775942554464564e-06,-0.7696401476860046,0.00021286029368638992,-0.0004091522714588791,-8.89261718839407e-05,0.00898392591625452,-0.001187213696539402,-0.0005694462452083826,0.3524537682533264,0.6764662265777588,0.536275327205658,0.4932204484939575,-0.5064926743507385,0.29105910658836365,0.3343883156776428,0.6433377861976624,0.42000001668930054,-0.6119031310081482,-2.9906904697418213,-1.315951943397522,-2.999999761581421,-0.184266597032547,-0.1779492199420929,-0.17020046710968018,-0.16127856075763702,-0.1234232634305954,-0.0743795856833458,-0.010359425097703934,0.06284584105014801
0.85,0.08438503742218018,-0.05807459354400635,0.0,0.5790229439735413,0.0,0.0,-0.8153112530708313,0.6212548017501831,0.1171613484621048,0.0,0.0,0.0,-0.5007161498069763,0.3334873914718628,0.6355088949203491,0.41999998688697815,0.6384776830673218,-6.037866455699259e-07,-5.91338630329119e-06,-0.7696402668952942,0.0002127961633959785,-0.0004093673487659544,-8.892570622265339e-05,0.008990018628537655,-0.0011890913592651486,-0.0005693536950275302,0.36094802618026733,0.6724467277526855,0.5428081750869751,0.4912686347961426,-0.08005695790052414,0.4659116864204407,0.3343883156776428,0.6433377861976624,0.42000001668930054,-0.6302667260169983,0.49876829981803894,-1.365970253944397,-3.0,-0.18506889045238495,-0.17874132096767426,-0.1707763969898224,-0.161510169506073,0.0320064015686512,-0.005359905771911144,-0.034997135400772095,-0.06020157411694527
0.8666666666666667,0.09012797474861145,-0.0625084787607193,0.0,0.5947902798652649,0.0,0.0,-0.8038809299468994,0.3635936379432678,-0.32996922731399536,0.0,0.0,0.0,2.968869924545288,0.3334874212741852,0.6355089545249939,0.41999998688697815,0.6384778618812561,-6.60882392367057e-07,-5.95211167819798e-06,-0.7696400880813599,0.00021294684847816825,-0.0004086308181285858,-8.882791735231876e-05,0.008973129093647003,-0.0011834646575152874,-0.0005696366424672306,0.3683401346206665,0.6749606132507324,0.547644853591919,0.3840563893318176,0.11610659211874008,0.0772668719291687,0.3343883156776428,0.6433377861976624,0.42000001668930054,-0.6080870628356934,2.015207052230835,-1.327620267868042,3.000000238418579,-0.1775897890329361,-0.17284554243087769,-0.16637517511844635,-0.1585276573896408,0.3132410943508148,0.25701606273651123,0.1977704018354416,0.13458800315856934
0.8833333333333333,0.09362301975488663,-0.06324392557144165,0.0,0.595810055732727,0.0,0.0,-0.8031253814697266,0.14154845476150513,-0.0022038850001990795,0.0,0.0,0.0,-0.7446185946464539,0.3334874212741852,0.6355088949203491,0.41999998688697815,0.6384775638580322,-6.137292984931264e-07,-5.985211828374304e-06,-0.769640326499939,0.00021343270782381296,-0.00040947788511402905,-8.895690552890301e-05,0.008994022384285927,-0.0011850990122184157,-0.0005709358956664801,0.3726341724395752,0.6736873984336853,0.546419084072113,0.22090743482112885,-0.11578507721424103,-0.07998426258563995,0.3343883156776428,0.6433377861976624,0.42000001668930054,-0.6029057502746582,-1.1246265172958374,-1.2775676250457764,3.000000238418579,-0.1763242781162262,-0.1719430685043335,-0.16595077514648438,-0.15871793031692505,0.13337382674217224,0.09116347879171371,0.042953960597515106,-0.011610515415668488
