vladlanda/robotic-transformer/data/env_000_episode_0269.csv
sim_time_s,robot_box_x,robot_box_y,robot_box_z,robot_box_quat_w,robot_box_quat_x,robot_box_quat_y,robot_box_quat_z,robot_box_linvel_x,robot_box_linvel_y,robot_box_linvel_z,robot_box_angvel_x,robot_box_angvel_y,robot_box_angvel_z,cube_world_x,cube_world_y,cube_world_z,cube_quat_w,cube_quat_x,cube_quat_y,cube_quat_z,cube_linvel_x,cube_linvel_y,cube_linvel_z,cube_angvel_x,cube_angvel_y,cube_angvel_z,endpoint_world_x,endpoint_world_y,endpoint_world_z,endpoint_linvel_x,endpoint_linvel_y,endpoint_linvel_z,target_cube_world_x,target_cube_world_y,target_cube_world_z,gripper_actual_pos_rad_gp_leftgearjoint,gripper_actual_vel_rad_s_gp_leftgearjoint,gripper_actual_pos_rad_gp_rotatingjoint,gripper_actual_vel_rad_s_gp_rotatingjoint,motor_angle_rad_joint1,motor_angle_rad_joint2,motor_angle_rad_joint3,motor_angle_rad_joint4,motor_speed_rad_s_joint1,motor_speed_rad_s_joint2,motor_speed_rad_s_joint3,motor_speed_rad_s_joint4
0.0,0.0,0.0,0.0,1.0,0.0,0.0,0.0,0.0,0.0,0.0,0.0,0.0,0.0,-0.4337301552295685,0.7509425282478333,0.41999998688697815,1.0,0.0,0.0,0.0,0.0,0.0,0.0,0.0,0.0,0.0,3.42540442943573e-06,-0.005000244826078415,1.313499927520752,0.0,0.0,0.0,0.45567017793655396,0.6906976103782654,0.42000001668930054,-1.5707999467849731,0.0,0.0,0.0,0.0,0.0,0.0,0.0,0.0,0.0,0.0,0.0
0.016666666666666666,0.0028778850100934505,0.0021806680597364902,0.0,0.9998081922531128,0.0,0.0,0.019586581736803055,0.24087215960025787,0.18240931630134583,0.0,0.0,0.0,3.1418697834014893,-0.43373027443885803,0.7509422302246094,0.41999998688697815,1.0,3.2799914606584935e-06,-8.339814598912199e-07,8.465387679734704e-08,-1.9833554688375443e-05,0.00017983050202019513,-6.133061833679676e-05,0.0009432226070202887,-0.004689437802881002,-0.0003198152990080416,-0.007110234349966049,0.003379564033821225,1.3159373998641968,-0.8143353462219238,0.9868683815002441,0.18095196783542633,0.45567017793655396,0.6906976103782654,0.42000001668930054,-1.5301095247268677,3.0000011920928955,-0.04584788903594017,-2.9999992847442627,0.0008691533003002405,0.0007963840034790337,0.0007110277656465769,0.0006108740926720202,0.11094217747449875,0.09756709635257721,0.08334315568208694,0.06823883205652237
0.03333333333333333,0.008960998617112637,0.006802021060138941,0.0,0.9997960329055786,0.0,0.0,0.02019684948027134,0.40702250599861145,0.3153077960014343,0.0,0.0,0.0,-0.869132936000824,-0.4337303936481476,0.7509421706199646,0.4200000464916229,1.0,3.3908495424839202e-06,-2.1324699446267914e-06,-3.711632601266501e-08,0.00026357758906669915,0.0002693779824767262,-0.00010509602725505829,-0.0017706837970763445,0.0041307746432721615,-0.00013547923299483955,-0.027556162327528,0.026291225105524063,1.3165817260742188,-1.5913058519363403,1.6163133382797241,-0.08690201491117477,0.45567017793655396,0.6906976103782654,0.42000001668930054,-1.4800904989242554,3.0000011920928955,-0.09588771313428879,-3.0000007152557373,0.002990094944834709,0.0026526928413659334,0.0022772534284740686,0.0018606994999572635,0.1642126441001892,0.139755517244339,0.11381380259990692,0.08629527688026428
0.05,0.017473679035902023,0.013713368214666843,0.0,0.9994829297065735,0.0,0.0,0.03215353563427925,0.5836877822875977,0.4617471992969513,0.0,0.0,0.0,2.7133004665374756,-0.43373042345046997,0.7509422302246094,0.4200000464916229,1.0,3.7651323054888053e-06,-2.2119763798400527e-06,5.605850894596642e-09,0.0002653083938639611,0.00026691402308642864,-0.0001044049859046936,-0.0017243413021788,0.00417750608175993,-0.00012949742085766047,-0.05949312448501587,0.05500716716051102,1.3113183975219727,-2.185061454772949,1.8289704322814941,-0.5009474158287048,0.45567017793655396,0.6906976103782654,0.42000001668930054,-1.4300721883773804,3.000000476837158,-0.145926371216774,-3.0000009536743164,0.005602771416306496,0.004816041793674231,0.003957277163863182,0.0030219112522900105,0.18965069949626923,0.15286067128181458,0.11421146988868713,0.0736079290509224
0.06666666666666667,0.028630461543798447,0.022947901859879494,0.0,0.99953293800354,0.0,0.0,0.030560346320271492,0.710889995098114,0.5918484330177307,0.0,0.0,0.0,-1.1494075059890747,-0.43373042345046997,0.7509421706199646,0.4200000464916229,0.9999999403953552,3.40675205734442e-06,-2.285677282998222e-06,4.300809166579711e-07,0.000267024093773216,0.0002679170574992895,-0.00010437914170324802,-0.0017406534170731902,0.004211670719087124,-0.00012850060011260211,-0.09527074545621872,0.09118904173374176,1.2991008758544922,-2.1511616706848145,2.383312702178955,-0.9361848831176758,0.45567017793655396,0.6906976103782654,0.42000001668930054,-1.3800538778305054,2.9999990463256836,-0.19596366584300995,-3.000000476837158,0.00786682777106762,0.006291793193668127,0.004605347756296396,0.0028004164341837168,0.11654742807149887,0.05517250671982765,-0.008240819908678532,-0.07412954419851303
0.08333333333333333,0.033853691071271896,0.03556106239557266,0.0,0.9999973773956299,0.0,0.0,-0.002288264222443104,0.18171238899230957,0.8236297369003296,0.0,0.0,0.0,-4.874510765075684,-0.43373042345046997,0.7509421706199646,0.4200000464916229,0.9999999403953552,3.626090347097488e-06,-2.3353900360234547e-06,3.032035067462857e-07,0.0002661393373273313,0.000266851217020303,-0.00010405294597148895,-0.0017282480839639902,0.00419630017131567,-0.00012790682376362383,-0.12862354516983032,0.13508951663970947,1.2798595428466797,-1.907599925994873,2.754361152648926,-1.2863876819610596,0.45567017793655396,0.6906976103782654,0.42000001668930054,-1.3300291299819946,2.9999969005584717,-0.16727237403392792,3.000002384185791,0.004146408289670944,0.0018403702415525913,-0.0006281371461227536,-0.003275250317528844,-0.3230420649051666,-0.37258434295654297,-0.42469069361686707,-0.47987470030784607
0.1,0.04398275166749954,0.0497625432908535,0.0,0.9985833764076233,0.0,0.0,-0.05320935323834419,0.7100037932395935,0.8819189071655273,0.0,0.0,0.0,-6.737822532653809,-0.43373042345046997,0.7509421706199646,0.4200000464916229,1.0,3.4221711757709272e-06,-2.3086247438186547e-06,1.795998514353414e-07,0.00026681431336328387,0.00026800480554811656,-0.00010440824553370476,-0.0017430876614525914,0.00420707231387496,-0.00012891217193100601,-0.1585712879896164,0.18190644681453705,1.2615511417388916,-1.6449344158172607,2.9960484504699707,-1.0536962747573853,0.45567017793655396,0.6906976103782654,0.42000001668930054,-1.2800344228744507,3.0000011920928955,-0.19896075129508972,-3.0000011920928955,0.004174875095486641,0.00012399081606417894,-0.004083652514964342,-0.008466057479381561,2.9103830456733704e-08,-0.11555884778499603,-0.22856904566287994,-0.34072360396385193
0.11666666666666667,0.05152764171361923,0.0664147436618805,0.0,0.9965788125991821,0.0,0.0,-0.0826481282711029,0.44631361961364746,1.0400793552398682,0.0,0.0,0.0,-2.3506743907928467,-0.43373042345046997,0.7509422302246094,0.4200000464916229,1.0,3.7115157738298876e-06,-2.3327465896727517e-06,2.574076631844946e-07,0.0002648555673658848,0.00026635205722413957,-0.0001042329240590334,-0.0017181169241666794,0.004169980064034462,-0.0001291572698391974,-0.19204005599021912,0.2275344729423523,1.243304967880249,-2.025646209716797,2.911875009536743,-1.0775070190429688,0.45567017793655396,0.6906976103782654,0.42000001668930054,-1.230014443397522,2.9999876022338867,-0.16513946652412415,2.999999761581421,0.0014737914316356182,-0.004348697606474161,-0.010281677357852459,-0.016366560012102127,-0.10152354836463928,-0.2223706990480423,-0.33908575773239136,-0.45264557003974915
0.13333333333333333,0.0567200630903244,0.08119374513626099,0.0,0.9924511313438416,0.0,0.0,-0.12264087051153183,0.25980880856513977,0.8134404420852661,0.0,0.0,0.0,-5.660542011260986,-0.43373042345046997,0.7509421706199646,0.4200000464916229,1.0,3.3357262054778403e-06,-2.231975031463662e-06,3.112843955932476e-07,0.00026669545331969857,0.00026759333559311926,-0.00010428577661514282,-0.001737055485136807,0.004205826669931412,-0.00012840046838391572,-0.2224779725074768,0.2794509530067444,1.225599765777588,-1.6124359369277954,3.403146505355835,-1.0977118015289307,0.45567017793655396,0.6906976103782654,0.42000001668930054,-1.1818383932113647,2.7604856491088867,-0.19684289395809174,-3.000000476837158,-0.0011207809438928962,-0.009075834415853024,-0.01706034503877163,-0.025126822292804718,-0.23005753755569458,-0.3536166846752167,-0.4723562002182007,-0.5867112278938293
0.15,0.05814217031002045,0.09613457322120667,0.0,0.9897221326828003,0.0,0.0,-0.14300382137298584,0.009481263346970081,0.9289571046829224,0.0,0.0,0.0,-1.3939969539642334,-0.43373042345046997,0.7509421706199646,0.4200000464916229,1.0,3.5189639220334357e-06,-2.2831952719570836e-06,-3.625794420258899e-07,0.00026618476840667427,0.0002673573908396065,-0.00010425783693790436,-0.0017350285779684782,0.004195835441350937,-0.00012860850256402045,-0.25733286142349243,0.33391642570495605,1.200240969657898,-2.223693370819092,3.4099204540252686,-1.8992807865142822,0.45567017793655396,0.6906976103782654,0.42000001668930054,-1.1529316902160645,0.8520521521568298,-0.16303637623786926,2.999999761581421,-0.006235098000615835,-0.015790827572345734,-0.02528865821659565,-0.034786406904459,-0.37174683809280396,-0.44024330377578735,-0.5038747787475586,-0.5629032850265503
0.16666666666666666,0.06389390677213669,0.1130990982055664,0.0,0.9841329455375671,0.0,0.0,-0.17743255198001862,0.3212391138076782,1.0260789394378662,0.0,0.0,0.0,-5.029179573059082,-0.43373042345046997,0.7509421706199646,0.4200000464916229,1.0,3.6666135656560073e-06,-2.3392722141579725e-06,-3.15023584107621e-07,0.00026595903909765184,0.000266673305304721,-0.00010403385385870934,-0.0017252793768420815,0.004192860797047615,-0.00012778442760463804,-0.29296034574508667,0.39505499601364136,1.166567325592041,-2.029963493347168,3.900834083557129,-2.2331337928771973,0.45567017793655396,0.6906976103782654,0.42000001668930054,-1.1103001832962036,3.0000014305114746,-0.19476133584976196,-2.999999523162842,-0.010341706685721874,-0.0211699940264225,-0.03185231611132622,-0.04244815185666084,-0.46836763620376587,-0.5072053074836731,-0.5430638790130615,-0.5760014653205872
0.18333333333333332,0.0656653568148613,0.12674984335899353,0.0,0.9807530641555786,0.0,0.0,-0.19525232911109924,0.06902885437011719,0.7586230635643005,0.0,0.0,0.0,-1.0066217184066772,-0.43373042345046997,0.7509421706199646,0.4200000464916229,1.0,3.81434597329644e-06,-2.399666300334502e-06,-2.702937251797266e-07,0.00026549206813797355,0.00026611139765009284,-0.00010391208343207836,-0.0017177937552332878,0.004184889607131481,-0.00012753898045048118,-0.33052369952201843,0.45666834712028503,1.1212252378463745,-2.142385959625244,3.8542160987854004,-3.1443684101104736,0.45567017793655396,0.6906976103782654,0.42000001668930054,-1.0721417665481567,1.6636543273925781,-0.24479013681411743,-3.0000009536743164,-0.020859258249402046,-0.03164263069629669,-0.04225245118141174,-0.052754439413547516,-0.6736960411071777,-0.6533672213554382,-0.6317077875137329,-0.609010636806488
0.2,0.06340502202510834,0.1419835090637207,0.0,0.974323034286499,0.0,0.0,-0.22515463829040527,-0.1863701492547989,0.9124520421028137,0.0,0.0,0.0,-4.5218424797058105,-0.43373042345046997,0.7509421706199646,0.4200000464916229,1.0,3.6000947147840634e-06,-2.2913466182217235e-06,-2.202139768314737e-07,0.00026572999195195735,0.00026644961326383054,-0.00010398216545581818,-0.0017227043863385916,0.004188826773315668,-0.00012773144408129156,-0.3644966185092926,0.5230178833007812,1.0626583099365234,-1.897066354751587,4.064560890197754,-3.805262804031372,0.45567017793655396,0.6906976103782654,0.42000001668930054,-1.025071382522583,2.9999983310699463,-0.29481661319732666,-2.999999761581421,-0.0352773517370224,-0.045342300087213516,-0.05522260069847107,-0.06499133259057999,-0.8649668097496033,-0.8221019506454468,-0.7781596779823303,-0.7333821058273315
0.21666666666666667,0.06567024439573288,0.1548704355955124,0.0,0.9597564339637756,0.0,0.0,-0.2808338403701782,0.12325144559144974,0.7304490804672241,0.0,0.0,0.0,-7.888712406158447,-0.43373042345046997,0.7509421706199646,0.4200000464916229,0.9999999403953552,3.639672740973765e-06,-2.262105908812373e-06,2.224529254135632e-07,0.00026687452918849885,0.00026754545979201794,-0.00010411953553557396,-0.001740459818392992,0.004211094230413437,-0.00012784075806848705,-0.39392030239105225,0.5934592485427856,0.9905005693435669,-1.4428991079330444,4.325789451599121,-4.837319374084473,0.45567017793655396,0.6906976103782654,0.42000001668930054,-0.9750692844390869,2.999997615814209,-0.3448430299758911,-3.000002145767212,-0.048199545592069626,-0.0575149841606617,-0.06656232476234436,-0.07550308853387833,-0.9756857752799988,-0.9390100836753845,-0.845903754234314,-0.7560447454452515
0.23333333333333334,0.06358085572719574,0.1654871553182602,0.0,0.9479024410247803,0.0,0.0,-0.3185608386993408,-0.147746741771698,0.5094327330589294,0.0,0.0,0.0,-3.558762311935425,-0.4337303936481476,0.7509421706199646,0.4200000464916229,1.0,3.4207771477667848e-06,-2.3169679934653686e-06,2.9557133984781103e-07,0.0002668013621587306,0.00026803984655998647,-0.00010442384518682957,-0.001743759959936142,0.004206930752843618,-0.00012900002184323967,-0.418262243270874,0.6542168259620667,0.9010790586471558,-1.0900318622589111,3.460200786590576,-5.792433738708496,0.45567017793655396,0.6906976103782654,0.42000001668930054,-0.925062358379364,2.9999961853027344,-0.39487215876579285,-3.000000476837158,-0.06355749070644379,-0.07285860180854797,-0.08193636685609818,-0.09085030853748322,-0.832942545413971,-0.8337211012840271,-0.8376662135124207,-0.8425639867782593
0.25,0.06385136395692825,0.17652246356010437,0.0,0.9461110234260559,0.0,0.0,-0.3238425552845001,0.03241303563117981,0.6936622858047485,0.0,0.0,0.0,0.37823954224586487,-0.43373042345046997,0.7509421706199646,0.4200000464916229,0.9999999403953552,3.3476349017291795e-06,-2.2593339963350445e-06,1.8082259600760153e-07,0.00026687723584473133,0.00026791205164045095,-0.00010439427569508553,-0.0017404587706550956,0.004208224825561047,-0.00012870231876149774,-0.439325749874115,0.6984097957611084,0.8013362884521484,-1.0875290632247925,2.1237778663635254,-6.221781253814697,0.45567017793655396,0.6906976103782654,0.42000001668930054,-0.8750517964363098,2.9999985694885254,-0.44490304589271545,-2.9999992847442627,-0.07969175279140472,-0.08868346363306046,-0.09744830429553986,-0.10604323446750641,-0.9898913502693176,-0.9917230606079102,-0.9860021471977234,-0.9749823808670044
0.26666666666666666,0.062274541705846786,0.18456336855888367,0.0,0.9399474859237671,0.0,0.0,-0.34131917357444763,-0.14948979020118713,0.4189602732658386,0.0,0.0,0.0,-3.0695879459381104,-0.43373042345046997,0.7509421706199646,0.4200000464916229,0.9999999403953552,3.7080756101204315e-06,-2.392659780525719e-06,-1.2728281717500067e-07,0.0002660372119862586,0.000267165363766253,-0.00010421569459140301,-0.0017321824561804533,0.004193284548819065,-0.00012855186650995165,-0.4529149830341339,0.7293199300765991,0.6920902729034424,-0.494269996881485,1.4504449367523193,-6.714005470275879,0.45567017793655396,0.6906976103782654,0.42000001668930054,-0.8250418305397034,2.999999523162842,-0.49493470788002014,-3.0000009536743164,-0.09635850042104721,-0.1053108274936676,-0.11404643952846527,-0.1225995346903801,-0.9935145378112793,-0.9946013689041138,-0.9954307079315186,-0.9943852424621582
0.2833333333333333,0.05772540345788002,0.18856680393218994,0.0,0.9397674798965454,0.0,0.0,-0.34181442856788635,-0.31755301356315613,0.17505283653736115,0.0,0.0,0.0,0.8323171138763428,-0.43373042345046997,0.7509422302246094,0.4200000464916229,0.9999999403953552,3.5726425267057493e-06,-2.304187091795029e-06,1.2983703356894694e-07,0.0002652183757163584,0.00026455335319042206,-0.00010317005217075348,-0.0017022319370880723,0.00418508006259799,-0.00012500002048909664,-0.45880064368247986,0.7435148358345032,0.5812373161315918,-0.08492228388786316,0.2922981083393097,-6.552680492401123,0.45567017793655396,0.6906976103782654,0.42000001668930054,-0.7750329971313477,2.999994993209839,-0.5449653267860413,-2.9999985694885254,-0.11337284743785858,-0.12221552431583405,-0.13087262213230133,-0.13936784863471985,-0.999896228313446,-0.9997895359992981,-0.999638020992279,-0.9995409250259399
0.3,0.05077873542904854,0.18962296843528748,0.0,0.9344697594642639,0.0,0.0,-0.3560425341129303,-0.4681131839752197,0.01711391471326351,0.0,0.0,0.0,-2.6229910850524902,-0.43373042345046997,0.7509421706199646,0.4200000464916229,1.0,3.7450540730787907e-06,-2.2382710085366853e-06,-1.7679369079814933e-07,0.0002643622865434736,0.00026623663143254817,-0.00010443315841257572,-0.0017121564596891403,0.004158885683864355,-0.0001299002906307578,-0.4532994329929352,0.7476872205734253,0.4748193621635437,0.7410090565681458,0.11922220885753632,-6.039926528930664,0.45567017793655396,0.6906976103782654,0.42000001668930054,-0.7250242233276367,3.000000476837158,-0.5949940085411072,-3.000000238418579,-0.1310204118490219,-0.13964489102363586,-0.1481364518404007,-0.1564999222755432,-1.0163694620132446,-1.012381672859192,-1.009337067604065,-1.0069003105163574
0.31666666666666665,0.04171492159366608,0.18804386258125305,0.0,0.9353663921356201,0.0,0.0,-0.3536803126335144,-0.5808979272842407,-0.1372736245393753,0.0,0.0,0.0,1.1899831295013428,-0.43357351422309875,0.7500333786010742,0.42057114839553833,0.9997825622558594,0.014154909178614616,0.00022730139608029276,-0.015308497473597527,0.061296697705984116,-0.030222399160265923,0.05259029567241669,2.835387945175171,-0.16337893903255463,-2.612952709197998,-0.4469011127948761,0.7502274513244629,0.43070119619369507,0.11552415043115616,-0.10187475383281708,-0.20124401152133942,0.45567017793655396,0.6906976103782654,0.42000001668930054,-0.675019383430481,2.999570846557617,-0.6454756855964661,-3.002963066101074,-0.139046773314476,-0.14854595065116882,-0.1577063947916031,-0.16645880043506622,-0.019701197743415833,-0.10788239538669586,-0.17307467758655548,-0.20803195238113403
0.3333333333333333,0.030482230708003044,0.18386825919151306,0.0,0.9308985471725464,0.0,0.0,-0.3652779161930084,-0.7220180034637451,-0.2941737473011017,0.0,0.0,0.0,-2.3637592792510986,-0.432847261428833,0.749695360660553,0.42035359144210815,0.999537467956543,0.008870407938957214,-0.0003018176939804107,-0.029084445908665657,0.03803182765841484,-0.009819617494940758,-0.03047196939587593,-1.570921540260315,0.07082077115774155,-1.6389217376708984,-0.4470691680908203,0.7528147101402283,0.42806476354599,0.12079688161611557,0.21571624279022217,-0.21903300285339355,0.45567017793655396,0.6906976103782654,0.42000001668930054,-0.6250127553939819,2.9999935626983643,-0.6955246925354004,-2.999983549118042,-0.14094631373882294,-0.15137824416160583,-0.16112394630908966,-0.1700185090303421,-0.20648732781410217,-0.22874586284160614,-0.23484879732131958,-0.22043465077877045
0.35,0.01708591729402542,0.17719709873199463,0.0,0.9324501752853394,0.0,0.0,-0.36129865050315857,-0.8425843715667725,-0.4413498640060425,0.0,0.0,0.0,1.432813048362732,-0.4304727017879486,0.7532463669776917,0.4200001657009125,0.9971426725387573,-1.644138251322147e-06,1.5406854799948633e-05,-0.07554002851247787,0.26694369316101074,0.4080078601837158,-0.000388019485399127,0.020030803978443146,-0.007167885545641184,-10.05706787109375,-0.4427313804626465,0.7590972185134888,0.4243031144142151,0.37454527616500854,0.49577927589416504,-0.19931049644947052,0.45567017793655396,0.6906976103782654,0.42000001668930054,-0.5750074982643127,2.999981164932251,-0.7455584406852722,-2.9999992847442627,-0.14675739407539368,-0.15662559866905212,-0.16554827988147736,-0.17331959307193756,-0.40098536014556885,-0.3343293368816376,-0.2528679668903351,-0.15525907278060913
0.36666666666666664,0.0074151866137981415,0.1675443798303604,0.0,0.9286389350891113,0.0,0.0,-0.37098488211631775,-0.49866071343421936,-0.627987265586853,0.0,0.0,0.0,-2.1018688678741455,-0.4260869324207306,0.7598209381103516,0.42000022530555725,0.9881439208984375,-6.429298082366586e-06,1.3358985597733408e-05,-0.1535303145647049,0.32107385993003845,0.4530683159828186,-0.0004871258861385286,0.021100861951708794,-0.014226601459085941,-11.404056549072266,-0.4350464344024658,0.7663745880126953,0.4217413365840912,0.6087322235107422,0.49834415316581726,-0.14114582538604736,0.45567017793655396,0.6906976103782654,0.42000001668930054,-0.5250027179718018,2.9999828338623047,-0.7956136465072632,-2.9999897480010986,-0.15414300560951233,-0.1623133271932602,-0.16926705837249756,-0.17479892075061798,-0.4608939588069916,-0.3323976397514343,-0.18870781362056732,-0.030861657112836838
0.3833333333333333,-0.004675671458244324,0.15624986588954926,0.0,0.9179266095161438,0.0,0.0,-0.3967503011226654,-0.8128201365470886,-0.7003781199455261,0.0,0.0,0.0,-3.9037649631500244,-0.4159855842590332,0.7720407843589783,0.4201083183288574,0.9825976490974426,0.0027106082998216152,-0.0004904966335743666,-0.18572606146335602,0.8332687616348267,0.9547450542449951,0.026143034920096397,1.3502238988876343,-0.582197904586792,-3.6557459831237793,-0.423089861869812,0.7771486043930054,0.4206550121307373,0.8666825294494629,0.8737561106681824,-0.0020062830299139023,0.45567017793655396,0.6906976103782654,0.42000001668930054,-0.4749971628189087,3.000000238418579,-0.8456656336784363,-2.9995861053466797,-0.16451504826545715,-0.16983555257320404,-0.17369404435157776,-0.17592760920524597,-0.6189529299736023,-0.44039812684059143,-0.24693042039871216,-0.04159679636359215
0.4,-0.013710669241845608,0.1419820934534073,0.0,0.8956441283226013,0.0,0.0,-0.4447714388370514,-0.5070883631706238,-0.8995375037193298,0.0,0.0,0.0,-7.125791072845459,-0.39782634377479553,0.79216468334198,0.4205179214477539,0.9745681285858154,-0.005160643719136715,-0.00872038584202528,-0.22386178374290466,1.7614821195602417,1.105802297592163,0.3409408926963806,-5.76346492767334,-9.930500030517578,-13.466110229492188,-0.4042068123817444,0.7953705191612244,0.4219629168510437,1.4516105651855469,1.3368232250213623,0.13084962964057922,0.45567017793655396,0.6906976103782654,0.42000001668930054,-0.4249441921710968,2.9667985439300537,-0.8956797122955322,-2.9969680309295654,-0.17276160418987274,-0.175116628408432,-0.17567487061023712,-0.17433403432369232,-0.5205608606338501,-0.31717613339424133,-0.09295531362295151,0.14726723730564117
0.4166666666666667,-0.019191622734069824,0.12488501518964767,0.0,0.8590178489685059,0.0,0.0,-0.5119456648826599,-0.258745014667511,-1.0748696327209473,0.0,0.0,0.0,-9.883735656738281,-0.3530116677284241,0.8211312294006348,0.4249793291091919,0.9597864747047424,0.02137894183397293,-0.049308400601148605,-0.27553868293762207,3.9113481044769287,2.3108866214752197,0.3225022852420807,36.572208404541016,-23.213502883911133,-0.29799219965934753,-0.359235942363739,0.8261314630508423,0.42604658007621765,3.710179090499878,2.322502374649048,0.4518001675605774,0.45567017793655396,0.6906976103782654,0.42000001668930054,-0.3841365873813629,1.3817294836044312,-0.8788831233978271,2.991776704788208,-0.1838182508945465,-0.1818048059940338,-0.1777653843164444,-0.1717173159122467,-0.683607816696167,-0.40671446919441223,-0.12147967517375946,0.16417336463928223
0.43333333333333335,-0.022671081125736237,0.11336221545934677,0.0,0.8045729398727417,0.0,0.0,-0.5938538312911987,-0.15001624822616577,-0.5533121228218079,0.0,0.0,0.0,-12.574981689453125,-0.26558032631874084,0.8627618551254272,0.4325559735298157,0.9314120411872864,0.08032051473855972,-0.08686903119087219,-0.34420037269592285,6.670819282531738,2.4410226345062256,0.4105067551136017,4.309325218200684,-10.403586387634277,20.926279067993164,-0.27138692140579224,0.8681817054748535,0.4337773323059082,6.531468391418457,2.830361843109131,0.6215167045593262,0.45567017793655396,0.6906976103782654,0.42000001668930054,-0.36974990367889404,0.8379818797111511,-0.8708595037460327,-1.5799535512924194,-0.19969414174556732,-0.1952475607395172,-0.18532705307006836,-0.1736586093902588,-0.8840218186378479,-0.8878372311592102,-0.5601305961608887,-0.24674776196479797
0.45,-0.029036400839686394,0.10973682254552841,0.0,0.7561325430870056,0.0,0.0,-0.6544184684753418,-0.526480495929718,-0.2449900209903717,0.0,0.0,0.0,-7.9944658279418945,-0.15716423094272614,0.894978940486908,0.4448123276233673,0.8848301768302917,0.10987772792577744,-0.1020713523030281,-0.44111642241477966,6.599965572357178,0.6079987287521362,0.7439431548118591,-5.074306964874268,-5.387543678283691,20.39961051940918,-0.1621764600276947,0.9023243188858032,0.4457848072052002,6.663972854614258,1.6273272037506104,0.8545644283294678,0.45567017793655396,0.6906976103782654,0.42000001668930054,-0.35681039094924927,0.6565045714378357,-0.9136891961097717,-3.0000007152557373,-0.21473561227321625,-0.2104201465845108,-0.19985109567642212,-0.18265624344348907,-0.6185935735702515,-0.6873375177383423,-0.7513062357902527,-0.5383679866790771
0.4666666666666667,-0.03187507763504982,0.09818122535943985,0.0,0.7287433743476868,0.0,0.0,-0.684786856174469,-0.027584265917539597,-0.867570698261261,0.0,0.0,0.0,-3.8386449813842773,-0.04425637423992157,0.9108107686042786,0.4570576846599579,0.8244384527206421,0.10852879285812378,-0.09472182393074036,-0.5473120212554932,7.03148889541626,0.22233811020851135,0.679811418056488,26.483139038085938,-13.847251892089844,2.133617401123047,-0.04914228990674019,0.9198743104934692,0.45756566524505615,6.8714599609375,0.3270029127597809,0.7237419486045837,0.45567017793655396,0.6906976103782654,0.42000001668930054,-0.3443669378757477,0.7320448160171509,-0.9637131690979004,-3.0000016689300537,-0.2201375514268875,-0.21613004803657532,-0.20591238141059875,-0.18540450930595398,-0.21164192259311676,-0.17615316808223724,-0.14945288002490997,0.046746596693992615
0.48333333333333334,-0.03554309159517288,0.08844327926635742,0.0,0.708473801612854,0.0,0.0,-0.7057371139526367,-0.251850962638855,-0.4402117133140564,0.0,0.0,0.0,-3.204799175262451,0.06970073282718658,0.9049147367477417,0.4668287932872772,0.730051577091217,0.08764477074146271,-0.11174877732992172,-0.6684722900390625,6.526835918426514,-1.4158533811569214,0.4877772331237793,-20.128076553344727,4.432606220245361,-2.3577260971069336,0.06389389932155609,0.9174104928970337,0.4691320061683655,6.83660888671875,-0.7128032445907593,0.7127828001976013,0.45567017793655396,0.6906976103782654,0.42000001668930054,-0.33359599113464355,0.4815492630004883,-1.0137367248535156,-2.9997029304504395,-0.22773748636245728,-0.22189348936080933,-0.21025300025939941,-0.1864825189113617,-0.5526028871536255,-0.41014808416366577,-0.30241456627845764,-0.13121145963668823
0.5,-0.03707345202565193,0.08011338859796524,0.0,0.7067417502403259,0.0,0.0,-0.7074716091156006,-0.0279096532613039,-0.5598304867744446,0.0,0.0,0.0,0.723861038684845,0.16621260344982147,0.8810697793960571,0.47480642795562744,0.6405708193778992,0.07370743900537491,-0.10037542879581451,-0.7577340602874756,4.917816162109375,-2.4335405826568604,0.6193162202835083,-7.765328407287598,-1.641751766204834,6.909980773925781,0.1624600738286972,0.8966784477233887,0.47815537452697754,4.981752395629883,-1.7805933952331543,0.40199679136276245,0.45567017793655396,0.6906976103782654,0.42000001668930054,-0.3283110558986664,0.0875803753733635,-1.0637587308883667,-3.0000016689300537,-0.23793399333953857,-0.22882649302482605,-0.21464186906814575,-0.18800218403339386,-0.5350822806358337,-0.3334311246871948,-0.17873133718967438,-0.03737296536564827
0.5166666666666666,-0.035137541592121124,0.07457778602838516,0.0,0.6966170072555542,0.0,0.0,-0.7174432277679443,0.16851592063903809,-0.26579782366752625,0.0,0.0,0.0,-2.5463991165161133,0.23984505236148834,0.85176020860672,0.4762907326221466,0.5931837558746338,0.055605869740247726,-0.0955391377210617,-0.7974416017532349,4.011696815490723,-2.059797763824463,0.0975571796298027,-3.7871243953704834,7.145471096038818,-8.013773918151855,0.23819901049137115,0.8662370443344116,0.480388343334198,4.129648208618164,-2.1214301586151123,-0.11031217873096466,0.45567017793655396,0.6906976103782654,0.42000001668930054,-0.3256651759147644,0.28371885418891907,-1.1137808561325073,-3.0000014305114746,-0.23958398401737213,-0.23391692340373993,-0.2176125943660736,-0.18938343226909637,0.08547608554363251,-0.18663747608661652,-0.08199577778577805,-0.029102085158228874
0.5333333333333333,-0.030302071943879128,0.06582216173410416,0.0,0.6984926462173462,0.0,0.0,-0.7156172394752502,0.2954588532447815,-0.5507854223251343,0.0,0.0,0.0,1.242720603942871,0.3021884262561798,0.816560685634613,0.47119542956352234,0.5095183253288269,0.024089684709906578,-0.07679090648889542,-0.8566877841949463,3.2340667247772217,-2.185112714767456,-0.4804218113422394,0.43307721614837646,6.511916160583496,-8.3834867477417,0.30020105838775635,0.8293525576591492,0.47552937269210815,3.309368848800659,-2.3944525718688965,-0.46678516268730164,0.45567017793655396,0.6906976103782654,0.42000001668930054,-0.31344854831695557,1.2484604120254517,-1.163802981376648,-2.9999985694885254,-0.23470325767993927,-0.23278838396072388,-0.215422123670578,-0.18733657896518707,0.32094845175743103,0.15587128698825836,0.20013946294784546,0.15318140387535095
0.55,-0.02324884757399559,0.06095508858561516,0.0,0.6902864575386047,0.0,0.0,-0.7235361933708191,0.4573083221912384,-0.2585163712501526,0.0,0.0,0.0,-2.213728666305542,0.35179653763771057,0.7805565595626831,0.4586101770401001,0.46396052837371826,-0.01309913769364357,-0.05623295158147812,-0.88397216796875,2.5071702003479004,-2.7803142070770264,-0.7813746333122253,-2.3877205848693848,-2.8702590465545654,3.7680861949920654,0.35186147689819336,0.7924658060073853,0.4630657434463501,2.859133720397949,-2.1099586486816406,-0.9367148280143738,0.45567017793655396,0.6906976103782654,0.42000001668930054,-0.28687041997909546,1.471089482307434,-1.2138251066207886,-3.0000009536743164,-0.22957204282283783,-0.23012931644916534,-0.21284428238868713,-0.1864589899778366,0.4314073920249939,0.282077431678772,0.2194770872592926,0.05716666579246521
0.5666666666666667,-0.014093187637627125,0.05737359821796417,0.0,0.6938827037811279,0.0,0.0,-0.7200880646705627,0.5856145024299622,-0.15362034738063812,0.0,0.0,0.0,1.492772102355957,0.3923570513725281,0.7449409365653992,0.4415839910507202,0.41946646571159363,-0.05139165744185448,-0.04315413534641266,-0.9052868485450745,1.8267273902893066,-2.7248711585998535,-0.7945976257324219,8.460860252380371,8.571529388427734,12.081421852111816,0.393509179353714,0.7560810446739197,0.4460439085960388,2.126814842224121,-2.1317782402038574,-1.1017512083053589,0.45567017793655396,0.6906976103782654,0.42000001668930054,-0.27566540241241455,-0.013111446052789688,-1.2638472318649292,-2.999809980392456,-0.2209889441728592,-0.22391125559806824,-0.20841655135154724,-0.1855064481496811,0.5189664959907532,0.39607882499694824,0.2607968747615814,0.022069387137889862
0.5833333333333334,-0.0033547421917319298,0.05739569291472435,0.0,0.686586856842041,0.0,0.0,-0.7270477414131165,0.6836025714874268,0.08265891671180725,0.0,0.0,0.0,-2.131420135498047,0.42485207319259644,0.7160162329673767,0.41989561915397644,0.38904067873954773,-0.03192548826336861,0.029369693249464035,-0.9201986789703369,1.5987457036972046,-1.1630542278289795,-0.7595435976982117,34.162078857421875,-17.077016830444336,-5.150599479675293,0.4257012605667114,0.725839376449585,0.42322516441345215,1.4727481603622437,-1.420462727546692,-1.1334714889526367,0.45567017793655396,0.6906976103782654,0.42000001668930054,-0.2748427391052246,0.315002977848053,-1.22579026222229,3.0000016689300537,-0.21074551343917847,-0.21616476774215698,-0.20387528836727142,-0.18571628630161285,0.6755484938621521,0.5248944163322449,0.3043593466281891,-3.6670826375484467e-07
0.6,0.0048280926421284676,0.053602539002895355,0.0,0.6904990077018738,0.0,0.0,-0.7233332991600037,0.43587949872016907,-0.2630874514579773,0.0,0.0,0.0,1.47025728225708,0.4426293671131134,0.7040614485740662,0.4200165867805481,0.38854366540908813,-0.0003210627764929086,0.0005381981609389186,-0.9214301109313965,0.8288663029670715,-0.7048323154449463,-0.037256870418787,-1.4331660270690918,-0.8511329889297485,-0.13157843053340912,0.44023075699806213,0.71207195520401,0.4276314973831177,0.564156174659729,-0.8657376766204834,0.16079075634479523,0.45567017793655396,0.6906976103782654,0.42000001668930054,-0.2954652011394501,-2.5847129821777344,-1.2452741861343384,-2.9999840259552,-0.1984761506319046,-0.20310576260089874,-0.19497588276863098,-0.18224000930786133,0.579795777797699,0.6644343733787537,0.4485796391963959,0.15331809222698212
0.6166666666666667,0.014125552028417587,0.05443492904305458,0.0,0.6831128001213074,0.0,0.0,-0.7303128838539124,0.535824179649353,0.09603191167116165,0.0,0.0,0.0,-2.0815606117248535,0.45128071308135986,0.6955327391624451,0.4201643764972687,0.4376883804798126,0.0015500447480008006,-0.003793769283220172,-0.8991174101829529,0.3544090688228607,-0.2516321539878845,0.021088864654302597,-0.7095208168029785,-0.7954144477844238,4.609827995300293,0.4487071633338928,0.7050749063491821,0.4301605820655823,0.5391449928283691,-0.1363627016544342,0.1620378941297531,0.45567017793655396,0.6906976103782654,0.42000001668930054,-0.31938672065734863,-0.47919589281082153,-1.295232892036438,-2.998883008956909,-0.19028240442276,-0.19395507872104645,-0.18942338228225708,-0.18145564198493958,0.6409339904785156,0.641003429889679,0.39607417583465576,0.09260787069797516
0.6333333333333333,0.025147492066025734,0.05113641917705536,0.0,0.6875418424606323,0.0,0.0,-0.7261447906494141,0.6812928915023804,-0.20337028801441193,0.0,0.0,0.0,1.5761290788650513,0.45659470558166504,0.6917921304702759,0.41999998688697815,0.4664621353149414,1.6214462448260747e-06,-7.510277100664098e-06,-0.8845410943031311,0.2779184877872467,-0.20503340661525726,-0.00023947440786287189,-0.00900594424456358,-0.0016001664334908128,1.3805230855941772,0.4522894322872162,0.7009357810020447,0.4298982620239258,-0.08291608840227127,-0.24329212307929993,-0.039275430142879486,0.45567017793655396,0.6906976103782654,0.42000001668930054,-0.3608182668685913,-3.00000262260437,-1.26714289188385,2.9996354579925537,-0.17832353711128235,-0.18208160996437073,-0.1813386231660843,-0.17808577418327332,0.5417528748512268,0.5687565803527832,0.3936827480792999,0.16321679949760437
0.65,0.03728519752621651,0.05124417692422867,0.0,0.680584728717804,0.0,0.0,-0.7326693534851074,0.7835926413536072,0.05776136741042137,0.0,0.0,0.0,-2.0867693424224854,0.4591143727302551,0.69093257188797,0.41999855637550354,0.47157448530197144,8.610171062173322e-05,-0.00012633514415938407,-0.8818261623382568,0.10722608864307404,0.0007638500537723303,-0.00464456994086504,0.06425540149211884,0.20033906400203705,2.515159845352173,0.4533993601799011,0.7014449834823608,0.4326289892196655,0.15333984792232513,0.1570456176996231,0.2454090714454651,0.45567017793655396,0.6906976103782654,0.42000001668930054,-0.4108258783817291,-3.0000011920928955,-1.2868903875350952,-2.9992012977600098,-0.16856716573238373,-0.17271244525909424,-0.1751798540353775,-0.1758314073085785,0.6575205326080322,0.6000640392303467,0.3992566168308258,0.1654171347618103
0.6666666666666666,0.05187273398041725,0.04792308807373047,0.0,0.6852592825889587,0.0,0.0,-0.7282992005348206,0.9012911915779114,-0.21252192556858063,0.0,0.0,0.0,1.6718388795852661,0.4599696397781372,0.6910394430160522,0.4200000464916229,0.4829832911491394,1.7312235286226496e-05,-1.1867946341226343e-05,-0.8756296038627625,0.01388899702578783,0.028741948306560516,0.0011144066229462624,0.10649622976779938,0.14782242476940155,3.697100877761841,0.4536641836166382,0.7032917737960815,0.436448335647583,-0.08216013759374619,0.0509239137172699,0.23229184746742249,0.45567017793655396,0.6906976103782654,0.42000001668930054,-0.46084386110305786,-3.000206708908081,-1.336898922920227,-2.9987940788269043,-0.15749889612197876,-0.16244232654571533,-0.16774357855319977,-0.1717345118522644,0.47425681352615356,0.46340397000312805,0.347881942987442,0.20204024016857147
0.6833333333333333,0.06372471153736115,0.048144906759262085,0.0,0.6803062558174133,0.0,0.0,-0.7329279780387878,0.6452168822288513,0.04611307755112648,0.0,0.0,0.0,-2.058293104171753,0.46005719900131226,0.6911126375198364,0.42000019550323486,0.4851386249065399,5.4759448175900616e-06,-9.071238196156628e-07,-0.8744372725486755,0.000594689860008657,0.0004710736102424562,-0.00027810712344944477,-0.019736072048544884,0.018120545893907547,-0.0005311860586516559,0.45496025681495667,0.7043924331665039,0.44062119722366333,0.12069286406040192,0.10322888195514679,0.2781854271888733,0.45567017793655396,0.6906976103782654,0.42000001668930054,-0.510827362537384,-2.9982988834381104,-1.3868712186813354,-2.999817132949829,-0.15116216242313385,-0.15626433491706848,-0.16305047273635864,-0.1688828468322754,0.42426159977912903,0.400922030210495,0.31934428215026855,0.22393007576465607
0.7,0.07588694244623184,0.04522193223237991,0.0,0.6846814751625061,0.0,0.0,-0.7288424372673035,0.7461335062980652,-0.20708177983760834,0.0,0.0,0.0,1.683545470237732,0.46005716919898987,0.6911126971244812,0.4200000464916229,0.48513883352279663,-4.4259880382924166e-07,-2.2830649868410546e-06,-0.874437153339386,-6.860461144242436e-05,-0.00023458826763089746,-5.1119131967425346e-05,0.006935805082321167,-0.002967539941892028,-0.0005711211706511676,0.45681971311569214,0.706303596496582,0.4510278105735779,0.11871419847011566,0.13338603079319,0.9917872548103333,0.45567017793655396,0.6906976103782654,0.42000001668930054,-0.5608395338058472,-3.0,-1.4368896484375,-3.000000238418579,-0.14550670981407166,-0.15059588849544525,-0.158051997423172,-0.16472351551055908,0.1712162047624588,0.20334425568580627,0.20893345773220062,0.206777423620224
0.7166666666666667,0.0899229422211647,0.0425821952521801,0.0,0.6781473755836487,0.0,0.0,-0.7349259257316589,0.8686631917953491,-0.19381946325302124,0.0,0.0,0.0,-2.012901782989502,0.46005716919898987,0.6911126971244812,0.4200000464916229,0.48513859510421753,-5.768837496589185e-08,-2.392057695033145e-06,-0.874437153339386,-4.8784364480525255e-05,-0.00022079773771110922,-5.573593080043793e-05,0.006448908243328333,-0.0027158535085618496,-0.0005734115256927907,0.4639706611633301,0.7076410055160522,0.46358242630958557,0.700858473777771,-0.006960295140743256,0.6939866542816162,0.45567017793655396,0.6906976103782654,0.42000001668930054,-0.6108483672142029,-2.999997138977051,-1.486907958984375,-2.999997138977051,-0.14459992945194244,-0.14874111115932465,-0.15539024770259857,-0.16125905513763428,0.06577067077159882,0.13000740110874176,0.20156864821910858,0.27994343638420105
0.7333333333333333,0.1056954637169838,0.036512356251478195,0.0,0.6511193513870239,0.0,0.0,-0.7589753270149231,0.9838722944259644,-0.45019298791885376,0.0,0.0,0.0,-5.21329402923584,0.4600571393966675,0.6911126971244812,0.4200000464916229,0.48513880372047424,-1.6235074440373864e-07,-2.3952241008373676e-06,-0.874437153339386,-5.530372800421901e-05,-0.0002216610446339473,-5.450262688100338e-05,0.006503732409328222,-0.002795260865241289,-0.0005629811203107238,0.4806607663631439,0.7084634900093079,0.48185551166534424,1.289562463760376,0.06168264150619507,1.6320030689239502,0.45567017793655396,0.6906976103782654,0.42000001668930054,-0.6608590483665466,-2.9999732971191406,-1.53692626953125,-2.999999523162842,-0.14627854526042938,-0.14899569749832153,-0.15394353866577148,-0.15797436237335205,-0.18880091607570648,-0.08889119327068329,0.03454440087080002,0.166702538728714
0.75,0.1195564940571785,0.032946694642305374,0.0,0.6374332308769226,0.0,0.0,-0.7705056071281433,0.7276758551597595,-0.18746177852153778,0.0,0.0,0.0,-1.098811149597168,0.4600571393966675,0.6911126971244812,0.4200000464916229,0.48513880372047424,-4.8503430605251197e-08,-2.406014118605526e-06,-0.874437153339386,-5.076524394098669e-05,-0.00022107006225269288,-5.5297743529081345e-05,0.006466201972216368,-0.0027384283021092415,-0.0005697078886441886,0.5030239820480347,0.7127852439880371,0.5140610337257385,1.4218292236328125,0.47505852580070496,2.1486446857452393,0.45567017793655396,0.6906976103782654,0.42000001668930054,-0.677552342414856,0.6897086501121521,-1.586944341659546,-3.0,-0.15115146338939667,-0.152614563703537,-0.15592221915721893,-0.15825243294239044,-0.1889561414718628,-0.17270110547542572,-0.13093452155590057,-0.08601415157318115
0.7666666666666666,0.12855938076972961,0.03218206390738487,0.0,0.6477059125900269,0.0,0.0,-0.7618904113769531,0.4751686155796051,0.006847229320555925,0.0,0.0,0.0,2.441373586654663,0.4600571393966675,0.6911126971244812,0.4200000464916229,0.48513880372047424,-1.7518098616164934e-07,-2.496819888619939e-06,-0.874437153339386,-5.506267916643992e-05,-0.00022137175255920738,-5.4450007155537605e-05,0.006495464127510786,-0.0027888938784599304,-0.0005616379203274846,0.5222177505493164,0.7180652022361755,0.5435885190963745,0.8890949487686157,0.262182354927063,1.4803038835525513,0.45567017793655396,0.6906976103782654,0.42000001668930054,-0.6426304578781128,2.99998140335083,-1.5479656457901,2.99999737739563,-0.15424108505249023,-0.15523675084114075,-0.15762409567832947,-0.15901198983192444,-0.14870035648345947,-0.11825254559516907,-0.06073048338294029,-0.004130411893129349
0.7833333333333333,0.13339988887310028,0.028143001720309258,0.0,0.6455065011978149,0.0,0.0,-0.7637547850608826,0.23675374686717987,-0.31174930930137634,0.0,0.0,0.0,-1.2870686054229736,0.4600571393966675,0.6911126971244812,0.4200000464916229,0.48513880372047424,-5.294602090089029e-08,-2.3172003693616716e-06,-0.874437153339386,-5.114638770464808e-05,-0.00022119535424280912,-5.52197452634573e-05,0.006471401546150446,-0.0027432935312390327,-0.0005693233688361943,0.5300219655036926,0.7235733270645142,0.5617902874946594,-0.0020981263369321823,0.3317871689796448,0.8782325983047485,0.45567017793655396,0.6906976103782654,0.42000001668930054,-0.6079608201980591,1.280522346496582,-1.4979091882705688,3.000000238418579,-0.15561287105083466,-0.1561858057975769,-0.15771563351154327,-0.15829387307167053,-0.10497360676527023,-0.06708189845085144,-0.006029494106769562,0.04847097024321556
0.8,0.1348179131746292,0.028635337948799133,0.0,0.6541730761528015,0.0,0.0,-0.7563448548316956,0.05717817321419716,0.034211911261081696,0.0,0.0,0.0,2.076479911804199,0.4600571393966675,0.6911126971244812,0.4200000464916229,0.48513880372047424,-1.9267579887127795e-07,-2.4341261450899765e-06,-0.874437153339386,-5.53116224182304e-05,-0.00022153543250169605,-5.441904067993164e-05,0.006500879302620888,-0.0027928203344345093,-0.0005617313436232507,0.5254518985748291,0.7266949415206909,0.5726391077041626,-0.3832706809043884,0.21285578608512878,0.4617423415184021,0.45567017793655396,0.6906976103782654,0.42000001668930054,-0.5692870616912842,3.0,-1.514078140258789,-2.999999761581421,-0.16151443123817444,-0.16060195863246918,-0.16034391522407532,-0.1593429446220398,-0.21223041415214539,-0.15919922292232513,-0.08571577072143555,-0.021153690293431282
0.8166666666666667,0.13368567824363708,0.02561746910214424,0.0,0.6501242518424988,0.0,0.0,-0.7598279118537903,-0.1367069035768509,-0.1835794448852539,0.0,0.0,0.0,-1.3951565027236938,0.4600571393966675,0.6911126971244812,0.4200000464916229,0.48513880372047424,-5.575427408643918e-08,-2.4329642656084616e-06,-0.874437153339386,-5.06869146192912e-05,-0.00022101809736341238,-5.530542694032192e-05,0.006464427802711725,-0.0027371204923838377,-0.0005696875741705298,0.512274980545044,0.7319540977478027,0.5738067626953125,-1.2414209842681885,0.3362891972064972,-0.15902292728424072,0.45567017793655396,0.6906976103782654,0.42000001668930054,-0.54763263463974,-0.14777250587940216,-1.475311517715454,3.000000238418579,-0.16329166293144226,-0.1618613451719284,-0.16075831651687622,-0.15904536843299866,-0.17514382302761078,-0.13067901134490967,-0.07000276446342468,-0.01971304602921009
0.8333333333333334,0.13395699858665466,0.02652532421052456,0.0,0.6569008231163025,0.0,0.0,-0.7539770007133484,0.06468653678894043,0.0767504870891571,0.0,0.0,0.0,1.7204822301864624,0.4600571393966675,0.6911126971244812,0.4200000464916229,0.48513880372047424,-1.794416846223612e-07,-2.355567175982287e-06,-0.874437153339386,-5.570005305344239e-05,-0.0002216649299953133,-5.434337072074413e-05,0.006506322883069515,-0.0027978054713457823,-0.0005613345419988036,0.4956743121147156,0.7366220951080322,0.5709521174430847,-0.7153894901275635,0.3330093324184418,-0.1384381502866745,0.45567017793655396,0.6906976103782654,0.42000001668930054,-0.528778612613678,2.191990613937378,-1.4919770956039429,-2.9999992847442627,-0.16720853745937347,-0.16512393951416016,-0.1630242019891739,-0.16038967669010162,-0.12006532400846481,-0.1159312054514885,-0.08611378818750381,-0.05325637385249138
0.85,0.13669832050800323,0.023531589657068253,0.0,0.650971531867981,0.0,0.0,-0.7591021656990051,0.19040660560131073,-0.20506465435028076,0.0,0.0,0.0,-1.821675419807434,0.4600571393966675,0.6911126971244812,0.4200000464916229,0.48513880372047424,-4.7821206550224815e-08,-2.3766210688336287e-06,-0.874437153339386,-5.0841019401559606e-05,-0.00022112356964498758,-5.528959445655346e-05,0.006467924453318119,-0.002739660209044814,-0.0005697499727830291,0.48473912477493286,0.7426674365997314,0.5651269555091858,-0.6725292205810547,0.25624871253967285,-0.3949027955532074,0.45567017793655396,0.6906976103782654,0.42000001668930054,-0.5378315448760986,-2.8349013328552246,-1.4532710313796997,2.999999523162842,-0.1667921543121338,-0.16506360471248627,-0.1628686785697937,-0.16001933813095093,-0.044741448014974594,-0.04306839779019356,-0.017641546204686165,0.013304458931088448
0.8666666666666667,0.1416388750076294,0.019118912518024445,0.0,0.6501057744026184,0.0,0.0,-0.7598437070846558,0.3333323001861572,-0.32734453678131104,0.0,0.0,0.0,0.6104636788368225,0.4600571393966675,0.6911126971244812,0.4200000464916229,0.48513880372047424,-1.8972474435940967e-07,-2.4752007448114455e-06,-0.874437153339386,-5.498368409462273e-05,-0.0002214346022810787,-5.447934381663799e-05,0.006496666464954615,-0.002788633806630969,-0.000562059402000159,0.4792329668998718,0.744562029838562,0.5607712268829346,-0.002314229030162096,0.033003803342580795,-0.064981609582901,0.45567017793655396,0.6906976103782654,0.42000001668930054,-0.5720797777175903,-1.3733928203582764,-1.4704021215438843,-3.000000238418579,-0.1700054556131363,-0.1675298511981964,-0.1641959249973297,-0.16010265052318573,-0.22234173119068146,-0.16105830669403076,-0.07573343068361282,0.018115751445293427
0.8833333333333333,0.14866653084754944,0.011603767052292824,0.0,0.6380358934402466,0.0,0.0,-0.7700065970420837,0.46384695172309875,-0.5158898830413818,0.0,0.0,0.0,-2.764648914337158,0.4600571393966675,0.6911126971244812,0.4200000464916229,0.48513880372047424,-3.765486056295231e-08,-2.466264731992851e-06,-0.874437153339386,-5.0597620429471135e-05,-0.00022096202883403748,-5.5316369980573654e-05,0.006462596356868744,-0.002735791727900505,-0.0005696603329852223,0.4828055799007416,0.7427905797958374,0.556778073310852,0.4373304843902588,-0.2756064534187317,-0.229010671377182,0.45567017793655396,0.6906976103782654,0.42000001668930054,-0.6087732315063477,-2.8692784309387207,-1.4351750612258911,3.000000476837158,-0.17466606199741364,-0.17077583074569702,-0.16560934484004974,-0.15950335562229156,-0.27593645453453064,-0.17301414906978607,-0.04555745795369148,0.09361039102077484
0.9,0.15876975655555725,0.007683522067964077,0.0,0.6043978333473206,0.0,0.0,-0.7966826558113098,0.6390693187713623,-0.23378445208072662,0.0,0.0,0.0,-5.901641845703125,0.4600571393966675,0.6911126971244812,0.4200000464916229,0.48513880372047424,-1.8660101375189697e-07,-2.382444790782756e-06,-0.874437153339386,-5.561600119108334e-05,-0.0002216059947386384,-5.435268394649029e-05,0.006504353601485491,-0.0027963505126535892,-0.000561293913051486,0.4941736161708832,0.7372039556503296,0.5556465983390808,1.013634204864502,-0.3167717456817627,0.20889313519001007,0.45567017793655396,0.6906976103782654,0.42000001668930054,-0.6254503130912781,0.5840855240821838,-1.4526699781417847,-3.000000476837158,-0.18171992897987366,-0.17632050812244415,-0.16935566067695618,-0.16133970022201538,-0.28818076848983765,-0.2543717622756958,-0.20549099147319794,-0.14922676980495453
0.9166666666666666,0.16658277809619904,0.005555126816034317,0.0,0.5866522192955017,0.0,0.0,-0.8098389506340027,0.39371949434280396,-0.08306585252285004,0.0,0.0,0.0,-1.5798871517181396,0.4600571393966675,0.6911126971244812,0.4200000464916229,0.48513880372047424,-3.958824734695554e-08,-2.3955944925546646e-06,-0.874437153339386,-5.07537042722106e-05,-0.00022106691903900355,-5.530216731131077e-05,0.006465996149927378,-0.002738311653956771,-0.0005697286687791348,0.5091277956962585,0.7346140146255493,0.5585145950317383,0.7441860437393188,-0.014441126957535744,0.09819209575653076,0.45567017793655396,0.6906976103782654,0.42000001668930054,-0.5936486721038818,2.995091676712036,-1.4170777797698975,2.9999992847442627,-0.18469160795211792,-0.17924538254737854,-0.17205257713794708,-0.16371892392635345,-0.07773446291685104,-0.10575681179761887,-0.12744271755218506,-0.14586390554904938
