vladlanda/robotic-transformer/data/env_000_episode_0276.csv
sim_time_s,robot_box_x,robot_box_y,robot_box_z,robot_box_quat_w,robot_box_quat_x,robot_box_quat_y,robot_box_quat_z,robot_box_linvel_x,robot_box_linvel_y,robot_box_linvel_z,robot_box_angvel_x,robot_box_angvel_y,robot_box_angvel_z,cube_world_x,cube_world_y,cube_world_z,cube_quat_w,cube_quat_x,cube_quat_y,cube_quat_z,cube_linvel_x,cube_linvel_y,cube_linvel_z,cube_angvel_x,cube_angvel_y,cube_angvel_z,endpoint_world_x,endpoint_world_y,endpoint_world_z,endpoint_linvel_x,endpoint_linvel_y,endpoint_linvel_z,target_cube_world_x,target_cube_world_y,target_cube_world_z,gripper_actual_pos_rad_gp_leftgearjoint,gripper_actual_vel_rad_s_gp_leftgearjoint,gripper_actual_pos_rad_gp_rotatingjoint,gripper_actual_vel_rad_s_gp_rotatingjoint,motor_angle_rad_joint1,motor_angle_rad_joint2,motor_angle_rad_joint3,motor_angle_rad_joint4,motor_speed_rad_s_joint1,motor_speed_rad_s_joint2,motor_speed_rad_s_joint3,motor_speed_rad_s_joint4
0.0,0.0,0.0,0.0,1.0,0.0,0.0,0.0,0.0,0.0,0.0,0.0,0.0,0.0,-0.3775450885295868,0.6851856112480164,0.41999998688697815,1.0,0.0,0.0,0.0,0.0,0.0,0.0,0.0,0.0,0.0,3.42540442943573e-06,-0.005000244826078415,1.313499927520752,0.0,0.0,0.0,0.4772312641143799,0.6800312399864197,0.42000001668930054,-1.5707999467849731,0.0,0.0,0.0,0.0,0.0,0.0,0.0,0.0,0.0,0.0,0.0
0.016666666666666666,0.002881067106500268,0.002176950452849269,0.0,0.9998155236244202,0.0,0.0,0.019208164885640144,0.2409638613462448,0.18227604031562805,0.0,0.0,0.0,3.1418004035949707,-0.37754520773887634,0.6851853132247925,0.41999998688697815,1.0,3.279964630564791e-06,-8.339746386809566e-07,8.465587342243452e-08,-1.9833529222523794e-05,0.00017983045836444944,-6.132945418357849e-05,0.0009432713268324733,-0.004689474124461412,-0.00031981561915017664,-0.007109014317393303,0.003389297053217888,1.3159382343292236,-0.8140110969543457,0.9872305393218994,0.18096069991588593,0.4772312641143799,0.6800312399864197,0.42000001668930054,-1.5301094055175781,3.0000009536743164,-0.045848820358514786,-2.999999523162842,0.000870121642947197,0.0007967770798131824,0.0007113523315638304,0.0006112087285146117,0.11095083504915237,0.09758879244327545,0.08336538076400757,0.06825979799032211
0.03333333333333333,0.008964814245700836,0.006796220783144236,0.0,0.9998036026954651,0.0,0.0,0.01981830783188343,0.4070626199245453,0.31518691778182983,0.0,0.0,0.0,-0.8690783977508545,-0.3775453269481659,0.6851852536201477,0.4200000464916229,1.0,3.3908179375430336e-06,-2.132458348569344e-06,-3.7097745320124886e-08,0.00026357852038927376,0.00026937833172269166,-0.00010509369894862175,-0.0017707126680761576,0.004130884539335966,-0.0001354814594378695,-0.027538374066352844,0.026271574199199677,1.3165888786315918,-1.5902520418167114,1.6174676418304443,-0.08604814857244492,0.4772312641143799,0.6800312399864197,0.42000001668930054,-1.4800902605056763,3.0,-0.0958886593580246,-3.000000476837158,0.0029903477989137173,0.0026526416186243296,0.0022772049997001886,0.0018607046222314239,0.16416770219802856,0.13972564041614532,0.11378759890794754,0.08627155423164368
0.05,0.018476031720638275,0.013899285346269608,0.0,0.9999744296073914,0.0,0.0,-0.007155624683946371,0.6362417936325073,0.4723174571990967,0.0,0.0,0.0,-4.073603630065918,-0.3775453567504883,0.6851853132247925,0.4200000464916229,1.0,3.7651902857760433e-06,-2.2119197637948673e-06,5.609367637049445e-09,0.00026530938339419663,0.00026691678795032203,-0.00010440615005791187,-0.0017243892652913928,0.004177466034889221,-0.00012949809024576098,-0.0571511909365654,0.05759090185165405,1.3118693828582764,-1.9497222900390625,2.0671138763427734,-0.4624960124492645,0.4772312641143799,0.6800312399864197,0.42000001668930054,-1.4300719499588013,2.999998092651367,-0.14592735469341278,-3.0000009536743164,0.006013166159391403,0.005173773970454931,0.004262051545083523,0.003273705253377557,0.2070862054824829,0.16673995554447174,0.1244695782661438,0.08020064979791641
0.06666666666666667,0.030799074098467827,0.023389598354697227,0.0,0.9998756647109985,0.0,0.0,-0.015768349170684814,0.7727159261703491,0.6162194609642029,0.0,0.0,0.0,-0.036516349762678146,-0.3775453567504883,0.6851852536201477,0.4200000464916229,0.9999999403953552,3.406832092878176e-06,-2.28558906201215e-06,4.300801492718165e-07,0.0002670248504728079,0.0002679176686797291,-0.0001043803058564663,-0.00174071139190346,0.00421183044090867,-0.00012850876373704523,-0.09364203363656998,0.09121261537075043,1.301113486289978,-2.2892374992370605,2.1359286308288574,-0.8180867433547974,0.4772312641143799,0.6800312399864197,0.42000001668930054,-1.3800432682037354,3.0,-0.14134268462657928,3.000000238418579,0.008645585738122463,0.007062339689582586,0.005366419907659292,0.003552765352651477,0.13985562324523926,0.08642134815454483,0.030834682285785675,-0.026963122189044952
0.08333333333333333,0.03716335818171501,0.036613043397665024,0.0,0.9992151856422424,0.0,0.0,-0.03961062431335449,0.22280341386795044,0.877731204032898,0.0,0.0,0.0,-3.8094170093536377,-0.3775453567504883,0.6851852536201477,0.4200000464916229,0.9999999403953552,3.626166289905086e-06,-2.3353043161478126e-06,3.032100153177453e-07,0.00026614085072651505,0.0002668516826815903,-0.00010405341163277626,-0.001728349830955267,0.004196455702185631,-0.0001279077841900289,-0.12657427787780762,0.1305767297744751,1.285510778427124,-1.6968549489974976,2.5953407287597656,-0.9846826791763306,0.4772312641143799,0.6800312399864197,0.42000001668930054,-1.3300392627716064,3.000001907348633,-0.17319929599761963,-3.0000009536743164,0.004914592951536179,0.002553714672103524,2.6719664674601518e-05,-0.0026750850956887007,-0.3677635192871094,-0.4267001152038574,-0.4884707033634186,-0.5533178448677063
0.1,0.046831220388412476,0.05165025591850281,0.0,0.9958453178405762,0.0,0.0,-0.09106091409921646,0.7367608547210693,0.9041512608528137,0.0,0.0,0.0,-6.967190742492676,-0.3775453567504883,0.6851852536201477,0.4200000464916229,1.0,3.4222334761579987e-06,-2.3086047349352157e-06,1.796183539681806e-07,0.0002668157103471458,0.00026800340856425464,-0.00010440708138048649,-0.0017429988365620375,0.004207124002277851,-0.00012891183723695576,-0.15714019536972046,0.1759301722049713,1.2681714296340942,-1.9538064002990723,2.8611302375793457,-1.141350507736206,0.4772312641143799,0.6800312399864197,0.42000001668930054,-1.2800310850143433,3.0000009536743164,-0.20506171882152557,-0.9692311882972717,0.0031425512861460447,-0.0007014205912128091,-0.004718282725661993,-0.00891677662730217,0.007712089456617832,-0.09109040349721909,-0.18887706100940704,-0.2856096625328064
0.11666666666666667,0.05535365641117096,0.0637083649635315,0.0,0.9924303889274597,0.0,0.0,-0.12280861288309097,0.538513720035553,0.6852931380271912,0.0,0.0,0.0,-2.579448699951172,-0.3775453567504883,0.6851853132247925,0.4200000464916229,1.0,3.7116215025889687e-06,-2.3326904283749172e-06,2.5741752551766695e-07,0.00026485833222977817,0.0002663549967110157,-0.00010423408821225166,-0.0017181988805532455,0.004170059692114592,-0.00012915713887196034,-0.19276446104049683,0.22115325927734375,1.247389793395996,-2.0513877868652344,2.9287986755371094,-1.2504940032958984,0.4772312641143799,0.6800312399864197,0.42000001668930054,-1.2300186157226562,2.9999966621398926,-0.16545681655406952,3.0000009536743164,0.0010471809655427933,-0.00441780686378479,-0.01002962701022625,-0.015796920284628868,-0.04122091457247734,-0.16050125658512115,-0.276508092880249,-0.3890741765499115
0.13333333333333333,0.061685752123594284,0.07293151319026947,0.0,0.9864236116409302,0.0,0.0,-0.16422058641910553,0.3288734257221222,0.4804569184780121,0.0,0.0,0.0,-5.801634311676025,-0.3775453567504883,0.6851852536201477,0.4200000464916229,1.0,3.3357862321281573e-06,-2.231929329354898e-06,3.1130659294831275e-07,0.00026669795624911785,0.00026759557658806443,-0.00010428577661514282,-0.0017371183494105935,0.004205892328172922,-0.00012840361159760505,-0.22493845224380493,0.27334070205688477,1.224660873413086,-1.7745838165283203,3.418175220489502,-1.480022668838501,0.4772312641143799,0.6800312399864197,0.42000001668930054,-1.1800304651260376,2.9997737407684326,-0.19715793430805206,-2.9999992847442627,-0.0012157988967373967,-0.008608379401266575,-0.01608474738895893,-0.02365134097635746,-0.18668413162231445,-0.29829537868499756,-0.4057994484901428,-0.5090484023094177
0.15,0.06409886479377747,0.08269720524549484,0.0,0.9827101230621338,0.0,0.0,-0.1851509064435959,0.06404653936624527,0.6217283606529236,0.0,0.0,0.0,-1.3364920616149902,-0.3775453567504883,0.6851852536201477,0.4200000464916229,1.0,3.5189802929380676e-06,-2.2830829493614146e-06,-3.625531803663762e-07,0.00026618537958711386,0.0002673575363587588,-0.00010425481013953686,-0.0017349323024973273,0.004195748828351498,-0.0001286051847273484,-0.26097622513771057,0.3281306028366089,1.1926872730255127,-2.1899333000183105,3.429748296737671,-2.3120532035827637,0.4772312641143799,0.6800312399864197,0.42000001668930054,-1.1429396867752075,1.5477607250213623,-0.16334465146064758,3.000000476837158,-0.005817225202918053,-0.014684626832604408,-0.023557255044579506,-0.03244076669216156,-0.3447659909725189,-0.40949371457099915,-0.4697096645832062,-0.5254905223846436
0.16666666666666666,0.07010464370250702,0.0897059515118599,0.0,0.9761841297149658,0.0,0.0,-0.21694356203079224,0.41456249356269836,0.3286961317062378,0.0,0.0,0.0,-4.554370880126953,-0.3775453567504883,0.6851852536201477,0.4200000464916229,1.0,3.666678594527184e-06,-2.3391096419800306e-06,-3.150171608012897e-07,0.00026595700182951987,0.0002666723739821464,-0.00010403268970549107,-0.0017252295510843396,0.0041927071288228035,-0.00012778618838638067,-0.29570645093917847,0.38934242725372314,1.1497056484222412,-1.9226691722869873,3.8856966495513916,-2.868441581726074,0.4772312641143799,0.6800312399864197,0.42000001668930054,-1.096702218055725,3.0000014305114746,-0.1950646936893463,-3.000000476837158,-0.011096968315541744,-0.020910905674099922,-0.03066377155482769,-0.04036285728216171,-0.4570469856262207,-0.48758089542388916,-0.5156050324440002,-0.5412269234657288
0.18333333333333332,0.07100628316402435,0.09889619797468185,0.0,0.9613032937049866,0.0,0.0,-0.27549225091934204,0.05642951652407646,0.5711717009544373,0.0,0.0,0.0,-7.905381202697754,-0.3775453567504883,0.6851852536201477,0.4200000464916229,1.0,3.814429419435328e-06,-2.399473942205077e-06,-2.702885524286103e-07,0.0002654908748809248,0.00026611171779222786,-0.00010391091927886009,-0.0017177866538986564,0.00418477039784193,-0.00012754213821608573,-0.324697345495224,0.4577975571155548,1.0906314849853516,-1.4769253730773926,4.361691474914551,-3.927400827407837,0.4772312641143799,0.6800312399864197,0.42000001668930054,-1.04670250415802,2.9999961853027344,-0.24509277939796448,-3.0000014305114746,-0.02489853836596012,-0.03462286293506622,-0.04428168758749962,-0.053886957466602325,-0.6779904961585999,-0.7060006856918335,-0.7341151237487793,-0.7597717642784119
0.2,0.07706354558467865,0.10587151348590851,0.0,0.9493280649185181,0.0,0.0,-0.31428685784339905,0.3775119483470917,0.35903221368789673,0.0,0.0,0.0,-3.5359106063842773,-0.3775453567504883,0.6851852536201477,0.4200000464916229,1.0,3.600096079026116e-06,-2.2911845007911325e-06,-2.2019764855940593e-07,0.00026572897331789136,0.0002664489147718996,-0.00010398100130259991,-0.0017226696945726871,0.004188799764961004,-0.00012773496564477682,-0.3513967990875244,0.5243531465530396,1.0174891948699951,-1.266556739807129,4.001707553863525,-4.8516316413879395,0.4772312641143799,0.6800312399864197,0.42000001668930054,-0.9966996312141418,2.9999985694885254,-0.29511919617652893,-3.0,-0.03531031310558319,-0.04505174607038498,-0.05474415421485901,-0.06437011063098907,-0.8324145674705505,-0.7871854305267334,-0.744851291179657,-0.7042527198791504
0.21666666666666667,0.07853513956069946,0.11536432802677155,0.0,0.9350448846817017,0.0,0.0,-0.35452932119369507,0.05550077557563782,0.5908307433128357,0.0,0.0,0.0,-5.796971797943115,-0.3775453567504883,0.6851852536201477,0.4200000464916229,0.9999999403953552,3.6396977520780638e-06,-2.2619728952122387e-06,2.224548865115139e-07,0.000266873772488907,0.0002675457508303225,-0.00010411953553557396,-0.0017404764657840133,0.004211100284010172,-0.00012783778947778046,-0.37157607078552246,0.584755539894104,0.927899181842804,-0.8881916999816895,3.512749433517456,-5.734429359436035,0.4772312641143799,0.6800312399864197,0.42000001668930054,-0.946690559387207,2.9999988079071045,-0.3451480269432068,-2.999998092651367,-0.051093295216560364,-0.060915060341358185,-0.07065685838460922,-0.0802774727344513,-0.9327625632286072,-0.934108316898346,-0.9356836676597595,-0.9371488094329834
0.23333333333333334,0.08442302793264389,0.12008433043956757,0.0,0.9266557097434998,0.0,0.0,-0.3759111762046814,0.354628324508667,0.20456631481647491,0.0,0.0,0.0,-1.5774973630905151,-0.3775453269481659,0.6851852536201477,0.4200000464916229,1.0,3.42080284099211e-06,-2.3168156531028217e-06,2.9557230618593167e-07,0.0002668006927706301,0.0002680390316527337,-0.00010442431084811687,-0.0017437431961297989,0.004206867888569832,-0.0001289910142077133,-0.3889491558074951,0.6330637335777283,0.8298897743225098,-0.747555136680603,2.49422550201416,-6.133355140686035,0.4772312641143799,0.6800312399864197,0.42000001668930054,-0.8966798782348633,2.9999964237213135,-0.39517897367477417,-2.9999992847442627,-0.06535796076059341,-0.07504625618457794,-0.08454155921936035,-0.09369127452373505,-0.9884915947914124,-0.990304172039032,-0.9727994203567505,-0.8985819816589355
0.25,0.08463261276483536,0.12870478630065918,0.0,0.9250304102897644,0.0,0.0,-0.3798930048942566,0.01810223050415516,0.46129703521728516,0.0,0.0,0.0,0.0402572825551033,-0.3775453567504883,0.6851852536201477,0.4200000464916229,0.9999999403953552,3.3476630960649345e-06,-2.259201437482261e-06,1.8082572239563888e-07,0.00026687735226005316,0.00026791065465658903,-0.00010439311154186726,-0.0017403911333531141,0.004208162892609835,-0.00012870095088146627,-0.3993922770023346,0.6586936712265015,0.7269498705863953,-0.42606422305107117,0.9062682390213013,-6.0853753089904785,0.4772312641143799,0.6800312399864197,0.42000001668930054,-0.8466694951057434,2.9999992847442627,-0.44521063566207886,-2.9999988079071045,-0.08248859643936157,-0.09197564423084259,-0.10135089606046677,-0.11043047159910202,-0.6793882250785828,-0.738271951675415,-0.7939425110816956,-0.8443906903266907
0.26666666666666666,0.08363743871450424,0.1318236142396927,0.0,0.9167982935905457,0.0,0.0,-0.3993505835533142,-0.14833959937095642,0.19860601425170898,0.0,0.0,0.0,-3.3192758560180664,-0.3775453567504883,0.6851852536201477,0.4200000464916229,0.9999999403953552,3.535753194228164e-06,-2.3002676243777387e-06,-1.2687392825228017e-07,0.00026601721765473485,0.0002671221154741943,-0.00010419590398669243,-0.0017316217999905348,0.00419279420748353,-0.0001284939207835123,-0.40361839532852173,0.6742594242095947,0.6252323985099792,0.017908990383148193,0.6920921802520752,-5.989100933074951,0.4772312641143799,0.6800312399864197,0.42000001668930054,-0.7966606020927429,3.0000014305114746,-0.49524158239364624,-2.999997854232788,-0.09452986717224121,-0.10485244542360306,-0.11501287668943405,-0.12480566650629044,-1.000299096107483,-1.0011121034622192,-1.0007970333099365,-1.0005648136138916
0.2833333333333333,0.07918191701173782,0.1330634206533432,0.0,0.9161812663078308,0.0,0.0,-0.4007641673088074,-0.30332136154174805,0.03334867209196091,0.0,0.0,0.0,0.7340446710586548,-0.3775453567504883,0.6851853132247925,0.4200000464916229,1.0,3.593504743548692e-06,-2.2625924884778215e-06,-5.655554602412849e-08,0.00026704728952609,0.0002677498559933156,-0.00010416866280138493,-0.0017431487794965506,0.0042141578160226345,-0.00012789281026925892,-0.4032922387123108,0.6811152696609497,0.5300366282463074,0.17985889315605164,0.06711883842945099,-5.443964958190918,0.4772312641143799,0.6800312399864197,0.42000001668930054,-0.746651828289032,2.9999983310699463,-0.5452712178230286,-3.000002384185791,-0.11177824437618256,-0.12195765227079391,-0.13201256096363068,-0.14172421395778656,-1.006978988647461,-1.0052763223648071,-1.0039794445037842,-1.002942681312561
0.3,0.07236924022436142,0.13180318474769592,0.0,0.9099534153938293,0.0,0.0,-0.41471052169799805,-0.4570882320404053,-0.12154290080070496,0.0,0.0,0.0,-2.6869962215423584,-0.3775453269481659,0.6851852536201477,0.4200000464916229,0.9999999403953552,3.7250931654853048e-06,-2.235988176835235e-06,3.8285057257780863e-07,0.0002647978253662586,0.0002667302906047553,-0.00010453863069415092,-0.0017188735073432326,0.00416669063270092,-0.00013016900629736483,-0.39413297176361084,0.6827058792114258,0.4400140643119812,0.8889062404632568,0.023736659437417984,-5.195750713348389,0.4772312641143799,0.6800312399864197,0.42000001668930054,-0.6966444253921509,3.0,-0.5952986478805542,-3.0000011920928955,-0.12923315167427063,-0.13923054933547974,-0.14914865791797638,-0.15875224769115448,-1.0103610754013062,-1.0078706741333008,-1.0059674978256226,-1.0044381618499756
0.31666666666666665,0.06345945596694946,0.128047913312912,0.0,0.9108235239982605,0.0,0.0,-0.4127959907054901,-0.5701188445091248,-0.2678402364253998,0.0,0.0,0.0,1.165054202079773,-0.3775453567504883,0.6851852536201477,0.4200000464916229,0.9999999403953552,3.557828677003272e-06,-2.2787926354794763e-06,2.2831554247204622e-07,0.0002659866586327553,0.0002665854699444026,-0.00010399054735898972,-0.0017240922898054123,0.004193658474832773,-0.00012769893510267138,-0.38788902759552,0.6850141882896423,0.41483694314956665,0.34808993339538574,0.4652547240257263,-0.007240723818540573,0.4772312641143799,0.6800312399864197,0.42000001668930054,-0.6468523740768433,2.9332947731018066,-0.6456372737884521,-2.7921102046966553,-0.13579052686691284,-0.1464570164680481,-0.1569136530160904,-0.16686534881591797,-0.08728301525115967,-0.15130575001239777,-0.19130836427211761,-0.20120584964752197
0.3333333333333333,0.05240516737103462,0.1218610405921936,0.0,0.905485212802887,0.0,0.0,-0.42437782883644104,-0.7153029441833496,-0.4160466194152832,0.0,0.0,0.0,-2.337581157684326,-0.3762996792793274,0.6877507567405701,0.4200000464916229,0.9993247389793396,1.7084590808735811e-06,3.833486061921576e-06,-0.03674128279089928,0.2433842271566391,0.4996338486671448,-0.00010050784476334229,-0.005725216120481491,0.004977536387741566,-14.464583396911621,-0.3832404315471649,0.6940944194793701,0.4228150248527527,0.45466721057891846,0.6601414680480957,-0.12398514896631241,0.4772312641143799,0.6800312399864197,0.42000001668930054,-0.5968441367149353,2.9999947547912598,-0.6956899166107178,-2.9999959468841553,-0.13763727247714996,-0.14883801341056824,-0.15940958261489868,-0.1689807027578354,-0.25882601737976074,-0.2522847056388855,-0.22463832795619965,-0.1732819378376007
0.35,0.039362408220767975,0.11324261128902435,0.0,0.9073944091796875,0.0,0.0,-0.4202801287174225,-0.8368172645568848,-0.557593822479248,0.0,0.0,0.0,1.4720191955566406,-0.3694267272949219,0.7001449465751648,0.4199999272823334,0.9898371696472168,-4.998740405426361e-05,4.8256395530188456e-05,-0.1422051042318344,0.5425220727920532,0.9343158006668091,-0.001581070595420897,0.08874116092920303,-0.0390680693089962,-5.1945953369140625,-0.3750215172767639,0.7068606615066528,0.4207262396812439,0.5828027129173279,0.841331958770752,-0.10613413155078888,0.4772312641143799,0.6800312399864197,0.42000001668930054,-0.5468392372131348,2.999990940093994,-0.7457164525985718,-3.0000011920928955,-0.14430104196071625,-0.15442603826522827,-0.1635788381099701,-0.17137892544269562,-0.4454016387462616,-0.34827977418899536,-0.2310943305492401,-0.09452923387289047
0.36666666666666664,0.029529709368944168,0.10167999565601349,0.0,0.9029138684272766,0.0,0.0,-0.4298214912414551,-0.5067098736763,-0.7437723875045776,0.0,0.0,0.0,-2.166292428970337,-0.3606133460998535,0.7151765823364258,0.4199998080730438,0.9845690727233887,2.9836761314072646e-05,-1.1554937373148277e-05,-0.17499646544456482,0.5949865579605103,0.9611070156097412,-0.0008932762430049479,-0.03784206882119179,0.040905945003032684,-3.9937591552734375,-0.3629697561264038,0.7193565368652344,0.42006105184555054,0.8478691577911377,0.7636854648590088,0.07382632046937943,0.4772312641143799,0.6800312399864197,0.42000001668930054,-0.49680617451667786,3.0000009536743164,-0.795744776725769,-2.999973773956299,-0.15220120549201965,-0.160192608833313,-0.16685956716537476,-0.17185615003108978,-0.4621230661869049,-0.3161377012729645,-0.1497797667980194,0.034053269773721695
0.3833333333333333,0.017827792093157768,0.08843263238668442,0.0,0.8848214149475098,0.0,0.0,-0.46593034267425537,-0.7763845324516296,-0.8201479911804199,0.0,0.0,0.0,-5.78745698928833,-0.34588152170181274,0.7357808947563171,0.4204467833042145,0.976313054561615,-0.010835167951881886,0.001974622020497918,-0.21608209609985352,1.200873613357544,1.533372163772583,0.051968105137348175,-1.521307349205017,-1.072279453277588,-6.576964855194092,-0.34459108114242554,0.7362123727798462,0.42161327600479126,1.3743746280670166,1.3123669624328613,0.11687380075454712,0.4772312641143799,0.6800312399864197,0.42000001668930054,-0.44675329327583313,3.0000157356262207,-0.8457522988319397,-2.9999966621398926,-0.1617332547903061,-0.16682428121566772,-0.1702413409948349,-0.171705961227417,-0.5497457981109619,-0.3727797865867615,-0.17467734217643738,0.040110863745212555
0.4,0.008785223588347435,0.07219476997852325,0.0,0.8511718511581421,0.0,0.0,-0.5248871445655823,-0.4895595610141754,-1.020951271057129,0.0,0.0,0.0,-8.933914184570312,-0.30975908041000366,0.7648929357528687,0.42350906133651733,0.9602936506271362,-0.0192563533782959,-0.029034266248345375,-0.2768072485923767,3.1018385887145996,1.7152453660964966,0.08473920077085495,34.15821075439453,-21.37385368347168,1.700806975364685,-0.30778953433036804,0.7641507387161255,0.42428791522979736,3.083381175994873,2.1103086471557617,0.46590685844421387,0.4772312641143799,0.6800312399864197,0.42000001668930054,-0.39963391423225403,2.081404209136963,-0.8957749605178833,-3.0000007152557373,-0.17173081636428833,-0.17335481941699982,-0.1729905605316162,-0.17045792937278748,-0.6800621747970581,-0.4369451105594635,-0.17843309044837952,0.08820383995771408
0.4166666666666667,0.0022401059977710247,0.061304282397031784,0.0,0.7988539934158325,0.0,0.0,-0.6015249490737915,-0.34149226546287537,-0.5244657397270203,0.0,0.0,0.0,-11.986507415771484,-0.2310144007205963,0.8023960590362549,0.4298964738845825,0.934831440448761,0.05697759613394737,-0.0748913586139679,-0.34239569306373596,6.239035129547119,1.916358232498169,0.5344308018684387,11.272418975830078,-13.402812957763672,22.244401931762695,-0.2293453812599182,0.8015408515930176,0.4311850070953369,5.996875762939453,2.586369276046753,0.5567121505737305,0.4772312641143799,0.6800312399864197,0.42000001668930054,-0.3786918818950653,0.9993947148323059,-0.8587550520896912,2.9969563484191895,-0.18767619132995605,-0.1871519833803177,-0.18145343661308289,-0.17343544960021973,-0.9121596813201904,-0.9083605408668518,-0.6214838027954102,-0.3053379952907562
0.43333333333333335,-0.0011472373735159636,0.053814489394426346,0.0,0.7559193968772888,0.0,0.0,-0.6546646952629089,-0.15025430917739868,-0.41333767771720886,0.0,0.0,0.0,-7.006790637969971,-0.13071362674236298,0.8383476138114929,0.44077327847480774,0.8897864818572998,0.0939379632472992,-0.09938327968120575,-0.4354061484336853,6.261547565460205,1.5200036764144897,0.7471358776092529,14.75560188293457,-5.926605224609375,5.452242851257324,-0.13004504144191742,0.8381510972976685,0.441440224647522,6.128956317901611,1.805630087852478,0.6951737403869629,0.4772312641143799,0.6800312399864197,0.42000001668930054,-0.3618592619895935,1.133715271949768,-0.8850807547569275,-3.0000007152557373,-0.19839590787887573,-0.19839735329151154,-0.19230957329273224,-0.17961524426937103,-0.6040880680084229,-0.6035028696060181,-0.5794150829315186,-0.3434256315231323
0.45,-0.006659781560301781,0.04162938892841339,0.0,0.7335514426231384,0.0,0.0,-0.6796339154243469,-0.26459792256355286,-0.6639528274536133,0.0,0.0,0.0,-2.741055727005005,-0.024707026779651642,0.860610842704773,0.4528287947177887,0.8289610147476196,0.09684497117996216,-0.09495760500431061,-0.5426119565963745,6.48901891708374,-0.17512844502925873,0.5918169617652893,-0.6128348708152771,-15.337172508239746,12.749916076660156,-0.02548881620168686,0.8608143329620361,0.4526025354862213,6.640477657318115,0.7034382820129395,0.8313086628913879,0.4772312641143799,0.6800312399864197,0.42000001668930054,-0.33859679102897644,1.4096009731292725,-0.9351047277450562,-3.0000035762786865,-0.20667774975299835,-0.20554083585739136,-0.19817671179771423,-0.18152180314064026,-0.8427118062973022,-0.6399122476577759,-0.446304589509964,-0.1434328705072403
0.4666666666666667,-0.0079118013381958,0.03446805477142334,0.0,0.7033350467681885,0.0,0.0,-0.7108585238456726,-0.0719880610704422,-0.43940702080726624,0.0,0.0,0.0,-5.9049859046936035,0.0830477625131607,0.8572726845741272,0.46259018778800964,0.7584924697875977,0.09714076668024063,-0.09871690720319748,-0.6367948651313782,6.103835582733154,-1.6037414073944092,0.385135293006897,-9.536816596984863,-14.251733779907227,26.4359188079834,0.08227069675922394,0.8592533469200134,0.4622323215007782,6.5207672119140625,-0.6866133809089661,0.6130368709564209,0.4772312641143799,0.6800312399864197,0.42000001668930054,-0.32107144594192505,0.6742810606956482,-0.9851287603378296,-3.00000262260437,-0.2213936746120453,-0.21755863726139069,-0.206098273396492,-0.18417976796627045,-0.6912577152252197,-0.5701707601547241,-0.3325795531272888,-0.05117487907409668
0.48333333333333334,-0.006677343975752592,0.029963716864585876,0.0,0.6885324120521545,0.0,0.0,-0.7252055406570435,0.12298118323087692,-0.2070176601409912,0.0,0.0,0.0,-1.3377671241760254,0.18421557545661926,0.8389758467674255,0.46836400032043457,0.6863327622413635,0.07671717554330826,-0.0968485027551651,-0.7167161107063293,5.488374710083008,-1.891880750656128,0.29579874873161316,0.7438269853591919,0.09279835969209671,7.479381561279297,0.1827496886253357,0.8413486480712891,0.46818897128105164,5.795632362365723,-1.5387698411941528,0.2856895625591278,0.4772312641143799,0.6800312399864197,0.42000001668930054,-0.3106416165828705,0.6443147659301758,-1.035151481628418,-2.998725175857544,-0.23228293657302856,-0.22614750266075134,-0.2110733836889267,-0.18539051711559296,-0.5642713308334351,-0.4199196696281433,-0.2307594269514084,-0.0623818039894104
0.5,-0.0055589876137673855,0.026064518839120865,0.0,0.6649686098098755,0.0,0.0,-0.746871292591095,0.014437663368880749,-0.20650768280029297,0.0,0.0,0.0,-4.779875755310059,0.27271968126296997,0.8081184029579163,0.4669981598854065,0.6050006747245789,0.03646649420261383,-0.10879950225353241,-0.7879130244255066,4.691059589385986,-2.35518741607666,-0.4211544096469879,-19.02106475830078,10.271065711975098,-3.8783414363861084,0.27038857340812683,0.8131846189498901,0.4686965048313141,4.893610000610352,-1.9980309009552002,-0.07790212333202362,0.4772312641143799,0.6800312399864197,0.42000001668930054,-0.2974218726158142,0.8270928263664246,-1.0851736068725586,-3.0,-0.23848284780979156,-0.23028990626335144,-0.21284034848213196,-0.1854633241891861,-0.2484051138162613,-0.13387036323547363,-0.024059351533651352,0.026483234018087387
0.5166666666666666,-0.003403086680918932,0.025368474423885345,0.0,0.6560136079788208,0.0,0.0,-0.754749059677124,0.164072647690773,0.018579278141260147,0.0,0.0,0.0,-0.38238760828971863,0.3446332514286041,0.7710006237030029,0.4588961601257324,0.5275863409042358,-0.04743072763085365,-0.1389504075050354,-0.8367172479629517,3.628870964050293,-2.667280912399292,-0.4417518377304077,3.760162115097046,2.2585713863372803,0.5179468989372253,0.34225335717201233,0.7780299186706543,0.4634459912776947,3.779376268386841,-2.2460124492645264,-0.48238295316696167,0.4772312641143799,0.6800312399864197,0.42000001668930054,-0.28026145696640015,0.9648427367210388,-1.1351957321166992,-2.999882459640503,-0.23983921110630035,-0.232347771525383,-0.21347768604755402,-0.185908243060112,0.04631917551159859,-0.03665999695658684,0.00989491119980812,-0.028039580211043358
0.5333333333333333,0.0018296220805495977,0.019438905641436577,0.0,0.6367543935775757,0.0,0.0,-0.7710666656494141,0.2993077337741852,-0.2945556044578552,0.0,0.0,0.0,-3.7702841758728027,0.402393639087677,0.7375987768173218,0.44487038254737854,0.48869919776916504,-0.08016916364431381,-0.12225025147199631,-0.8601167798042297,3.001436948776245,-2.0232808589935303,-0.9045556783676147,-1.470984697341919,6.235438823699951,-4.932990074157715,0.400654137134552,0.7440894842147827,0.45001158118247986,3.0191493034362793,-2.0656814575195312,-1.0001219511032104,0.4772312641143799,0.6800312399864197,0.42000001668930054,-0.2671795189380646,0.7270638942718506,-1.1852178573608398,-3.0000009536743164,-0.2320985645055771,-0.22699925303459167,-0.20904423296451569,-0.18375931680202484,0.32740670442581177,0.2394120693206787,0.19354389607906342,0.05398525670170784
0.55,0.008712726645171642,0.019410979002714157,0.0,0.6317945122718811,0.0,0.0,-0.77513587474823,0.46243995428085327,-0.004848782904446125,0.0,0.0,0.0,0.1568136215209961,0.4448293447494507,0.7043573260307312,0.426491916179657,0.4546908140182495,-0.11761073023080826,-0.09928106516599655,-0.8772497773170471,2.137946128845215,-2.035304069519043,-1.1339008808135986,-1.2768703699111938,5.338393211364746,-3.27549409866333,0.4433463215827942,0.7100154161453247,0.43196582794189453,2.199652671813965,-1.966942310333252,-1.1879737377166748,0.4772312641143799,0.6800312399864197,0.42000001668930054,-0.2524140477180481,0.8946849703788757,-1.2352399826049805,-3.000000238418579,-0.2292506992816925,-0.22493988275527954,-0.2077169567346573,-0.1848158836364746,0.31716108322143555,0.23549245297908783,0.13243073225021362,-0.06315506994724274
0.5666666666666667,0.017766907811164856,0.0210616085678339,0.0,0.6160832643508911,0.0,0.0,-0.7876810431480408,0.579033374786377,0.2183755785226822,0.0,0.0,0.0,-3.331254720687866,0.46970993280410767,0.6879135370254517,0.42167943716049194,0.4689037799835205,-0.0391562320291996,-0.019277647137641907,-0.8821702599525452,0.743096113204956,-0.7222415208816528,0.01621519774198532,-1.4910697937011719,2.771792411804199,12.164554595947266,0.4676089286804199,0.6915066838264465,0.4242037534713745,1.0797653198242188,-0.6951121091842651,-0.0823691338300705,0.4772312641143799,0.6800312399864197,0.42000001668930054,-0.2379990816116333,0.8635346293449402,-1.1973474025726318,2.993656873703003,-0.22077393531799316,-0.21888300776481628,-0.2046033889055252,-0.1858757734298706,0.5457921028137207,0.3883364796638489,0.183144211769104,-0.08798054605722427
0.5833333333333334,0.02365882880985737,0.018974941223859787,0.0,0.6129719614982605,0.0,0.0,-0.7901046872138977,0.3050287067890167,-0.15855230391025543,0.0,0.0,0.0,0.4148128628730774,0.4809860289096832,0.6799699664115906,0.4229460656642914,0.47767359018325806,-0.04929262027144432,0.018772710114717484,-0.8769525289535522,0.28103935718536377,-0.44223856925964355,0.23297347128391266,7.014318943023682,9.826555252075195,-0.2421729564666748,0.4775272607803345,0.6831016540527344,0.4255106449127197,0.23038385808467865,-0.4989020824432373,0.12697547674179077,0.4772312641143799,0.6800312399864197,0.42000001668930054,-0.24906443059444427,-1.5320637226104736,-1.2188360691070557,-2.9993703365325928,-0.20826445519924164,-0.20860926806926727,-0.19808098673820496,-0.18412430584430695,0.5468699336051941,0.5035123825073242,0.31813815236091614,0.06932606548070908
0.6,0.031365759670734406,0.021832091733813286,0.0,0.5980047583580017,0.0,0.0,-0.8014925718307495,0.4340822398662567,0.21393947303295135,0.0,0.0,0.0,-3.15283465385437,0.4833642840385437,0.6753597855567932,0.4249381721019745,0.49685484170913696,-0.06453140079975128,0.06990095973014832,-0.8626034259796143,0.1612589955329895,-0.036400314420461655,-0.04037099704146385,3.5233757495880127,-7.951842308044434,5.787593364715576,0.4800938069820404,0.6788402199745178,0.42539435625076294,0.17104032635688782,-0.053900014609098434,-0.07225778698921204,0.4772312641143799,0.6800312399864197,0.42000001668930054,-0.26120057702064514,-0.05493646115064621,-1.2080038785934448,2.999141216278076,-0.20135904848575592,-0.20239758491516113,-0.19486525654792786,-0.18483978509902954,0.5886486768722534,0.4980992078781128,0.27841588854789734,0.015053692273795605
0.6166666666666667,0.04004736989736557,0.020890409126877785,0.0,0.5962203145027161,0.0,0.0,-0.8028208613395691,0.5483407974243164,-0.07223398238420486,0.0,0.0,0.0,0.6414330005645752,0.48583319783210754,0.67478346824646,0.42252522706985474,0.5379605293273926,-0.0034649558365345,0.04657600820064545,-0.8416752219200134,0.1021307036280632,-0.027002396062016487,-0.13422007858753204,-3.304539680480957,-8.290096282958984,2.06148624420166,0.4806596636772156,0.6778416633605957,0.4267958998680115,-0.1580795794725418,-0.062157247215509415,0.16258861124515533,0.4772312641143799,0.6800312399864197,0.42000001668930054,-0.30038851499557495,-2.9999897480010986,-1.2290477752685547,-2.9995455741882324,-0.1904277801513672,-0.1928814947605133,-0.1888279765844345,-0.1829272210597992,0.49903973937034607,0.45690637826919556,0.29349663853645325,0.0914050042629242
0.6333333333333333,0.05094023048877716,0.023009946569800377,0.0,0.6176708340644836,0.0,0.0,-0.7864367365837097,0.6847867369651794,0.17811541259288788,0.0,0.0,0.0,4.0608673095703125,0.485182523727417,0.6748450994491577,0.42006564140319824,0.5536091923713684,0.0009638937772251666,0.0007992836181074381,-0.8327756524085999,-0.0493318997323513,0.04100522771477699,-0.0937112420797348,-4.414295196533203,1.9721015691757202,1.831356167793274,0.4788845479488373,0.6783390045166016,0.4294695258140564,-0.09099044650793076,0.13664284348487854,0.18157798051834106,0.4772312641143799,0.6800312399864197,0.42000001668930054,-0.3504047393798828,-2.999619722366333,-1.2790167331695557,-2.998922348022461,-0.18326078355312347,-0.18641799688339233,-0.18489009141921997,-0.18201996386051178,0.49369242787361145,0.432323157787323,0.27235445380210876,0.08978845179080963
0.65,0.06352084130048752,0.021730711683630943,0.0,0.6253003478050232,0.0,0.0,-0.7803841829299927,0.7708925008773804,-0.1012372076511383,0.0,0.0,0.0,0.1202203705906868,0.4843187630176544,0.6758055090904236,0.42000001668930054,0.5534982681274414,-2.5584843115211697e-06,7.708310931775486e-07,-0.8328502774238586,-0.07854701578617096,0.08379537612199783,-2.973546361317858e-05,-0.0013625789433717728,-0.0020369738340377808,0.9948264360427856,0.47782832384109497,0.6828968524932861,0.43322187662124634,-0.07134187966585159,0.25777286291122437,0.2597793638706207,0.4772312641143799,0.6800312399864197,0.42000001668930054,-0.40042242407798767,-2.999999761581421,-1.328988790512085,-2.9997262954711914,-0.17236106097698212,-0.17681565880775452,-0.17799891531467438,-0.1780598759651184,0.5815024971961975,0.5362644791603088,0.41404786705970764,0.28073441982269287
0.6666666666666666,0.07767356187105179,0.018006693571805954,0.0,0.6282825469970703,0.0,0.0,-0.7779852747917175,0.8851791024208069,-0.27370139956474304,0.0,0.0,0.0,0.6223617792129517,0.4836258292198181,0.6765320897102356,0.4200000464916229,0.5569354891777039,2.6640702799340943e-07,-9.074705786815684e-08,-0.8305557370185852,-0.023153742775321007,0.024340802803635597,-2.148561179637909e-06,-0.00010215959628112614,8.845316915540025e-05,0.14983753859996796,0.4768666923046112,0.6857132911682129,0.4399396777153015,-0.026520095765590668,0.11276958882808685,0.627329409122467,0.4772312641143799,0.6800312399864197,0.42000001668930054,-0.4504365622997284,-3.0000011920928955,-1.37900710105896,-3.0000009536743164,-0.16626259684562683,-0.17047907412052155,-0.1725074052810669,-0.17352508008480072,0.26598215103149414,0.31467652320861816,0.3093724846839905,0.3019068241119385
0.6833333333333333,0.09360421448945999,0.011503640562295914,0.0,0.6149821877479553,0.0,0.0,-0.7885410189628601,0.9844314455986023,-0.45767655968666077,0.0,0.0,0.0,-2.999920606613159,0.48357337713241577,0.676572322845459,0.4200000464916229,0.5570670366287231,-4.075021934113465e-06,3.4419501844240585e-06,-0.8304675221443176,-0.00038733298424631357,0.00019259392865933478,-0.00022464641369879246,-0.004681212827563286,0.0004924993845634162,0.0013607976725324988,0.48259007930755615,0.6877042055130005,0.4524751603603363,0.6906486749649048,0.08916477859020233,1.0273687839508057,0.4772312641143799,0.6800312399864197,0.42000001668930054,-0.5004492402076721,-2.9999682903289795,-1.429025411605835,-2.9999992847442627,-0.1637973040342331,-0.1669607162475586,-0.16864870488643646,-0.16928310692310333,0.09581184387207031,0.16875633597373962,0.2081703543663025,0.2535504400730133
0.7,0.11251389235258102,0.009082837030291557,0.0,0.5783462524414062,0.0,0.0,-0.8157913684844971,1.1337240934371948,-0.18393860757350922,0.0,0.0,0.0,-6.2712321281433105,0.48357251286506653,0.6765727400779724,0.41999995708465576,0.5570680499076843,-1.4927807114872849e-06,-5.771919404651271e-06,-0.8304668068885803,7.849605026422068e-05,-0.0003904590557795018,-7.496168836951256e-05,0.010124718770384789,-0.0032079769298434258,-0.0010241982527077198,0.502120852470398,0.6837104558944702,0.4761715233325958,1.7463659048080444,-0.4152018129825592,1.8716634511947632,0.4772312641143799,0.6800312399864197,0.42000001668930054,-0.5504618287086487,-2.9999940395355225,-1.47904372215271,-2.9999992847442627,-0.16818907856941223,-0.16913725435733795,-0.16907498240470886,-0.16789278388023376,-0.1792937070131302,-0.07375630736351013,0.015269843861460686,0.11471094936132431
0.7166666666666667,0.1277940720319748,0.007451644167304039,0.0,0.5566397309303284,0.0,0.0,-0.8307539820671082,0.8318625092506409,-0.05129717290401459,0.0,0.0,0.0,-2.1523163318634033,0.4835725426673889,0.6765727996826172,0.41999995708465576,0.5570679306983948,-1.531639782115235e-06,-5.3663438848161604e-06,-0.8304668664932251,7.233420910779387e-05,-0.00038435502210631967,-7.373210974037647e-05,0.009967870078980923,-0.0032031622249633074,-0.000998111441731453,0.5320298671722412,0.6817107200622559,0.5092140436172485,1.7232189178466797,0.124576136469841,2.044137716293335,0.4772312641143799,0.6800312399864197,0.42000001668930054,-0.571367084980011,0.2271946221590042,-1.529062032699585,-3.000000476837158,-0.16905970871448517,-0.16918976604938507,-0.16854327917099,-0.16663095355033875,0.042252928018569946,0.04457106441259384,0.03383764624595642,0.029371635988354683
0.7333333333333333,0.13799066841602325,0.008466924540698528,0.0,0.5613124370574951,0.0,0.0,-0.8276039958000183,0.5591676831245422,0.15109199285507202,0.0,0.0,0.0,1.547109842300415,0.48357251286506653,0.6765727996826172,0.41999995708465576,0.5570680499076843,-1.496123218203138e-06,-5.465879439725541e-06,-0.8304668664932251,7.103007374098524e-05,-0.00038441596552729607,-7.376400753855705e-05,0.009967966936528683,-0.003204955719411373,-0.0009950418025255203,0.5560804605484009,0.6853393316268921,0.5382256507873535,1.0754141807556152,0.2530350685119629,1.4716243743896484,0.4772312641143799,0.6800312399864197,0.42000001668930054,-0.5466411113739014,2.519569158554077,-1.4902511835098267,2.999999761581421,-0.16757379472255707,-0.1676643192768097,-0.16715563833713531,-0.16531743109226227,0.02713007666170597,0.049868497997522354,0.06124507263302803,0.07122455537319183
0.75,0.14407067000865936,0.006282688118517399,0.0,0.5576353669166565,0.0,0.0,-0.8300859928131104,0.29321256279945374,-0.25429773330688477,0.0,0.0,0.0,-1.6490230560302734,0.48357251286506653,0.6765727400779724,0.41999995708465576,0.5570679903030396,-1.3291771665535634e-06,-5.5632008297834545e-06,-0.8304668068885803,7.428738899761811e-05,-0.0003844293241854757,-7.369625382125378e-05,0.009973326697945595,-0.0032043170649558306,-0.0010026878444477916,0.566200315952301,0.6902856826782227,0.5558582544326782,0.13443900644779205,0.34839117527008057,0.8064103126525879,0.4772312641143799,0.6800312399864197,0.42000001668930054,-0.5112211108207703,1.7656419277191162,-1.4402023553848267,3.0,-0.1656949520111084,-0.1655074506998062,-0.16488829255104065,-0.1630002111196518,0.16619914770126343,0.1807022988796234,0.1852429360151291,0.18329709768295288
0.7666666666666666,0.14667068421840668,0.008196932263672352,0.0,0.5654138326644897,0.0,0.0,-0.8248074054718018,0.11041542887687683,0.24949462711811066,0.0,0.0,0.0,1.9939751625061035,0.48357251286506653,0.6765727400779724,0.41999995708465576,0.5570679903030396,-1.5249659099936252e-06,-5.507982677954715e-06,-0.8304668664932251,7.081423245836049e-05,-0.00038436782779172063,-7.374887354671955e-05,0.009966541081666946,-0.0032033452298492193,-0.0009943528566509485,0.5640373229980469,0.6956683397293091,0.5663725137710571,-0.3521896302700043,0.37775909900665283,0.47743144631385803,0.4772312641143799,0.6800312399864197,0.42000001668930054,-0.46816349029541016,3.0000009536743164,-1.4575506448745728,-2.9999992847442627,-0.1682659089565277,-0.16674701869487762,-0.16505011916160583,-0.16235153377056122,-0.20943380892276764,-0.12447066605091095,-0.05510244891047478,-0.0044831084087491035
0.7833333333333333,0.14613039791584015,0.00666886055842042,0.0,0.5599046945571899,0.0,0.0,-0.828557014465332,-0.06665056943893433,-0.18789620697498322,0.0,0.0,0.0,-1.7070618867874146,0.48357251286506653,0.6765727400779724,0.41999995708465576,0.5570679903030396,-1.5016869383543963e-06,-5.4358079069061205e-06,-0.8304668664932251,7.184190326370299e-05,-0.00038429099367931485,-7.372885011136532e-05,0.009965436533093452,-0.0032009256538003683,-0.0009964313358068466,0.5513057112693787,0.7018594741821289,0.5672111511230469,-1.169785737991333,0.3625505864620209,-0.16059985756874084,0.4772312641143799,0.6800312399864197,0.42000001668930054,-0.4480949640274048,-0.32219213247299194,-1.418942928314209,2.999999761581421,-0.16896146535873413,-0.16651953756809235,-0.1640751212835312,-0.16087965667247772,0.017406398430466652,0.065570168197155,0.10515370219945908,0.13031776249408722
0.8,0.14885568618774414,0.01058157254010439,0.0,0.5677851438522339,0.0,0.0,-0.8231768012046814,0.22091858088970184,0.35562455654144287,0.0,0.0,0.0,2.059218645095825,0.4835725426673889,0.6765727400779724,0.41999995708465576,0.5570679903030396,-1.500953203503741e-06,-5.5422810874006245e-06,-0.8304668664932251,7.246418681461364e-05,-0.0003844085440505296,-7.372000254690647e-05,0.009970246814191341,-0.0032034104224294424,-0.000998148345388472,0.5328825116157532,0.7062119245529175,0.5632184743881226,-0.9962185025215149,0.3080283999443054,-0.28465619683265686,0.4772312641143799,0.6800312399864197,0.42000001668930054,-0.43930143117904663,1.2359983921051025,-1.4367133378982544,-2.999997615814209,-0.17531968653202057,-0.17095816135406494,-0.1667785495519638,-0.16217602789402008,-0.37591150403022766,-0.27777400612831116,-0.18629278242588043,-0.11078415811061859
0.8166666666666667,0.14813551306724548,0.010436046868562698,0.0,0.5645554065704346,0.0,0.0,-0.8253951668739319,-0.03840801864862442,-0.08990970253944397,0.0,0.0,0.0,-1.5306494235992432,0.4835725426673889,0.6765727996826172,0.41999995708465576,0.5570680499076843,-1.4947717090763035e-06,-5.472949851537123e-06,-0.8304667472839355,7.218385871965438e-05,-0.0003845392493531108,-7.377122528851032e-05,0.009972566738724709,-0.0032067871652543545,-0.0009982521878555417,0.5158711075782776,0.7104815244674683,0.5530557632446289,-1.0729169845581055,0.046973057091236115,-0.8006883859634399,0.4772312641143799,0.6800312399864197,0.42000001668930054,-0.463384211063385,-3.000000238418579,-1.398159146308899,3.000000238418579,-0.17577172815799713,-0.17084230482578278,-0.16601940989494324,-0.16084825992584229,-0.09231439977884293,-0.03804797679185867,0.0226999893784523,0.07978308945894241
0.8333333333333334,0.149606391787529,0.006717203184962273,0.0,0.5386988520622253,0.0,0.0,-0.8424983620643616,0.13879719376564026,-0.2765975296497345,0.0,0.0,0.0,-4.741702079772949,0.48357251286506653,0.6765727400779724,0.41999995708465576,0.5570680499076843,-1.4991037460276857e-06,-5.48881507711485e-06,-0.8304668664932251,7.427200762322173e-05,-0.0003847351763397455,-7.373630069196224e-05,0.0099819740280509,-0.003209024667739868,-0.0010033511789515615,0.5055109858512878,0.7077826261520386,0.5412945747375488,-0.14106810092926025,-0.3700341582298279,-0.45695960521698,0.4772312641143799,0.6800312399864197,0.42000001668930054,-0.513396143913269,-2.9998879432678223,-1.4163434505462646,-2.999992847442627,-0.17872007191181183,-0.17281115055084229,-0.16681233048439026,-0.1604466289281845,-0.20903147757053375,-0.14795070886611938,-0.0718812346458435,0.008464251644909382
0.85,0.15395213663578033,0.0054506659507751465,0.0,0.5292525887489319,0.0,0.0,-0.84846431016922,0.29943692684173584,0.00042632612166926265,0.0,0.0,0.0,-0.3045143783092499,0.48357251286506653,0.6765727400779724,0.41999995708465576,0.5570679306983948,-1.332762963102141e-06,-5.487646831170423e-06,-0.8304668664932251,7.517063204431906e-05,-0.00038457027403637767,-7.37092923372984e-05,0.009978162124752998,-0.003205070039257407,-0.0010049281409010291,0.5055177211761475,0.7059595584869385,0.5363593101501465,0.08691064268350601,0.042005058377981186,-0.1820097118616104,0.4772312641143799,0.6800312399864197,0.42000001668930054,-0.5355427861213684,0.08906510472297668,-1.4663617610931396,-3.0,-0.18160559237003326,-0.17551764845848083,-0.16907748579978943,-0.16216997802257538,-0.10961806029081345,-0.1399012953042984,-0.1564105749130249,-0.16738013923168182
0.8666666666666667,0.15505526959896088,-0.00012059994332958013,0.0,0.5456113815307617,0.0,0.0,-0.8380383253097534,0.02984236553311348,-0.3520153760910034,0.0,0.0,0.0,2.879088878631592,0.4835725426673889,0.6765727400779724,0.41999995708465576,0.5570681095123291,-1.5339794572355459e-06,-5.758331553806784e-06,-0.8304667472839355,7.250482303788885e-05,-0.0003845596802420914,-7.37279187887907e-05,0.009975102730095387,-0.0032053538598120213,-0.000998815055936575,0.5110836029052734,0.7072240114212036,0.530428409576416,0.43913236260414124,-0.060439977794885635,-0.5325534343719482,0.4772312641143799,0.6800312399864197,0.42000001668930054,-0.5526679754257202,-1.9555047750473022,-1.4277253150939941,3.000000238418579,-0.17918206751346588,-0.1738649159669876,-0.16792666912078857,-0.1613747924566269,0.0015080986777320504,0.0037755549419671297,0.019696805626153946,0.041159823536872864
0.8833333333333333,0.15907326340675354,-0.0008717368473298848,0.0,0.5466929078102112,0.0,0.0,-0.8373332023620605,0.22308093309402466,0.08759650588035583,0.0,0.0,0.0,-0.7202544808387756,0.4835725426673889,0.6765727400779724,0.41999995708465576,0.5570680499076843,-1.5012257108537597e-06,-5.499084181792568e-06,-0.8304668664932251,7.257998368004337e-05,-0.00038473057793453336,-7.375841960310936e-05,0.009979715570807457,-0.003209287067875266,-0.0009994871215894818,0.5193906426429749,0.7013707756996155,0.5195019245147705,0.59800124168396,-0.44280171394348145,-0.6184278130531311,0.4772312641143799,0.6800312399864197,0.42000001668930054,-0.5997382402420044,-3.000000238418579,-1.4453339576721191,-3.000000476837158,-0.18351732194423676,-0.1774209439754486,-0.17047911882400513,-0.16284345090389252,-0.21431097388267517,-0.18176519870758057,-0.13141877949237823,-0.0712386816740036
