vladlanda/robotic-transformer/data/env_000_episode_0031.csv
sim_time_s,robot_box_x,robot_box_y,robot_box_z,robot_box_quat_w,robot_box_quat_x,robot_box_quat_y,robot_box_quat_z,robot_box_linvel_x,robot_box_linvel_y,robot_box_linvel_z,robot_box_angvel_x,robot_box_angvel_y,robot_box_angvel_z,cube_world_x,cube_world_y,cube_world_z,cube_quat_w,cube_quat_x,cube_quat_y,cube_quat_z,cube_linvel_x,cube_linvel_y,cube_linvel_z,cube_angvel_x,cube_angvel_y,cube_angvel_z,endpoint_world_x,endpoint_world_y,endpoint_world_z,endpoint_linvel_x,endpoint_linvel_y,endpoint_linvel_z,target_cube_world_x,target_cube_world_y,target_cube_world_z,gripper_actual_pos_rad_gp_leftgearjoint,gripper_actual_vel_rad_s_gp_leftgearjoint,gripper_actual_pos_rad_gp_rotatingjoint,gripper_actual_vel_rad_s_gp_rotatingjoint,motor_angle_rad_joint1,motor_angle_rad_joint2,motor_angle_rad_joint3,motor_angle_rad_joint4,motor_speed_rad_s_joint1,motor_speed_rad_s_joint2,motor_speed_rad_s_joint3,motor_speed_rad_s_joint4
0.0,0.0,0.0,0.0,1.0,0.0,0.0,0.0,0.0,0.0,0.0,0.0,0.0,0.0,-0.3668888807296753,0.6340239644050598,0.41999998688697815,1.0,0.0,0.0,0.0,0.0,0.0,0.0,0.0,0.0,0.0,3.42540442943573e-06,-0.005000244826078415,1.313499927520752,0.0,0.0,0.0,0.42324572801589966,0.6653522253036499,0.42000001668930054,-1.5707999467849731,0.0,0.0,0.0,0.0,0.0,0.0,0.0,0.0,0.0,0.0,0.0
0.016666666666666666,0.0028808186762034893,0.0021772582549601793,0.0,0.9998149275779724,0.0,0.0,0.01923784241080284,0.24095791578292847,0.18228645622730255,0.0,0.0,0.0,3.1418004035949707,-0.36688899993896484,0.6340236663818359,0.41999998688697815,1.0,3.279964630564791e-06,-8.339746386809566e-07,8.465587342243452e-08,-1.9833529222523794e-05,0.00017983045836444944,-6.132945418357849e-05,0.0009432713268324733,-0.004689474124461412,-0.00031981561915017664,-0.007109319791197777,0.0033883352298289537,1.3159382343292236,-0.8140316009521484,0.987206220626831,0.18096056580543518,0.42324572801589966,0.6653522253036499,0.42000001668930054,-1.5301094055175781,2.9999990463256836,-0.04584876820445061,-3.000001907348633,0.0008700661128386855,0.0007967237615957856,0.000711302098352462,0.0006111598340794444,0.1109500527381897,0.09758777171373367,0.08336439728736877,0.0682588443160057
0.03333333333333333,0.008964546956121922,0.0067966170608997345,0.0,0.9998030066490173,0.0,0.0,0.01984802447259426,0.4070591926574707,0.31519702076911926,0.0,0.0,0.0,-0.8690817952156067,-0.3668891191482544,0.6340236067771912,0.4200000464916229,1.0,3.3908354453160428e-06,-2.1324485715012997e-06,-3.710144014235084e-08,0.00026357831666246057,0.00026937946677207947,-0.00010509486310184002,-0.0017707672668620944,0.004130808170884848,-0.000135478752781637,-0.027532052248716354,0.02600105106830597,1.3166306018829346,-1.5904290676116943,1.6135501861572266,-0.08102580904960632,0.42324572801589966,0.6653522253036499,0.42000001668930054,-1.4800900220870972,3.000002384185791,-0.09588860720396042,-3.0000009536743164,0.00299045629799366,0.002652763156220317,0.0022773502860218287,0.0018608663231134415,0.1641814410686493,0.13974055647850037,0.11380463093519211,0.08629001677036285
0.05,0.01847061887383461,0.013888990506529808,0.0,0.9999766945838928,0.0,0.0,-0.006824786774814129,0.6361520290374756,0.4719802141189575,0.0,0.0,0.0,-4.075170993804932,-0.3668891489505768,0.6340236663818359,0.4200000464916229,1.0,3.7651125239790417e-06,-2.211879063906963e-06,5.622505128144439e-09,0.000265308452071622,0.0002669153327587992,-0.00010440615005791187,-0.001724260626360774,0.004177352879196405,-0.00012949221127200872,-0.05724048987030983,0.056431666016578674,1.312187910079956,-1.9583592414855957,1.9737884998321533,-0.43137040734291077,0.42324572801589966,0.6653522253036499,0.42000001668930054,-1.4300717115402222,3.000002861022949,-0.1459047794342041,-3.0000009536743164,0.006010348442941904,0.005171917378902435,0.004261165391653776,0.0032737404108047485,0.20705851912498474,0.16677533090114594,0.12456586956977844,0.08035442233085632
0.06666666666666667,0.030774671584367752,0.023370614275336266,0.0,0.999883770942688,0.0,0.0,-0.01524798758327961,0.7723469734191895,0.6157657504081726,0.0,0.0,0.0,-0.040668606758117676,-0.3668891489505768,0.6340236067771912,0.4200000464916229,0.9999999403953552,3.4066883927152958e-06,-2.285532218593289e-06,4.300976286231162e-07,0.0002670241810847074,0.00026791772688739,-0.00010438147000968456,-0.00174069800414145,0.00421178387477994,-0.00012850729399360716,-0.09520182013511658,0.08813527226448059,1.3016517162322998,-2.4298110008239746,2.001511335372925,-0.8199092149734497,0.42324572801589966,0.6653522253036499,0.42000001668930054,-1.3800444602966309,3.0,-0.1169055625796318,3.000000238418579,0.008784248493611813,0.00725316209718585,0.005609538871794939,0.0038476719055324793,0.15688613057136536,0.10818598419427872,0.057350169867277145,0.0043179914355278015
0.08333333333333333,0.045533716678619385,0.03068307414650917,0.0,0.9992785453796387,0.0,0.0,-0.037979353219270706,0.9495168924331665,0.377544641494751,0.0,0.0,0.0,-3.541691541671753,-0.3668891489505768,0.6340236067771912,0.4200000464916229,0.9999999403953552,3.626031229941873e-06,-2.3352447442448465e-06,3.032197639640799e-07,0.0002661392209120095,0.0002668500819709152,-0.00010405294597148895,-0.0017282416811212897,0.00419628107920289,-0.00012790791515726596,-0.13048183917999268,0.12630969285964966,1.2874789237976074,-1.8529078960418701,2.545917510986328,-0.8641314506530762,0.42324572801589966,0.6653522253036499,0.42000001668930054,-1.3300367593765259,3.000000476837158,-0.1489063799381256,-3.0000009536743164,0.009916172362864017,0.007263496518135071,0.004454730078577995,0.001485154265537858,0.014172056689858437,-0.07189276069402695,-0.16024817526340485,-0.25082093477249146
0.1,0.05439731851220131,0.040331847965717316,0.0,0.9960071444511414,0.0,0.0,-0.08927363902330399,0.3922826945781708,0.6600531339645386,0.0,0.0,0.0,-7.292854309082031,-0.3668891489505768,0.6340236067771912,0.4200000464916229,1.0,3.4220790894323727e-06,-2.3084901386027923e-06,1.7962952369998675e-07,0.00026681559393182397,0.0002680041070561856,-0.00010440824553370476,-0.001743067754432559,0.004207110498100519,-0.0001289140636799857,-0.16356495022773743,0.17153936624526978,1.2674002647399902,-2.047154426574707,2.886723518371582,-1.4539178609848022,0.42324572801589966,0.6653522253036499,0.42000001668930054,-1.2800184488296509,2.999995231628418,-0.11538374423980713,3.0000011920928955,0.003661906346678734,0.00021999076125212014,-0.0034310813061892986,-0.007299331016838551,-0.4916318356990814,-0.5292885303497314,-0.5694780349731445,-0.6124906539916992
0.11666666666666667,0.05813099071383476,0.05216856300830841,0.0,0.9925504922866821,0.0,0.0,-0.1218341812491417,0.20398415625095367,0.649585485458374,0.0,0.0,0.0,-2.6412158012390137,-0.3668891489505768,0.6340236663818359,0.4200000464916229,1.0,3.7114921269676415e-06,-2.3325701477006078e-06,2.574244888364774e-07,0.0002648564986884594,0.0002663535706233233,-0.0001042329240590334,-0.0017182455630972981,0.004170000087469816,-0.00012915577099192888,-0.20358705520629883,0.2130819708108902,1.2408344745635986,-2.4353370666503906,2.580137252807617,-1.6849408149719238,0.42324572801589966,0.6653522253036499,0.42000001668930054,-1.2300221920013428,2.999999523162842,-0.14735491573810577,-3.000000476837158,-0.0045981621369719505,-0.008890709839761257,-0.013399831019341946,-0.018137767910957336,-0.38033345341682434,-0.4532613456249237,-0.5244664549827576,-0.5940799117088318
0.13333333333333333,0.07034558802843094,0.05950683355331421,0.0,0.9863240718841553,0.0,0.0,-0.1648174673318863,0.823101282119751,0.4844072461128235,0.0,0.0,0.0,-5.822813987731934,-0.3668891489505768,0.6340236067771912,0.4200000464916229,0.9999999403953552,3.4247264011355583e-06,-2.301872882526368e-06,1.559877063073145e-07,0.0002670699032023549,0.000268113479251042,-0.0001044438686221838,-0.0017433533212170005,0.004212031606584787,-0.00012877589324489236,-0.2405988574028015,0.2632823586463928,1.2106744050979614,-1.9892359972000122,3.473289728164673,-2.023611545562744,0.42324572801589966,0.6653522253036499,0.42000001668930054,-1.1800029277801514,2.999866008758545,-0.13438478112220764,2.999999761581421,-0.003790321759879589,-0.010240785777568817,-0.016820572316646576,-0.023539267480373383,-0.07142093777656555,-0.18552818894386292,-0.29529690742492676,-0.4005540907382965
0.15,0.07916908711194992,0.06545063108205795,0.0,0.9824913740158081,0.0,0.0,-0.1863081306219101,0.4715530574321747,0.28909870982170105,0.0,0.0,0.0,-1.474592685699463,-0.3668891489505768,0.6340236067771912,0.4200000464916229,1.0,3.7138852349016815e-06,-2.2076646928326227e-06,-1.690935107490077e-07,0.0002635338169056922,0.00026536203222349286,-0.00010422198101878166,-0.0017013110918924212,0.0041441041976213455,-0.00012960704043507576,-0.27725106477737427,0.31643298268318176,1.1702721118927002,-2.07696270942688,3.3386764526367188,-2.746436357498169,0.42324572801589966,0.6653522253036499,0.42000001668930054,-1.1317793130874634,2.7676916122436523,-0.1662418097257614,-3.0,-0.010019559413194656,-0.017594289034605026,-0.025250958278775215,-0.03300149738788605,-0.41646820306777954,-0.47130367159843445,-0.5231289863586426,-0.5721590518951416
0.16666666666666666,0.08314938098192215,0.07393362373113632,0.0,0.9758329391479492,0.0,0.0,-0.21851781010627747,0.21634526550769806,0.46953991055488586,0.0,0.0,0.0,-4.532449245452881,-0.3668891489505768,0.6340236067771912,0.4200000464916229,0.9999999403953552,3.638363523350563e-06,-2.278693045809632e-06,2.700642482977855e-07,0.0002668263914529234,0.00026750031975097954,-0.00010410090908408165,-0.0017399657517671585,0.004210122860968113,-0.00012781827535945922,-0.31053632497787476,0.3751351237297058,1.1156835556030273,-1.8951120376586914,3.6731011867523193,-3.607576847076416,0.42324572801589966,0.6653522253036499,0.42000001668930054,-1.081882119178772,3.0000011920928955,-0.1500387042760849,3.000000238418579,-0.0208953358232975,-0.02885674312710762,-0.0368569940328598,-0.044916409999132156,-0.5710332989692688,-0.6038802266120911,-0.6324426531791687,-0.6570278406143188
0.18333333333333332,0.09189442545175552,0.07792164385318756,0.0,0.9608026146888733,0.0,0.0,-0.27723345160484314,0.6733099818229675,0.24091756343841553,0.0,0.0,0.0,-7.94905424118042,-0.3668891489505768,0.6340236067771912,0.4200000464916229,1.0,3.3864323540910846e-06,-2.300143023603596e-06,1.4392101377325162e-07,0.00026674565742723644,0.0002678720629774034,-0.00010437029413878918,-0.0017412372399121523,0.004205969627946615,-0.0001287883351324126,-0.33734482526779175,0.4422479271888733,1.048307180404663,-1.1818469762802124,4.278397083282471,-4.434796333312988,0.42324572801589966,0.6653522253036499,0.42000001668930054,-1.031874179840088,3.0000016689300537,-0.18183428049087524,-3.0000011920928955,-0.028837760910391808,-0.037351224571466446,-0.045836977660655975,-0.054320961236953735,-0.6128681898117065,-0.6165844202041626,-0.6181771755218506,-0.618046760559082
0.2,0.09639856964349747,0.08487202227115631,0.0,0.9492782950401306,0.0,0.0,-0.3144371807575226,0.23794546723365784,0.4286613464355469,0.0,0.0,0.0,-3.353013515472412,-0.3668891489505768,0.6340236663818359,0.4200000464916229,1.0,3.6755022847501095e-06,-2.3264412902790355e-06,2.211315717204343e-07,0.00026484468253329396,0.00026631311629898846,-0.00010421779006719589,-0.0017176943365484476,0.0041699339635670185,-0.00012910230725537986,-0.3594898581504822,0.5025007724761963,0.9662761688232422,-1.0377373695373535,3.4991490840911865,-5.231658935546875,0.42324572801589966,0.6653522253036499,0.42000001668930054,-0.9818673133850098,3.0000009536743164,-0.23186329007148743,-3.0000007152557373,-0.04458785057067871,-0.05314115807414055,-0.06149262562394142,-0.0696144849061966,-0.8644262552261353,-0.881530225276947,-0.8948975205421448,-0.8939708471298218
0.21666666666666667,0.09775490313768387,0.09187231212854385,0.0,0.9473654627799988,0.0,0.0,-0.32015424966812134,0.008743553422391415,0.4363020062446594,0.0,0.0,0.0,0.6960663795471191,-0.3668891489505768,0.6340236067771912,0.4200000464916229,1.0,3.322260681670741e-06,-2.2079154859966366e-06,2.7427799409451836e-07,0.0002666290965862572,0.0002674963907338679,-0.00010426202788949013,-0.0017359007615596056,0.004204810131341219,-0.00012833699292968959,-0.3805627226829529,0.5493308305740356,0.8765881657600403,-1.1108837127685547,2.3620548248291016,-5.540755748748779,0.42324572801589966,0.6653522253036499,0.42000001668930054,-0.9318567514419556,2.9999942779541016,-0.2818944752216339,-3.000000476837158,-0.060615088790655136,-0.06912972778081894,-0.07735779136419296,-0.08498849719762802,-0.987464427947998,-0.9889613389968872,-0.9768406748771667,-0.9320064783096313
0.23333333333333334,0.09696388989686966,0.09477519989013672,0.0,0.9420650601387024,0.0,0.0,-0.3354301452636719,-0.10306023061275482,0.10337129235267639,0.0,0.0,0.0,-2.79357647895813,-0.3668891489505768,0.6340236067771912,0.4200000464916229,1.0,3.656489070635871e-06,-2.3733603029540973e-06,-4.076755999449233e-07,0.0002661180915310979,0.0002672612317837775,-0.0001042359508574009,-0.0017336306627839804,0.004194698762148619,-0.00012855089153163135,-0.3956225514411926,0.5879740118980408,0.778938889503479,-0.6526142358779907,2.0166821479797363,-6.036867141723633,0.42324572801589966,0.6653522253036499,0.42000001668930054,-0.8818460702896118,2.999995231628418,-0.33192694187164307,-3.0,-0.07671121507883072,-0.08524511754512787,-0.09347041696310043,-0.1002945527434349,-0.989721953868866,-0.9914034008979797,-0.9859177470207214,-0.9323132038116455
0.25,0.09245704114437103,0.10047030448913574,0.0,0.9415949583053589,0.0,0.0,-0.33674755692481995,-0.32590577006340027,0.3337138593196869,0.0,0.0,0.0,1.04938542842865,-0.3668891489505768,0.6340236663818359,0.4200000464916229,1.0,3.630517994679394e-06,-2.2426397663366515e-06,1.121150816629779e-08,0.00026679891743697226,0.00026706024073064327,-0.00010390975512564182,-0.0017342222854495049,0.0042105624452233315,-0.00012703027459792793,-0.40484172105789185,0.6114863157272339,0.6785597205162048,-0.4373265206813812,0.8098863959312439,-5.888514995574951,0.42324572801589966,0.6653522253036499,0.42000001668930054,-0.8318364024162292,2.999995231628418,-0.38195908069610596,-2.999997138977051,-0.09344542771577835,-0.10189440101385117,-0.11007551103830338,-0.1168827936053276,-0.8503710627555847,-0.874229907989502,-0.8979321718215942,-0.9207605719566345
0.26666666666666666,0.09204824268817902,0.10148025304079056,0.0,0.9372138977050781,0.0,0.0,-0.3487550616264343,-0.03340355306863785,0.05657067522406578,0.0,0.0,0.0,-2.0152721405029297,-0.3668891191482544,0.6340236067771912,0.4200000464916229,0.9999999403953552,3.7401498502731556e-06,-2.2362885374604957e-06,4.49968922566768e-07,0.0002647954970598221,0.0002667295339051634,-0.00010454049333930016,-0.001718834857456386,0.004166595637798309,-0.0001301696029258892,-0.4079357981681824,0.6258828639984131,0.5772648453712463,0.21574963629245758,0.5562424063682556,-5.987303733825684,0.42324572801589966,0.6653522253036499,0.42000001668930054,-0.7818276286125183,3.0000011920928955,-0.43199026584625244,-2.9999992847442627,-0.10747544467449188,-0.1161353811621666,-0.1245470643043518,-0.13161911070346832,-1.0110660791397095,-1.008323073387146,-1.0062315464019775,-1.0045666694641113
0.2833333333333333,0.08823233842849731,0.10121039301156998,0.0,0.9395043849945068,0.0,0.0,-0.34253695607185364,-0.31286847591400146,-0.04116810858249664,0.0,0.0,0.0,1.6929142475128174,-0.3668891489505768,0.6340236067771912,0.4200000464916229,1.0,3.3916360280272784e-06,-2.2911317500984296e-06,1.2459808829135e-07,0.00026677202549763024,0.0002678929304238409,-0.00010437355376780033,-0.0017412655288353562,0.004206337500363588,-0.0001287838094867766,-0.40053391456604004,0.6344672441482544,0.48485854268074036,0.749874472618103,0.45217761397361755,-5.1215739250183105,0.42324572801589966,0.6653522253036499,0.42000001668930054,-0.7318188548088074,3.000001907348633,-0.4820193648338318,-3.00000262260437,-0.12539994716644287,-0.13377273082733154,-0.14196883141994476,-0.14887194335460663,-1.0168262720108032,-1.0127123594284058,-1.0095638036727905,-1.0070462226867676
0.3,0.0809086263179779,0.09886053949594498,0.0,0.9364239573478699,0.0,0.0,-0.35087063908576965,-0.4157762825489044,-0.2106398344039917,0.0,0.0,0.0,-1.8832546472549438,-0.3668891489505768,0.6340236663818359,0.4200000464916229,1.0,3.68068367606611e-06,-2.3190737010736484e-06,2.0108919329686614e-07,0.00026479075313545763,0.0002662576735019684,-0.00010421290062367916,-0.0017168199410662055,0.004168981220573187,-0.00012909970246255398,-0.3812845051288605,0.6377590894699097,0.4000927805900574,1.5085145235061646,0.04011143371462822,-4.977792263031006,0.42324572801589966,0.6653522253036499,0.42000001668930054,-0.6818119287490845,2.9999911785125732,-0.5320471525192261,-2.9999988079071045,-0.14221012592315674,-0.1504766047000885,-0.15862016379833221,-0.16550001502037048,-0.8770023584365845,-0.8926242589950562,-0.9081558585166931,-0.9233323335647583
0.31666666666666665,0.07251577824354172,0.09369860589504242,0.0,0.939133882522583,0.0,0.0,-0.3435514271259308,-0.5465153455734253,-0.3491041660308838,0.0,0.0,0.0,1.8158906698226929,-0.36612820625305176,0.6360937356948853,0.42110487818717957,0.9986913204193115,0.0034589869901537895,0.024286355823278427,-0.04487426578998566,0.18644475936889648,0.3485231101512909,0.15507790446281433,3.3941760063171387,4.359720706939697,-11.258578300476074,-0.38089296221733093,0.6431095600128174,0.4224591851234436,0.18119032680988312,0.5375809073448181,-0.16865117847919464,0.42324572801589966,0.6653522253036499,0.42000001668930054,-0.631977379322052,3.0000014305114746,-0.5826061367988586,-2.999162435531616,-0.14535361528396606,-0.1533895879983902,-0.16089141368865967,-0.1666867882013321,-0.4789702594280243,-0.4155818819999695,-0.3298613727092743,-0.22364838421344757
0.3333333333333333,0.06184981390833855,0.08626583218574524,0.0,0.9362794160842896,0.0,0.0,-0.35125619173049927,-0.6908588409423828,-0.49558183550834656,0.0,0.0,0.0,-1.813706874847412,-0.36311662197113037,0.6417334079742432,0.42207080125808716,0.9896860718727112,0.009079811163246632,0.05066794902086258,-0.1336854249238968,0.17817696928977966,0.3344602584838867,0.027503035962581635,-0.6226722002029419,2.8747406005859375,-10.439557075500488,-0.377203106880188,0.649886429309845,0.423115611076355,0.2641240358352661,0.39529556035995483,0.18664076924324036,0.42324572801589966,0.6653522253036499,0.42000001668930054,-0.5819719433784485,2.999552011489868,-0.6326322555541992,-3.0000009536743164,-0.15369682013988495,-0.16025184094905853,-0.16591741144657135,-0.16960176825523376,-0.48009756207466125,-0.3775615692138672,-0.2554668188095093,-0.12100941687822342
0.35,0.049833592027425766,0.0764685645699501,0.0,0.9392226934432983,0.0,0.0,-0.34330856800079346,-0.7778774499893188,-0.6275161504745483,0.0,0.0,0.0,1.927658200263977,-0.3581044375896454,0.6503230929374695,0.4223744869232178,0.9827687740325928,0.0049133459106087685,0.057231102138757706,-0.17568717896938324,0.46784675121307373,0.745728611946106,0.03970376029610634,-0.3659038543701172,0.7395622134208679,-5.858675956726074,-0.3706677556037903,0.6592928767204285,0.42445698380470276,0.533966064453125,0.7131973505020142,-0.033073991537094116,0.42324572801589966,0.6653522253036499,0.42000001668930054,-0.5319669842720032,2.9999961853027344,-0.6826581954956055,-3.000000476837158,-0.16275367140769958,-0.16697952151298523,-0.1700052171945572,-0.17090144753456116,-0.5082694292068481,-0.3602275252342224,-0.19411088526248932,-0.021019384264945984
0.36666666666666664,0.041115548461675644,0.06398722529411316,0.0,0.9367321133613586,0.0,0.0,-0.3500470221042633,-0.4363367259502411,-0.7953311800956726,0.0,0.0,0.0,-1.766592025756836,-0.34943559765815735,0.6634232401847839,0.42156195640563965,0.9757106900215149,0.008957861922681332,0.039543360471725464,-0.21527794003486633,0.602032482624054,0.8539476990699768,-0.06957266479730606,-1.4916765689849854,-3.605262041091919,-5.225789546966553,-0.35844701528549194,0.6703610420227051,0.4214971363544464,0.9397838115692139,0.6406553983688354,-0.31008416414260864,0.42324572801589966,0.6653522253036499,0.42000001668930054,-0.4819623827934265,2.9999873638153076,-0.7326824069023132,-2.9999992847442627,-0.17104168236255646,-0.1723531186580658,-0.17214936017990112,-0.16971677541732788,-0.4566444456577301,-0.2666492462158203,-0.05929383635520935,0.15146800875663757
0.3833333333333333,0.02971206232905388,0.04992369934916496,0.0,0.9230449795722961,0.0,0.0,-0.3846920430660248,-0.7746691107749939,-0.8690723180770874,0.0,0.0,0.0,-5.406479358673096,-0.3361993730068207,0.6800056099891663,0.4205114245414734,0.9654489159584045,-0.012033628299832344,0.0026883671525865793,-0.26030051708221436,1.243147373199463,0.9883875250816345,0.2717249393463135,-11.511616706848145,4.226393699645996,-9.210246086120605,-0.3408692479133606,0.6831652522087097,0.42196983098983765,1.2475076913833618,0.9607604742050171,0.15050500631332397,0.42324572801589966,0.6653522253036499,0.42000001668930054,-0.43186455965042114,2.9947562217712402,-0.7826792597770691,-2.998913526535034,-0.18017059564590454,-0.17801861464977264,-0.17404934763908386,-0.16779828071594238,-0.5068061947822571,-0.3067002594470978,-0.08934728056192398,0.1302998661994934
0.4,0.021545913070440292,0.03296120837330818,0.0,0.8958972096443176,0.0,0.0,-0.444261372089386,-0.4572618901729584,-1.0605720281600952,0.0,0.0,0.0,-8.618687629699707,-0.3035465180873871,0.7008966207504272,0.42488810420036316,0.9504802227020264,-0.020383648574352264,-0.03188661113381386,-0.30847200751304626,2.6735894680023193,1.345780611038208,0.16209964454174042,33.79157638549805,-23.73882484436035,11.376470565795898,-0.30794620513916016,0.7054027915000916,0.4256528615951538,2.7695770263671875,1.691904067993164,0.50566166639328,0.42324572801589966,0.6653522253036499,0.42000001668930054,-0.38911062479019165,1.387814998626709,-0.8327032923698425,-3.0000009536743164,-0.18809561431407928,-0.18246673047542572,-0.1747477948665619,-0.1647309809923172,-0.5587734580039978,-0.31648027896881104,-0.061344463378190994,0.19032615423202515
0.4166666666666667,0.015210572630167007,0.020793285220861435,0.0,0.852081298828125,0.0,0.0,-0.5234094858169556,-0.33304905891418457,-0.6125824451446533,0.0,0.0,0.0,-11.643301963806152,-0.23048372566699982,0.7317608594894409,0.4298712909221649,0.9285790324211121,0.03702594339847565,-0.08475548774003983,-0.3594251275062561,5.882331848144531,1.8146547079086304,0.297206312417984,8.183843612670898,-13.75820255279541,10.462504386901855,-0.23450155556201935,0.7365566492080688,0.43077659606933594,5.670149803161621,2.231090545654297,0.357235312461853,0.42324572801589966,0.6653522253036499,0.42000001668930054,-0.3772045373916626,0.5392086505889893,-0.7959532737731934,2.998992681503296,-0.20353181660175323,-0.19404813647270203,-0.18045702576637268,-0.16501069068908691,-0.8721277713775635,-0.7738854289054871,-0.4253273010253906,-0.11380677670240402
0.43333333333333335,0.012741799466311932,0.011478688567876816,0.0,0.8151534199714661,0.0,0.0,-0.5792450904846191,-0.0824018120765686,-0.5204572081565857,0.0,0.0,0.0,-6.76336669921875,-0.1354721188545227,0.7669880986213684,0.43746262788772583,0.8871258497238159,0.051997095346450806,-0.13516077399253845,-0.4382186830043793,5.756631374359131,1.8094508647918701,0.7514220476150513,31.339616775512695,-1.5185834169387817,1.5556597709655762,-0.14009861648082733,0.7742701172828674,0.438809335231781,5.862278938293457,2.009641408920288,0.5336862802505493,0.42324572801589966,0.6653522253036499,0.42000001668930054,-0.36477476358413696,0.9320526719093323,-0.8229821920394897,-3.0,-0.2128140777349472,-0.2038910984992981,-0.18635082244873047,-0.16752122342586517,-0.42518046498298645,-0.47039785981178284,-0.30348747968673706,-0.1707272082567215
0.45,0.013690469786524773,0.005283996928483248,0.0,0.7981343269348145,0.0,0.0,-0.6024795770645142,0.11256596446037292,-0.31654226779937744,0.0,0.0,0.0,-2.339937925338745,-0.040256693959236145,0.7903595566749573,0.44939330220222473,0.8293401002883911,0.08461687713861465,-0.0996844545006752,-0.5432291030883789,5.303600311279297,0.38836321234703064,1.2627004384994507,22.728801727294922,27.677738189697266,23.575712203979492,-0.04367561638355255,0.7989829182624817,0.4475916624069214,6.024509906768799,0.9720984697341919,0.5048714280128479,0.42324572801589966,0.6653522253036499,0.42000001668930054,-0.3469200134277344,1.03817880153656,-0.8730062246322632,-2.999545097351074,-0.22065261006355286,-0.21149230003356934,-0.1911245882511139,-0.1700611412525177,-0.4420667886734009,-0.3999803960323334,-0.2516794502735138,-0.13881632685661316
0.4666666666666667,0.012529185973107815,-0.0011784698581323028,0.0,0.7720912098884583,0.0,0.0,-0.6355116963386536,-0.04170467332005501,-0.4953235685825348,0.0,0.0,0.0,-5.852112293243408,0.051931899040937424,0.7968195676803589,0.46044430136680603,0.7624543309211731,0.13818418979644775,-0.03615974634885788,-0.6310791373252869,5.18916654586792,-1.0662466287612915,0.5531306862831116,-1.431290626525879,0.10616068542003632,22.01435661315918,0.04953526705503464,0.8066433668136597,0.4554443061351776,5.6074113845825195,0.020068123936653137,0.5469784140586853,0.42324572801589966,0.6653522253036499,0.42000001668930054,-0.33206823468208313,0.6432234048843384,-0.9230304956436157,-3.000000476837158,-0.22685560584068298,-0.2165769785642624,-0.19397328794002533,-0.17116913199424744,-0.2287428081035614,-0.15837462246418,-0.05216800048947334,0.03214126080274582
0.48333333333333334,0.014229224994778633,-0.00616648280993104,0.0,0.7584096193313599,0.0,0.0,-0.6517782211303711,0.14606481790542603,-0.24433058500289917,0.0,0.0,0.0,-1.371890664100647,0.13712304830551147,0.7899649739265442,0.46627378463745117,0.693340539932251,0.13281169533729553,-0.029111234471201897,-0.7076669335365295,4.375469207763672,-1.617936372756958,0.05508674681186676,-16.66817855834961,-12.753939628601074,29.110301971435547,0.13505737483501434,0.8004931807518005,0.46159833669662476,4.9967803955078125,-0.6847115159034729,0.41029253602027893,0.42324572801589966,0.6653522253036499,0.42000001668930054,-0.3244690001010895,0.1916169971227646,-0.9730545282363892,-3.000006914138794,-0.23045511543750763,-0.21891210973262787,-0.19505268335342407,-0.1713736653327942,-0.1450916826725006,-0.07659941166639328,-0.03815527260303497,-0.021492112427949905
0.5,0.014265925623476505,-0.007074873894453049,0.0,0.73871248960495,0.0,0.0,-0.6740206480026245,-0.05270973592996597,0.02365974523127079,0.0,0.0,0.0,-4.400121212005615,0.21228304505348206,0.7750003933906555,0.4658796787261963,0.63845294713974,0.12540806829929352,-0.020947769284248352,-0.7590861320495605,3.8772237300872803,-1.5993454456329346,-0.28766852617263794,-8.266864776611328,-4.764932155609131,15.835697174072266,0.21044054627418518,0.7856103181838989,0.4616623520851135,4.329586029052734,-1.1529884338378906,-0.07604535669088364,0.42324572801589966,0.6653522253036499,0.42000001668930054,-0.32045385241508484,0.30314210057258606,-1.0230776071548462,-3.0000009536743164,-0.23192964494228363,-0.21969041228294373,-0.19589951634407043,-0.17250077426433563,-0.04328140988945961,-0.006197167560458183,-0.03212225064635277,-0.06700257956981659
0.5166666666666666,0.015611597336828709,-0.010003953240811825,0.0,0.7312974333763123,0.0,0.0,-0.6820586919784546,0.11417659372091293,-0.17555475234985352,0.0,0.0,0.0,-0.3039763867855072,0.27635878324508667,0.7538728713989258,0.4600588381290436,0.5540527701377869,0.10157567262649536,-0.01614345796406269,-0.8261035680770874,3.545536518096924,-1.328503966331482,-0.3928276002407074,3.6164636611938477,-1.027222990989685,-18.578594207763672,0.2729140520095825,0.7632567286491394,0.4566583037376404,3.2710840702056885,-1.5575058460235596,-0.4622756838798523,0.42324572801589966,0.6653522253036499,0.42000001668930054,-0.3093504309654236,1.215588927268982,-1.0730997323989868,-3.000000476837158,-0.2311079204082489,-0.21824771165847778,-0.1952190399169922,-0.17277970910072327,0.05098724365234375,0.08721336722373962,0.02535020187497139,-0.049813251942396164
0.5333333333333333,0.019437041133642197,-0.010617289692163467,0.0,0.7150694131851196,0.0,0.0,-0.6990534067153931,0.27931737899780273,0.02527325414121151,0.0,0.0,0.0,-3.602813243865967,0.32669827342033386,0.7316224575042725,0.44777095317840576,0.521665632724762,0.06720063090324402,0.00919281505048275,-0.8504495024681091,2.5990936756134033,-2.122586488723755,-0.9640236496925354,-0.15198789536952972,5.69302225112915,3.244277000427246,0.32457804679870605,0.739716112613678,0.44350114464759827,2.842316150665283,-1.3306361436843872,-0.9282844066619873,0.42324572801589966,0.6653522253036499,0.42000001668930054,-0.28268691897392273,1.5298157930374146,-1.1231218576431274,-3.0,-0.22922436892986298,-0.2164723128080368,-0.1952386349439621,-0.17470423877239227,0.246834859251976,0.19251704216003418,0.03706643730401993,-0.11756613105535507
0.55,0.025552280247211456,-0.013413751497864723,0.0,0.7120976448059082,0.0,0.0,-0.7020804286003113,0.40129876136779785,-0.21813249588012695,0.0,0.0,0.0,0.4283393323421478,0.3674418330192566,0.7070903778076172,0.4293515384197235,0.4844927191734314,0.03826059401035309,0.019341306760907173,-0.8737441301345825,1.8972246646881104,-2.267930030822754,-0.9958638548851013,3.7985525131225586,2.1138877868652344,1.880019187927246,0.3654657006263733,0.7144150733947754,0.42546045780181885,2.092827796936035,-1.537663221359253,-1.1487642526626587,0.42324572801589966,0.6653522253036499,0.42000001668930054,-0.26526764035224915,0.45930033922195435,-1.173143982887268,-2.999812602996826,-0.22509026527404785,-0.21316005289554596,-0.19452473521232605,-0.17661578953266144,0.24128133058547974,0.18838411569595337,0.026340503245592117,-0.13819123804569244
0.5666666666666667,0.029956461861729622,-0.01299482211470604,0.0,0.6997388601303101,0.0,0.0,-0.7143987417221069,0.18567220866680145,0.04308689385652542,0.0,0.0,0.0,-2.8798651695251465,0.38575682044029236,0.6926667094230652,0.42419329285621643,0.5063941478729248,0.08417488634586334,-0.014421707950532436,-0.8580626845359802,1.1413848400115967,-2.054300546646118,0.005784273147583008,-34.6212272644043,40.11985397338867,30.03542137145996,0.38463789224624634,0.7027993202209473,0.426941454410553,0.9718258380889893,-0.6534063816070557,-0.4604578912258148,0.42324572801589966,0.6653522253036499,0.42000001668930054,-0.252259761095047,0.17613443732261658,-1.2230552434921265,-2.9383084774017334,-0.21941229701042175,-0.20938622951507568,-0.19417542219161987,-0.179457426071167,0.41121619939804077,0.26396650075912476,0.02907540090382099,-0.18972209095954895
0.5833333333333334,0.034702118486166,-0.016131240874528885,0.0,0.6996356844902039,0.0,0.0,-0.7144997119903564,0.31216922402381897,-0.21012763679027557,0.0,0.0,0.0,0.8613430857658386,0.3971996605396271,0.68514084815979,0.42373916506767273,0.5002282857894897,0.08168746531009674,0.028408950194716454,-0.8615634441375732,0.11654499918222427,-1.3324791193008423,0.38629624247550964,-9.179543495178223,-17.892545700073242,16.690305709838867,0.39354565739631653,0.693522572517395,0.4272528290748596,0.10215023159980774,-0.40455448627471924,0.23157387971878052,0.42324572801589966,0.6653522253036499,0.42000001668930054,-0.2607945203781128,-0.9838335514068604,-1.2057181596755981,2.996812343597412,-0.21022304892539978,-0.2028295397758484,-0.1915733963251114,-0.18048131465911865,0.44105303287506104,0.3194381296634674,0.12205218523740768,-0.05832068994641304
0.6,0.037636637687683105,-0.015925729647278786,0.0,0.6898707151412964,0.0,0.0,-0.7239326238632202,0.0984007716178894,0.040805328637361526,0.0,0.0,0.0,-2.419705629348755,0.40033838152885437,0.6789954900741577,0.422963947057724,0.5128442049026489,0.06844878196716309,0.04016893357038498,-0.8548052906990051,0.047190017998218536,-0.19151288270950317,-0.1065535768866539,-1.341396689414978,4.07347297668457,1.7128679752349854,0.3947025537490845,0.6877707242965698,0.42641550302505493,-0.04447781294584274,-0.11969581246376038,0.15195195376873016,0.42324572801589966,0.6653522253036499,0.42000001668930054,-0.291238933801651,-2.2370011806488037,-1.2271201610565186,-2.9968178272247314,-0.20302250981330872,-0.1979524940252304,-0.19011929631233215,-0.18211045861244202,0.5071923136711121,0.3482426404953003,0.13392096757888794,-0.05569563806056976
0.6166666666666667,0.04106850549578667,-0.01648748107254505,0.0,0.6924510598182678,0.0,0.0,-0.7214648127555847,0.24261395633220673,-0.015349905006587505,0.0,0.0,0.0,1.2097147703170776,0.4010302424430847,0.6767164468765259,0.42098182439804077,0.5267856121063232,0.02033628523349762,0.012881075032055378,-0.8496571779251099,0.040316302329301834,-0.12388260662555695,-0.13369636237621307,-6.727304458618164,3.4637560844421387,1.7626322507858276,0.3950544595718384,0.6861449480056763,0.42913201451301575,0.011101294308900833,-0.07278589904308319,0.14597143232822418,0.42324572801589966,0.6653522253036499,0.42000001668930054,-0.33163684606552124,-2.541520833969116,-1.2770905494689941,-2.99914288520813,-0.19365471601486206,-0.19121462106704712,-0.18681462109088898,-0.18183302879333496,0.48482760787010193,0.3511457145214081,0.17340844869613647,0.016466861590743065
0.6333333333333333,0.0464206300675869,-0.015819251537322998,0.0,0.683935821056366,0.0,0.0,-0.7295421361923218,0.3657849133014679,0.08856238424777985,0.0,0.0,0.0,-2.341953754425049,0.40131664276123047,0.6760985255241394,0.41999998688697815,0.5320726633071899,-2.2643623651674716e-06,1.2110926036257297e-05,-0.8466987013816833,-0.0009348516468890011,0.0008510823245160282,-0.00035711436066776514,0.0021903621964156628,-0.016160020604729652,0.00022905576042830944,0.3958643078804016,0.68850177526474,0.4323224425315857,0.10573824495077133,0.23214945197105408,0.2293178290128708,0.42324572801589966,0.6653522253036499,0.42000001668930054,-0.3810966908931732,-2.9977939128875732,-1.3270419836044312,-2.998818874359131,-0.18371552228927612,-0.18401803076267242,-0.18288585543632507,-0.18073399364948273,0.6768835186958313,0.5029056668281555,0.3044704496860504,0.1327398717403412
0.65,0.05349570885300636,-0.017324481159448624,0.0,0.6871093511581421,0.0,0.0,-0.7265540361404419,0.45518383383750916,-0.1592191755771637,0.0,0.0,0.0,1.4117765426635742,0.4013157784938812,0.6760998964309692,0.41999995708465576,0.5320729613304138,-1.5985557411113405e-06,-5.231293471297249e-06,-0.846698522567749,4.622646883944981e-05,-0.0003661531663965434,-6.843521259725094e-05,0.009883437305688858,-0.003468488110229373,-0.0010729552013799548,0.39669275283813477,0.6895811557769775,0.4385836124420166,0.052618131041526794,0.0060909204185009,0.571047306060791,0.42324572801589966,0.6653522253036499,0.42000001668930054,-0.43111005425453186,-3.0,-1.3770605325698853,-3.0,-0.1760389506816864,-0.17800019681453705,-0.17884205281734467,-0.17828364670276642,0.362297922372818,0.30470752716064453,0.2336878478527069,0.18350258469581604
0.6666666666666666,0.06227382272481918,-0.022244080901145935,0.0,0.6795085668563843,0.0,0.0,-0.7336675524711609,0.5614489316940308,-0.36341217160224915,0.0,0.0,0.0,-2.1398818492889404,0.4013157784938812,0.6760998964309692,0.41999995708465576,0.5320727825164795,-1.691298507466854e-06,-5.281152425595792e-06,-0.8466986417770386,3.617922993726097e-05,-0.00036552909296005964,-6.868108175694942e-05,0.009853571653366089,-0.003483206732198596,-0.0010512976441532373,0.4022141098976135,0.6893719434738159,0.44572681188583374,0.5672963261604309,-0.08360865712165833,0.4607616662979126,0.42324572801589966,0.6653522253036499,0.42000001668930054,-0.4811234176158905,-3.0000009536743164,-1.4270788431167603,-2.999999523162842,-0.17156603932380676,-0.1738428920507431,-0.1750769168138504,-0.17454072833061218,0.22562538087368011,0.23877771198749542,0.25369879603385925,0.2907872796058655
0.6833333333333333,0.07342305779457092,-0.028916794806718826,0.0,0.6513533592224121,0.0,0.0,-0.7587745189666748,0.7098904252052307,-0.4794144332408905,0.0,0.0,0.0,-5.385979175567627,0.4013157784938812,0.6760998964309692,0.41999995708465576,0.5320724844932556,-1.7624672636884497e-06,-5.473795226862421e-06,-0.8466988205909729,3.5348250094102696e-05,-0.0003654040629044175,-6.853509694337845e-05,0.009854407981038094,-0.0034876829013228416,-0.0010484858648851514,0.41557225584983826,0.6886931657791138,0.46100637316703796,1.0558780431747437,-0.022083792835474014,1.477281093597412,0.42324572801589966,0.6653522253036499,0.42000001668930054,-0.5311360359191895,-2.999988317489624,-1.4770971536636353,-3.000000238418579,-0.17122532427310944,-0.17267321050167084,-0.173021137714386,-0.17130398750305176,-0.06410203874111176,0.0038431056309491396,0.07700692117214203,0.1646486073732376
0.7,0.08846471458673477,-0.030696973204612732,0.0,0.6358342170715332,0.0,0.0,-0.7718256115913391,0.8265083432197571,-0.07896953821182251,0.0,0.0,0.0,-1.3643721342086792,0.4013157784938812,0.6760998368263245,0.41999995708465576,0.5320725440979004,-1.75492516518716e-06,-5.439711912913481e-06,-0.8466987609863281,3.587639002944343e-05,-0.0003654186730273068,-6.850063800811768e-05,0.009856284596025944,-0.0034899807069450617,-0.0010496396571397781,0.4321868419647217,0.6904358267784119,0.49088963866233826,1.0182020664215088,0.4204239845275879,2.023247241973877,0.42324572801589966,0.6653522253036499,0.42000001668930054,-0.5568393468856812,-0.3003329336643219,-1.5271154642105103,-3.0,-0.1774575412273407,-0.17740972340106964,-0.17629875242710114,-0.17308193445205688,-0.17391814291477203,-0.1642993688583374,-0.15358351171016693,-0.1387428492307663
0.7166666666666667,0.09905289113521576,-0.030766071751713753,0.0,0.6446452140808105,0.0,0.0,-0.7644819021224976,0.5692653059959412,0.0035303793847560883,0.0,0.0,0.0,2.223361015319824,0.4013157784938812,0.6760998368263245,0.41999995708465576,0.5320727825164795,-1.8472436522642965e-06,-5.515262273547705e-06,-0.8466985821723938,3.59481418854557e-05,-0.00036529789213091135,-6.839842535555363e-05,0.009855750948190689,-0.0034936002921313047,-0.0010495329042896628,0.45051515102386475,0.6944043040275574,0.5169432759284973,1.097581148147583,0.15736477077007294,1.1881325244903564,0.42324572801589966,0.6653522253036499,0.42000001668930054,-0.5443820357322693,1.6153371334075928,-1.4883073568344116,3.000000238418579,-0.17868827283382416,-0.17859824001789093,-0.17738869786262512,-0.1740252524614334,0.025008728727698326,0.020824147388339043,0.019936246797442436,0.019208479672670364
0.7333333333333333,0.10502065718173981,-0.033562783151865005,0.0,0.6412369012832642,0.0,0.0,-0.7673429250717163,0.3304792046546936,-0.14960987865924835,0.0,0.0,0.0,-1.4030029773712158,0.4013157784938812,0.6760998964309692,0.41999995708465576,0.5320726037025452,-1.8761354567686794e-06,-5.4373458624468185e-06,-0.8466987013816833,3.205145912943408e-05,-0.00036531794467009604,-6.861542351543903e-05,0.009848090820014477,-0.003480647224932909,-0.0010408969828858972,0.4632737636566162,0.6981598734855652,0.5300369262695312,0.3412046730518341,0.08744391798973083,0.5382577180862427,0.42324572801589966,0.6653522253036499,0.42000001668930054,-0.5327788591384888,-0.0832132026553154,-1.4382508993148804,2.9999990463256836,-0.17509759962558746,-0.17548364400863647,-0.17469793558120728,-0.1717824786901474,0.029203198850154877,0.05620665103197098,0.07930345088243484,0.09080787003040314
0.75,0.10771507024765015,-0.03292083367705345,0.0,0.6491569876670837,0.0,0.0,-0.7606544494628906,0.10967613756656647,0.08906704187393188,0.0,0.0,0.0,2.0569145679473877,0.4013157784938812,0.6760998368263245,0.41999995708465576,0.5320724844932556,-1.7544593902130146e-06,-5.5071304814191535e-06,-0.8466988205909729,3.668025237857364e-05,-0.0003654352040030062,-6.849272176623344e-05,0.009857031516730785,-0.0034899991005659103,-0.001051353639923036,0.46784642338752747,0.6977800726890564,0.5344734191894531,0.2004881501197815,-0.024572547525167465,0.06064575910568237,0.42324572801589966,0.6653522253036499,0.42000001668930054,-0.5246641635894775,0.9579227566719055,-1.455619215965271,-3.0000007152557373,-0.17540551722049713,-0.17516161501407623,-0.1738327592611313,-0.1706196367740631,0.03343595936894417,0.061303675174713135,0.0831076055765152,0.08871901780366898
0.7666666666666666,0.10733166337013245,-0.034268297255039215,0.0,0.6444934010505676,0.0,0.0,-0.7646098732948303,-0.054890457540750504,-0.1943145990371704,0.0,0.0,0.0,-1.6029431819915771,0.4013157784938812,0.6760998964309692,0.41999995708465576,0.5320724844932556,-1.7624728343434981e-06,-5.314749159879284e-06,-0.8466987609863281,3.5837088944390416e-05,-0.00036540807923302054,-6.851460784673691e-05,0.009855415672063828,-0.00349051714874804,-0.0010496436152607203,0.46637260913848877,0.6982324719429016,0.5301698446273804,-0.3512617349624634,0.04255261272192001,-0.4100961983203888,0.42324572801589966,0.6653522253036499,0.42000001668930054,-0.5226560235023499,-0.5842190384864807,-1.4170184135437012,2.999999523162842,-0.17404773831367493,-0.17350323498249054,-0.17197753489017487,-0.16884462535381317,0.12210133671760559,0.13570570945739746,0.14196854829788208,0.1304379105567932
0.7833333333333333,0.1088980883359909,-0.032341986894607544,0.0,0.6512045860290527,0.0,0.0,-0.7589022517204285,0.0616636648774147,0.15622466802597046,0.0,0.0,0.0,1.710149884223938,0.4013157784938812,0.6760998368263245,0.41999995708465576,0.5320725440979004,-1.7474437754572136e-06,-5.5090690693759825e-06,-0.8466987013816833,3.5430548450676724e-05,-0.000365411484381184,-6.852950900793076e-05,0.009854855015873909,-0.00348818302154541,-0.0010486830724403262,0.4601369798183441,0.6974935531616211,0.5235530734062195,-0.32718658447265625,0.07739993929862976,-0.3646036386489868,0.42324572801589966,0.6653522253036499,0.42000001668930054,-0.5290753245353699,-0.21429331600666046,-1.4348222017288208,-2.9999990463256836,-0.17526903748512268,-0.174040749669075,-0.17193716764450073,-0.16852156817913055,0.05332386866211891,0.055530399084091187,0.057757437229156494,0.04950616881251335
0.8,0.11148789525032043,-0.03345257043838501,0.0,0.6457571983337402,0.0,0.0,-0.7635428309440613,0.19438251852989197,-0.12026239186525345,0.0,0.0,0.0,-1.69986891746521,0.4013157784938812,0.6760998964309692,0.41999995708465576,0.5320726037025452,-1.7538562815389014e-06,-5.315612725098617e-06,-0.8466987609863281,3.583753277780488e-05,-0.00036540761357173324,-6.851390935480595e-05,0.009855388663709164,-0.0034905322827398777,-0.0010496353497728705,0.45623642206192017,0.6979449391365051,0.5152348875999451,-0.18449167907238007,-0.07141439616680145,-0.4782419800758362,0.42324572801589966,0.6653522253036499,0.42000001668930054,-0.5661937594413757,-3.0000009536743164,-1.4644482135772705,-0.7273879647254944,-0.17398713529109955,-0.17269520461559296,-0.17041954398155212,-0.1668972373008728,0.001965011702850461,0.03214627131819725,0.07131745666265488,0.10874620825052261
0.8166666666666667,0.11681767553091049,-0.0329316109418869,0.0,0.6196761727333069,0.0,0.0,-0.7848575711250305,0.3667788505554199,0.13479310274124146,0.0,0.0,0.0,-4.855323791503906,0.4013157784938812,0.6760998964309692,0.41999995708465576,0.5320726633071899,-1.7683714759186842e-06,-5.509277798410039e-06,-0.8466987013816833,3.5557513911044225e-05,-0.0003654091851785779,-6.852485239505768e-05,0.009854912757873535,-0.003488618414849043,-0.0010489673586562276,0.45830580592155457,0.6976354122161865,0.5111865997314453,0.417616069316864,-0.003489965572953224,0.11307739466428757,0.42324572801589966,0.6653522253036499,0.42000001668930054,-0.6162046790122986,-2.999990940093994,-1.5095360279083252,-3.0,-0.1747729331254959,-0.17329132556915283,-0.1705663949251175,-0.16649727523326874,-0.06827116012573242,-0.06730546057224274,-0.04679105430841446,-0.015548812225461006
0.8333333333333334,0.12443538010120392,-0.028348829597234726,0.0,0.6085505485534668,0.0,0.0,-0.7935150861740112,0.4942191541194916,0.3271317183971405,0.0,0.0,0.0,-0.6972581744194031,0.4013157784938812,0.6760998368263245,0.41999995708465576,0.5320727229118347,-1.7763604773790576e-06,-5.466257789521478e-06,-0.8466986417770386,3.608582483138889e-05,-0.00036542111774906516,-6.848946213722229e-05,0.009856770746409893,-0.0034908915404230356,-0.0010501124197617173,0.4635745584964752,0.7013899683952332,0.515821635723114,0.19926783442497253,0.42425674200057983,0.43295609951019287,0.42324572801589966,0.6653522253036499,0.42000001668930054,-0.6346385478973389,0.49935731291770935,-1.5595543384552002,-2.999999523162842,-0.17564289271831512,-0.17465628683567047,-0.1721627414226532,-0.16818669438362122,-0.018527530133724213,-0.07364649325609207,-0.11814737319946289,-0.15786384046077728
0.85,0.12894949316978455,-0.028888195753097534,0.0,0.6218946576118469,0.0,0.0,-0.7831009030342102,0.2672125995159149,-0.08319652080535889,0.0,0.0,0.0,2.7156481742858887,0.4013157784938812,0.6760998964309692,0.41999995708465576,0.5320727229118347,-1.7567391523698461e-06,-5.471416898217285e-06,-0.8466985821723938,3.5761637263931334e-05,-0.0003654085739981383,-6.852182559669018e-05,0.009855104610323906,-0.0034902950283139944,-0.0010494908783584833,0.46637505292892456,0.7100725173950195,0.5201437473297119,0.06750255078077316,0.47082948684692383,0.10243400931358337,0.42324572801589966,0.6653522253036499,0.42000001668930054,-0.6251564025878906,0.6207992434501648,-1.5206549167633057,3.000000476837158,-0.17132331430912018,-0.17169995605945587,-0.1704317182302475,-0.16761146485805511,0.133523091673851,0.0904875099658966,0.04945303499698639,0.0062855882570147514
0.8666666666666667,0.13064365088939667,-0.02892640419304371,0.0,0.6211643815040588,0.0,0.0,-0.7836803197860718,0.03180476650595665,0.04799617826938629,0.0,0.0,0.0,-0.9964737296104431,0.4013157784938812,0.6760998368263245,0.41999995708465576,0.5320726037025452,-1.7235280438399059e-06,-5.605494152405299e-06,-0.8466986417770386,3.746991205844097e-05,-0.00036541608278639615,-6.846175529062748e-05,0.009857828728854656,-0.0034926587250083685,-0.0010530886938795447,0.46367910504341125,0.7163758277893066,0.5185041427612305,-0.36300909519195557,0.32382676005363464,-0.15314842760562897,0.42324572801589966,0.6653522253036499,0.42000001668930054,-0.6346741914749146,-1.5658926963806152,-1.4706060886383057,2.999999523162842,-0.1724582463502884,-0.17278675734996796,-0.17149798572063446,-0.16875995695590973,-0.15756744146347046,-0.1298011988401413,-0.10618254542350769,-0.09095382690429688
