vladlanda/robotic-transformer/data/env_000_episode_0198.csv
sim_time_s,robot_box_x,robot_box_y,robot_box_z,robot_box_quat_w,robot_box_quat_x,robot_box_quat_y,robot_box_quat_z,robot_box_linvel_x,robot_box_linvel_y,robot_box_linvel_z,robot_box_angvel_x,robot_box_angvel_y,robot_box_angvel_z,cube_world_x,cube_world_y,cube_world_z,cube_quat_w,cube_quat_x,cube_quat_y,cube_quat_z,cube_linvel_x,cube_linvel_y,cube_linvel_z,cube_angvel_x,cube_angvel_y,cube_angvel_z,endpoint_world_x,endpoint_world_y,endpoint_world_z,endpoint_linvel_x,endpoint_linvel_y,endpoint_linvel_z,target_cube_world_x,target_cube_world_y,target_cube_world_z,gripper_actual_pos_rad_gp_leftgearjoint,gripper_actual_vel_rad_s_gp_leftgearjoint,gripper_actual_pos_rad_gp_rotatingjoint,gripper_actual_vel_rad_s_gp_rotatingjoint,motor_angle_rad_joint1,motor_angle_rad_joint2,motor_angle_rad_joint3,motor_angle_rad_joint4,motor_speed_rad_s_joint1,motor_speed_rad_s_joint2,motor_speed_rad_s_joint3,motor_speed_rad_s_joint4
0.0,0.0,0.0,0.0,1.0,0.0,0.0,0.0,0.0,0.0,0.0,0.0,0.0,0.0,-0.3865160346031189,0.7228756546974182,0.41999998688697815,1.0,0.0,0.0,0.0,0.0,0.0,0.0,0.0,0.0,0.0,3.42540442943573e-06,-0.005000244826078415,1.313499927520752,0.0,0.0,0.0,0.4297688603401184,0.7725861668586731,0.42000001668930054,-1.5707999467849731,0.0,0.0,0.0,0.0,0.0,0.0,0.0,0.0,0.0,0.0,0.0
0.016666666666666666,0.0028793970122933388,0.002178959548473358,0.0,0.9998117089271545,0.0,0.0,0.019403427839279175,0.24091723561286926,0.1823449432849884,0.0,0.0,0.0,3.1418330669403076,-0.38651615381240845,0.7228753566741943,0.41999998688697815,1.0,3.279964630564791e-06,-8.339746386809566e-07,8.465587342243452e-08,-1.9833529222523794e-05,0.00017983045836444944,-6.132945418357849e-05,0.0009432713268324733,-0.004689474124461412,-0.00031981561915017664,-0.007109524682164192,0.0033836928196251392,1.3159376382827759,-0.8141745924949646,0.9870470762252808,0.1809576004743576,0.4297688603401184,0.7725861668586731,0.42000001668930054,-1.5301095247268677,3.000001907348633,-0.045848339796066284,-2.999999523162842,0.0008699053432792425,0.0007965588592924178,0.0007111058803275228,0.0006109567475505173,0.11094091087579727,0.0975792407989502,0.08335703611373901,0.06825149059295654
0.03333333333333333,0.008962834253907204,0.006799276918172836,0.0,0.9997997283935547,0.0,0.0,0.02001369372010231,0.40704065561294556,0.31524786353111267,0.0,0.0,0.0,-0.8691020011901855,-0.386516273021698,0.7228752970695496,0.4200000464916229,1.0,3.3908354453160428e-06,-2.1324485715012997e-06,-3.710144014235084e-08,0.00026357831666246057,0.00026937946677207947,-0.00010509486310184002,-0.0017707672668620944,0.004130808170884848,-0.000135478752781637,-0.027547815814614296,0.026311850175261497,1.3165805339813232,-1.590757131576538,1.6169781684875488,-0.08709422498941422,0.4297688603401184,0.7725861668586731,0.42000001668930054,-1.4800903797149658,3.0,-0.0958881750702858,-3.000000238418579,0.002990438835695386,0.0026526961009949446,0.002277209423482418,0.0018606652738526464,0.16418428719043732,0.13974033296108246,0.11380159109830856,0.08628332614898682
0.05,0.01847301796078682,0.013900583609938622,0.0,0.9999763369560242,0.0,0.0,-0.006878936663269997,0.6362675428390503,0.47233131527900696,0.0,0.0,0.0,-4.073959827423096,-0.3865163028240204,0.7228753566741943,0.4200000464916229,1.0,3.7651125239790417e-06,-2.211879063906963e-06,5.622505128144439e-09,0.000265308452071622,0.0002669153327587992,-0.00010440615005791187,-0.001724260626360774,0.004177352879196405,-0.00012949221127200872,-0.057121116667985916,0.05809835344552994,1.3117164373397827,-1.9445977210998535,2.1199164390563965,-0.4795476794242859,0.4297688603401184,0.7725861668586731,0.42000001668930054,-1.4300720691680908,2.999999523162842,-0.14592687785625458,-3.0000007152557373,0.006010760087519884,0.005170187447220087,0.00425730599090457,0.0032677974086254835,0.20685075223445892,0.1663932353258133,0.12401390075683594,0.07963693886995316
0.06666666666666667,0.03079165704548359,0.02339019812643528,0.0,0.9998807311058044,0.0,0.0,-0.015442602336406708,0.7726714015007019,0.6161997318267822,0.0,0.0,0.0,-0.03780881687998772,-0.3865163028240204,0.7228752970695496,0.4200000464916229,0.9999999403953552,3.4066883927152958e-06,-2.285532218593289e-06,4.300976286231162e-07,0.0002670241810847074,0.00026791772688739,-0.00010438147000968456,-0.00174069800414145,0.00421178387477994,-0.00012850729399360716,-0.09239562600851059,0.09259071201086044,1.301021695137024,-2.156769275665283,2.186676025390625,-0.7912871241569519,0.4297688603401184,0.7725861668586731,0.42000001668930054,-1.3800537586212158,2.9999988079071045,-0.1959354430437088,-3.0000014305114746,0.008550393395125866,0.006927219219505787,0.0051913196220994,0.0033376633655279875,0.12892045080661774,0.0715479627251625,0.01201116107404232,-0.04974198341369629
0.08333333333333333,0.045287054032087326,0.03502432629466057,0.0,0.9992746710777283,0.0,0.0,-0.03807995468378067,0.944683313369751,0.7347477078437805,0.0,0.0,0.0,-3.5619821548461914,-0.3865163028240204,0.7228752970695496,0.4200000464916229,0.9999999403953552,3.626031229941873e-06,-2.3352447442448465e-06,3.032197639640799e-07,0.0002661392209120095,0.0002668500819709152,-0.00010405294597148895,-0.0017282416811212897,0.00419628107920289,-0.00012790791515726596,-0.12460330128669739,0.13373079895973206,1.2871121168136597,-1.708978295326233,2.7311925888061523,-0.8738991618156433,0.4297688603401184,0.7725861668586731,0.42000001668930054,-1.3300265073776245,2.9999985694885254,-0.16216608881950378,3.0,0.009119956754148006,0.006317733321338892,0.003358679823577404,0.00023966049775481224,-0.012100200168788433,-0.09826710820198059,-0.18667522072792053,-0.2772851586341858
0.1,0.05409299582242966,0.0506066232919693,0.0,0.995857834815979,0.0,0.0,-0.09092415869235992,0.3900340795516968,1.0174336433410645,0.0,0.0,0.0,-7.3123674392700195,-0.3865163028240204,0.7228752970695496,0.4200000464916229,1.0,3.4220790894323727e-06,-2.3084901386027923e-06,1.7962952369998675e-07,0.00026681559393182397,0.0002680041070561856,-0.00010440824553370476,-0.001743067754432559,0.004207110498100519,-0.0001289140636799857,-0.15139584243297577,0.18055252730846405,1.2712440490722656,-1.5176031589508057,2.917483329772949,-0.9807502627372742,0.4297688603401184,0.7725861668586731,0.42000001668930054,-1.2800369262695312,3.000000238418579,-0.19390654563903809,-3.0000009536743164,0.0023297518491744995,-0.001432033721357584,-0.00540447561070323,-0.009593860246241093,-0.5379987955093384,-0.5928937792778015,-0.6504158973693848,-0.7108050584793091
0.11666666666666667,0.057724229991436005,0.06801047921180725,0.0,0.9923208951950073,0.0,0.0,-0.12369002401828766,0.21350723505020142,0.9903650283813477,0.0,0.0,0.0,-2.725719928741455,-0.3865163028240204,0.7228753566741943,0.4200000464916229,1.0,3.7114921269676415e-06,-2.3325701477006078e-06,2.574244888364774e-07,0.0002648564986884594,0.0002663535706233233,-0.0001042329240590334,-0.0017182455630972981,0.004170000087469816,-0.00012915577099192888,-0.18483027815818787,0.22463485598564148,1.2528679370880127,-2.1748428344726562,2.7668821811676025,-1.1845061779022217,0.4297688603401184,0.7725861668586731,0.42000001668930054,-1.2300376892089844,2.999999761581421,-0.24394036829471588,-3.0000007152557373,-0.006543368101119995,-0.011328337714076042,-0.016330022364854813,-0.02155802957713604,-0.42163464426994324,-0.4962156414985657,-0.569065511226654,-0.6402820944786072
0.13333333333333333,0.07053756713867188,0.0809553861618042,0.0,0.9859534502029419,0.0,0.0,-0.1670205146074295,0.8181921243667603,0.831359326839447,0.0,0.0,0.0,-5.824762344360352,-0.3865163028240204,0.7228752970695496,0.4200000464916229,0.9999999403953552,3.4247264011355583e-06,-2.301872882526368e-06,1.559877063073145e-07,0.0002670699032023549,0.000268113479251042,-0.0001044438686221838,-0.0017433533212170005,0.004212031606584787,-0.00012877589324489236,-0.215785950422287,0.2780712842941284,1.2331411838531494,-1.5705125331878662,3.711165189743042,-1.3221484422683716,0.4297688603401184,0.7725861668586731,0.42000001668930054,-1.180017113685608,2.9999969005584717,-0.2229745090007782,3.000000238418579,-0.00579755799844861,-0.012898477725684643,-0.020122716203331947,-0.027475740760564804,-0.16141773760318756,-0.2764681875705719,-0.3874668478965759,-0.4941352605819702
0.15,0.0793919786810875,0.0920577347278595,0.0,0.9817076325416565,0.0,0.0,-0.19039474427700043,0.47809353470802307,0.5867469906806946,0.0,0.0,0.0,-1.6349916458129883,-0.3865163028240204,0.7228752970695496,0.4200000464916229,1.0,3.7138852349016815e-06,-2.2076646928326227e-06,-1.690935107490077e-07,0.0002635338169056922,0.00026536203222349286,-0.00010422198101878166,-0.0017013110918924212,0.0041441041976213455,-0.00012960704043507576,-0.2482810914516449,0.3348842263221741,1.2040317058563232,-2.02238392829895,3.495828628540039,-2.072303056716919,0.4297688603401184,0.7725861668586731,0.42000001668930054,-1.1506538391113281,0.7001176476478577,-0.2542429268360138,-3.0000014305114746,-0.012971341609954834,-0.021164368838071823,-0.029435552656650543,-0.037791647017002106,-0.45685797929763794,-0.5065113306045532,-0.5531674027442932,-0.5969727635383606
0.16666666666666666,0.08347176760435104,0.1056489646434784,0.0,0.974462628364563,0.0,0.0,-0.22454974055290222,0.2357379049062729,0.7518384456634521,0.0,0.0,0.0,-4.827769756317139,-0.3865163028240204,0.7228752970695496,0.4200000464916229,0.9999999403953552,3.638363523350563e-06,-2.278693045809632e-06,2.700642482977855e-07,0.0002668263914529234,0.00026750031975097954,-0.00010410090908408165,-0.0017399657517671585,0.004210122860968113,-0.00012781827535945922,-0.28123944997787476,0.39832019805908203,1.1615735292434692,-1.9132320880889893,4.132544994354248,-2.8598508834838867,0.4297688603401184,0.7725861668586731,0.42000001668930054,-1.1085059642791748,2.9999985694885254,-0.2843954861164093,-0.7828879356384277,-0.024306440725922585,-0.03273303434252739,-0.041199587285518646,-0.049720991402864456,-0.5675553679466248,-0.5931525826454163,-0.6144254803657532,-0.6316301226615906
0.18333333333333332,0.08706136047840118,0.11857984960079193,0.0,0.9648280143737793,0.0,0.0,-0.262881875038147,0.1429765522480011,0.8190588355064392,0.0,0.0,0.0,-4.6024556159973145,-0.3865163028240204,0.7228752970695496,0.4200000464916229,1.0,3.3864323540910846e-06,-2.300143023603596e-06,1.4392101377325162e-07,0.00026674565742723644,0.0002678720629774034,-0.00010437029413878918,-0.0017412372399121523,0.004205969627946615,-0.0001287883351324126,-0.31398242712020874,0.4666766822338104,1.1071045398712158,-1.7393807172775269,4.272802352905273,-3.662447452545166,0.4297688603401184,0.7725861668586731,0.42000001668930054,-1.0593503713607788,2.870999336242676,-0.33197101950645447,-3.000000238418579,-0.03438388183712959,-0.042999543249607086,-0.05158701166510582,-0.06016814336180687,-0.6693983674049377,-0.6654202342033386,-0.6578614711761475,-0.6471933126449585
0.2,0.09533466398715973,0.12729346752166748,0.0,0.9608244895935059,0.0,0.0,-0.2771574556827545,0.5153816342353821,0.5190592408180237,0.0,0.0,0.0,-0.6503210663795471,-0.3865163028240204,0.7228753566741943,0.4200000464916229,1.0,3.6755022847501095e-06,-2.3264412902790355e-06,2.211315717204343e-07,0.00026484468253329396,0.00026631311629898846,-0.00010421779006719589,-0.0017176943365484476,0.0041699339635670185,-0.00012910230725537986,-0.34514686465263367,0.5327993035316467,1.0389468669891357,-1.590440273284912,3.9495439529418945,-4.582653999328613,0.4297688603401184,0.7725861668586731,0.42000001668930054,-1.0093836784362793,3.0000007152557373,-0.3819960951805115,-2.999999761581421,-0.042295992374420166,-0.050747256726026535,-0.05912753939628601,-0.06746798008680344,-0.6962850689888,-0.6382724642753601,-0.5808371901512146,-0.5247959494590759
0.21666666666666667,0.09736137092113495,0.1391243040561676,0.0,0.952799379825592,0.0,0.0,-0.30360057950019836,0.09871478378772736,0.6857235431671143,0.0,0.0,0.0,-4.0327677726745605,-0.3865163028240204,0.7228752970695496,0.4200000464916229,1.0,3.322260681670741e-06,-2.2079154859966366e-06,2.7427799409451836e-07,0.0002666290965862572,0.0002674963907338679,-0.00010426202788949013,-0.0017359007615596056,0.004204810131341219,-0.00012833699292968959,-0.36848658323287964,0.5947624444961548,0.9563465118408203,-1.1869592666625977,3.599703550338745,-5.109277725219727,0.4297688603401184,0.7725861668586731,0.42000001668930054,-0.9593744874000549,2.9999983310699463,-0.43202295899391174,-3.0000009536743164,-0.057561907917261124,-0.06604144722223282,-0.07421655207872391,-0.08183853328227997,-0.7371489405632019,-0.771340548992157,-0.8084923028945923,-0.8441348075866699
0.23333333333333334,0.09832073003053665,0.14619378745555878,0.0,0.9501468539237976,0.0,0.0,-0.3118027448654175,-0.06937107443809509,0.3633419871330261,0.0,0.0,0.0,-0.027101930230855942,-0.3865163028240204,0.7228752970695496,0.4200000464916229,1.0,3.656489070635871e-06,-2.3733603029540973e-06,-4.076755999449233e-07,0.0002661180915310979,0.0002672612317837775,-0.0001042359508574009,-0.0017336306627839804,0.004194698762148619,-0.00012855089153163135,-0.3893096446990967,0.6465567350387573,0.8661755323410034,-1.0177013874053955,2.7346606254577637,-5.707730293273926,0.4297688603401184,0.7725861668586731,0.42000001668930054,-0.9093643426895142,2.9999921321868896,-0.4820522367954254,-2.999997138977051,-0.0705331340432167,-0.07900405675172806,-0.08713745325803757,-0.09475542604923248,-0.9202198386192322,-0.8962977528572083,-0.855390191078186,-0.8198038935661316
0.25,0.09939244389533997,0.15517544746398926,0.0,0.9425941705703735,0.0,0.0,-0.3339405357837677,0.1170566976070404,0.5466349124908447,0.0,0.0,0.0,-3.602067708969116,-0.3865163028240204,0.7228753566741943,0.4200000464916229,1.0,3.630435230661533e-06,-2.2425372208090266e-06,1.1225562701611125e-08,0.0002667999651748687,0.0002670606190804392,-0.00010390975512564182,-0.0017342327628284693,0.004210583865642548,-0.0001270299544557929,-0.40297865867614746,0.6875161528587341,0.7640331983566284,-0.6035913228988647,2.0489773750305176,-6.368495464324951,0.4297688603401184,0.7725861668586731,0.42000001668930054,-0.8593536615371704,3.00000262260437,-0.5320820212364197,-2.9999983310699463,-0.08666302263736725,-0.09510823339223862,-0.10320083796977997,-0.11037059128284454,-0.95782071352005,-0.9480574131011963,-0.9427706599235535,-0.9408086538314819
0.26666666666666666,0.09885017573833466,0.16080765426158905,0.0,0.9409323334693909,0.0,0.0,-0.33859461545944214,-0.0802239403128624,0.2635708451271057,0.0,0.0,0.0,0.35365942120552063,-0.386516273021698,0.7228752970695496,0.4200000464916229,0.9999999403953552,3.7400498058559606e-06,-2.2362221443472663e-06,4.499843271332793e-07,0.00026479526422917843,0.0002667304943315685,-0.00010454165749251842,-0.0017189675709232688,0.004166619386523962,-0.00013016564480494708,-0.41204047203063965,0.7108827829360962,0.6562410593032837,-0.2926340401172638,0.8537487983703613,-6.525594711303711,0.4297688603401184,0.7725861668586731,0.42000001668930054,-0.8093443512916565,2.999995470046997,-0.5821117758750916,-3.000001907348633,-0.10326206684112549,-0.11168581992387772,-0.11976443976163864,-0.12690334022045135,-0.9939832091331482,-0.9950162172317505,-0.995810866355896,-0.9950388669967651
0.2833333333333333,0.0951816663146019,0.16274422407150269,0.0,0.9349208474159241,0.0,0.0,-0.35485631227493286,-0.2739201486110687,0.06474082916975021,0.0,0.0,0.0,-2.9251139163970947,-0.3865163028240204,0.7228752970695496,0.4200000464916229,1.0,3.3915318908839254e-06,-2.2911408450454473e-06,1.2461448761769134e-07,0.00026677080313675106,0.0002678920573089272,-0.00010437588207423687,-0.0017412164015695453,0.004206300713121891,-0.00012878398410975933,-0.41145646572113037,0.720394492149353,0.5475309491157532,0.40426260232925415,0.21075451374053955,-6.325237274169922,0.4297688603401184,0.7725861668586731,0.42000001668930054,-0.7593355774879456,3.000002145767212,-0.6321409344673157,-3.000000238418579,-0.12068938463926315,-0.12892842292785645,-0.13686732947826385,-0.14389614760875702,-1.00841224193573,-1.0063416957855225,-1.0047638416290283,-1.003504753112793
0.3,0.08907923847436905,0.16213880479335785,0.0,0.9350801110267639,0.0,0.0,-0.35443636775016785,-0.4032556712627411,-0.07749202847480774,0.0,0.0,0.0,0.9426175355911255,-0.3865163028240204,0.7228753566741943,0.4200000464916229,1.0,3.6806275147682754e-06,-2.319080067536561e-06,2.0109595766371058e-07,0.0002647907240316272,0.0002662569750100374,-0.00010421173647046089,-0.0017167399637401104,0.004168936051428318,-0.00012909939687233418,-0.4030366539955139,0.7224525213241577,0.4493423104286194,0.7187110781669617,-0.04006553441286087,-5.490161418914795,0.4297688603401184,0.7725861668586731,0.42000001668930054,-0.7093276977539062,3.000002384185791,-0.6821678280830383,-3.0000014305114746,-0.13805827498435974,-0.14614547789096832,-0.15397295355796814,-0.16091574728488922,-1.0157326459884644,-1.0119211673736572,-1.0090068578720093,-1.0066670179367065
0.31666666666666665,0.08074162900447845,0.15906459093093872,0.0,0.9301193952560425,0.0,0.0,-0.3672572672367096,-0.5557069778442383,-0.23604221642017365,0.0,0.0,0.0,-2.4140076637268066,-0.38650941848754883,0.722896158695221,0.42000237107276917,0.9999998807907104,-0.000247267511440441,3.803420622716658e-05,-1.1747372809622902e-05,-0.006616315338760614,-0.019922036677598953,-0.005902518983930349,0.17277026176452637,0.04072901979088783,0.04090975597500801,-0.3978225588798523,0.7237473726272583,0.41727161407470703,0.2414768785238266,0.18850231170654297,0.020153403282165527,0.4297688603401184,0.7725861668586731,0.42000001668930054,-0.6594800353050232,2.9530489444732666,-0.7326825857162476,-2.814873695373535,-0.14619606733322144,-0.1549285650253296,-0.16315162181854248,-0.17018289864063263,-0.10553896427154541,-0.17854690551757812,-0.22177143394947052,-0.230421781539917
0.3333333333333333,0.07012589275836945,0.15339648723602295,0.0,0.931559145450592,0.0,0.0,-0.36358991265296936,-0.676484227180481,-0.3805047869682312,0.0,0.0,0.0,1.3820513486862183,-0.385141521692276,0.7255731821060181,0.42025384306907654,0.9994633793830872,0.0063154990784823895,7.900364289525896e-05,-0.032138075679540634,0.24078835546970367,0.417245477437973,0.044492002576589584,2.30774188041687,-0.06893449276685715,-8.945013046264648,-0.3966006934642792,0.7312798500061035,0.4241179823875427,0.1729961335659027,0.5168743133544922,-0.14765074849128723,0.4297688603401184,0.7725861668586731,0.42000001668930054,-0.6094692349433899,2.9999961853027344,-0.7827133536338806,-2.9999921321868896,-0.1489250808954239,-0.15812267363071442,-0.1663500964641571,-0.17289336025714874,-0.28462061285972595,-0.2710879445075989,-0.23648016154766083,-0.18131425976753235
0.35,0.06301771849393845,0.14484119415283203,0.0,0.9276611804962158,0.0,0.0,-0.3734229803085327,-0.34840697050094604,-0.5619408488273621,0.0,0.0,0.0,-2.1080641746520996,-0.38140392303466797,0.7321091890335083,0.42000073194503784,0.995087206363678,-2.322724867553916e-06,-4.1054285247810185e-05,-0.09900218993425369,0.20958134531974792,0.3692649304866791,-2.6749330572783947e-05,0.0008752853027544916,0.0004185596772003919,-7.292314052581787,-0.3921690583229065,0.7382367849349976,0.42190003395080566,0.41257771849632263,0.46334460377693176,-0.1189565509557724,0.4297688603401184,0.7725861668586731,0.42000001668930054,-0.5594643354415894,2.999986410140991,-0.8327609300613403,-2.9999964237213135,-0.15471932291984558,-0.16304603219032288,-0.17006926238536835,-0.1751205325126648,-0.3905733823776245,-0.30605408549308777,-0.20466351509094238,-0.09083052724599838
0.36666666666666664,0.053735606372356415,0.1347593516111374,0.0,0.9298138618469238,0.0,0.0,-0.3680301010608673,-0.634735643863678,-0.6256325840950012,0.0,0.0,0.0,1.7104195356369019,-0.3737631142139435,0.7424231171607971,0.4202161729335785,0.9829893708229065,0.005333209875971079,-0.0006637820042669773,-0.1835838258266449,0.7265377640724182,0.8844665288925171,0.057231053709983826,2.8621420860290527,-0.9210264682769775,-5.24883508682251,-0.3828551173210144,0.7494736909866333,0.4207111597061157,0.6738494634628296,0.8783400058746338,-0.02154581993818283,0.4297688603401184,0.7725861668586731,0.42000001668930054,-0.509459376335144,2.999986171722412,-0.8827975988388062,-3.0000009536743164,-0.16479314863681793,-0.17067226767539978,-0.17501944303512573,-0.17727960646152496,-0.6266671419143677,-0.46355733275413513,-0.287665992975235,-0.1067095398902893
0.3833333333333333,0.048082198947668076,0.12201884388923645,0.0,0.9264988303184509,0.0,0.0,-0.37629765272140503,-0.28703659772872925,-0.8007180690765381,0.0,0.0,0.0,-1.9791780710220337,-0.36118534207344055,0.7575699090957642,0.42000073194503784,0.9741178750991821,8.00126654212363e-05,-0.00013419712195172906,-0.22604022920131683,0.7781005501747131,0.9265280365943909,-0.002865180606022477,-0.09051590412855148,0.19043070077896118,-6.129813194274902,-0.36893177032470703,0.7629233002662659,0.42136096954345703,1.0195209980010986,0.7719579339027405,0.11835873872041702,0.4297688603401184,0.7725861668586731,0.42000001668930054,-0.4594261050224304,2.999897003173828,-0.9328250288963318,-2.999946117401123,-0.1732616126537323,-0.17622973024845123,-0.1773681938648224,-0.17626677453517914,-0.5015004277229309,-0.2989378869533539,-0.07728075981140137,0.153549462556839
0.4,0.039422377943992615,0.1078757643699646,0.0,0.9111072421073914,0.0,0.0,-0.4121693968772888,-0.6016187071800232,-0.8738369345664978,0.0,0.0,0.0,-5.625781536102295,-0.34023725986480713,0.7765734195709229,0.4217931032180786,0.9563028216362,-0.007513822056353092,-0.011719084344804287,-0.2920463979244232,1.8240587711334229,0.965234637260437,0.4763840138912201,-6.1881818771362305,0.6880742311477661,9.222991943359375,-0.3467363715171814,0.7807906866073608,0.4236082434654236,1.627510905265808,1.2917945384979248,0.254771888256073,0.4297688603401184,0.7725861668586731,0.42000001668930054,-0.4094643294811249,2.8697502613067627,-0.9828447103500366,-2.9998703002929688,-0.18359948694705963,-0.1829928159713745,-0.18028564751148224,-0.1752442717552185,-0.6376507878303528,-0.4270862936973572,-0.20405079424381256,0.02088465541601181
0.4166666666666667,0.033921536058187485,0.09076546132564545,0.0,0.8815021514892578,0.0,0.0,-0.47217997908592224,-0.2863970994949341,-1.0734097957611084,0.0,0.0,0.0,-8.778254508972168,-0.3011048138141632,0.8026342988014221,0.4289846122264862,0.9377479553222656,0.0034968999680131674,-0.03467661514878273,-0.3455633223056793,3.404073715209961,1.817771315574646,0.674599289894104,2.63150691986084,-3.2948081493377686,-3.488616466522217,-0.3065982460975647,0.8082033395767212,0.43025603890419006,3.214939594268799,1.9762039184570312,0.6987170577049255,0.4297688603401184,0.7725861668586731,0.42000001668930054,-0.3826366066932678,0.8115827441215515,-1.0328469276428223,-3.000000476837158,-0.1938277930021286,-0.18955974280834198,-0.18301287293434143,-0.17414067685604095,-0.6967557668685913,-0.44606590270996094,-0.18838326632976532,0.06399568915367126
0.43333333333333335,0.030556276440620422,0.07863876968622208,0.0,0.8351362943649292,0.0,0.0,-0.5500431060791016,-0.15853387117385864,-0.609309196472168,0.0,0.0,0.0,-11.702813148498535,-0.22244539856910706,0.8384758234024048,0.44066911935806274,0.9069169759750366,0.07092553377151489,-0.0668601244688034,-0.4098791480064392,6.029160499572754,1.7625762224197388,0.8387914299964905,4.612501621246338,-8.806286811828613,19.104324340820312,-0.2283485233783722,0.844484806060791,0.4417228102684021,5.961444854736328,2.5246763229370117,0.8594166040420532,0.4297688603401184,0.7725861668586731,0.42000001668930054,-0.36770161986351013,0.9245757460594177,-0.9952200055122375,2.999321937561035,-0.20976251363754272,-0.2028624415397644,-0.19083261489868164,-0.17693491280078888,-0.9173084497451782,-0.8969464898109436,-0.5724501609802246,-0.2860912084579468
0.45,0.029769599437713623,0.06984980404376984,0.0,0.796755850315094,0.0,0.0,-0.6043013334274292,0.06259214878082275,-0.5216736197471619,0.0,0.0,0.0,-6.757566452026367,-0.12554581463336945,0.8717055916786194,0.45517775416374207,0.8666378259658813,0.10594421625137329,-0.07850273698568344,-0.48119840025901794,5.922155857086182,0.8395071625709534,0.8304640650749207,-3.9608280658721924,-5.151130676269531,19.651479721069336,-0.1301140934228897,0.8794658184051514,0.45651620626449585,6.091583728790283,1.7354049682617188,0.9263129234313965,0.4297688603401184,0.7725861668586731,0.42000001668930054,-0.3534765839576721,0.7201189994812012,-1.0200060606002808,-3.0000011920928955,-0.220207080245018,-0.21408358216285706,-0.20051884651184082,-0.18258069455623627,-0.5217899680137634,-0.547012984752655,-0.47966426610946655,-0.28583666682243347
0.4666666666666667,0.028003869578242302,0.06505755335092545,0.0,0.7797170281410217,0.0,0.0,-0.626132071018219,-0.1085938960313797,-0.2387104034423828,0.0,0.0,0.0,-2.026872158050537,-0.024761978536844254,0.8895972967147827,0.4702214300632477,0.7938875555992126,0.15135976672172546,-0.028462722897529602,-0.5882367491722107,6.015214920043945,0.3105263113975525,1.063466191291809,19.57334327697754,6.462823390960693,1.8043824434280396,-0.02860371209681034,0.8981185555458069,0.4689677357673645,6.263359069824219,0.6396120190620422,0.708434522151947,0.4297688603401184,0.7725861668586731,0.42000001668930054,-0.3407229483127594,0.7235069274902344,-1.0700281858444214,-2.9999895095825195,-0.23142096400260925,-0.224495068192482,-0.20912091434001923,-0.18785053491592407,-0.5942544341087341,-0.5354390144348145,-0.43962427973747253,-0.27676934003829956
0.48333333333333334,0.03036191686987877,0.054565586149692535,0.0,0.7539754509925842,0.0,0.0,-0.656902551651001,0.2536168396472931,-0.7926896810531616,0.0,0.0,0.0,-5.852627277374268,0.07695567607879639,0.8912559747695923,0.4791242182254791,0.7088063359260559,0.15343081951141357,-0.022578872740268707,-0.6881443858146667,5.925941467285156,-0.8152053356170654,0.22956308722496033,-5.604382514953613,-22.72810173034668,8.968618392944336,0.07309887558221817,0.901957631111145,0.4774487018585205,6.106897354125977,-0.3148811459541321,0.46441471576690674,0.4297688603401184,0.7725861668586731,0.42000001668930054,-0.3293713927268982,0.5736837387084961,-1.120050311088562,-3.0000054836273193,-0.23532971739768982,-0.2275356650352478,-0.21091699600219727,-0.1875452846288681,-0.0729459822177887,3.948807716369629e-07,0.08336230367422104,0.19869282841682434
0.5,0.029141224920749664,0.04790680110454559,0.0,0.7391678690910339,0.0,0.0,-0.6735212206840515,-0.048488836735486984,-0.31534695625305176,0.0,0.0,0.0,-1.277641773223877,0.16939231753349304,0.8783718347549438,0.48551109433174133,0.6536645889282227,0.14412526786327362,-0.015270659700036049,-0.74277663230896,4.972020149230957,-1.6929041147232056,0.25688502192497253,-8.971689224243164,-9.162415504455566,14.588257789611816,0.16758285462856293,0.8886704444885254,0.4843399226665497,5.503545761108398,-1.142396330833435,0.49699732661247253,0.4297688603401184,0.7725861668586731,0.42000001668930054,-0.3201823830604553,0.4827273488044739,-1.1700724363327026,-3.0000033378601074,-0.23996324837207794,-0.23260219395160675,-0.21373355388641357,-0.18819770216941833,-0.028020646423101425,-0.2920670211315155,-0.2012009173631668,-0.1303057074546814
0.5166666666666666,0.030591189861297607,0.045347779989242554,0.0,0.718798041343689,0.0,0.0,-0.6952189207077026,0.13936957716941833,-0.08943264186382294,0.0,0.0,0.0,-4.455035209655762,0.250725656747818,0.8573077917098999,0.4837208390235901,0.5822723507881165,0.0968940332531929,-0.04597567766904831,-0.8058887124061584,4.196518898010254,-1.7849881649017334,-0.6360397934913635,-26.783592224121094,13.869275093078613,-0.6308682560920715,0.2487710565328598,0.8689261674880981,0.4853582978248596,4.504432678222656,-1.390785574913025,-0.08334600180387497,0.4297688603401184,0.7725861668586731,0.42000001668930054,-0.31124046444892883,0.5161502957344055,-1.2200945615768433,-3.000000476837158,-0.23892995715141296,-0.23555609583854675,-0.2160748988389969,-0.19037573039531708,0.1310931295156479,-0.06747045367956161,-0.06395183503627777,-0.09695035219192505
0.5333333333333333,0.034644946455955505,0.046365074813365936,0.0,0.7117756009101868,0.0,0.0,-0.7024069428443909,0.27561140060424805,0.12032277882099152,0.0,0.0,0.0,-0.22304938733577728,0.31706762313842773,0.8305248618125916,0.4685417711734772,0.5017486214637756,-0.05772176757454872,-0.163332000374794,-0.8474898338317871,3.4481122493743896,-1.5733006000518799,-1.026007056236267,-10.834291458129883,-0.23842792212963104,-5.758918285369873,0.3142992854118347,0.8435444831848145,0.4785896837711334,3.4792983531951904,-1.6677272319793701,-0.6572113037109375,0.4297688603401184,0.7725861668586731,0.42000001668930054,-0.29533982276916504,1.421830415725708,-1.2701166868209839,-3.000000238418579,-0.23661792278289795,-0.23574867844581604,-0.2165321558713913,-0.19183491170406342,0.2134852558374405,0.09130891412496567,0.0439242348074913,-0.05333887040615082
0.55,0.04163142666220665,0.042583201080560684,0.0,0.6948543787002563,0.0,0.0,-0.7191504836082458,0.40465742349624634,-0.25636884570121765,0.0,0.0,0.0,-3.6536521911621094,0.3676759600639343,0.8071264624595642,0.45059746503829956,0.4761819541454315,-0.09137033671140671,-0.13389897346496582,-0.864276111125946,2.477060079574585,-1.899925947189331,-0.8957512378692627,-6.85341739654541,9.166557312011719,10.973091125488281,0.3672581911087036,0.8204151391983032,0.4607810974121094,2.722893714904785,-1.3468496799468994,-1.3253624439239502,0.4297688603401184,0.7725861668586731,0.42000001668930054,-0.27328523993492126,0.8394066691398621,-1.320123553276062,-3.0000014305114746,-0.2275909036397934,-0.22925566136837006,-0.2121437042951584,-0.190341979265213,0.4907231628894806,0.3864353895187378,0.25921833515167236,0.0775311067700386
0.5666666666666667,0.05064242705702782,0.04355784133076668,0.0,0.6903485059738159,0.0,0.0,-0.7234769463539124,0.5655704140663147,0.0607086680829525,0.0,0.0,0.0,0.1790357381105423,0.40513890981674194,0.7824774384498596,0.4282679855823517,0.4629921019077301,-0.10661092400550842,-0.14531727135181427,-0.8678452372550964,1.8053098917007446,-1.7188833951950073,-1.2456610202789307,-6.024537086486816,2.6028387546539307,6.555582046508789,0.40431681275367737,0.7953884601593018,0.4381384253501892,1.8894728422164917,-1.4327199459075928,-1.4740551710128784,0.4297688603401184,0.7725861668586731,0.42000001668930054,-0.2669620215892792,0.16878913342952728,-1.2933170795440674,2.999913454055786,-0.22342976927757263,-0.2257612645626068,-0.21040242910385132,-0.19137518107891083,0.3629070818424225,0.30077019333839417,0.14706732332706451,-0.0622088685631752
0.5833333333333334,0.05702971667051315,0.046657394617795944,0.0,0.6759135127067566,0.0,0.0,-0.7369809150695801,0.31214532256126404,0.24188169836997986,0.0,0.0,0.0,-3.28656005859375,0.42747846245765686,0.7742356657981873,0.42003583908081055,0.4790865480899811,-0.0008846449200063944,0.0008098501712083817,-0.8777668476104736,0.6697327494621277,-0.1618795394897461,0.04074854776263237,0.008733905851840973,1.1373300552368164,3.6339457035064697,0.4248262643814087,0.7812215685844421,0.4234870672225952,0.640640139579773,-0.24580127000808716,0.16966059803962708,0.4297688603401184,0.7725861668586731,0.42000001668930054,-0.2583156228065491,0.9746706485748291,-1.313632845878601,-2.992764472961426,-0.2147689163684845,-0.21894471347332,-0.20713484287261963,-0.192316934466362,0.6617500185966492,0.5152601599693298,0.25737372040748596,-0.027261482551693916
0.6,0.06371212750673294,0.04638897627592087,0.0,0.6737924814224243,0.0,0.0,-0.7389205694198608,0.42371195554733276,-0.03839372470974922,0.0,0.0,0.0,0.5880133509635925,0.4343443810939789,0.7720206379890442,0.4200003743171692,0.5136399865150452,9.85707447398454e-06,1.4261783690017182e-05,-0.858005702495575,0.14425620436668396,-0.09120513498783112,-0.0005983291193842888,-0.025647858157753944,0.015154936350882053,5.1613545417785645,0.4300381541252136,0.7762070894241333,0.4228719472885132,0.012949935160577297,-0.33227142691612244,-0.06532495468854904,0.4297688603401184,0.7725861668586731,0.42000001668930054,-0.2543405592441559,-0.39382344484329224,-1.2753777503967285,2.999778985977173,-0.20346957445144653,-0.2094564139842987,-0.20159776508808136,-0.1912100464105606,0.5336012244224548,0.47941944003105164,0.2829951345920563,0.054644059389829636
0.6166666666666667,0.06791221350431442,0.04932330548763275,0.0,0.6612948179244995,0.0,0.0,-0.7501260638237,0.19444136321544647,0.1941518634557724,0.0,0.0,0.0,-2.9181606769561768,0.4358902871608734,0.7710916996002197,0.4199959635734558,0.5316731333732605,0.00012552911357488483,-0.0003116419829893857,-0.8469495177268982,0.09082379192113876,-0.046464934945106506,-0.004279788583517075,0.16008448600769043,0.13367167115211487,1.7915642261505127,0.43129417300224304,0.7732279300689697,0.42444851994514465,0.03780142590403557,-0.0976603701710701,0.17989225685596466,0.4297688603401184,0.7725861668586731,0.42000001668930054,-0.2871006727218628,-2.999842405319214,-1.2951278686523438,-2.9992849826812744,-0.19558605551719666,-0.2023780196905136,-0.19771099090576172,-0.1909419596195221,0.5840976238250732,0.5136674046516418,0.3012263774871826,0.07015106827020645
0.6333333333333333,0.0730302482843399,0.051501303911209106,0.0,0.6611409187316895,0.0,0.0,-0.7502617239952087,0.32457220554351807,0.10776825994253159,0.0,0.0,0.0,0.8755204677581787,0.4363732635974884,0.7707839608192444,0.4200027287006378,0.5365902781486511,0.00011048757005482912,-4.8427809815621004e-05,-0.8438429236412048,-0.08613339811563492,-0.020881127566099167,-0.006049724295735359,-0.04541365057229996,0.43053537607192993,2.252706289291382,0.4306493103504181,0.7724287509918213,0.42711031436920166,-0.032889723777770996,0.004592938348650932,0.15235011279582977,0.4297688603401184,0.7725861668586731,0.42000001668930054,-0.31919917464256287,-1.0276143550872803,-1.3451114892959595,-2.9995157718658447,-0.1868557631969452,-0.19437876343727112,-0.19281189143657684,-0.18944819271564484,0.45999056100845337,0.43876123428344727,0.2764437198638916,0.0958167314529419
0.65,0.07948502898216248,0.050197627395391464,0.0,0.6505536437034607,0.0,0.0,-0.7594603300094604,0.423510879278183,-0.1492411494255066,0.0,0.0,0.0,-2.590632200241089,0.43581289052963257,0.7705819010734558,0.4200001060962677,0.5453694462776184,-5.01288980103709e-07,-9.926105803970131e-07,-0.8381957411766052,-0.017484840005636215,-0.006861008238047361,-0.00011288165114820004,0.002279006876051426,0.0020740022882819176,0.6550109386444092,0.4307452440261841,0.7735357284545898,0.4300519824028015,-0.01073954626917839,0.09543466567993164,0.2055690735578537,0.4297688603401184,0.7725861668586731,0.42000001668930054,-0.3641512393951416,-2.9999985694885254,-1.3950772285461426,-2.9992072582244873,-0.17922396957874298,-0.1869760900735855,-0.18786408007144928,-0.18719853460788727,0.46342039108276367,0.45916661620140076,0.3272547721862793,0.18210940062999725
0.6666666666666666,0.08841671049594879,0.051916252821683884,0.0,0.6522705554962158,0.0,0.0,-0.7579861879348755,0.5527281761169434,0.1261375993490219,0.0,0.0,0.0,1.1735308170318604,0.4357226490974426,0.770610511302948,0.42000001668930054,0.5473582148551941,2.2239037207327783e-06,-1.2707851965387817e-05,-0.8368984460830688,-0.048344772309064865,0.014860240742564201,-0.00026492722099646926,0.00723628094419837,0.010293764062225819,2.541907548904419,0.4288438558578491,0.7740881443023682,0.43549108505249023,-0.12517590820789337,0.08151230961084366,0.4583515524864197,0.4297688603401184,0.7725861668586731,0.42000001668930054,-0.4141665995121002,-2.9999735355377197,-1.445095419883728,-2.999998092651367,-0.17541822791099548,-0.18257936835289001,-0.18481798470020294,-0.18567205965518951,0.2389839142560959,0.2661357522010803,0.18998654186725616,0.1101723313331604
0.6833333333333333,0.09888307005167007,0.04977032169699669,0.0,0.6426560282707214,0.0,0.0,-0.7661548256874084,0.6554360389709473,-0.1491180807352066,0.0,0.0,0.0,-2.4640212059020996,0.43550413846969604,0.7706326842308044,0.42000001668930054,0.5499817728996277,2.2060845367377624e-05,-1.234554383700015e-05,-0.8351766467094421,0.0020214468240737915,0.00019870843971148133,-0.0007476652390323579,-0.024873293936252594,0.011930836364626884,-0.005439217202365398,0.42959922552108765,0.7760023474693298,0.43970903754234314,0.13049918413162231,5.955621600151062e-05,0.22522836923599243,0.4297688603401184,0.7725861668586731,0.42000001668930054,-0.4641801714897156,-3.0000007152557373,-1.495113730430603,-2.999999523162842,-0.16987572610378265,-0.1765013337135315,-0.17964085936546326,-0.18131370842456818,0.18239867687225342,0.2684040665626526,0.2797710597515106,0.2978435754776001
0.7,0.11116448044776917,0.04443923756480217,0.0,0.6118931174278259,0.0,0.0,-0.7909404635429382,0.7775921821594238,-0.385762482881546,0.0,0.0,0.0,-5.655867576599121,0.4355067014694214,0.7706326246261597,0.4200000464916229,0.5499792695045471,7.215630759560554e-09,-2.73919545179524e-06,-0.8351781964302063,4.347760113887489e-05,-0.00024687431869097054,-7.493188604712486e-05,0.006417485419660807,-0.0019886093214154243,-0.0006855792016722262,0.434210866689682,0.7754005789756775,0.4512864351272583,0.48576951026916504,-0.07003489136695862,1.2672654390335083,0.4297688603401184,0.7725861668586731,0.42000001668930054,-0.5141929984092712,-2.999952793121338,-1.545132040977478,-2.9999985694885254,-0.16987638175487518,-0.1745949536561966,-0.17692099511623383,-0.17768339812755585,-0.10064829140901566,0.02809719741344452,0.09937525540590286,0.17583101987838745
0.7166666666666667,0.1269364058971405,0.04383549094200134,0.0,0.5938936471939087,0.0,0.0,-0.8045435547828674,0.9304197430610657,-0.06698059290647507,0.0,0.0,0.0,-1.622799038887024,0.4355067014694214,0.7706326246261597,0.4200000464916229,0.5499796271324158,2.1131342009539367e-07,-2.8056172141077695e-06,-0.8351780772209167,4.656793680624105e-05,-0.00025276426458731294,-7.787300273776054e-05,0.006545356009155512,-0.002038499340415001,-0.0007098657079041004,0.4423724412918091,0.7772068381309509,0.4781493544578552,0.597429633140564,0.41015392541885376,1.847288966178894,0.4297688603401184,0.7725861668586731,0.42000001668930054,-0.5521438121795654,-1.6399803161621094,-1.595147728919983,-2.999997138977051,-0.17614269256591797,-0.17847295105457306,-0.17930759489536285,-0.1785876452922821,-0.15046390891075134,-0.09947054088115692,-0.08870933949947357,-0.07093360275030136
0.7333333333333333,0.13876579701900482,0.04436139389872551,0.0,0.6018423438072205,0.0,0.0,-0.7986149191856384,0.6280657649040222,0.07679670304059982,0.0,0.0,0.0,2.080075263977051,0.4355067014694214,0.7706326246261597,0.4200000464916229,0.5499797463417053,2.1092273527756333e-07,-2.682136710063787e-06,-0.8351779580116272,4.652229108614847e-05,-0.0002527993347030133,-7.787765935063362e-05,0.006546384189277887,-0.002039615996181965,-0.0007101852097548544,0.4551222324371338,0.7847354412078857,0.5017912983894348,0.7723056077957153,0.472429484128952,1.0430883169174194,0.4297688603401184,0.7725861668586731,0.42000001668930054,-0.5538771152496338,1.185828447341919,-1.6451622247695923,-3.000000238418579,-0.17702233791351318,-0.17869935929775238,-0.17942586541175842,-0.17849329113960266,0.012479106895625591,0.0490698367357254,0.057387977838516235,0.06888126581907272
0.75,0.14579558372497559,0.04066008701920509,0.0,0.5973231792449951,0.0,0.0,-0.8020006418228149,0.3782740533351898,-0.2801229953765869,0.0,0.0,0.0,-1.6702189445495605,0.4355067014694214,0.7706326246261597,0.4200000464916229,0.5499795079231262,1.853871083312697e-07,-2.6448276457813336e-06,-0.8351780772209167,4.6127152018016204e-05,-0.0002529298944864422,-7.777637802064419e-05,0.0065523539669811726,-0.0020440337248146534,-0.0007095130858942866,0.4647481143474579,0.7905741333961487,0.5120793581008911,0.367387592792511,0.1428396999835968,0.35933709144592285,0.4297688603401184,0.7725861668586731,0.42000001668930054,-0.5678004622459412,-2.5225107669830322,-1.6060220003128052,3.0000011920928955,-0.1744658350944519,-0.17567703127861023,-0.1763487160205841,-0.17536349594593048,0.06547974050045013,0.12526392936706543,0.16057288646697998,0.18878178298473358
0.7666666666666666,0.15253829956054688,0.04211227223277092,0.0,0.6054183840751648,0.0,0.0,-0.7959073781967163,0.4064826965332031,0.21845729649066925,0.0,0.0,0.0,2.164374351501465,0.4355067014694214,0.7706326246261597,0.4200000464916229,0.5499794483184814,2.159545431368315e-07,-2.693983105928055e-06,-0.8351780772209167,4.678484037867747e-05,-0.0002525258460082114,-7.791956886649132e-05,0.006538056768476963,-0.0020348611287772655,-0.0007098173373378813,0.4694586396217346,0.7918949127197266,0.5174322128295898,0.20412880182266235,0.10140953958034515,0.3091733455657959,0.4297688603401184,0.7725861668586731,0.42000001668930054,-0.5925074219703674,-0.5895932912826538,-1.6198304891586304,-3.000000476837158,-0.17834393680095673,-0.1776179075241089,-0.1767825484275818,-0.17455118894577026,-0.2860426604747772,-0.16685907542705536,-0.07072289288043976,0.007461716420948505
0.7833333333333333,0.15506765246391296,0.04062085971236229,0.0,0.6027978658676147,0.0,0.0,-0.7978939414024353,0.06211346760392189,-0.17719106376171112,0.0,0.0,0.0,-1.3953142166137695,0.4355067014694214,0.7706326246261597,0.4200000464916229,0.5499792695045471,1.856644615827463e-07,-2.65336188931542e-06,-0.8351783156394958,4.8136360419448465e-05,-0.00025126434047706425,-7.815565913915634e-05,0.006498157046735287,-0.002012193202972412,-0.0007097548805177212,0.47281718254089355,0.790571928024292,0.5150400400161743,0.1670255959033966,-0.2442139834165573,-0.40157604217529297,0.4297688603401184,0.7725861668586731,0.42000001668930054,-0.6268237233161926,-3.000000238418579,-1.5917268991470337,2.9999990463256836,-0.18114906549453735,-0.1786232888698578,-0.17620675265789032,-0.17260807752609253,-0.13761240243911743,-0.023796746507287025,0.08237814158201218,0.17702864110469818
0.8,0.15863455832004547,0.04184936359524727,0.0,0.5776952505111694,0.0,0.0,-0.8162525296211243,0.26020926237106323,0.11941248923540115,0.0,0.0,0.0,-4.586446285247803,0.4355067014694214,0.7706326246261597,0.4200000464916229,0.5499796867370605,1.1482758566216944e-07,-2.7052569748775568e-06,-0.8351779580116272,4.595317295752466e-05,-0.00025294750230386853,-7.775542326271534e-05,0.006553234998136759,-0.002046943176537752,-0.0007092583109624684,0.476215660572052,0.7865473031997681,0.5128539204597473,0.31675153970718384,-0.20249727368354797,0.23728933930397034,0.4297688603401184,0.7725861668586731,0.42000001668930054,-0.676842987537384,-2.999978542327881,-1.6059342622756958,-2.9999992847442627,-0.18507739901542664,-0.18101970851421356,-0.17701710760593414,-0.17189620435237885,-0.17852270603179932,-0.12156973779201508,-0.05222475528717041,0.020591560751199722
0.8166666666666667,0.16458472609519958,0.046245720237493515,0.0,0.568282425403595,0.0,0.0,-0.8228335380554199,0.3956073224544525,0.31414592266082764,0.0,0.0,0.0,-0.3933734893798828,0.4355067014694214,0.7706326246261597,0.4200000464916229,0.5499796271324158,2.1578478026640369e-07,-2.7700766622729134e-06,-0.8351779580116272,4.6466859203064814e-05,-0.00025281417765654624,-7.785484194755554e-05,0.006547216325998306,-0.0020399722270667553,-0.0007097606430761516,0.48069366812705994,0.7872629165649414,0.5190917253494263,0.17245256900787354,0.22249454259872437,0.5220207571983337,0.4297688603401184,0.7725861668586731,0.42000001668930054,-0.6929489374160767,0.7542629837989807,-1.655949354171753,-3.0,-0.18731816112995148,-0.18301676213741302,-0.17851796746253967,-0.1728188842535019,-0.07698747515678406,-0.09429764002561569,-0.09676003456115723,-0.0951678454875946
0.8333333333333334,0.16661974787712097,0.04509779438376427,0.0,0.5848312377929688,0.0,0.0,-0.8111550211906433,0.16378340125083923,-0.12014353275299072,0.0,0.0,0.0,3.0612924098968506,0.4355067014694214,0.7706326246261597,0.4200000464916229,0.5499797463417053,2.0170142533970647e-07,-2.6474408514332026e-06,-0.8351779580116272,4.640447878045961e-05,-0.00025284435832872987,-7.785297930240631e-05,0.006548193283379078,-0.002041225554421544,-0.0007100310758687556,0.48521512746810913,0.7937920689582825,0.5259230732917786,0.299915075302124,0.3168099522590637,0.3103618025779724,0.4297688603401184,0.7725861668586731,0.42000001668930054,-0.6893365979194641,-0.23548391461372375,-1.61678147315979,2.9999990463256836,-0.18208655714988708,-0.17901985347270966,-0.17547108232975006,-0.1706046760082245,0.16049911081790924,0.12871187925338745,0.10942354053258896,0.09077273309230804
0.85,0.16711926460266113,0.04379355534911156,0.0,0.5860610604286194,0.0,0.0,-0.81026691198349,-0.03495701402425766,-0.021031755954027176,0.0,0.0,0.0,-0.6200587153434753,0.4355067014694214,0.7706326246261597,0.4200000464916229,0.5499795079231262,2.0286380220113642e-07,-2.611224545034929e-06,-0.8351780772209167,4.600773536367342e-05,-0.0002529822231736034,-7.775053381919861e-05,0.006554352585226297,-0.0020457347854971886,-0.0007093605818226933,0.4894673824310303,0.796815812587738,0.5282572507858276,0.19864757359027863,0.08820699155330658,0.11743796616792679,0.4297688603401184,0.7725861668586731,0.42000001668930054,-0.7079057693481445,-1.8396284580230713,-1.5896248817443848,0.4573214054107666,-0.18205533921718597,-0.17890283465385437,-0.17509739100933075,-0.17002302408218384,-0.11303656548261642,-0.08101493120193481,-0.04064520448446274,-0.005858398973941803
0.8666666666666667,0.16877597570419312,0.041408006101846695,0.0,0.5984808206558228,0.0,0.0,-0.8011371493339539,0.14988857507705688,-0.21785537898540497,0.0,0.0,0.0,2.639718770980835,0.4355067014694214,0.7706326246261597,0.4200000464916229,0.5499796867370605,1.7656677187005698e-07,-2.655215439517633e-06,-0.835178017616272,4.8506401071790606e-05,-0.00025257113156840205,-7.827556692063808e-05,0.006529741920530796,-0.0020152542274445295,-0.0007139286026358604,0.49274903535842896,0.7975209951400757,0.5300571322441101,0.18410943448543549,0.021632496267557144,0.16020220518112183,0.4297688603401184,0.7725861668586731,0.42000001668930054,-0.7200614213943481,0.2128240466117859,-1.6271456480026245,-3.0,-0.18534621596336365,-0.18112188577651978,-0.1760810762643814,-0.16985362768173218,-0.18775764107704163,-0.11412868648767471,-0.028793765231966972,0.05358182266354561
0.8833333333333333,0.16887657344341278,0.03627191483974457,0.0,0.5975443720817566,0.0,0.0,-0.801835834980011,-0.034023068845272064,-0.36320602893829346,0.0,0.0,0.0,-1.0343047380447388,0.4355067014694214,0.7706326246261597,0.4200000464916229,0.5499797463417053,2.229503337503047e-07,-2.7094474717159756e-06,-0.8351778984069824,4.654820077121258e-05,-0.00025256333174183965,-7.788185030221939e-05,0.006540029775351286,-0.0020383382216095924,-0.0007097295601852238,0.4960734248161316,0.7958391904830933,0.5323106050491333,0.22342711687088013,-0.18661154806613922,0.24605724215507507,0.4297688603401184,0.7725861668586731,0.42000001668930054,-0.7380082607269287,-2.1469240188598633,-1.677148699760437,-3.0,-0.18932878971099854,-0.18366356194019318,-0.17695114016532898,-0.16906607151031494,-0.21315090358257294,-0.1279991865158081,-0.027418022975325584,0.07460225373506546
0.9,0.1720830351114273,0.03617412969470024,0.0,0.572687566280365,0.0,0.0,-0.8197737336158752,0.1225900948047638,0.04235261306166649,0.0,0.0,0.0,-4.435754776000977,0.4355067014694214,0.7706326842308044,0.4200000464916229,0.5499795079231262,1.2724851217171818e-07,-2.854326339729596e-06,-0.835178017616272,4.5580283767776564e-05,-0.0002532239886932075,-7.765600457787514e-05,0.006562816444784403,-0.002051769522950053,-0.0007089515565894544,0.4998929500579834,0.7906002402305603,0.5388507843017578,0.34671223163604736,-0.21491365134716034,0.6394307613372803,0.4297688603401184,0.7725861668586731,0.42000001668930054,-0.7635056376457214,-0.9940732717514038,-1.7271631956100464,-2.999999523162842,-0.19748570024967194,-0.18981967866420746,-0.18087828159332275,-0.1707717478275299,-0.2764999270439148,-0.22160883247852325,-0.14436951279640198,-0.05698968842625618
