vladlanda/robotic-transformer/data/env_000_episode_0278.csv
sim_time_s,robot_box_x,robot_box_y,robot_box_z,robot_box_quat_w,robot_box_quat_x,robot_box_quat_y,robot_box_quat_z,robot_box_linvel_x,robot_box_linvel_y,robot_box_linvel_z,robot_box_angvel_x,robot_box_angvel_y,robot_box_angvel_z,cube_world_x,cube_world_y,cube_world_z,cube_quat_w,cube_quat_x,cube_quat_y,cube_quat_z,cube_linvel_x,cube_linvel_y,cube_linvel_z,cube_angvel_x,cube_angvel_y,cube_angvel_z,endpoint_world_x,endpoint_world_y,endpoint_world_z,endpoint_linvel_x,endpoint_linvel_y,endpoint_linvel_z,target_cube_world_x,target_cube_world_y,target_cube_world_z,gripper_actual_pos_rad_gp_leftgearjoint,gripper_actual_vel_rad_s_gp_leftgearjoint,gripper_actual_pos_rad_gp_rotatingjoint,gripper_actual_vel_rad_s_gp_rotatingjoint,motor_angle_rad_joint1,motor_angle_rad_joint2,motor_angle_rad_joint3,motor_angle_rad_joint4,motor_speed_rad_s_joint1,motor_speed_rad_s_joint2,motor_speed_rad_s_joint3,motor_speed_rad_s_joint4
0.0,0.0,0.0,0.0,1.0,0.0,0.0,0.0,0.0,0.0,0.0,0.0,0.0,0.0,-0.47611895203590393,0.7060867547988892,0.41999998688697815,1.0,0.0,0.0,0.0,0.0,0.0,0.0,0.0,0.0,0.0,3.42540442943573e-06,-0.005000244826078415,1.313499927520752,0.0,0.0,0.0,0.3333948850631714,0.777336061000824,0.42000001668930054,-1.5707999467849731,0.0,0.0,0.0,0.0,0.0,0.0,0.0,0.0,0.0,0.0,0.0
0.016666666666666666,0.0028778850100934505,0.0021806680597364902,0.0,0.9998081922531128,0.0,0.0,0.019586581736803055,0.24087215960025787,0.18240931630134583,0.0,0.0,0.0,3.1418697834014893,-0.4761190712451935,0.7060864567756653,0.41999998688697815,1.0,3.2799914606584935e-06,-8.339814598912199e-07,8.465387679734704e-08,-1.9833554688375443e-05,0.00017983050202019513,-6.133061833679676e-05,0.0009432226070202887,-0.004689437802881002,-0.0003198152990080416,-0.007110234349966049,0.003379564033821225,1.3159373998641968,-0.8143353462219238,0.9868683815002441,0.18095196783542633,0.3333948850631714,0.777336061000824,0.42000001668930054,-1.5301095247268677,3.0000011920928955,-0.04584788903594017,-2.9999992847442627,0.0008691533003002405,0.0007963840034790337,0.0007110277656465769,0.0006108740926720202,0.11094217747449875,0.09756709635257721,0.08334315568208694,0.06823883205652237
0.03333333333333333,0.00896383635699749,0.006817381829023361,0.0,0.9997933506965637,0.0,0.0,0.020328683778643608,0.4072190523147583,0.3154396712779999,0.0,0.0,0.0,-0.8735864162445068,-0.47611919045448303,0.7060863971710205,0.4200000464916229,1.0,3.390885240150965e-06,-2.1324319732229924e-06,-3.711133800265998e-08,0.00026357753085903823,0.00026937859365716577,-0.00010509602725505829,-0.0017706351354718208,0.004130707122385502,-0.00013548039714805782,-0.02755226008594036,0.025990808382630348,1.316628098487854,-1.5915710926055908,1.6134796142578125,-0.0814056470990181,0.3333948850631714,0.777336061000824,0.42000001668930054,-1.4800903797149658,3.000000476837158,-0.09588770568370819,-3.000000238418579,0.002990574575960636,0.002653260715305805,0.0022778993006795645,0.001861415570601821,0.16428174078464508,0.13982464373111725,0.11388225853443146,0.08636248856782913
0.05,0.017763640731573105,0.013790830969810486,0.0,0.9993710517883301,0.0,0.0,0.03546050190925598,0.5940455198287964,0.4652940332889557,0.0,0.0,0.0,2.6439571380615234,-0.4761192202568054,0.7060864567756653,0.4200000464916229,1.0,3.7652134778909385e-06,-2.2118977085483493e-06,5.605784725304375e-09,0.0002653079864103347,0.00026691483799368143,-0.00010440615005791187,-0.0017242918256670237,0.0041773696430027485,-0.00012949654774274677,-0.05969591066241264,0.05389043688774109,1.3116533756256104,-2.1880013942718506,1.767745852470398,-0.477530837059021,0.3333948850631714,0.777336061000824,0.42000001668930054,-1.4300720691680908,2.999999761581421,-0.1459263563156128,-2.9999992847442627,0.005712513811886311,0.004920321516692638,0.00405598059296608,0.0031150607392191887,0.19272854924201965,0.15582740306854248,0.11705110222101212,0.0763063132762909
0.06666666666666667,0.029082855209708214,0.023087726905941963,0.0,0.9994447231292725,0.0,0.0,0.033320050686597824,0.72062087059021,0.5953885912895203,0.0,0.0,0.0,-1.2151238918304443,-0.4761192202568054,0.7060863971710205,0.4200000464916229,0.9999999403953552,3.4068298191414215e-06,-2.28560702453251e-06,4.300801776935259e-07,0.00026702682953327894,0.0002679186000023037,-0.00010437914170324802,-0.0017406968399882317,0.004211870953440666,-0.00012850748316850513,-0.09842793643474579,0.08808229118585587,1.298892855644226,-2.466485023498535,2.2223191261291504,-1.0251214504241943,0.3333948850631714,0.777336061000824,0.42000001668930054,-1.3800537586212158,3.0000016689300537,-0.19596368074417114,-3.0000007152557373,0.00834762491285801,0.006881250999867916,0.00530397379770875,0.003610883839428425,0.15701457858085632,0.10731921344995499,0.05559587851166725,0.0017391047440469265
0.08333333333333333,0.042354509234428406,0.034752219915390015,0.0,0.9989538788795471,0.0,0.0,0.045729439705610275,0.8725355267524719,0.7417023777961731,0.0,0.0,0.0,2.5349786281585693,-0.4761192202568054,0.7060863971710205,0.4200000464916229,1.0,3.6973638088966254e-06,-2.188969347116654e-06,-2.6325207613808743e-07,0.0002638972655404359,0.0002658646844793111,-0.00010433816350996494,-0.0017081599216908216,0.004150238819420338,-0.0001299150026170537,-0.14209909737110138,0.12356290221214294,1.2784230709075928,-2.6965043544769287,2.1049013137817383,-1.3886319398880005,0.3333948850631714,0.777336061000824,0.42000001668930054,-1.3300354480743408,3.000001907348633,-0.2459907829761505,-3.0000011920928955,0.009796210564672947,0.007462156470865011,0.004975594114512205,0.0023341963533312082,0.0781792402267456,0.016615623608231544,-0.046916041523218155,-0.1125282347202301
0.1,0.05015723779797554,0.04955298826098442,0.0,0.9990853667259216,0.0,0.0,0.042760029435157776,0.3367812931537628,0.9434018135070801,0.0,0.0,0.0,-1.3043462038040161,-0.4761192202568054,0.7060863971710205,0.4200000464916229,0.9999999403953552,3.6204753541824175e-06,-2.2652429834124632e-06,1.7459507262174156e-07,0.0002667691733222455,0.0002674090501386672,-0.0001040794886648655,-0.0017386652762070298,0.004209219943732023,-0.000127756706206128,-0.1831912398338318,0.16466093063354492,1.2515473365783691,-2.302931070327759,2.6491899490356445,-1.7492753267288208,0.3333948850631714,0.777336061000824,0.42000001668930054,-1.2800047397613525,2.999999523162842,-0.21196234226226807,2.999999761581421,0.0049602738581597805,0.001853259513154626,-0.0014545265585184097,-0.004970215726643801,-0.4114707410335541,-0.46606674790382385,-0.523016095161438,-0.5826200842857361
0.11666666666666667,0.054208241403102875,0.06499945372343063,0.0,0.9999330043792725,0.0,0.0,0.01157293375581503,0.2562161684036255,0.921995222568512,0.0,0.0,0.0,-4.501587390899658,-0.4761192202568054,0.7060863971710205,0.4200000464916229,1.0,3.7984361824783264e-06,-2.2628191800322384e-06,-1.502184687751651e-07,0.0002637402212712914,0.0002656611322890967,-0.00010429113171994686,-0.00170544080901891,0.004147577099502087,-0.00012980044994037598,-0.21978305280208588,0.21105769276618958,1.2253347635269165,-2.1690971851348877,2.8139877319335938,-1.4854509830474854,0.3333948850631714,0.777336061000824,0.42000001668930054,-1.230014443397522,3.000000238418579,-0.2433525174856186,-3.0,-0.0007533585303463042,-0.005263398867100477,-0.009972143918275833,-0.014889515936374664,-0.2621772587299347,-0.36649784445762634,-0.4688829183578491,-0.5693894624710083
0.13333333333333333,0.056905198842287064,0.0825515165925026,0.0,0.9999997019767761,0.0,0.0,0.0007832897244952619,0.12025488168001175,1.0940827131271362,0.0,0.0,0.0,-0.2378884106874466,-0.4761192202568054,0.7060864567756653,0.4200000464916229,0.9999999403953552,3.5505424875736935e-06,-2.229828169220127e-06,2.9289728331605147e-07,0.0002670327667146921,0.00026779386098496616,-0.00010417122393846512,-0.0017440201481804252,0.004213609732687473,-0.0001280046271858737,-0.2601914703845978,0.2562049627304077,1.199105978012085,-2.432485818862915,2.8418402671813965,-1.6757577657699585,0.3333948850631714,0.777336061000824,0.42000001668930054,-1.179998517036438,3.0000030994415283,-0.25473618507385254,1.2692136764526367,-0.003735836362466216,-0.010263062082231045,-0.016917934641242027,-0.02370920404791832,-0.1840527504682541,-0.3055923581123352,-0.4221112132072449,-0.5335020422935486
0.15,0.06480805575847626,0.09749824553728104,0.0,0.999699056148529,0.0,0.0,-0.02453121356666088,0.6754842400550842,0.815099835395813,0.0,0.0,0.0,-4.002389430999756,-0.4761192202568054,0.7060863971710205,0.4200000464916229,0.9999999403953552,3.3381409139110474e-06,-2.242858045065077e-06,-2.8032497212393537e-08,0.00026674586115404963,0.000267583760432899,-0.00010427902452647686,-0.0017367436084896326,0.0042067947797477245,-0.00012831806088797748,-0.2986687123775482,0.30724698305130005,1.1706182956695557,-2.2181334495544434,3.2297701835632324,-1.798703670501709,0.3333948850631714,0.777336061000824,0.42000001668930054,-1.1353434324264526,2.3723418712615967,-0.29520151019096375,-3.0,-0.003637760877609253,-0.012529997155070305,-0.02144245058298111,-0.030380800366401672,0.04248645901679993,-0.09582795947790146,-0.22774291038513184,-0.35307577252388
0.16666666666666666,0.07183028757572174,0.10921163111925125,0.0,0.9969955682754517,0.0,0.0,-0.07745881378650665,0.23749586939811707,0.6965404152870178,0.0,0.0,0.0,-7.150279521942139,-0.4761192202568054,0.7060864567756653,0.4200000464916229,0.9999999403953552,3.6479259506450035e-06,-2.3072648218658287e-06,3.527170022721293e-08,0.00026726938085630536,0.0002680151374079287,-0.00010418728925287724,-0.0017472502076998353,0.0042176260612905025,-0.0001279857533518225,-0.3337363600730896,0.3670603632926941,1.1359269618988037,-1.9125916957855225,3.913893222808838,-2.359767198562622,0.3333948850631714,0.777336061000824,0.42000001668930054,-1.0947707891464233,2.4527719020843506,-0.2609163522720337,3.000000476837158,-0.00805914867669344,-0.018628932535648346,-0.029134666547179222,-0.03958325833082199,-0.5839677453041077,-0.6381197571754456,-0.6894071698188782,-0.7381206750869751
0.18333333333333332,0.07151419669389725,0.12433299422264099,0.0,0.9937276244163513,0.0,0.0,-0.11182735115289688,0.030873864889144897,0.7994619607925415,0.0,0.0,0.0,-2.8235931396484375,-0.4761192202568054,0.7060863971710205,0.4200000464916229,0.9999999403953552,3.2906175420066575e-06,-2.1938744794169907e-06,-2.792331486034527e-07,0.00026677839923650026,0.00026776004233397543,-0.00010434072464704514,-0.0017390716820955276,0.004206844139844179,-0.000128455605590716,-0.3682631254196167,0.4267815351486206,1.087623119354248,-2.065117120742798,3.7322683334350586,-3.175621509552002,0.3333948850631714,0.777336061000824,0.42000001668930054,-1.0597481727600098,1.775835394859314,-0.2919153571128845,-3.000000238418579,-0.021835461258888245,-0.032682277262210846,-0.043425705283880234,-0.05408656969666481,-0.5943125486373901,-0.6506353616714478,-0.7019267678260803,-0.7473711967468262
0.2,0.06954846531152725,0.13934651017189026,0.0,0.9877927899360657,0.0,0.0,-0.15577365458011627,-0.1825139820575714,0.942360520362854,0.0,0.0,0.0,-6.186492919921875,-0.4761192202568054,0.7060863971710205,0.4200000464916229,1.0,3.280872078903485e-06,-2.2192043616087176e-06,1.594703888940785e-07,0.000266279123025015,0.0002674026181921363,-0.00010425224900245667,-0.0017357339384034276,0.004197788890451193,-0.00012865306052844971,-0.4040282368659973,0.49048179388046265,1.0275630950927734,-1.9785265922546387,3.966064453125,-4.0156941413879395,0.3333948850631714,0.777336061000824,0.42000001668930054,-1.0139776468276978,3.0000007152557373,-0.34194231033325195,-3.0,-0.03425068035721779,-0.04556714743375778,-0.05670079216361046,-0.06766407191753387,-0.8393350839614868,-0.8392539620399475,-0.8353928923606873,-0.8274889588356018
0.21666666666666667,0.07302926480770111,0.15031880140304565,0.0,0.9832049012184143,0.0,0.0,-0.1825052797794342,0.21293634176254272,0.6614187955856323,0.0,0.0,0.0,-2.067795753479004,-0.4761192202568054,0.7060864567756653,0.4200000464916229,1.0,3.61322804565134e-06,-2.2701351554133e-06,2.2101198737800587e-07,0.0002671258116606623,0.00026781592168845236,-0.00010414235293865204,-0.0017445181729272008,0.004215212073177099,-0.00012786121806129813,-0.43912339210510254,0.5502129793167114,0.9540084004402161,-1.7408597469329834,3.5381202697753906,-4.938747406005859,0.3333948850631714,0.777336061000824,0.42000001668930054,-0.9639760255813599,2.999999761581421,-0.3919701874256134,-2.9999091625213623,-0.044697824865579605,-0.05576670542359352,-0.06661107391119003,-0.07724474370479584,-0.9383168816566467,-0.8522933721542358,-0.7681463956832886,-0.6865677237510681
0.23333333333333334,0.07103180140256882,0.16465827822685242,0.0,0.9750911593437195,0.0,0.0,-0.22180457413196564,-0.13644154369831085,0.8041824698448181,0.0,0.0,0.0,-5.560011386871338,-0.4761192202568054,0.7060863971710205,0.4200000464916229,1.0,3.3819662803580286e-06,-2.2910076040716376e-06,2.7280304948362755e-07,0.0002669124223757535,0.00026779892505146563,-0.00010433257557451725,-0.0017395394388586283,0.004209703765809536,-0.00012843689182773232,-0.4642983675003052,0.6044546365737915,0.8661197423934937,-1.2391737699508667,3.15100359916687,-5.390740394592285,0.3333948850631714,0.777336061000824,0.42000001668930054,-0.9139653444290161,3.000000238418579,-0.4420001804828644,-3.0000009536743164,-0.06035708636045456,-0.07148097455501556,-0.08242534846067429,-0.09311745315790176,-0.7389439344406128,-0.7741572260856628,-0.8117350339889526,-0.8478824496269226
0.25,0.07367005944252014,0.17375820875167847,0.0,0.9703483581542969,0.0,0.0,-0.2417106181383133,0.16352728009223938,0.45724305510520935,0.0,0.0,0.0,-1.26683509349823,-0.47611919045448303,0.7060863971710205,0.4200000464916229,0.9999999403953552,3.7066854474687716e-06,-2.2230881313589634e-06,-2.2551273559656693e-07,0.0002642464532982558,0.00026656698901206255,-0.00010458100587129593,-0.001717007951810956,0.004155655857175589,-0.00013063506048638374,-0.48534342646598816,0.6474316716194153,0.7721472978591919,-0.9325487017631531,2.239696502685547,-5.936216354370117,0.3333948850631714,0.777336061000824,0.42000001668930054,-0.8639546632766724,2.9999990463256836,-0.49203091859817505,-3.0,-0.07345941662788391,-0.08454000949859619,-0.09513986110687256,-0.10553676635026932,-0.9898122549057007,-0.9914553761482239,-0.9110058546066284,-0.8358146548271179
0.26666666666666666,0.07106681168079376,0.17948023974895477,0.0,0.9619138836860657,0.0,0.0,-0.27335259318351746,-0.26320967078208923,0.2869400978088379,0.0,0.0,0.0,-4.81319522857666,-0.4761192202568054,0.7060863971710205,0.4200000464916229,0.9999999403953552,3.7198042264208198e-06,-2.4035468868532917e-06,-1.830882467857009e-07,0.00026623273151926696,0.0002672920818440616,-0.00010425853542983532,-0.001732720178551972,0.004196507390588522,-0.00012850765779148787,-0.49513378739356995,0.676764726638794,0.6705284118652344,-0.10748550295829773,1.3445981740951538,-6.055141448974609,0.3333948850631714,0.777336061000824,0.42000001668930054,-0.8139445185661316,3.0000009536743164,-0.5420625805854797,-2.9999988079071045,-0.09106538444757462,-0.10188742727041245,-0.11229972541332245,-0.1225564107298851,-1.0068668127059937,-1.005144715309143,-1.0038390159606934,-1.0028064250946045
0.2833333333333333,0.06986954063177109,0.18171747028827667,0.0,0.9584230184555054,0.0,0.0,-0.2853511571884155,0.05744319036602974,0.06321530789136887,0.0,0.0,0.0,-0.3928597867488861,-0.4761192202568054,0.7060864567756653,0.4200000464916229,0.9999999403953552,3.5842122088070028e-06,-2.31555281970941e-06,7.402991997196295e-08,0.0002652212860994041,0.00026455314946360886,-0.00010317121632397175,-0.0017021918902173638,0.004185174126178026,-0.0001249952329089865,-0.4957672953605652,0.6929347515106201,0.5729784965515137,0.19771085679531097,0.7001476287841797,-5.749222755432129,0.3333948850631714,0.777336061000824,0.42000001668930054,-0.7639357447624207,2.9999940395355225,-0.5920922756195068,-3.0000011920928955,-0.10734493285417557,-0.1181911900639534,-0.12864406406879425,-0.13894306123256683,-0.9657155275344849,-0.9670557975769043,-0.9690952897071838,-0.9706835746765137
0.3,0.06684725731611252,0.18123836815357208,0.0,0.9513224363327026,0.0,0.0,-0.3081974387168884,-0.2087954431772232,-0.09205353260040283,0.0,0.0,0.0,-3.7363462448120117,-0.4761192202568054,0.7060863971710205,0.4200000464916229,1.0,3.724411499206326e-06,-2.271947550980258e-06,9.634975128847145e-08,0.0002631252573337406,0.00026525932480581105,-0.00010438100434839725,-0.0016960831126198173,0.0041347164660692215,-0.00013027824752498418,-0.48698973655700684,0.7005446553230286,0.47938501834869385,0.8265711069107056,0.3507739007472992,-5.440800189971924,0.3333948850631714,0.777336061000824,0.42000001668930054,-0.7139273285865784,2.999995470046997,-0.642120897769928,-2.9999990463256836,-0.12480658292770386,-0.13543902337551117,-0.14575709402561188,-0.15596134960651398,-0.9891371130943298,-0.9895167946815491,-0.9930063486099243,-0.9966791868209839
0.31666666666666665,0.06157838925719261,0.17796607315540314,0.0,0.9497724771499634,0.0,0.0,-0.3129412829875946,-0.3506776988506317,-0.2361721396446228,0.0,0.0,0.0,0.35159623622894287,-0.4761192202568054,0.7060863971710205,0.4200000464916229,1.0,3.6663427636085544e-06,-2.3925626919663046e-06,1.6799576485482248e-07,0.00026601969148032367,0.0002670693211257458,-0.00010418589226901531,-0.0017311598639935255,0.004193514119833708,-0.00012849272752646357,-0.48071566224098206,0.7046376466751099,0.4307858943939209,0.1426558643579483,-0.020465366542339325,-0.25023552775382996,0.3333948850631714,0.777336061000824,0.42000001668930054,-0.663922131061554,2.9999983310699463,-0.6925260424613953,-2.999500274658203,-0.1372056007385254,-0.14812135696411133,-0.15851271152496338,-0.16860264539718628,-0.347830593585968,-0.4005427062511444,-0.4255337417125702,-0.4254230558872223
0.3333333333333333,0.054062195122241974,0.1723867505788803,0.0,0.9465799331665039,0.0,0.0,-0.3224692940711975,-0.5044078230857849,-0.37992334365844727,0.0,0.0,0.0,-1.9399468898773193,-0.47529152035713196,0.7075279355049133,0.42001378536224365,0.9998990297317505,0.00033711225842125714,9.45835290622199e-06,-0.01420630794018507,0.12510992586612701,0.20686130225658417,0.005027695558965206,0.2683265507221222,-0.007674482651054859,-3.7292046546936035,-0.4792264699935913,0.7094253301620483,0.42814669013023376,0.13444945216178894,0.2331622838973999,-0.18500451743602753,0.3333948850631714,0.777336061000824,0.42000001668930054,-0.6139162182807922,2.9999585151672363,-0.7426058650016785,-2.999992609024048,-0.14328838884830475,-0.15466611087322235,-0.165055051445961,-0.17470471560955048,-0.3919394314289093,-0.3954446613788605,-0.37358373403549194,-0.32712429761886597
0.35,0.044148292392492294,0.16446788609027863,0.0,0.948931097984314,0.0,0.0,-0.3154833912849426,-0.6372371912002563,-0.5127266049385071,0.0,0.0,0.0,1.7814948558807373,-0.47285640239715576,0.711824357509613,0.4200000762939453,0.9980036616325378,9.89728278000257e-07,6.202085842232918e-06,-0.06315569579601288,0.16321465373039246,0.2863198518753052,-0.00015806598821654916,0.00671637337654829,-0.003485222114250064,-6.8566179275512695,-0.47571197152137756,0.7142200469970703,0.42497915029525757,0.2855343222618103,0.3229021430015564,-0.16925743222236633,0.3333948850631714,0.777336061000824,0.42000001668930054,-0.5639111995697021,2.9999725818634033,-0.7926605939865112,-2.999999761581421,-0.15143921971321106,-0.16198205947875977,-0.17113226652145386,-0.17915396392345428,-0.5043817162513733,-0.42173799872398376,-0.3166712820529938,-0.18965329229831696
0.36666666666666664,0.03198230639100075,0.15428145229816437,0.0,0.9462082982063293,0.0,0.0,-0.3235582113265991,-0.7730310559272766,-0.6505744457244873,0.0,0.0,0.0,-1.9523054361343384,-0.4691936671733856,0.7178881168365479,0.4200200140476227,0.9930592179298401,0.0004608465824276209,-8.097296813502908e-06,-0.11761461943387985,0.3585107922554016,0.5461607575416565,0.010151619091629982,0.6467142105102539,-0.196828693151474,-2.0124213695526123,-0.4699660539627075,0.7204280495643616,0.42268216609954834,0.4315698742866516,0.4715003967285156,-0.11719752103090286,0.3333948850631714,0.777336061000824,0.42000001668930054,-0.5139063596725464,2.999990701675415,-0.8427133560180664,-2.999983072280884,-0.15997163951396942,-0.16885258257389069,-0.17594419419765472,-0.181511789560318,-0.4887937903404236,-0.37437471747398376,-0.23757746815681458,-0.07805140316486359
0.3833333333333333,0.01930873841047287,0.14176644384860992,0.0,0.9335863590240479,0.0,0.0,-0.35835254192352295,-0.7573189735412598,-0.7933802008628845,0.0,0.0,0.0,-5.310360431671143,-0.46047061681747437,0.7305358052253723,0.42047324776649475,0.9904305934906006,0.009575160220265388,-0.003248556749895215,-0.1376408189535141,0.6672866940498352,1.0100840330123901,0.10384058207273483,2.957051992416382,-2.5418601036071777,-3.197312831878662,-0.4610487222671509,0.7318086624145508,0.4217906892299652,0.6826175451278687,0.9466689229011536,0.0003338158130645752,0.3333948850631714,0.777336061000824,0.42000001668930054,-0.46390223503112793,2.9999985694885254,-0.8927628397941589,-3.0000011920928955,-0.1684625893831253,-0.17507463693618774,-0.179499551653862,-0.18199917674064636,-0.47686946392059326,-0.3296065032482147,-0.15904441475868225,0.035223010927438736
0.4,0.009762382134795189,0.12628889083862305,0.0,0.9091553092002869,0.0,0.0,-0.4164571762084961,-0.5022777915000916,-0.9851218461990356,0.0,0.0,0.0,-8.363679885864258,-0.4411156177520752,0.7555731534957886,0.4231196939945221,0.9839496612548828,0.023123977705836296,-0.028501268476247787,-0.17463086545467377,1.8260008096694946,1.9973653554916382,0.0660819336771965,17.75925064086914,-8.78221321105957,-2.2135000228881836,-0.44195616245269775,0.7563495635986328,0.42357906699180603,1.7823877334594727,2.0492217540740967,0.2997475564479828,0.3333948850631714,0.777336061000824,0.42000001668930054,-0.41414186358451843,2.8119773864746094,-0.9427998661994934,-3.000000238418579,-0.1770026534795761,-0.18075700104236603,-0.18194787204265594,-0.1808433085680008,-0.5370411276817322,-0.34007635712623596,-0.12397970259189606,0.11017020046710968
0.4166666666666667,0.002779843285679817,0.11503086239099503,0.0,0.8693066239356995,0.0,0.0,-0.49427318572998047,-0.33317887783050537,-0.6561477184295654,0.0,0.0,0.0,-11.151021957397461,-0.386608362197876,0.7992506623268127,0.42805954813957214,0.9677929282188416,0.07539646327495575,-0.06155582517385483,-0.2321700155735016,4.593465805053711,3.232679843902588,0.41176658868789673,15.537970542907715,-10.80916690826416,3.1716179847717285,-0.3872718811035156,0.8003153800964355,0.4287572503089905,4.251278877258301,3.242786407470703,0.46318021416664124,0.3333948850631714,0.777336061000824,0.42000001668930054,-0.3850398063659668,1.1127060651779175,-0.9055551290512085,3.000000476837158,-0.19166918098926544,-0.19198499619960785,-0.18812480568885803,-0.18201176822185516,-0.6739598512649536,-0.6045271754264832,-0.34067684412002563,-0.08404664695262909
0.43333333333333335,-0.0001123458132497035,0.10671961307525635,0.0,0.8117323517799377,0.0,0.0,-0.5840296149253845,-0.1180773451924324,-0.4346148669719696,0.0,0.0,0.0,-13.513062477111816,-0.29589954018592834,0.8551355004310608,0.4371776282787323,0.9438496828079224,0.14407335221767426,-0.09361071139574051,-0.28218382596969604,6.792572975158691,3.154350519180298,0.6069313883781433,17.232702255249023,-15.003290176391602,12.67239761352539,-0.29651114344596863,0.8571939468383789,0.43803688883781433,6.445098876953125,3.5149803161621094,0.6978231072425842,0.3333948850631714,0.777336061000824,0.42000001668930054,-0.3681160807609558,1.0490145683288574,-0.8555448651313782,2.994490146636963,-0.20545661449432373,-0.20355285704135895,-0.19516108930110931,-0.1848571002483368,-0.8660781383514404,-0.703543484210968,-0.44417575001716614,-0.2134077101945877
0.45,-0.006615655031055212,0.10414689779281616,0.0,0.7602778673171997,0.0,0.0,-0.6495980024337769,-0.337545782327652,-0.14646603167057037,0.0,0.0,0.0,-8.619634628295898,-0.18895584344863892,0.897481381893158,0.4493473172187805,0.9111195206642151,0.16312476992607117,-0.10591170191764832,-0.363365113735199,6.621956825256348,1.4681860208511353,0.7293319702148438,12.538700103759766,-5.455183029174805,17.165090560913086,-0.19004207849502563,0.901320219039917,0.45011767745018005,6.461904525756836,2.0897915363311768,0.773577868938446,0.3333948850631714,0.777336061000824,0.42000001668930054,-0.3490504026412964,1.1663018465042114,-0.8820102214813232,-3.000002384185791,-0.2210720330476761,-0.21906422078609467,-0.2071884423494339,-0.19144967198371887,-0.678706705570221,-0.7265402674674988,-0.6802220940589905,-0.3969888687133789
0.4666666666666667,-0.014464101754128933,0.0952969565987587,0.0,0.7292365431785583,0.0,0.0,-0.684261679649353,-0.4406530261039734,-0.449412077665329,0.0,0.0,0.0,-4.427461624145508,-0.08111099898815155,0.9248054623603821,0.4595455825328827,0.8630414009094238,0.1654502898454666,-0.09761396050453186,-0.46717989444732666,6.730564117431641,0.0658140778541565,0.4980448782444,9.951162338256836,-7.513432502746582,14.85952377319336,-0.08265826106071472,0.9280799627304077,0.4599577784538269,6.564151763916016,0.8106180429458618,0.5690242052078247,0.3333948850631714,0.777336061000824,0.42000001668930054,-0.3286389410495758,1.082816243171692,-0.9320342540740967,-3.0000030994415283,-0.22964364290237427,-0.22706258296966553,-0.21357692778110504,-0.1930491179227829,-0.8517959713935852,-0.6558539271354675,-0.4329027533531189,-0.0714028924703598
0.48333333333333334,-0.018511444330215454,0.09261103719472885,0.0,0.7206723093986511,0.0,0.0,-0.6932758688926697,-0.21696829795837402,-0.10960230976343155,0.0,0.0,0.0,-0.4040012061595917,0.019751016050577164,0.9275804162025452,0.46472159028053284,0.8184487223625183,0.1363336443901062,-0.10678950697183609,-0.5478602051734924,5.369351863861084,-1.1155463457107544,0.2972463369369507,-5.604511260986328,7.931946277618408,15.805122375488281,0.019088810309767723,0.9315952062606812,0.4659253656864166,5.686312675476074,-0.2933093309402466,0.20719319581985474,0.3333948850631714,0.777336061000824,0.42000001668930054,-0.3140208125114441,0.628104567527771,-0.9820582866668701,-2.999901294708252,-0.24005398154258728,-0.24001052975654602,-0.2225188910961151,-0.19577054679393768,-0.08484285324811935,-0.3932628035545349,-0.49980059266090393,-0.185886412858963
0.5,-0.019368108361959457,0.08552867919206619,0.0,0.7033137083053589,0.0,0.0,-0.7108795642852783,0.00701895821839571,-0.38817983865737915,0.0,0.0,0.0,-3.6126654148101807,0.10576651990413666,0.9199241995811462,0.46479517221450806,0.7768687009811401,0.10091982036828995,-0.10294961929321289,-0.6129367351531982,4.792065620422363,-1.3390858173370361,-0.04995565861463547,3.7219743728637695,-4.327980995178223,2.6593894958496094,0.10540340840816498,0.9225876331329346,0.4663175940513611,4.831145286560059,-1.0625771284103394,-0.05224969983100891,0.3333948850631714,0.777336061000824,0.42000001668930054,-0.30268579721450806,0.7561689615249634,-1.0320817232131958,-3.0000011920928955,-0.23765617609024048,-0.24000531435012817,-0.22632351517677307,-0.19602082669734955,-0.05740818753838539,-0.09577307850122452,-0.22478975355625153,-0.034382887184619904
0.5166666666666666,-0.017255019396543503,0.08309902250766754,0.0,0.6996358633041382,0.0,0.0,-0.7144995927810669,0.148992121219635,-0.10278663784265518,0.0,0.0,0.0,0.28809818625450134,0.1801716387271881,0.8965381383895874,0.4599793553352356,0.7187480926513672,0.05067630857229233,-0.11198237538337708,-0.6843193769454956,3.9588847160339355,-1.9978587627410889,-0.4831104874610901,-12.777382850646973,5.06362247467041,-2.1271748542785645,0.17888060212135315,0.899735689163208,0.46255409717559814,4.08831787109375,-1.584514856338501,-0.3628098964691162,0.3333948850631714,0.777336061000824,0.42000001668930054,-0.2887187600135803,0.7999294400215149,-1.0821038484573364,-2.999999761581421,-0.23991303145885468,-0.23987549543380737,-0.23054607212543488,-0.1977347731590271,0.025319691747426987,0.05204914137721062,-0.08909240365028381,-0.027303043752908707
0.5333333333333333,-0.013292324729263783,0.07726828753948212,0.0,0.6863270401954651,0.0,0.0,-0.727293074131012,0.3214484751224518,-0.38103023171424866,0.0,0.0,0.0,-3.0120012760162354,0.24178895354270935,0.8696314692497253,0.44659343361854553,0.6568343639373779,-0.03993313014507294,-0.1434188187122345,-0.7391920685768127,2.827904462814331,-1.9802201986312866,-0.6701360940933228,3.951624870300293,4.903752326965332,27.604589462280273,0.23937934637069702,0.8737142086029053,0.45246392488479614,3.3586416244506836,-1.7107664346694946,-0.8281499743461609,0.3333948850631714,0.777336061000824,0.42000001668930054,-0.2747597098350525,0.7700739502906799,-1.132125973701477,-2.999882459640503,-0.23639516532421112,-0.23604708909988403,-0.2290733903646469,-0.19667482376098633,0.1952657848596573,0.240072101354599,0.12952680885791779,0.05616234615445137
0.55,-0.01047516893595457,0.07489622384309769,0.0,0.6857410073280334,0.0,0.0,-0.7278456091880798,0.12157877534627914,-0.10013799369335175,0.0,0.0,0.0,0.7359277009963989,0.28837302327156067,0.8384200930595398,0.43199166655540466,0.6284651756286621,-0.05473295599222183,-0.1075136661529541,-0.7684246897697449,2.153402328491211,-2.5238680839538574,-1.2188421487808228,-26.167356491088867,11.40354061126709,4.432269096374512,0.2865770161151886,0.8421071767807007,0.43712469935417175,2.477783679962158,-1.934013843536377,-0.8978112936019897,0.3333948850631714,0.777336061000824,0.42000001668930054,-0.2610391676425934,0.6019136309623718,-1.1821480989456177,-2.9998183250427246,-0.2349918633699417,-0.23333123326301575,-0.22748838365077972,-0.1967482566833496,0.15569593012332916,0.22367849946022034,0.1578691452741623,0.008671888150274754
0.5666666666666667,-0.006723865866661072,0.06943782418966293,0.0,0.6747460961341858,0.0,0.0,-0.7380499243736267,0.2684897482395172,-0.35333356261253357,0.0,0.0,0.0,-2.618579149246216,0.31955230236053467,0.8136202692985535,0.4214971363544464,0.637875497341156,-0.022915029898285866,-0.022417288273572922,-0.7694719433784485,0.9948652982711792,-1.1084680557250977,-0.000921275932341814,-3.1219277381896973,3.8335659503936768,19.70895767211914,0.31905341148376465,0.8159370422363281,0.4232494831085205,1.24541437625885,-1.124941110610962,0.10805255174636841,0.3333948850631714,0.777336061000824,0.42000001668930054,-0.24944831430912018,0.84915691614151,-1.2320969104766846,-3.000276803970337,-0.22888554632663727,-0.22697271406650543,-0.22278933227062225,-0.1956891417503357,0.37048956751823425,0.37723398208618164,0.287781298160553,0.050450436770915985
0.5833333333333334,-0.004686450585722923,0.0670643001794815,0.0,0.6762912273406982,0.0,0.0,-0.736634373664856,0.05474373698234558,-0.09842272847890854,0.0,0.0,0.0,1.0241508483886719,0.3371245265007019,0.7954605221748352,0.42263317108154297,0.6178299188613892,-0.048525720834732056,-0.0008380943327210844,-0.7848124504089355,0.761668860912323,-1.2697670459747314,0.054167844355106354,3.6608643531799316,-12.389383316040039,9.74610424041748,0.3353973627090454,0.796961784362793,0.4250779151916504,0.8351024389266968,-1.0550599098205566,0.10706739127635956,0.3333948850631714,0.777336061000824,0.42000001668930054,-0.24013254046440125,0.4802604913711548,-1.2820909023284912,-2.9997622966766357,-0.2239639163017273,-0.22177815437316895,-0.21868374943733215,-0.19556502997875214,0.3674233853816986,0.3635545074939728,0.2922806441783905,0.030727582052350044
0.6,-0.0019941392820328474,0.06207260861992836,0.0,0.6665969491004944,0.0,0.0,-0.74541836977005,0.20886503159999847,-0.3442472815513611,0.0,0.0,0.0,-2.3839290142059326,0.3475158214569092,0.7843663692474365,0.42119234800338745,0.6161778569221497,-0.022340264171361923,-0.007416639942675829,-0.7872551083564758,0.6008180379867554,-0.6968931555747986,-0.04739935323596001,-6.14502477645874,-6.492035865783691,-1.8082809448242188,0.3450281023979187,0.7848373651504517,0.42367297410964966,0.20756474137306213,-0.5269448161125183,-0.09013146907091141,0.3333948850631714,0.777336061000824,0.42000001668930054,-0.22942611575126648,0.34124135971069336,-1.2442677021026611,2.9978690147399902,-0.21465997397899628,-0.21338124573230743,-0.21206144988536835,-0.19399459660053253,0.5349429249763489,0.48206639289855957,0.3865916430950165,0.08584602177143097
0.6166666666666667,0.003164086490869522,0.06006910651922226,0.0,0.6693087816238403,0.0,0.0,-0.7429843544960022,0.34299996495246887,-0.06816081702709198,0.0,0.0,0.0,1.2466415166854858,0.3522603511810303,0.7766709923744202,0.42090746760368347,0.5905382037162781,-0.016796967014670372,-0.0029969706665724516,-0.8068292140960693,0.08458980917930603,-0.39735159277915955,0.03863783925771713,-0.023610083386301994,1.530092477798462,0.5650367736816406,0.34644895792007446,0.7769203186035156,0.4247570037841797,-0.020233184099197388,-0.35854071378707886,0.123163141310215,0.3333948850631714,0.777336061000824,0.42000001668930054,-0.2557315528392792,-2.9997947216033936,-1.2647091150283813,-2.9996097087860107,-0.2075849026441574,-0.20707981288433075,-0.2070312649011612,-0.19364520907402039,0.4552188217639923,0.3930716812610626,0.311606764793396,0.029436727985739708
0.6333333333333333,0.010129432193934917,0.06153452396392822,0.0,0.6610193252563477,0.0,0.0,-0.7503688931465149,0.4593689441680908,0.14285245537757874,0.0,0.0,0.0,-2.2394638061523438,0.3520883321762085,0.7719005346298218,0.4204258620738983,0.600680947303772,-0.00643764715641737,0.008525351993739605,-0.7994174361228943,-0.0367143377661705,-0.2415710687637329,-0.027800293639302254,-0.41637325286865234,-1.3654193878173828,2.3963496685028076,0.34585481882095337,0.7762609124183655,0.4273741841316223,-0.026919107884168625,0.09577111899852753,0.19037297368049622,0.3333948850631714,0.777336061000824,0.42000001668930054,-0.3057222068309784,-2.9998271465301514,-1.3146641254425049,-2.998878240585327,-0.19860699772834778,-0.19983892142772675,-0.20157285034656525,-0.19304576516151428,0.6089969873428345,0.487907350063324,0.37257513403892517,0.0830276757478714
0.65,0.020053129643201828,0.05770097300410271,0.0,0.6649913787841797,0.0,0.0,-0.7468510270118713,0.5556527972221375,-0.2050902396440506,0.0,0.0,0.0,1.5251764059066772,0.35117700695991516,0.7692212462425232,0.41999998688697815,0.6095869541168213,-1.8739548295343411e-06,-2.256495918118162e-06,-0.7927191853523254,-0.054300110787153244,-0.1220441684126854,-6.496533751487732e-05,0.005223680753260851,0.0003523663035593927,0.6728835105895996,0.34440529346466064,0.7779897451400757,0.4304833710193634,-0.2759054899215698,0.06724424660205841,0.21409772336483002,0.3333948850631714,0.777336061000824,0.42000001668930054,-0.35574159026145935,-2.999999761581421,-1.364660382270813,-2.9995434284210205,-0.18488743901252747,-0.18845613300800323,-0.19235603511333466,-0.1887131631374359,0.6298585534095764,0.547917902469635,0.4743651747703552,0.2411062866449356
0.6666666666666666,0.03117048554122448,0.058735113590955734,0.0,0.687518835067749,0.0,0.0,-0.7261665463447571,0.7351415753364563,0.05980605632066727,0.0,0.0,0.0,4.907099723815918,0.3478192687034607,0.7686032652854919,0.42043277621269226,0.6078218221664429,0.0066550662741065025,-0.008673150092363358,-0.7939980626106262,-0.1843915581703186,-0.03241836279630661,0.01511182077229023,-0.19769716262817383,-0.7381243109703064,-1.3117469549179077,0.3407151401042938,0.7784526348114014,0.4346196949481964,-0.18817147612571716,0.045092567801475525,0.2825934886932373,0.3333948850631714,0.777336061000824,0.42000001668930054,-0.4057580828666687,-2.994828939437866,-1.4146380424499512,-2.9964051246643066,-0.17791318893432617,-0.1819053441286087,-0.18596895039081573,-0.18489213287830353,0.46037739515304565,0.43843549489974976,0.44069814682006836,0.31792938709259033
0.6833333333333333,0.04093893989920616,0.05548064038157463,0.0,0.6988821029663086,0.0,0.0,-0.7152368426322937,0.46508318185806274,-0.18976403772830963,0.0,0.0,0.0,0.7602429986000061,0.3453657627105713,0.7681089043617249,0.42000260949134827,0.5995618104934692,-5.431261888588779e-05,5.257259908830747e-05,-0.8003284335136414,-0.1404307782649994,-0.026262657716870308,-0.002723153680562973,-0.020248867571353912,-0.11454092711210251,-2.776059627532959,0.3386802673339844,0.7801405787467957,0.4398191273212433,-0.19594092667102814,-0.015042118728160858,0.3069698214530945,0.3333948850631714,0.777336061000824,0.42000001668930054,-0.4557701647281647,-2.999887466430664,-1.4646306037902832,-2.9999616146087646,-0.17009146511554718,-0.1740618646144867,-0.17766976356506348,-0.17798513174057007,0.2680667042732239,0.3252858817577362,0.40643560886383057,0.38562798500061035
0.7,0.04996918514370918,0.0498654767870903,0.0,0.6881237626075745,0.0,0.0,-0.7255933284759521,0.5803861618041992,-0.40884268283843994,0.0,0.0,0.0,-2.646523952484131,0.34397733211517334,0.7677597999572754,0.4200000464916229,0.5876837372779846,-5.749014349021309e-07,-5.093978927561693e-08,-0.8090906739234924,-0.06330665200948715,-0.019240809604525566,-1.2445147149264812e-05,-0.00025860912865027785,-0.0006342486012727022,-1.5277906656265259,0.33900341391563416,0.781607985496521,0.45017656683921814,0.2045382559299469,0.12963026762008667,1.0273734331130981,0.3333948850631714,0.777336061000824,0.42000001668930054,-0.5057830214500427,-2.9999873638153076,-1.5146489143371582,-2.999999761581421,-0.16766609251499176,-0.17041969299316406,-0.17237834632396698,-0.1724841147661209,0.08707201480865479,0.16975943744182587,0.27901479601860046,0.3155556917190552
0.7166666666666667,0.06204845756292343,0.048541855067014694,0.0,0.6562633514404297,0.0,0.0,-0.7545318603515625,0.7159393429756165,-0.05488013103604317,0.0,0.0,0.0,-5.985830307006836,0.3437323272228241,0.7676517367362976,0.4200001060962677,0.5842874646186829,6.167710580484709e-06,-4.377866389404517e-06,-0.8115466833114624,0.0015497257700189948,0.0005321667995303869,-0.00018384552095085382,-0.0008182227029465139,0.010192211717367172,0.019449153915047646,0.3500514328479767,0.7813515067100525,0.4736368656158447,1.1514053344726562,-0.03038031980395317,1.87494695186615,0.3333948850631714,0.777336061000824,0.42000001668930054,-0.5557956099510193,-2.999926805496216,-1.5646672248840332,-2.9999945163726807,-0.1722169816493988,-0.17267712950706482,-0.17194797098636627,-0.17042343318462372,-0.23381483554840088,-0.11477106809616089,0.029993411153554916,0.12627078592777252
0.7333333333333333,0.07188797742128372,0.049231160432100296,0.0,0.63897305727005,0.0,0.0,-0.7692291140556335,0.5002148747444153,0.061018653213977814,0.0,0.0,0.0,-1.6363427639007568,0.3437323272228241,0.7676520943641663,0.41999995708465576,0.5842875838279724,-9.795190862860181e-07,-5.584472546615871e-06,-0.8115465641021729,0.00011645580525510013,-0.0004014577134512365,-7.97593966126442e-05,0.00989548396319151,-0.0027676301542669535,-0.0008847211138345301,0.370125412940979,0.7839781045913696,0.5070319175720215,1.1886190176010132,0.33735567331314087,2.106555938720703,0.3333948850631714,0.777336061000824,0.42000001668930054,-0.576425313949585,0.2555963099002838,-1.6146819591522217,-3.000000238418579,-0.17496688663959503,-0.17425723373889923,-0.17201893031597137,-0.1696564257144928,-0.05441118776798248,-0.03592301532626152,-0.002280052751302719,-0.0014963204739615321
0.75,0.07691963016986847,0.05190332606434822,0.0,0.646143913269043,0.0,0.0,-0.7632156014442444,0.23383064568042755,0.22332195937633514,0.0,0.0,0.0,1.9634076356887817,0.3437323272228241,0.7676520943641663,0.41999995708465576,0.5842875242233276,-1.3578817288362188e-06,-5.8180435189569835e-06,-0.8115466237068176,0.0001171924959635362,-0.00040015295962803066,-7.91850034147501e-05,0.009871294721961021,-0.0027197571471333504,-0.0008821970550343394,0.3861084580421448,0.7890611886978149,0.5363187789916992,0.6693856716156006,0.2920796275138855,1.4676496982574463,0.3333948850631714,0.777336061000824,0.42000001668930054,-0.5510427951812744,2.566884756088257,-1.5756264925003052,2.9999990463256836,-0.17480851709842682,-0.17388145625591278,-0.171226367354393,-0.16887429356575012,0.05706533417105675,0.0671490803360939,0.08462594449520111,0.08174476027488708
0.7666666666666666,0.07789931446313858,0.05000917986035347,0.0,0.6417173147201538,0.0,0.0,-0.766941249370575,0.07965902239084244,-0.1422898918390274,0.0,0.0,0.0,-1.4425486326217651,0.3437323272228241,0.7676520943641663,0.41999995708465576,0.5842874646186829,-1.404324393661227e-06,-5.7774486776907e-06,-0.8115466833114624,0.00012023875024169683,-0.0004010472330264747,-7.925089448690414e-05,0.00990215688943863,-0.0027234170120209455,-0.0008909737225621939,0.39081382751464844,0.7945759296417236,0.5542347431182861,-0.14092852175235748,0.1683226376771927,0.8209183216094971,0.3333948850631714,0.777336061000824,0.42000001668930054,-0.5266813635826111,0.5159125328063965,-1.525570034980774,3.0,-0.1697591096162796,-0.1692151576280594,-0.16686773300170898,-0.16504652798175812,0.1521090716123581,0.17059609293937683,0.18574248254299164,0.18635672330856323
0.7833333333333333,0.07680299133062363,0.05337952822446823,0.0,0.6495633125305176,0.0,0.0,-0.7603074908256531,-0.09223827719688416,0.22451309859752655,0.0,0.0,0.0,1.9795304536819458,0.3437323272228241,0.7676520943641663,0.41999995708465576,0.5842874646186829,-1.377241801492346e-06,-5.737575065722922e-06,-0.811546802520752,0.00012056031118845567,-0.0004009635595139116,-7.924390956759453e-05,0.009900526143610477,-0.0027233825530856848,-0.0008917340892367065,0.38760262727737427,0.7954070568084717,0.5647584199905396,-0.14459335803985596,0.10329660773277283,0.4649258553981781,0.3333948850631714,0.777336061000824,0.42000001668930054,-0.5074105858802795,1.680891513824463,-1.475540280342102,2.999999523162842,-0.1716500073671341,-0.16993747651576996,-0.16659925878047943,-0.16405834257602692,0.0030731065198779106,0.03851567953824997,0.06428644806146622,0.08130986243486404
0.8,0.07719061523675919,0.05318751186132431,0.0,0.6450175046920776,0.0,0.0,-0.7641677856445312,0.06771346926689148,-0.05931488424539566,0.0,0.0,0.0,-1.5687235593795776,0.3437323570251465,0.7676520943641663,0.41999995708465576,0.5842875242233276,-1.3879688367524068e-06,-5.728683390771039e-06,-0.8115466833114624,0.0001218825054820627,-0.0004008488031104207,-7.922877557575703e-05,0.009899668395519257,-0.0027198726311326027,-0.0008950054179877043,0.37932342290878296,0.7973873615264893,0.5663070678710938,-0.8247401714324951,0.05101574584841728,-0.10481464117765427,0.3333948850631714,0.777336061000824,0.42000001668930054,-0.5036197304725647,-0.9953866004943848,-1.4254854917526245,3.000000238418579,-0.17064735293388367,-0.1686062514781952,-0.16511565446853638,-0.16249671578407288,0.007372991647571325,0.037050534039735794,0.05309373885393143,0.06544739007949829
0.8166666666666667,0.08023739606142044,0.05381261929869652,0.0,0.6519419550895691,0.0,0.0,-0.7582688331604004,0.2170698642730713,0.05887120962142944,0.0,0.0,0.0,1.8981388807296753,0.3437323272228241,0.7676520943641663,0.41999995708465576,0.5842872858047485,-1.397038090544811e-06,-5.742836037825327e-06,-0.8115468621253967,0.00012118970334995538,-0.0004011965065728873,-7.929536513984203e-05,0.009907049126923084,-0.0027238652110099792,-0.0008935688529163599,0.3725700378417969,0.7979926466941833,0.5643490552902222,-0.006249956786632538,0.10405877232551575,-0.07834246009588242,0.3333948850631714,0.777336061000824,0.42000001668930054,-0.5159294009208679,-0.5137811899185181,-1.4431227445602417,-3.000000238418579,-0.17097051441669464,-0.1683385968208313,-0.1643725335597992,-0.16118377447128296,0.08727458119392395,0.09914100170135498,0.11177488416433334,0.14053981006145477
0.8333333333333334,0.08482491225004196,0.051937613636255264,0.0,0.646897554397583,0.0,0.0,-0.7625768780708313,0.31002649664878845,-0.18203799426555634,0.0,0.0,0.0,-1.6738895177841187,0.3437323272228241,0.7676520943641663,0.41999995708465576,0.5842878818511963,-1.3520199217964546e-06,-6.007825504639186e-06,-0.8115464448928833,0.00011796358012361452,-0.00040027531213127077,-7.914192974567413e-05,0.009878486394882202,-0.002722808625549078,-0.0008845647680573165,0.373541921377182,0.7972725033760071,0.5581035614013672,0.15335826575756073,-0.1654553860425949,-0.4670122265815735,0.3333948850631714,0.777336061000824,0.42000001668930054,-0.5542730689048767,-3.000000238418579,-1.404556155204773,3.000000476837158,-0.17055469751358032,-0.167414128780365,-0.16290737688541412,-0.15887188911437988,0.017300274223089218,0.06099789962172508,0.10637271404266357,0.17088672518730164
0.85,0.09220095723867416,0.05278346315026283,0.0,0.6205458641052246,0.0,0.0,-0.7841701507568359,0.4811016321182251,0.08548334240913391,0.0,0.0,0.0,-4.9149298667907715,0.3437323272228241,0.7676520943641663,0.41999995708465576,0.5842875838279724,-1.4238848962122574e-06,-6.289708835538477e-06,-0.8115465641021729,0.00011708967213053256,-0.0004007413808722049,-7.923436351120472e-05,0.009888014756143093,-0.0027269634883850813,-0.0008826892590150237,0.3800041377544403,0.7927843332290649,0.5520694255828857,0.6430203318595886,-0.3085956871509552,-0.11536509543657303,0.3333948850631714,0.777336061000824,0.42000001668930054,-0.601656436920166,-2.6741867065429688,-1.422617793083191,-2.9999992847442627,-0.1723918616771698,-0.16851581633090973,-0.16318707168102264,-0.15795014798641205,-0.05367661640048027,-0.03230228275060654,-0.0019729589112102985,0.05570225417613983
0.8666666666666667,0.10166026651859283,0.056605469435453415,0.0,0.6088482141494751,0.0,0.0,-0.7932867407798767,0.6024767756462097,0.28822430968284607,0.0,0.0,0.0,-0.784676194190979,0.3437323570251465,0.7676520943641663,0.41999995708465576,0.584287703037262,-1.36561436647753e-06,-5.843602593813557e-06,-0.8115465044975281,0.00011837474448839203,-0.00040035953861661255,-7.920153439044952e-05,0.009878837503492832,-0.0027182907797396183,-0.0008852803730405867,0.3885783553123474,0.7907125949859619,0.5513708591461182,0.3788919448852539,-0.002859109081327915,0.020016182214021683,0.3333948850631714,0.777336061000824,0.42000001668930054,-0.6160905361175537,0.6643962860107422,-1.472636103630066,-3.000000238418579,-0.17254653573036194,-0.16884659230709076,-0.16358628869056702,-0.1579977124929428,0.04286409914493561,0.006254221778362989,-0.027891285717487335,-0.040494129061698914
0.8833333333333333,0.10779327899217606,0.05533177778124809,0.0,0.6217813491821289,0.0,0.0,-0.783190906047821,0.35652410984039307,-0.12259622663259506,0.0,0.0,0.0,2.665569305419922,0.3437323272228241,0.7676520943641663,0.41999995708465576,0.5842875838279724,-1.441826498194132e-06,-5.993190370645607e-06,-0.8115466237068176,0.00011834578617708758,-0.00040099507896229625,-7.92809296399355e-05,0.009896661154925823,-0.0027278189081698656,-0.0008861697860993445,0.39276403188705444,0.7947603464126587,0.5505385398864746,0.10569535195827484,0.27880191802978516,-0.14604735374450684,0.3333948850631714,0.777336061000824,0.42000001668930054,-0.5920954942703247,2.074578285217285,-1.4339860677719116,3.000000238418579,-0.16641098260879517,-0.1641254723072052,-0.16027508676052094,-0.15576308965682983,0.24943014979362488,0.19005186855793,0.12453306466341019,0.07133135199546814
0.9,0.1108766570687294,0.05417345464229584,0.0,0.6207721829414368,0.0,0.0,-0.7839909791946411,0.09872625768184662,-0.036965299397706985,0.0,0.0,0.0,-1.027268648147583,0.3437323272228241,0.7676520943641663,0.41999995708465576,0.5842873454093933,-1.372897031615139e-06,-5.762394721386954e-06,-0.8115467429161072,0.00012075511767761782,-0.0004009098338428885,-7.924460805952549e-05,0.009898771531879902,-0.0027195080183446407,-0.0008919070824049413,0.3908717930316925,0.7975015640258789,0.5449017286300659,-0.3209231495857239,0.1135379821062088,-0.3689381182193756,0.3333948850631714,0.777336061000824,0.42000001668930054,-0.5835992693901062,-0.8130255937576294,-1.383933424949646,2.999999523162842,-0.1652066558599472,-0.16346251964569092,-0.16032713651657104,-0.15642058849334717,-0.020323071628808975,-0.03926040232181549,-0.07135134190320969,-0.10125771909952164
