vladlanda/robotic-transformer/data/env_000_episode_0169.csv
sim_time_s,robot_box_x,robot_box_y,robot_box_z,robot_box_quat_w,robot_box_quat_x,robot_box_quat_y,robot_box_quat_z,robot_box_linvel_x,robot_box_linvel_y,robot_box_linvel_z,robot_box_angvel_x,robot_box_angvel_y,robot_box_angvel_z,cube_world_x,cube_world_y,cube_world_z,cube_quat_w,cube_quat_x,cube_quat_y,cube_quat_z,cube_linvel_x,cube_linvel_y,cube_linvel_z,cube_angvel_x,cube_angvel_y,cube_angvel_z,endpoint_world_x,endpoint_world_y,endpoint_world_z,endpoint_linvel_x,endpoint_linvel_y,endpoint_linvel_z,target_cube_world_x,target_cube_world_y,target_cube_world_z,gripper_actual_pos_rad_gp_leftgearjoint,gripper_actual_vel_rad_s_gp_leftgearjoint,gripper_actual_pos_rad_gp_rotatingjoint,gripper_actual_vel_rad_s_gp_rotatingjoint,motor_angle_rad_joint1,motor_angle_rad_joint2,motor_angle_rad_joint3,motor_angle_rad_joint4,motor_speed_rad_s_joint1,motor_speed_rad_s_joint2,motor_speed_rad_s_joint3,motor_speed_rad_s_joint4
0.0,0.0,0.0,0.0,1.0,0.0,0.0,0.0,0.0,0.0,0.0,0.0,0.0,0.0,-0.368425577878952,0.6307758092880249,0.41999998688697815,1.0,0.0,0.0,0.0,0.0,0.0,0.0,0.0,0.0,0.0,3.42540442943573e-06,-0.005000244826078415,1.313499927520752,0.0,0.0,0.0,0.35174328088760376,0.6469016075134277,0.42000001668930054,-1.5707999467849731,0.0,0.0,0.0,0.0,0.0,0.0,0.0,0.0,0.0,0.0,0.0
0.016666666666666666,0.002879383508116007,0.0021789774764329195,0.0,0.9998117089271545,0.0,0.0,0.019405432045459747,0.24091680347919464,0.18234555423259735,0.0,0.0,0.0,3.141834020614624,-0.3684256970882416,0.630775511264801,0.41999998688697815,1.0,3.279964630564791e-06,-8.339746386809566e-07,8.465587342243452e-08,-1.9833529222523794e-05,0.00017983045836444944,-6.132945418357849e-05,0.0009432713268324733,-0.004689474124461412,-0.00031981561915017664,-0.0071096271276474,0.0033838748931884766,1.3159376382827759,-0.8141768574714661,0.9870448112487793,0.18095752596855164,0.35174328088760376,0.6469016075134277,0.42000001668930054,-1.5301095247268677,3.0000016689300537,-0.04584835097193718,-3.0000007152557373,0.0008699071477167308,0.0007965599070303142,0.0007111069862730801,0.0006109559326432645,0.11094081401824951,0.09757912904024124,0.08335704356431961,0.06825138628482819
0.03333333333333333,0.008962742984294891,0.006799133960157633,0.0,0.9997996687889099,0.0,0.0,0.020015709102153778,0.4070388972759247,0.31524673104286194,0.0,0.0,0.0,-0.8690999746322632,-0.36842581629753113,0.6307754516601562,0.4200000464916229,1.0,3.3908179375430336e-06,-2.132458348569344e-06,-3.7097745320124886e-08,0.00026357852038927376,0.00026937833172269166,-0.00010509369894862175,-0.0017707126680761576,0.004130884539335966,-0.0001354814594378695,-0.027535678818821907,0.02584334835410118,1.3166530132293701,-1.5907189846038818,1.6062012910842896,-0.07832369953393936,0.35174328088760376,0.6469016075134277,0.42000001668930054,-1.4800903797149658,3.0000011920928955,-0.09588819742202759,-3.000000476837158,0.002990477252751589,0.002652787836268544,0.0022773577366024256,0.001860858523286879,0.16420309245586395,0.1397624909877777,0.11382706463336945,0.0863116905093193
0.05,0.018444659188389778,0.01385780330747366,0.0,0.9999837279319763,0.0,0.0,-0.0057017127983272076,0.6359288096427917,0.4709903299808502,0.0,0.0,0.0,-4.080398082733154,-0.3684258460998535,0.630775511264801,0.4200000464916229,1.0,3.7651902857760433e-06,-2.2119197637948673e-06,5.609367637049445e-09,0.00026530938339419663,0.00026691678795032203,-0.00010440615005791187,-0.0017243892652913928,0.004177466034889221,-0.00012949809024576098,-0.057328514754772186,0.05604799836874008,1.312253713607788,-1.9617769718170166,1.9615402221679688,-0.4270545244216919,0.35174328088760376,0.6469016075134277,0.42000001668930054,-1.4300720691680908,3.000002384185791,-0.1458965539932251,-2.9999985694885254,0.006000960245728493,0.005163747351616621,0.004254207015037537,0.003267988795414567,0.20719020068645477,0.16689270734786987,0.12467050552368164,0.08044691383838654
0.06666666666666667,0.030748870223760605,0.023322127759456635,0.0,0.999899685382843,0.0,0.0,-0.014163652434945107,0.7723701596260071,0.6147055625915527,0.0,0.0,0.0,-0.04530715569853783,-0.3684258460998535,0.6307754516601562,0.4200000464916229,0.9999999403953552,3.406832092878176e-06,-2.28558906201215e-06,4.300801492718165e-07,0.0002670248504728079,0.0002679176686797291,-0.0001043803058564663,-0.00174071139190346,0.00421183044090867,-0.00012850876373704523,-0.09541192650794983,0.08739429712295532,1.3018158674240112,-2.4371683597564697,1.9741586446762085,-0.811481237411499,0.35174328088760376,0.6469016075134277,0.42000001668930054,-1.38004469871521,2.9999985694885254,-0.11234014481306076,3.000000238418579,0.008782053366303444,0.0072524650022387505,0.005610341671854258,0.003850367618724704,0.15736834704875946,0.1086413562297821,0.05777877941727638,0.004711051471531391
0.08333333333333333,0.04474042356014252,0.03060254268348217,0.0,0.999312162399292,0.0,0.0,-0.037083569914102554,0.9579925537109375,0.373381644487381,0.0,0.0,0.0,-3.519716739654541,-0.3684258460998535,0.6307754516601562,0.4200000464916229,1.0,3.6973397072870284e-06,-2.18897503145854e-06,-2.6324283908252255e-07,0.00026389575214125216,0.000265863083768636,-0.00010433816350996494,-0.001708182506263256,0.004150256514549255,-0.00012991153926122934,-0.13083696365356445,0.12520599365234375,1.2874586582183838,-1.8726222515106201,2.5310752391815186,-0.8615765571594238,0.35174328088760376,0.6469016075134277,0.42000001668930054,-1.3300367593765259,2.9999992847442627,-0.14436817169189453,-3.000000476837158,0.009635242633521557,0.007005961611866951,0.004222278017550707,0.0012782892445102334,0.024499284103512764,-0.06226196512579918,-0.1512991338968277,-0.24251298606395721
0.1,0.05376603454351425,0.04027256742119789,0.0,0.9971603751182556,0.0,0.0,-0.07530713081359863,0.4025435447692871,0.6628857254981995,0.0,0.0,0.0,-4.991021633148193,-0.3684258460998535,0.6307754516601562,0.4200000464916229,0.9999999403953552,3.6204189655109076e-06,-2.2651970539300237e-06,1.7461321988321288e-07,0.00026676736888475716,0.0002674079150892794,-0.0001040794886648655,-0.001738528604619205,0.004209060221910477,-0.00012775698269251734,-0.16564182937145233,0.1684195101261139,1.2670929431915283,-2.194443702697754,2.7317006587982178,-1.4879608154296875,0.35174328088760376,0.6469016075134277,0.42000001668930054,-1.2800185680389404,2.9999940395355225,-0.11085642874240875,2.9999988079071045,0.003622825024649501,0.00021927511261310428,-0.0033914363011717796,-0.007218172308057547,-0.47358325123786926,-0.5094834566116333,-0.5479026436805725,-0.5891150236129761
0.11666666666666667,0.057335153222084045,0.05152565985918045,0.0,0.9958290457725525,0.0,0.0,-0.09123844653367996,0.204567089676857,0.6123130917549133,0.0,0.0,0.0,-0.5419941544532776,-0.3684258460998535,0.6307754516601562,0.4200000464916229,1.0,3.798416400968563e-06,-2.2627416456089122e-06,-1.5020985699720768e-07,0.00026374010485596955,0.00026566069573163986,-0.00010429113171994686,-0.001705370144918561,0.00414750212803483,-0.0001298012211918831,-0.20666095614433289,0.20732855796813965,1.240729570388794,-2.4908478260040283,2.3165931701660156,-1.6208500862121582,0.35174328088760376,0.6469016075134277,0.42000001668930054,-1.230018973350525,3.0000007152557373,-0.1428566575050354,-3.000000238418579,-0.004363666288554668,-0.008632195182144642,-0.013115236535668373,-0.01782555691897869,-0.3705597221851349,-0.44540461897850037,-0.5186209082603455,-0.5903223156929016
0.13333333333333333,0.06962841004133224,0.05831637978553772,0.0,0.9930933117866516,0.0,0.0,-0.11732708662748337,0.9085760712623596,0.33280831575393677,0.0,0.0,0.0,-4.055522441864014,-0.3684258460998535,0.630775511264801,0.4200000464916229,0.9999999403953552,3.5505045161698945e-06,-2.2297124360193266e-06,2.9290509928614483e-07,0.0002670330286491662,0.000267792638624087,-0.00010417005978524685,-0.0017440036172047257,0.004213502164930105,-0.00012799850082956254,-0.24403704702854156,0.2552356719970703,1.2114298343658447,-2.0313096046447754,3.3038272857666016,-1.9415258169174194,0.35174328088760376,0.6469016075134277,0.42000001668930054,-1.1799958944320679,3.000000476837158,-0.10934862494468689,2.9999992847442627,-0.00311360415071249,-0.009609214030206203,-0.016228677704930305,-0.02298392541706562,0.13711923360824585,-0.0032304921187460423,-0.13770973682403564,-0.2660636901855469
0.15,0.0782121941447258,0.06362872570753098,0.0,0.9855618476867676,0.0,0.0,-0.16931577026844025,0.4484495222568512,0.2727472484111786,0.0,0.0,0.0,-7.147810459136963,-0.3684258460998535,0.6307754516601562,0.4200000464916229,0.9999999403953552,3.3380501918145455e-06,-2.242820528408629e-06,-2.8022322240417452e-08,0.00026674597756937146,0.0002675814612302929,-0.00010427739471197128,-0.0017367637483403087,0.0042068837210536,-0.00012831276399083436,-0.27712157368659973,0.3134421706199646,1.1717088222503662,-1.8330576419830322,3.7110133171081543,-2.7110793590545654,0.35174328088760376,0.6469016075134277,0.42000001668930054,-1.135871410369873,2.316741704940796,-0.140915647149086,-3.0000011920928955,-0.009466893970966339,-0.017192289233207703,-0.02499319240450859,-0.032882530242204666,-0.4671059846878052,-0.5249829292297363,-0.5799956917762756,-0.6322990655899048
0.16666666666666666,0.0819239690899849,0.0716119036078453,0.0,0.9796441793441772,0.0,0.0,-0.20074181258678436,0.20521610975265503,0.4246823191642761,0.0,0.0,0.0,-2.4663662910461426,-0.3684258460998535,0.630775511264801,0.4200000464916229,0.9999999403953552,3.647779067250667e-06,-2.307212753294152e-06,3.527146219539645e-08,0.00026726859505288303,0.0002680137986317277,-0.00010418682359158993,-0.0017473286716267467,0.0042176577262580395,-0.00012798354146070778,-0.31126436591148376,0.37104299664497375,1.117779016494751,-1.942576289176941,3.5924556255340576,-3.5761423110961914,0.35174328088760376,0.6469016075134277,0.42000001668930054,-1.0876376628875732,2.999998092651367,-0.19094616174697876,-3.0000016689300537,-0.020670589059591293,-0.028759021311998367,-0.036880623549222946,-0.045056503266096115,-0.5739818811416626,-0.6031510829925537,-0.6281227469444275,-0.6492205858230591
0.18333333333333332,0.08447012305259705,0.07612480968236923,0.0,0.9704897999763489,0.0,0.0,-0.24114219844341278,0.06712182611227036,0.21075396239757538,0.0,0.0,0.0,-5.798351764678955,-0.3684258460998535,0.6307754516601562,0.4200000464916229,0.9999999403953552,3.290514769105357e-06,-2.1938158170087263e-06,-2.7924590995098697e-07,0.0002667787193786353,0.0002677605953067541,-0.0001043414231389761,-0.0017390446737408638,0.004206892102956772,-0.00012845569290220737,-0.34132707118988037,0.4327092170715332,1.050349235534668,-1.497178077697754,3.805281162261963,-4.447630405426025,0.35174328088760376,0.6469016075134277,0.42000001668930054,-1.0376307964324951,3.000002861022949,-0.24097426235675812,-3.0000014305114746,-0.031104372814297676,-0.03946908190846443,-0.04780071973800659,-0.05612821877002716,-0.7048184871673584,-0.7039247155189514,-0.6998031139373779,-0.692988395690918
0.2,0.09053793549537659,0.08132854849100113,0.0,0.9644044041633606,0.0,0.0,-0.26443183422088623,0.46436023712158203,0.324775367975235,0.0,0.0,0.0,-1.7226495742797852,-0.3684258460998535,0.6307754516601562,0.4200000464916229,1.0,3.280726787124877e-06,-2.219165025962866e-06,1.5945686016038962e-07,0.0002662799961399287,0.0002674010756891221,-0.0001042510848492384,-0.0017357835313305259,0.004197876434773207,-0.00012865287135355175,-0.3670668601989746,0.4894776940345764,0.9708327651023865,-1.2779755592346191,3.231901168823242,-5.04227352142334,0.35174328088760376,0.6469016075134277,0.42000001668930054,-0.9876234531402588,3.0000009536743164,-0.2910025119781494,-2.99999737739563,-0.04182857647538185,-0.0499623641371727,-0.05802704021334648,-0.06606320291757584,-0.6248431205749512,-0.6026500463485718,-0.5789870023727417,-0.5545173287391663
0.21666666666666667,0.09280398488044739,0.08487419039011002,0.0,0.9542885422706604,0.0,0.0,-0.29888683557510376,0.08619412034749985,0.16735972464084625,0.0,0.0,0.0,-4.836674690246582,-0.3684258460998535,0.630775511264801,0.4200000464916229,1.0,3.613114131439943e-06,-2.270080813104869e-06,2.2099777652329067e-07,0.0002671255497261882,0.00026781627093441784,-0.0001041400246322155,-0.0017444631084799767,0.004215197172015905,-0.00012786380830220878,-0.38563719391822815,0.5409753322601318,0.8804181814193726,-0.7779410481452942,2.9431142807006836,-5.623722553253174,0.35174328088760376,0.6469016075134277,0.42000001668930054,-0.937612771987915,2.9999964237213135,-0.3410327434539795,-3.0000011920928955,-0.05710148811340332,-0.06478113681077957,-0.07242070138454437,-0.07999882102012634,-0.8963284492492676,-0.9043934941291809,-0.913842499256134,-0.923677384853363
0.23333333333333334,0.09132499992847443,0.08962886035442352,0.0,0.9503822922706604,0.0,0.0,-0.3110843896865845,-0.14695154130458832,0.3249312937259674,0.0,0.0,0.0,-0.5091090202331543,-0.3684258460998535,0.6307754516601562,0.4200000464916229,1.0,3.381833721505245e-06,-2.29093961934268e-06,2.727813352976227e-07,0.00026691294624470174,0.00026779971085488796,-0.00010433141142129898,-0.0017395353643223643,0.004209678154438734,-0.00012843581498600543,-0.40056002140045166,0.5798563957214355,0.784695029258728,-0.6783806681632996,1.8950947523117065,-5.851405143737793,0.35174328088760376,0.6469016075134277,0.42000001668930054,-0.8876020908355713,2.999998092651367,-0.3910644054412842,-3.000001907348633,-0.0735878124833107,-0.08127027004957199,-0.08890800923109055,-0.09646641463041306,-0.9901112914085388,-0.9921063780784607,-0.9936440587043762,-0.9933305382728577
0.25,0.09362950176000595,0.0908157229423523,0.0,0.942284345626831,0.0,0.0,-0.33481365442276,0.1731320172548294,0.02507009543478489,0.0,0.0,0.0,-3.6413280963897705,-0.36842581629753113,0.6307754516601562,0.4200000464916229,0.9999999403953552,3.7065449305373477e-06,-2.222977173005347e-06,-2.2551901679435105e-07,0.0002642468025442213,0.0002665686479303986,-0.00010457751341164112,-0.0017169659258797765,0.004155547823756933,-0.00013063880032859743,-0.4086077809333801,0.6087783575057983,0.6813516020774841,-0.10965126752853394,1.3535077571868896,-6.34588623046875,0.35174328088760376,0.6469016075134277,0.42000001668930054,-0.8375918865203857,2.9999964237213135,-0.44109606742858887,-3.000002861022949,-0.08937028795480728,-0.09709103405475616,-0.10478247702121735,-0.11232949793338776,-0.9993982911109924,-0.9987623691558838,-0.9983003735542297,-0.9979655742645264
0.26666666666666666,0.09222578257322311,0.09023375809192657,0.0,0.9406335353851318,0.0,0.0,-0.33942392468452454,-0.15665628015995026,-0.07229658216238022,0.0,0.0,0.0,0.34202608466148376,-0.3684258460998535,0.6307754516601562,0.4200000464916229,0.9999999403953552,3.7196000448602717e-06,-2.403485495960922e-06,-1.8307810023543425e-07,0.0002662320912349969,0.00026729173259809613,-0.00010425853542983532,-0.0017327233217656612,0.0041965520940721035,-0.00012851424980908632,-0.40785807371139526,0.6213898658752441,0.583788275718689,0.33528512716293335,0.3499608337879181,-5.414162635803223,0.35174328088760376,0.6469016075134277,0.42000001668930054,-0.7875831127166748,3.000002384185791,-0.49112629890441895,-3.000002861022949,-0.10738260298967361,-0.11478407680988312,-0.12223538756370544,-0.12959477305412292,-1.014017105102539,-1.0105371475219727,-1.007885217666626,-1.0057810544967651
0.2833333333333333,0.08756417781114578,0.08727122098207474,0.0,0.934333086013794,0.0,0.0,-0.3564010560512543,-0.2804166376590729,-0.24195918440818787,0.0,0.0,0.0,-2.993438243865967,-0.3684258460998535,0.630775511264801,0.4200000464916229,0.9999999403953552,3.5840146210830426e-06,-2.31546050599718e-06,7.404324975368581e-08,0.00026522012194618583,0.0002645521017257124,-0.00010317075066268444,-0.0017020526574924588,0.004185048397630453,-0.0001249978959094733,-0.39682987332344055,0.6279354095458984,0.495531290769577,0.9496354460716248,0.4575856924057007,-5.14266300201416,0.35174328088760376,0.6469016075134277,0.42000001668930054,-0.7375743389129639,3.0000011920928955,-0.5411549806594849,-3.0000011920928955,-0.12444207817316055,-0.13176310062408447,-0.13916504383087158,-0.14649158716201782,-1.010015845298767,-1.0075606107711792,-1.005684733390808,-1.004186987876892
0.3,0.08138042688369751,0.08180813491344452,0.0,0.9343070387840271,0.0,0.0,-0.3564692437648773,-0.4084653854370117,-0.36492103338241577,0.0,0.0,0.0,0.9217774868011475,-0.3684258460998535,0.6307754516601562,0.4200000464916229,1.0,3.724180714925751e-06,-2.2719079879607307e-06,9.637297893050345e-08,0.0002631253737490624,0.0002652592374943197,-0.00010437984019517899,-0.0016960874199867249,0.004134821705520153,-0.00013027869863435626,-0.38009870052337646,0.6348390579223633,0.41308021545410156,1.1817866563796997,0.28310033679008484,-4.781018257141113,0.35174328088760376,0.6469016075134277,0.42000001668930054,-0.687567412853241,3.0000007152557373,-0.5911818146705627,-2.999999761581421,-0.14156796038150787,-0.14877790212631226,-0.15609852969646454,-0.16336295008659363,-1.0066719055175781,-1.005062222480774,-1.0038281679153442,-1.0028355121612549
0.31666666666666665,0.07315075397491455,0.07430458813905716,0.0,0.9348971843719482,0.0,0.0,-0.3549186587333679,-0.5306130647659302,-0.486777126789093,0.0,0.0,0.0,-0.15370257198810577,-0.3684258460998535,0.6307754516601562,0.4200000464916229,1.0,3.6661228932644008e-06,-2.3925063032947946e-06,1.6801759272766503e-07,0.00026602187426760793,0.00026706981589086354,-0.00010418705642223358,-0.0017310723196715117,0.004193500615656376,-0.00012849830090999603,-0.3818797469139099,0.6360870599746704,0.42367908358573914,-0.15082815289497375,-0.005385991185903549,-0.16241446137428284,0.35174328088760376,0.6469016075134277,0.42000001668930054,-0.6376697421073914,2.9999842643737793,-0.6416546702384949,-3.000000476837158,-0.14951226115226746,-0.1556873619556427,-0.1615544706583023,-0.16690966486930847,-0.6005886793136597,-0.4992753863334656,-0.3785986304283142,-0.23808562755584717
0.3333333333333333,0.06258323788642883,0.06468155980110168,0.0,0.9419803619384766,0.0,0.0,-0.33566808700561523,-0.6916924118995667,-0.6210559010505676,0.0,0.0,0.0,3.2551050186157227,-0.36853474378585815,0.6309902667999268,0.41999995708465576,0.9999896287918091,1.718509793136036e-06,-1.7837843415691168e-06,-0.00453523313626647,-0.013373966328799725,0.020319713279604912,-3.707500945893116e-05,-0.0028024734929203987,0.004019434563815594,-0.9038432836532593,-0.38262709975242615,0.636297345161438,0.42075151205062866,0.0027170330286026,-0.029257148504257202,-0.1731780618429184,0.35174328088760376,0.6469016075134277,0.42000001668930054,-0.5876644849777222,2.9999825954437256,-0.6916985511779785,-2.9999711513519287,-0.15992946922779083,-0.16396959125995636,-0.16737103462219238,-0.16994810104370117,-0.5888755917549133,-0.45387569069862366,-0.29828038811683655,-0.12412072718143463
0.35,0.049687664955854416,0.052767064422369,0.0,0.9429005980491638,0.0,0.0,-0.33307430148124695,-0.8270483613014221,-0.75538170337677,0.0,0.0,0.0,-0.6397355198860168,-0.36666736006736755,0.634045422077179,0.42024317383766174,0.9989584684371948,0.00016810408851597458,0.006144235376268625,-0.04521210491657257,0.19765569269657135,0.18096914887428284,0.016260359436273575,-0.15260139107704163,0.800186812877655,-11.667867660522461,-0.3789291977882385,0.6388610601425171,0.4215017855167389,0.43142443895339966,0.19216503202915192,-0.056188762187957764,0.35174328088760376,0.6469016075134277,0.42000001668930054,-0.5376595258712769,2.9994959831237793,-0.7417230010032654,-2.998955249786377,-0.17007651925086975,-0.1713702529668808,-0.17160746455192566,-0.1706632375717163,-0.5722724199295044,-0.3944731652736664,-0.19057534635066986,0.03490752726793289
0.36666666666666664,0.03965598717331886,0.03824600577354431,0.0,0.9338110685348511,0.0,0.0,-0.35776659846305847,-0.5238590836524963,-0.9202008843421936,0.0,0.0,0.0,-4.0005364418029785,-0.36046352982521057,0.6393942832946777,0.42000001668930054,0.9861425757408142,1.552661524328869e-05,6.77517891745083e-06,-0.1658996343612671,0.48609238862991333,0.4185691773891449,-0.00020390338613651693,-0.022674188017845154,0.039399731904268265,-17.309053421020508,-0.3689677119255066,0.6444453597068787,0.4212771952152252,0.7414342164993286,0.4544602036476135,0.1518339216709137,0.35174328088760376,0.6469016075134277,0.42000001668930054,-0.48763638734817505,2.999997854232788,-0.7917367815971375,-2.9999732971191406,-0.17875631153583527,-0.1769157350063324,-0.17352943122386932,-0.16856618225574493,-0.43681034445762634,-0.24394051730632782,-0.020800292491912842,0.22623802721500397
0.3833333333333333,0.03364494815468788,0.020881980657577515,0.0,0.9133777022361755,0.0,0.0,-0.40711328387260437,-0.28140443563461304,-1.095939040184021,0.0,0.0,0.0,-7.248960494995117,-0.34414637088775635,0.655218780040741,0.4210798740386963,0.9689986109733582,-0.025894122198224068,0.007526092696934938,-0.24559009075164795,1.5613986253738403,1.311995506286621,0.16381825506687164,-7.153306007385254,4.171996116638184,-7.4379143714904785,-0.3499176502227783,0.6590324640274048,0.423984169960022,1.5810291767120361,1.2616065740585327,0.2549177408218384,0.35174328088760376,0.6469016075134277,0.42000001668930054,-0.4376101791858673,3.0000016689300537,-0.8417544364929199,-2.999872922897339,-0.18534637987613678,-0.18042287230491638,-0.17343775928020477,-0.1644757241010666,-0.33833107352256775,-0.16355042159557343,0.039355743676424026,0.2634078562259674
0.4,0.02964513935148716,0.007678169757127762,0.0,0.8777540326118469,0.0,0.0,-0.4791114926338196,-0.2088489681482315,-0.6844763159751892,0.0,0.0,0.0,-10.51957893371582,-0.2903897762298584,0.6840571165084839,0.42283862829208374,0.9494644999504089,0.007905627600848675,-0.046913668513298035,-0.31024786829948425,4.491519451141357,2.021825075149536,0.5125924944877625,4.567627429962158,-18.959205627441406,18.53654670715332,-0.2972511649131775,0.6885820031166077,0.42546090483665466,4.463319301605225,2.3521440029144287,-0.016857698559761047,0.35174328088760376,0.6469016075134277,0.42000001668930054,-0.39121508598327637,2.277299165725708,-0.8050738573074341,2.9996445178985596,-0.1987677365541458,-0.18913038074970245,-0.1771472841501236,-0.1632458120584488,-0.8835934996604919,-0.6005053520202637,-0.29845884442329407,-0.014333058148622513
0.4166666666666667,0.028049960732460022,0.0007472287979908288,0.0,0.8229062557220459,0.0,0.0,-0.5681771039962769,-0.018650071695446968,-0.5338436365127563,0.0,0.0,0.0,-13.196237564086914,-0.19227473437786102,0.7212209701538086,0.4271247684955597,0.9242424368858337,0.035751696676015854,-0.07984200119972229,-0.37164899706840515,7.157310485839844,2.709292411804199,0.2575172781944275,7.506012439727783,-21.12296485900879,-1.7295055389404297,-0.19895508885383606,0.7295523881912231,0.42908892035484314,6.994762420654297,2.767021656036377,0.1829736977815628,0.35174328088760376,0.6469016075134277,0.42000001668930054,-0.3612118065357208,0.9339186549186707,-0.8025342226028442,-2.1859545707702637,-0.21356289088726044,-0.20329350233078003,-0.1864875853061676,-0.16711249947547913,-0.39719998836517334,-0.5173564553260803,-0.42266130447387695,-0.19808655977249146
0.43333333333333335,0.022783219814300537,-0.0030035083182156086,0.0,0.7728147506713867,0.0,0.0,-0.6346316933631897,-0.41171348094940186,-0.13408072292804718,0.0,0.0,0.0,-8.961174964904785,-0.07910753786563873,0.7548738121986389,0.4342009127140045,0.8795789480209351,0.10703330487012863,-0.1183815523982048,-0.4481857120990753,6.538788318634033,0.7495775818824768,0.7211300730705261,-6.953308582305908,3.6013264656066895,9.811212539672852,-0.08668887615203857,0.7658398747444153,0.43634939193725586,6.670597076416016,1.5270586013793945,0.4664253294467926,0.35174328088760376,0.6469016075134277,0.42000001668930054,-0.3514152765274048,0.5207412838935852,-0.7624430060386658,3.0000016689300537,-0.2272523194551468,-0.2167220115661621,-0.19713695347309113,-0.17361143231391907,-0.8454992771148682,-0.7908081412315369,-0.6275085806846619,-0.41097965836524963
0.45,0.020855601876974106,-0.012025539763271809,0.0,0.7401526570320129,0.0,0.0,-0.6724388599395752,-0.012007169425487518,-0.6954574584960938,0.0,0.0,0.0,-5.033020496368408,0.02713366225361824,0.7711188793182373,0.44267210364341736,0.8277238011360168,0.12969452142715454,-0.12658999860286713,-0.5310627222061157,6.143755912780762,0.08065775781869888,0.5786817669868469,-2.605611801147461,7.42538595199585,-7.876793384552002,0.01992059126496315,0.783747673034668,0.4446480870246887,6.261105537414551,0.44718214869499207,0.5865719318389893,0.35174328088760376,0.6469016075134277,0.42000001668930054,-0.3404856324195862,0.6262996792793274,-0.7894763350486755,-2.9988718032836914,-0.23606806993484497,-0.22425571084022522,-0.2022576779127121,-0.17579197883605957,-0.3749430775642395,-0.2828129827976227,-0.15570303797721863,-0.013765770941972733
0.4666666666666667,0.019263656809926033,-0.019354982301592827,0.0,0.7310047745704651,0.0,0.0,-0.6823723912239075,-0.14468924701213837,-0.329182893037796,0.0,0.0,0.0,-0.48747605085372925,0.12208391726016998,0.768656313419342,0.44690313935279846,0.7593234777450562,0.06238340586423874,-0.1772003024816513,-0.6230056881904602,4.952907562255859,-1.2410303354263306,0.3643111288547516,-8.337296485900879,-8.656014442443848,24.618648529052734,0.11488398164510727,0.7852784395217896,0.4529357850551605,5.278049468994141,-0.3747258186340332,0.3867579698562622,0.35174328088760376,0.6469016075134277,0.42000001668930054,-0.33022770285606384,0.5164023637771606,-0.8395022749900818,-2.9993014335632324,-0.2399967908859253,-0.23034483194351196,-0.20642437040805817,-0.17802995443344116,-0.0061391075141727924,-0.336176335811615,-0.2562536299228668,-0.18644554913043976
0.48333333333333334,0.019237419590353966,-0.02234005741775036,0.0,0.7149609923362732,0.0,0.0,-0.6991643309593201,0.05330740287899971,-0.08601076155900955,0.0,0.0,0.0,-3.6052651405334473,0.20319350063800812,0.7525944113731384,0.4435710608959198,0.6493164896965027,-0.054951995611190796,-0.28222373127937317,-0.7040724754333496,4.634206295013428,-1.8554344177246094,-0.07490812987089157,-29.236881256103516,3.511390209197998,1.8627502918243408,0.19417007267475128,0.7745243310928345,0.45633023977279663,4.4214301109313965,-1.068220615386963,0.04770108312368393,0.35174328088760376,0.6469016075134277,0.42000001668930054,-0.32420215010643005,0.17275701463222504,-0.8895273804664612,-3.0000030994415283,-0.23971839249134064,-0.23452943563461304,-0.20973394811153412,-0.18065145611763,0.018217535689473152,-0.1788797825574875,-0.139821857213974,-0.11716433614492416
0.5,0.02221721224486828,-0.027356106787919998,0.0,0.71157306432724,0.0,0.0,-0.7026121020317078,0.21166440844535828,-0.22664909064769745,0.0,0.0,0.0,0.4267124533653259,0.2700742185115814,0.7299011945724487,0.43898525834083557,0.5788877010345459,-0.07540657371282578,-0.302308052778244,-0.7535334825515747,3.3138930797576904,-2.112750768661499,0.23243120312690735,-1.074520230293274,20.142440795898438,-0.6373311877250671,0.26209262013435364,0.7533600330352783,0.4537840485572815,3.676931858062744,-1.6677223443984985,-0.41630613803863525,0.35174328088760376,0.6469016075134277,0.42000001668930054,-0.3262617290019989,-0.37988340854644775,-0.939551591873169,-2.996724843978882,-0.2375890016555786,-0.23474061489105225,-0.20981793105602264,-0.18109047412872314,-0.06756092607975006,-0.11427802592515945,-0.09310657531023026,-0.11673370003700256
0.5166666666666666,0.027212994173169136,-0.02805609256029129,0.0,0.6998533606529236,0.0,0.0,-0.7142865657806396,0.35833436250686646,-0.004872036166489124,0.0,0.0,0.0,-2.799781322479248,0.31949755549430847,0.706683337688446,0.4311639666557312,0.5696251392364502,-0.12025636434555054,-0.21982426941394806,-0.7827789783477783,2.2181479930877686,-1.0738942623138428,-0.2880702018737793,22.742919921875,8.239441871643066,-0.7917591333389282,0.31384745240211487,0.7289918065071106,0.4464506506919861,2.3002049922943115,-1.21685791015625,0.17071428894996643,0.35174328088760376,0.6469016075134277,0.42000001668930054,-0.32291945815086365,0.5534655451774597,-0.9895755648612976,-3.000009059906006,-0.23661209642887115,-0.23490110039710999,-0.21085892617702484,-0.18364503979682922,0.26285532116889954,0.17286157608032227,0.055813323706388474,-0.0907459482550621
0.5333333333333333,0.030380455777049065,-0.031899593770504,0.0,0.7001004815101624,0.0,0.0,-0.7140443325042725,0.12158054858446121,-0.2744061350822449,0.0,0.0,0.0,0.825529932975769,0.3498952090740204,0.6857538223266602,0.4293564260005951,0.5569354295730591,-0.13204331696033478,-0.18648169934749603,-0.7985060811042786,1.2277390956878662,-1.7384392023086548,-0.009229296818375587,-9.888618469238281,7.8284454345703125,1.7026957273483276,0.3457232713699341,0.7066513895988464,0.44604477286338806,1.4401912689208984,-1.3424277305603027,0.06595438718795776,0.35174328088760376,0.6469016075134277,0.42000001668930054,-0.31185245513916016,0.7760461568832397,-1.039597988128662,-2.9972007274627686,-0.23162715137004852,-0.23066043853759766,-0.20863917469978333,-0.18405279517173767,0.2643470764160156,0.25840672850608826,0.13729770481586456,-0.023648034781217575
0.55,0.03429652377963066,-0.03226616606116295,0.0,0.68973708152771,0.0,0.0,-0.7240598797798157,0.2772020995616913,-0.0034964485093951225,0.0,0.0,0.0,-2.5224034786224365,0.3662952482700348,0.669467031955719,0.42806392908096313,0.5648366808891296,-0.1455439180135727,-0.1559813767671585,-0.7971488237380981,0.49941226840019226,-1.2559351921081543,0.05650380998849869,-16.699743270874023,11.640325546264648,4.73870849609375,0.36285287141799927,0.689018726348877,0.4457060396671295,0.725055456161499,-0.7994240522384644,0.0017938315868377686,0.35174328088760376,0.6469016075134277,0.42000001668930054,-0.29868626594543457,0.7114455103874207,-1.0896201133728027,-2.9908134937286377,-0.22642607986927032,-0.2259698212146759,-0.20671983063220978,-0.1854260116815567,0.47064948081970215,0.4086377024650574,0.19542278349399567,-0.04084594175219536
0.5666666666666667,0.04058094322681427,-0.036113716661930084,0.0,0.6915108561515808,0.0,0.0,-0.7223660945892334,0.40560606122016907,-0.25071439146995544,0.0,0.0,0.0,1.1415437459945679,0.3718186616897583,0.6578288078308105,0.42719078063964844,0.5745874047279358,-0.16049659252166748,-0.13885967433452606,-0.7904479503631592,-0.04116947948932648,-0.9893925189971924,-0.02596231736242771,-12.012236595153809,12.41033935546875,2.0530388355255127,0.368610680103302,0.6764450073242188,0.44590285420417786,0.047806330025196075,-0.7058382034301758,-0.03670594096183777,0.35174328088760376,0.6469016075134277,0.42000001668930054,-0.29277870059013367,0.08010856062173843,-1.131422996520996,-2.0493717193603516,-0.21659786999225616,-0.21710366010665894,-0.20159633457660675,-0.18441292643547058,0.5080924034118652,0.4819137752056122,0.2751249074935913,0.04384920373558998
0.5833333333333334,0.044598788022994995,-0.03665957972407341,0.0,0.683040201663971,0.0,0.0,-0.7303807735443115,0.17866401374340057,-0.00276359636336565,0.0,0.0,0.0,-2.2256994247436523,0.3707300126552582,0.6521051526069641,0.4250680208206177,0.6077760457992554,-0.10851816833019257,-0.09171518683433533,-0.7812941074371338,-0.13503322005271912,-0.2665620744228363,-0.07636868953704834,7.045297622680664,-4.362670421600342,3.9102821350097656,0.3660169243812561,0.6674091815948486,0.4425821304321289,-0.2726377546787262,-0.3800369203090668,-0.27342408895492554,0.35174328088760376,0.6469016075134277,0.42000001668930054,-0.2916382849216461,0.14209769666194916,-1.0900940895080566,3.0000007152557373,-0.208184152841568,-0.2094339281320572,-0.19767548143863678,-0.18453533947467804,0.6080838441848755,0.5360881090164185,0.28551891446113586,0.023209137842059135
0.6,0.0492759607732296,-0.04029165580868721,0.0,0.6861861348152161,0.0,0.0,-0.7274259924888611,0.3167136013507843,-0.25004568696022034,0.0,0.0,0.0,1.2966762781143188,0.36382007598876953,0.6482834815979004,0.42164114117622375,0.6381266713142395,-0.02945406176149845,-0.025552403181791306,-0.7689433097839355,-0.59526526927948,-0.19227279722690582,-0.23934514820575714,14.63772201538086,-3.0938236713409424,3.2028050422668457,0.35823485255241394,0.6608433723449707,0.43477702140808105,-0.7058936357498169,-0.4178325831890106,-0.6067013740539551,0.35174328088760376,0.6469016075134277,0.42000001668930054,-0.3138582110404968,-2.5468766689300537,-1.1130963563919067,-2.999997615814209,-0.19759076833724976,-0.19985787570476532,-0.19208981096744537,-0.18315383791923523,0.5493978261947632,0.5104959607124329,0.2946239709854126,0.06383005529642105
0.6166666666666667,0.056151822209358215,-0.040750328451395035,0.0,0.6786965131759644,0.0,0.0,-0.7344188094139099,0.4476335644721985,0.005657371133565903,0.0,0.0,0.0,-2.136054754257202,0.3566652834415436,0.64573073387146,0.42073068022727966,0.6494856476783752,-0.01292073167860508,0.000588810071349144,-0.7602638006210327,-0.11595718562602997,0.011838370934128761,0.13883501291275024,-3.5276265144348145,3.53403639793396,0.7035315632820129,0.35225439071655273,0.6579033136367798,0.427290141582489,0.04432808607816696,0.031540367752313614,0.2131340354681015,0.35174328088760376,0.6469016075134277,0.42000001668930054,-0.3603786528110504,-2.998988389968872,-1.162969946861267,-3.0001509189605713,-0.1892629712820053,-0.19236688315868378,-0.18810921907424927,-0.1827736496925354,0.5564745664596558,0.49534305930137634,0.29059478640556335,0.08956827223300934
0.6333333333333333,0.06486405432224274,-0.03872130811214447,0.0,0.6830952167510986,0.0,0.0,-0.7303293347358704,0.5515270233154297,0.22241488099098206,0.0,0.0,0.0,1.6052467823028564,0.35504117608070374,0.6460362672805786,0.42148441076278687,0.6531444191932678,-0.027538064867258072,-0.008647603914141655,-0.7566830515861511,-0.09927938133478165,0.015154296532273293,0.011038605123758316,-1.3227335214614868,-0.4561470150947571,0.6526855230331421,0.3517494797706604,0.6593018174171448,0.4306381940841675,-0.09275137633085251,0.09992621839046478,0.20644673705101013,0.35174328088760376,0.6469016075134277,0.42000001668930054,-0.41038480401039124,-2.9999704360961914,-1.2129812240600586,-2.9999349117279053,-0.18086816370487213,-0.18495593965053558,-0.183865487575531,-0.18159861862659454,0.44030293822288513,0.38959941267967224,0.21799837052822113,0.052085030823946
0.65,0.07104632258415222,-0.040945373475551605,0.0,0.7083175182342529,0.0,0.0,-0.7058939337730408,0.36600902676582336,-0.1796126514673233,0.0,0.0,0.0,4.972931385040283,0.3537309467792511,0.6460718512535095,0.4204917848110199,0.6555271148681641,-0.009228491224348545,-0.008032458834350109,-0.7550724148750305,-0.06606628000736237,-0.009248285554349422,-0.06568514555692673,3.43711256980896,-0.49521124362945557,0.2660558819770813,0.3494873642921448,0.660659909248352,0.4349893629550934,-0.27484726905822754,-0.02512814849615097,0.2974305748939514,0.35174328088760376,0.6469016075134277,0.42000001668930054,-0.46038004755973816,-2.999962329864502,-1.2629733085632324,-2.9999279975891113,-0.1705387383699417,-0.17523972690105438,-0.17648687958717346,-0.176375150680542,0.44847002625465393,0.47647663950920105,0.41334813833236694,0.36030179262161255
0.6666666666666666,0.07879197597503662,-0.046408191323280334,0.0,0.7183945775032043,0.0,0.0,-0.6956357955932617,0.47228026390075684,-0.3486541211605072,0.0,0.0,0.0,0.6261356472969055,0.3533911406993866,0.6456799507141113,0.4200000464916229,0.6559058427810669,9.15086033614898e-08,3.3895773299263965e-07,-0.7548426985740662,5.605672049568966e-05,0.0005877510993741453,-8.53941310197115e-06,-4.794647611561231e-05,-0.0002239501482108608,-0.0025415325071662664,0.3483542203903198,0.6612770557403564,0.44063717126846313,0.03624529391527176,0.019826218485832214,0.3586779832839966,0.35174328088760376,0.6469016075134277,0.42000001668930054,-0.5103908181190491,-2.999999523162842,-1.3129816055297852,-3.0000007152557373,-0.16491906344890594,-0.1685471534729004,-0.16996994614601135,-0.169817253947258,0.2639578580856323,0.3543214201927185,0.38276228308677673,0.42523249983787537
0.6833333333333333,0.08801145106554031,-0.05440959334373474,0.0,0.7070605754852295,0.0,0.0,-0.7071529626846313,0.5912190079689026,-0.5474478006362915,0.0,0.0,0.0,-2.7946970462799072,0.35339078307151794,0.6456802487373352,0.4200000464916229,0.655906081199646,6.51557002129266e-07,-4.4574726416612975e-06,-0.7548424005508423,0.00022318906849250197,-0.0003004432946909219,-0.0001083670649677515,0.005650684237480164,0.00015216224710457027,-0.0004240977286826819,0.35500839352607727,0.663320779800415,0.45405763387680054,0.7087604999542236,0.18414688110351562,1.3344104290008545,0.35174328088760376,0.6469016075134277,0.42000001668930054,-0.5604033470153809,-2.9999825954437256,-1.3629999160766602,-3.000000238418579,-0.1629299372434616,-0.16486869752407074,-0.165446475148201,-0.16422483325004578,0.04973289370536804,0.15622606873512268,0.22146667540073395,0.29898226261138916
0.7,0.10073009878396988,-0.05673464760184288,0.0,0.6744509339332581,0.0,0.0,-0.7383196949958801,0.8335607051849365,-0.0034884237684309483,0.0,0.0,0.0,-6.418895244598389,0.35339081287384033,0.6456802487373352,0.4200000464916229,0.655906081199646,5.311956101650139e-07,-3.844058937829686e-06,-0.7548424601554871,0.0002155081310775131,-0.00028266527806408703,-0.00010408461093902588,0.005276014097034931,0.00018875201931223273,-0.000411781802540645,0.37618714570999146,0.6618599891662598,0.4814102053642273,1.879784107208252,-0.3023873567581177,2.098069429397583,0.35174328088760376,0.6469016075134277,0.42000001668930054,-0.6104140281677246,-2.9998128414154053,-1.4130182266235352,-2.999974012374878,-0.17059019207954407,-0.16927197575569153,-0.16721509397029877,-0.16329774260520935,-0.6326879262924194,-0.40484774112701416,-0.20803362131118774,-0.011353539302945137
0.7166666666666667,0.11043700575828552,-0.05319590121507645,0.0,0.6535115242004395,0.0,0.0,-0.7569165825843811,0.5171248316764832,-0.02765914425253868,0.0,0.0,0.0,-1.8755414485931396,0.35339078307151794,0.6456802487373352,0.4200000464916229,0.655906081199646,6.71292866627482e-07,-3.8977254916972015e-06,-0.7548424005508423,0.0002173969551222399,-0.00028351732180453837,-0.00010444875806570053,0.005286321975290775,0.00021256682521197945,-0.00041508785216137767,0.4029403328895569,0.659880518913269,0.5187855958938599,1.5323762893676758,0.14737153053283691,2.299238681793213,0.35174328088760376,0.6469016075134277,0.42000001668930054,-0.6290202140808105,0.4800814986228943,-1.4630365371704102,-2.999999523162842,-0.18017630279064178,-0.17582666873931885,-0.17122212052345276,-0.1648571789264679,-0.06560028344392776,-0.03289690613746643,-0.014922896400094032,0.006520813796669245
0.7333333333333333,0.11585122346878052,-0.05157299339771271,0.0,0.6592053771018982,0.0,0.0,-0.7519629597663879,0.25557664036750793,0.14633354544639587,0.0,0.0,0.0,1.749287486076355,0.35339078307151794,0.6456802487373352,0.4200000464916229,0.655906081199646,6.851112175354501e-07,-3.838391421595588e-06,-0.7548425197601318,0.00021705876861233264,-0.00028312718495726585,-0.00010438356548547745,0.0052795251831412315,0.00021001471031922847,-0.0004145798448007554,0.42436525225639343,0.6622628569602966,0.5520002245903015,0.9241545796394348,0.1754256784915924,1.7346391677856445,0.35174328088760376,0.6469016075134277,0.42000001668930054,-0.5985758900642395,2.9335126876831055,-1.4244147539138794,3.0000007152557373,-0.17989853024482727,-0.1753167062997818,-0.17064830660820007,-0.16420166194438934,0.10988297313451767,0.1046798974275589,0.09183831512928009,0.07692550122737885
0.75,0.11661683768033981,-0.055278584361076355,0.0,0.6528693437576294,0.0,0.0,-0.7574704885482788,0.1158398762345314,-0.18751077353954315,0.0,0.0,0.0,-1.7366799116134644,0.35339078307151794,0.6456801891326904,0.4200000464916229,0.6559060215950012,6.379357841979072e-07,-3.6058531804883387e-06,-0.7548424601554871,0.00022214696218725294,-0.0002831138845067471,-0.0001059146597981453,0.0052559697069227695,0.00027454423252493143,-0.00042536904220469296,0.43339523673057556,0.667354166507721,0.5748820304870605,0.05998007208108902,0.14537584781646729,1.1226096153259277,0.35174328088760376,0.6469016075134277,0.42000001668930054,-0.557170033454895,2.0772414207458496,-1.3743621110916138,2.9999992847442627,-0.17213258147239685,-0.16867059469223022,-0.16516859829425812,-0.1599019169807434,0.21436576545238495,0.20046190917491913,0.17951226234436035,0.14779281616210938
0.7666666666666666,0.11606329679489136,-0.053875625133514404,0.0,0.6585578322410583,0.0,0.0,-0.7525301575660706,-0.07319843769073486,0.13777725398540497,0.0,0.0,0.0,1.6778897047042847,0.35339078307151794,0.6456802487373352,0.4200000464916229,0.6559061408042908,6.453505534409487e-07,-3.7256561427057022e-06,-0.7548424601554871,0.00022072605497669429,-0.0002821719681378454,-0.00010575330816209316,0.005239782854914665,0.0002541982103139162,-0.0004232305218465626,0.42913222312927246,0.6682581901550293,0.5896642804145813,-0.49632778763771057,0.06907767802476883,0.6879127621650696,0.35174328088760376,0.6469016075134277,0.42000001668930054,-0.5121418833732605,3.000000476837158,-1.324332356452942,2.999999761581421,-0.17118442058563232,-0.167369544506073,-0.1636495739221573,-0.15843982994556427,0.12291838228702545,0.1289498209953308,0.12955176830291748,0.11374031752347946
0.7833333333333333,0.11294039338827133,-0.05497324466705322,0.0,0.6527993679046631,0.0,0.0,-0.7575308084487915,-0.2504035532474518,-0.04968469589948654,0.0,0.0,0.0,-1.6686595678329468,0.35339078307151794,0.6456802487373352,0.4200000464916229,0.655906081199646,5.956005679763621e-07,-3.6480214475886896e-06,-0.7548424601554871,0.00022169537260197103,-0.00028301874408498406,-0.00010580010712146759,0.005255667492747307,0.00026879418874159455,-0.00042448879685252905,0.41527259349823,0.6690889596939087,0.5957615375518799,-1.2105238437652588,-0.018035292625427246,0.20441199839115143,0.35174328088760376,0.6469016075134277,0.42000001668930054,-0.48638248443603516,0.3020133078098297,-1.2742797136306763,3.0000011920928955,-0.1682683527469635,-0.16454902291297913,-0.16096311807632446,-0.15614314377307892,0.06745194643735886,0.08147543668746948,0.09326054900884628,0.08756644278764725
0.8,0.11177068203687668,-0.05245319381356239,0.0,0.658831000328064,0.0,0.0,-0.7522909641265869,-0.01215793564915657,0.18039865791797638,0.0,0.0,0.0,1.6758524179458618,0.35339078307151794,0.6456802487373352,0.4200000464916229,0.655906081199646,5.658458235302533e-07,-3.7325830817280803e-06,-0.7548424601554871,0.00022199588420335203,-0.0002833274775184691,-0.00010579056106507778,0.005261710379272699,0.000273516692686826,-0.0004247917968314141,0.39936572313308716,0.6702989935874939,0.5987721681594849,-0.6991790533065796,0.19873949885368347,0.19767212867736816,0.35174328088760376,0.6469016075134277,0.42000001668930054,-0.4673430025577545,1.8345922231674194,-1.262708067893982,-1.252740502357483,-0.16720342636108398,-0.1635647863149643,-0.15996654331684113,-0.15531481802463531,0.16535380482673645,0.12812024354934692,0.10324428975582123,0.07411171495914459
0.8166666666666667,0.11160984635353088,-0.05360677093267441,0.0,0.6530320048332214,0.0,0.0,-0.7573302984237671,0.01196586899459362,-0.08520597964525223,0.0,0.0,0.0,-1.6994060277938843,0.35339081287384033,0.6456802487373352,0.4200000464916229,0.655906081199646,6.206812486198032e-07,-3.658754394564312e-06,-0.7548424601554871,0.00022070473642088473,-0.00028246050351299345,-0.0001056259498000145,0.005247599445283413,0.0002563130983617157,-0.0004228013858664781,0.3896270990371704,0.6731512546539307,0.5989073514938354,-0.5164749622344971,0.056102197617292404,-0.027081672102212906,0.35174328088760376,0.6469016075134277,0.42000001668930054,-0.4833487570285797,-2.999997854232788,-1.2185064554214478,3.000000238418579,-0.16276155412197113,-0.1600441187620163,-0.15711089968681335,-0.1531388759613037,0.14300450682640076,0.11487042903900146,0.10102493315935135,0.08478732407093048
0.8333333333333334,0.11380746960639954,-0.053220611065626144,0.0,0.6593480706214905,0.0,0.0,-0.7518377900123596,0.171651691198349,0.045920781791210175,0.0,0.0,0.0,1.8187439441680908,0.35339081287384033,0.6456802487373352,0.4200000464916229,0.655906081199646,6.338333946587227e-07,-3.775463255806244e-06,-0.7548424601554871,0.00022057787282392383,-0.0002825315168593079,-0.00010560615919530392,0.00524978106841445,0.0002538645640015602,-0.0004225344455335289,0.38620394468307495,0.674083948135376,0.5980758666992188,0.10539088398218155,0.10727006942033768,-0.03235388547182083,0.35174328088760376,0.6469016075134277,0.42000001668930054,-0.5080032348632812,-0.18158015608787537,-1.2396868467330933,-3.000000476837158,-0.16141854226589203,-0.1586991548538208,-0.15548890829086304,-0.15124736726284027,0.16235265135765076,0.15568095445632935,0.16959035396575928,0.18783116340637207
0.85,0.11773605644702911,-0.055290091782808304,0.0,0.6541190147399902,0.0,0.0,-0.7563916444778442,0.27503183484077454,-0.19652949273586273,0.0,0.0,0.0,-1.6789830923080444,0.35339078307151794,0.6456802487373352,0.4200000464916229,0.6559060215950012,6.006926582813321e-07,-3.7099880501045845e-06,-0.7548424601554871,0.00022140983492136002,-0.0002830710436683148,-0.00010573491454124451,0.005258175078779459,0.0002643906627781689,-0.0004238966794218868,0.39053332805633545,0.6735484004020691,0.5941777229309082,0.42285802960395813,-0.14283210039138794,-0.22352270781993866,0.35174328088760376,0.6469016075134277,0.42000001668930054,-0.5430526733398438,-2.999999761581421,-1.201695442199707,3.000000476837158,-0.1600516438484192,-0.15717528760433197,-0.1534678339958191,-0.14865069091320038,0.061372801661491394,0.08277849107980728,0.12297692894935608,0.1671835035085678
0.8666666666666667,0.12428165227174759,-0.054523490369319916,0.0,0.6448506116867065,0.0,0.0,-0.7643086314201355,0.4174186587333679,0.0709846094250679,0.0,0.0,0.0,-1.3856439590454102,0.35339081287384033,0.6456802487373352,0.4200000464916229,0.6559060215950012,6.177739919621672e-07,-3.6332437503006076e-06,-0.7548424601554871,0.00022071122657507658,-0.0002824579132720828,-0.00010562874376773834,0.005247626453638077,0.00025644953711889684,-0.0004228137549944222,0.3994729518890381,0.6715461611747742,0.5920832753181458,0.6719329953193665,-0.06238904222846031,0.04216570407152176,0.35174328088760376,0.6469016075134277,0.42000001668930054,-0.5641047358512878,0.21396765112876892,-1.2231531143188477,-2.999999761581421,-0.1606214940547943,-0.15747280418872833,-0.15320344269275665,-0.14776122570037842,0.04717111214995384,0.03494452312588692,0.04000874236226082,0.0505637563765049
0.8833333333333333,0.12809348106384277,-0.057935118675231934,0.0,0.6530536413192749,0.0,0.0,-0.7573116421699524,0.16590838134288788,-0.24235814809799194,0.0,0.0,0.0,1.9938030242919922,0.35339081287384033,0.6456802487373352,0.4200000464916229,0.6559060215950012,6.269896744015568e-07,-3.747752543858951e-06,-0.7548424601554871,0.00022058207832742482,-0.00028256623772904277,-0.00010560313239693642,0.005250516813248396,0.0002538115659262985,-0.0004225267912261188,0.4111816883087158,0.6706662774085999,0.5941593647003174,0.6919249296188354,-0.09460633248090744,0.190667062997818,0.35174328088760376,0.6469016075134277,0.42000001668930054,-0.5635827779769897,-0.12384429574012756,-1.1852086782455444,3.000000238418579,-0.15791915357112885,-0.15504321455955505,-0.15083563327789307,-0.1454140990972519,0.07685243338346481,0.07882226258516312,0.08808228373527527,0.09549424052238464
