vladlanda/robotic-transformer/data/env_000_episode_0170.csv
sim_time_s,robot_box_x,robot_box_y,robot_box_z,robot_box_quat_w,robot_box_quat_x,robot_box_quat_y,robot_box_quat_z,robot_box_linvel_x,robot_box_linvel_y,robot_box_linvel_z,robot_box_angvel_x,robot_box_angvel_y,robot_box_angvel_z,cube_world_x,cube_world_y,cube_world_z,cube_quat_w,cube_quat_x,cube_quat_y,cube_quat_z,cube_linvel_x,cube_linvel_y,cube_linvel_z,cube_angvel_x,cube_angvel_y,cube_angvel_z,endpoint_world_x,endpoint_world_y,endpoint_world_z,endpoint_linvel_x,endpoint_linvel_y,endpoint_linvel_z,target_cube_world_x,target_cube_world_y,target_cube_world_z,gripper_actual_pos_rad_gp_leftgearjoint,gripper_actual_vel_rad_s_gp_leftgearjoint,gripper_actual_pos_rad_gp_rotatingjoint,gripper_actual_vel_rad_s_gp_rotatingjoint,motor_angle_rad_joint1,motor_angle_rad_joint2,motor_angle_rad_joint3,motor_angle_rad_joint4,motor_speed_rad_s_joint1,motor_speed_rad_s_joint2,motor_speed_rad_s_joint3,motor_speed_rad_s_joint4
0.0,0.0,0.0,0.0,1.0,0.0,0.0,0.0,0.0,0.0,0.0,0.0,0.0,0.0,-0.35328754782676697,0.6326066851615906,0.41999998688697815,1.0,0.0,0.0,0.0,0.0,0.0,0.0,0.0,0.0,0.0,3.42540442943573e-06,-0.005000244826078415,1.313499927520752,0.0,0.0,0.0,0.43253186345100403,0.6760091781616211,0.42000001668930054,-1.5707999467849731,0.0,0.0,0.0,0.0,0.0,0.0,0.0,0.0,0.0,0.0,0.0
0.016666666666666666,0.002890530973672867,0.002164925215765834,0.0,0.9998356699943542,0.0,0.0,0.018128391355276108,0.24118511378765106,0.1818976104259491,0.0,0.0,0.0,3.1417183876037598,-0.3532876670360565,0.6326063871383667,0.41999998688697815,1.0,3.279964630564791e-06,-8.339746386809566e-07,8.465587342243452e-08,-1.9833529222523794e-05,0.00017983045836444944,-6.132945418357849e-05,0.0009432713268324733,-0.004689474124461412,-0.00031981561915017664,-0.007105575874447823,0.003415490500628948,1.315940260887146,-0.813227653503418,0.9881161451339722,0.18097689747810364,0.43253186345100403,0.6760091781616211,0.42000001668930054,-1.5301094055175781,2.9999985694885254,-0.04585108906030655,-3.0000030994415283,0.0008710688562132418,0.0007978641660884023,0.000712438253685832,0.0006128522800281644,0.1110018938779831,0.09763474762439728,0.08340951055288315,0.06828811764717102
0.03333333333333333,0.008975844830274582,0.006778419017791748,0.0,0.9998244047164917,0.0,0.0,0.01873874105513096,0.4071497321128845,0.31484660506248474,0.0,0.0,0.0,-0.8688642382621765,-0.35328778624534607,0.6326063275337219,0.4200000464916229,1.0,3.3908270324900514e-06,-2.1324347017070977e-06,-3.710694684855298e-08,0.00026357820024713874,0.00026937710936181247,-0.00010509532876312733,-0.001770618837326765,0.00413075927644968,-0.00013547429989557713,-0.027484994381666183,0.026120372116565704,1.3166247606277466,-1.587252140045166,1.6194067001342773,-0.08201035112142563,0.43253186345100403,0.6760091781616211,0.42000001668930054,-1.4800901412963867,3.00000262260437,-0.09589093923568726,-3.0000014305114746,0.0029899822548031807,0.0026525091379880905,0.002277220133692026,0.0018611951963976026,0.16406778991222382,0.13963209092617035,0.11370419710874557,0.08618519455194473
0.05,0.018484998494386673,0.013876480050384998,0.0,0.999965488910675,0.0,0.0,-0.00830786395817995,0.635986864566803,0.4718892574310303,0.0,0.0,0.0,-4.073821067810059,-0.35328781604766846,0.6326063871383667,0.4200000464916229,1.0,3.765094106711331e-06,-2.2119131699582795e-06,5.62348079213848e-09,0.000265309150563553,0.0002669146633706987,-0.0001044049859046936,-0.0017243881011381745,0.004177483730018139,-0.00012949890515301377,-0.057105209678411484,0.05665811896324158,1.3121743202209473,-1.9535894393920898,1.978185772895813,-0.4317501187324524,0.43253186345100403,0.6760091781616211,0.42000001668930054,-1.4300718307495117,2.9999966621398926,-0.1458996683359146,-2.9999990463256836,0.006007669027894735,0.005169340874999762,0.004258634988218546,0.0032714144326746464,0.20672361552715302,0.16645923256874084,0.12427090853452682,0.08007156848907471
0.06666666666666667,0.030795950442552567,0.0233596283942461,0.0,0.9998579621315002,0.0,0.0,-0.0168526079505682,0.7722614407539368,0.615832507610321,0.0,0.0,0.0,-0.037236761301755905,-0.35328781604766846,0.6326063275337219,0.4200000464916229,0.9999999403953552,3.406720225029858e-06,-2.2855888346384745e-06,4.300961506942258e-07,0.00026702549075707793,0.0002679164754226804,-0.0001043803058564663,-0.0017406074330210686,0.0042117200791835785,-0.00012850081839133054,-0.09486743062734604,0.08851313591003418,1.3016855716705322,-2.4164743423461914,2.0111021995544434,-0.815711498260498,0.43253186345100403,0.6760091781616211,0.42000001668930054,-1.3800443410873413,2.9999983310699463,-0.11547806859016418,3.000000476837158,0.008758879266679287,0.007222904358059168,0.005574353504925966,0.003807986853644252,0.15500028431415558,0.10600444674491882,0.054874252527952194,3.2014213502407074e-08
0.08333333333333333,0.045561134815216064,0.030635079368948936,0.0,0.9992176294326782,0.0,0.0,-0.0395486019551754,0.9497600793838501,0.37742385268211365,0.0,0.0,0.0,-3.5376038551330566,-0.35328781604766846,0.6326063275337219,0.4200000464916229,0.9999999403953552,3.626048737714882e-06,-2.335292720090365e-06,3.0322289035211725e-07,0.00026614023954607546,0.00026685107150115073,-0.00010405411012470722,-0.0017283388879150152,0.004196439869701862,-0.00012790995242539793,-0.13015298545360565,0.12673506140708923,1.2874932289123535,-1.8655142784118652,2.541170597076416,-0.8705600500106812,0.43253186345100403,0.6760091781616211,0.42000001668930054,-1.3300366401672363,3.0000007152557373,-0.1474878340959549,-3.0000011920928955,0.009890939109027386,0.007238909602165222,0.00443099532276392,0.0014413740718737245,0.015471969731152058,-0.06970774382352829,-0.15717215836048126,-0.24791240692138672
0.1,0.05442458763718605,0.04029090330004692,0.0,0.9957590699195862,0.0,0.0,-0.0919993594288826,0.39241430163383484,0.661493718624115,0.0,0.0,0.0,-7.2898125648498535,-0.35328781604766846,0.6326063275337219,0.4200000464916229,1.0,3.422061809033039e-06,-2.3085794964572415e-06,1.796345259208465e-07,0.0002668151864781976,0.0002680039906408638,-0.00010440591722726822,-0.0017430012812837958,0.004207054618746042,-0.0001289131323574111,-0.16313380002975464,0.17212869226932526,1.2673966884613037,-2.0367109775543213,2.8921494483947754,-1.4510064125061035,0.43253186345100403,0.6760091781616211,0.42000001668930054,-1.2800185680389404,2.999995231628418,-0.1139739379286766,3.0000009536743164,0.0036370339803397655,0.00019873114069923759,-0.00344851054251194,-0.007347794249653816,-0.49210816621780396,-0.5299984812736511,-0.5704222321510315,-0.6143072247505188
0.11666666666666667,0.06496717780828476,0.052616365253925323,0.0,0.9921243190765381,0.0,0.0,-0.1252570003271103,0.8423792123794556,0.6875059604644775,0.0,0.0,0.0,-2.835989236831665,-0.35328781604766846,0.6326063871383667,0.4200000464916229,1.0,3.711444605869474e-06,-2.33272521654726e-06,2.5743341325323854e-07,0.00026485713897272944,0.00026635255198925734,-0.00010423408821225166,-0.0017181859584525228,0.004170122090727091,-0.0001291601947741583,-0.20262472331523895,0.21433904767036438,1.2406761646270752,-2.379821300506592,2.650569438934326,-1.719407558441162,0.43253186345100403,0.6760091781616211,0.42000001668930054,-1.2300223112106323,3.0,-0.14595447480678558,-3.000000238418579,-0.0029072468169033527,-0.007275861222296953,-0.011866453103721142,-0.016732193529605865,-0.1954534351825714,-0.28015798330307007,-0.3632603585720062,-0.4450279474258423
0.13333333333333333,0.07530055195093155,0.06112949922680855,0.0,0.9853887557983398,0.0,0.0,-0.17032034695148468,0.7004817128181458,0.5022165775299072,0.0,0.0,0.0,-6.033082485198975,-0.35328781604766846,0.6326063275337219,0.4200000464916229,1.0,3.335634346512961e-06,-2.231927282991819e-06,3.1132640287978575e-07,0.0002666970540303737,0.0002675953437574208,-0.00010428694076836109,-0.0017371439607813954,0.004205888137221336,-0.00012840436829719692,-0.23933660984039307,0.2631753087043762,1.2087745666503906,-1.9563302993774414,3.338308811187744,-2.012052536010742,0.43253186345100403,0.6760091781616211,0.42000001668930054,-1.1800026893615723,2.9999988079071045,-0.11243825405836105,3.000000238418579,-0.008764324709773064,-0.014488195069134235,-0.020399825647473335,-0.026556119322776794,-0.21207576990127563,-0.3230379521846771,-0.42949944734573364,-0.531356930732727
0.15,0.08470744639635086,0.06678105145692825,0.0,0.9811115860939026,0.0,0.0,-0.193442702293396,0.501858115196228,0.2708132266998291,0.0,0.0,0.0,-1.6227506399154663,-0.35328781604766846,0.6326063275337219,0.4200000464916229,1.0,3.518848188832635e-06,-2.283094318045187e-06,-3.625340241342201e-07,0.00026618546689860523,0.0002673565468285233,-0.00010425667278468609,-0.0017348862020298839,0.004195781424641609,-0.00012861234426964074,-0.2752173840999603,0.3161260485649109,1.1694402694702148,-2.041050910949707,3.3712892532348633,-2.7066586017608643,0.43253186345100403,0.6760091781616211,0.42000001668930054,-1.1300921440124512,2.972923755645752,-0.1444234699010849,-3.0,-0.013166820630431175,-0.02044758014380932,-0.02783370204269886,-0.03538115322589874,-0.3209799826145172,-0.39590537548065186,-0.4660939872264862,-0.5314986705780029
0.16666666666666666,0.09038954228162766,0.07084676623344421,0.0,0.9741268157958984,0.0,0.0,-0.2260020524263382,0.28098154067993164,0.21937084197998047,0.0,0.0,0.0,-4.805152416229248,-0.35328781604766846,0.6326063275337219,0.4200000464916229,1.0,3.6665239804278826e-06,-2.3391414742945926e-06,-3.1499084229835717e-07,0.0002659597957972437,0.0002666728978510946,-0.0001040350180119276,-0.001725275651551783,0.004192911088466644,-0.00012778928794432431,-0.30824702978134155,0.3757065236568451,1.116234302520752,-1.7986485958099365,3.7574515342712402,-3.6079773902893066,0.43253186345100403,0.6760091781616211,0.42000001668930054,-1.0800873041152954,3.0000033378601074,-0.11521541327238083,2.999999761581421,-0.020336441695690155,-0.028537137433886528,-0.036763232201337814,-0.04507147893309593,-0.49938538670539856,-0.5354117155075073,-0.5671229958534241,-0.5945920348167419
0.18333333333333332,0.09244130551815033,0.07689731568098068,0.0,0.9591784477233887,0.0,0.0,-0.28280147910118103,0.007125434931367636,0.4336162507534027,0.0,0.0,0.0,-7.783217906951904,-0.35328781604766846,0.6326063275337219,0.4200000464916229,1.0,3.8142559333209647e-06,-2.399529421381885e-06,-2.702558674627653e-07,0.0002654906711541116,0.000266111281234771,-0.00010391208343207836,-0.0017177941044792533,0.004184784833341837,-0.00012753666669595987,-0.33485928177833557,0.44288370013237,1.0483851432800293,-1.2259242534637451,4.216523170471191,-4.428421497344971,0.43253186345100403,0.6760091781616211,0.42000001668930054,-1.0300785303115845,3.0,-0.14722156524658203,-2.9999990463256836,-0.03127933293581009,-0.03983024135231972,-0.04833251237869263,-0.05684494599699974,-0.7645289897918701,-0.7696636319160461,-0.7708202600479126,-0.768119752407074
0.2,0.09765446186065674,0.08032341301441193,0.0,0.9477353692054749,0.0,0.0,-0.31905749440193176,0.3719600439071655,0.10598988085985184,0.0,0.0,0.0,-3.2082314491271973,-0.35328781604766846,0.6326063275337219,0.4200000464916229,1.0,3.599967840273166e-06,-2.2912654458195902e-06,-2.2018252820998896e-07,0.00026573025388643146,0.00026645080652087927,-0.00010398216545581818,-0.001722737099044025,0.004188803024590015,-0.00012773546040989459,-0.35662412643432617,0.5060319900512695,0.9684039354324341,-0.9407227039337158,3.699251890182495,-5.1561455726623535,0.43253186345100403,0.6760091781616211,0.42000001668930054,-0.9800719618797302,2.9999966621398926,-0.1972506046295166,-3.000002145767212,-0.04352910444140434,-0.05173354968428612,-0.05985737219452858,-0.06796467304229736,-0.862720787525177,-0.8102638721466064,-0.7579586505889893,-0.7061958312988281
0.21666666666666667,0.0977497324347496,0.08684521913528442,0.0,0.9308559894561768,0.0,0.0,-0.3653862476348877,0.009583213366568089,0.39321306347846985,0.0,0.0,0.0,-6.6044816970825195,-0.35328781604766846,0.6326063275337219,0.4200000464916229,0.9999999403953552,3.6395340430317447e-06,-2.2620113213633886e-06,2.224903141723189e-07,0.0002668726665433496,0.00026754458667710423,-0.00010412069968879223,-0.0017403350211679935,0.004211024846881628,-0.00012784315913449973,-0.36793458461761475,0.5598479509353638,0.8727489113807678,-0.27865803241729736,2.9681503772735596,-5.980661392211914,0.43253186345100403,0.6760091781616211,0.42000001668930054,-0.9300616979598999,2.9999966621398926,-0.2472822070121765,-3.000000476837158,-0.060242872685194016,-0.06828882545232773,-0.076319120824337,-0.08433476090431213,-0.7673502564430237,-0.7952611446380615,-0.8257931470870972,-0.8555293679237366
0.23333333333333334,0.1031976118683815,0.08821721374988556,0.0,0.9199182987213135,0.0,0.0,-0.39211010932922363,0.34051188826560974,0.02674807235598564,0.0,0.0,0.0,-2.0745999813079834,-0.35328778624534607,0.6326063275337219,0.4200000464916229,1.0,3.420558186917333e-06,-2.316856807738077e-06,2.9561707037828455e-07,0.0002668021770659834,0.0002680403122212738,-0.00010442547500133514,-0.0017438210779801011,0.004207022488117218,-0.0001289983920287341,-0.3748573660850525,0.5994625687599182,0.7725372910499573,-0.1220448762178421,1.9218571186065674,-6.122851371765137,0.43253186345100403,0.6760091781616211,0.42000001668930054,-0.8800510168075562,2.9999942779541016,-0.2973148226737976,-2.9999983310699463,-0.07232196629047394,-0.08033988624811172,-0.08841488510370255,-0.09650588780641556,-0.9754450917243958,-0.9220757484436035,-0.8751957416534424,-0.8332370519638062
0.25,0.1032610535621643,0.09407606720924377,0.0,0.9224199056625366,0.0,0.0,-0.3861885070800781,0.012009196914732456,0.30518779158592224,0.0,0.0,0.0,1.4778374433517456,-0.35328781604766846,0.6326063275337219,0.4200000464916229,0.9999999403953552,3.347470055814483e-06,-2.2591600554733304e-06,1.8085306408011093e-07,0.0002668773813638836,0.00026791112031787634,-0.00010439311154186726,-0.0017403805395588279,0.004208179656416178,-0.00012870310456492007,-0.3788144886493683,0.6159716844558716,0.6745755672454834,-0.13630665838718414,0.35506007075309753,-5.590850830078125,0.43253186345100403,0.6760091781616211,0.42000001668930054,-0.8300415873527527,2.9999918937683105,-0.3473474085330963,-2.999999761581421,-0.08953238278627396,-0.0973629504442215,-0.10532940179109573,-0.11335659772157669,-0.6809989213943481,-0.745562732219696,-0.805665135383606,-0.8595807552337646
0.26666666666666666,0.10223177820444107,0.0944267138838768,0.0,0.9185997843742371,0.0,0.0,-0.3951891362667084,-0.1476544439792633,0.03768319636583328,0.0,0.0,0.0,-1.950602650642395,-0.35328781604766846,0.6326063275337219,0.4200000464916229,0.9999999403953552,3.707949190356885e-06,-2.392500391579233e-06,-1.2724221676307934e-07,0.00026603584410622716,0.00026716641150414944,-0.00010421453043818474,-0.0017321588238701224,0.004193116445094347,-0.00012855436943937093,-0.3793978989124298,0.6252228021621704,0.582094669342041,0.19671127200126648,0.424605131149292,-5.291276931762695,0.43253186345100403,0.6760091781616211,0.42000001668930054,-0.7800328135490417,3.0000009536743164,-0.3973785936832428,-3.0000014305114746,-0.10156715661287308,-0.11052127927541733,-0.11951570957899094,-0.1284654289484024,-1.035640001296997,-1.0268532037734985,-1.020164132118225,-1.0148423910140991
0.2833333333333333,0.09826703369617462,0.0933205634355545,0.0,0.9214412569999695,0.0,0.0,-0.3885177969932556,-0.2845490276813507,-0.11103672534227371,0.0,0.0,0.0,1.695297122001648,-0.35328781604766846,0.6326063871383667,0.4200000464916229,0.9999999403953552,3.5725574889511336e-06,-2.3040422547637718e-06,1.2986978958906548e-07,0.00026521689142100513,0.00026455221814103425,-0.00010316888801753521,-0.0017021473031491041,0.004184986464679241,-0.0001249996857950464,-0.37638580799102783,0.6324522495269775,0.4994344711303711,0.30492842197418213,0.3243861198425293,-4.762844085693359,0.43253186345100403,0.6760091781616211,0.42000001668930054,-0.7300305366516113,3.0000009536743164,-0.4474077820777893,-3.0000011920928955,-0.1186717078089714,-0.1275249570608139,-0.1364467889070511,-0.1453418880701065,-1.008958339691162,-1.0067819356918335,-1.0051199197769165,-1.0037912130355835
0.3,0.09194502979516983,0.08979558199644089,0.0,0.9179937243461609,0.0,0.0,-0.3965948522090912,-0.4277011454105377,-0.2529122233390808,0.0,0.0,0.0,-1.9331122636795044,-0.35328781604766846,0.6326063275337219,0.4200000464916229,1.0,3.7449553929036483e-06,-2.238097067674971e-06,-1.7676008212674788e-07,0.0002643611514940858,0.00026623590383678675,-0.00010442966595292091,-0.001712067169137299,0.004158706869930029,-0.00012989519746042788,-0.36449331045150757,0.6348087787628174,0.41682660579681396,1.0734772682189941,-0.06457671523094177,-4.981327056884766,0.43253186345100403,0.6760091781616211,0.42000001668930054,-0.6800236105918884,2.999988555908203,-0.4974360466003418,-3.00000262260437,-0.13589049875736237,-0.14458709955215454,-0.1533900499343872,-0.16219152510166168,-1.0000509023666382,-1.000030755996704,-1.000016689300537,-1.0000072717666626
0.31666666666666665,0.08340733498334885,0.08396729081869125,0.0,0.9209697842597961,0.0,0.0,-0.3896339535713196,-0.5530062317848206,-0.3889847993850708,0.0,0.0,0.0,1.803225040435791,-0.35328835248947144,0.6326085925102234,0.4200003147125244,1.0,-3.203551023034379e-05,-1.0359039151808247e-05,-3.940028545912355e-05,-0.03709717094898224,0.05787724256515503,-0.0001546991552459076,-0.061028726398944855,0.13600382208824158,-2.792020797729492,-0.3652886748313904,0.6368539333343506,0.4244447946548462,-0.11860059201717377,0.049273014068603516,-0.2047680914402008,0.43253186345100403,0.6760091781616211,0.42000001668930054,-0.6300544738769531,2.999825954437256,-0.5478954315185547,-2.9999921321868896,-0.1425580382347107,-0.15049602091312408,-0.15818367898464203,-0.1654622107744217,-0.4603455364704132,-0.38903236389160156,-0.3009016215801239,-0.19417591392993927
0.3333333333333333,0.0726400762796402,0.075751394033432,0.0,0.9177259802818298,0.0,0.0,-0.3972141444683075,-0.688479483127594,-0.5340534448623657,0.0,0.0,0.0,-1.9197386503219604,-0.35333311557769775,0.6334249973297119,0.42003682255744934,0.9999066591262817,-0.00010534800094319507,0.0008440331439487636,-0.013634241186082363,0.04368475452065468,0.147929847240448,0.024461235851049423,0.1932750940322876,1.399232029914856,-4.79200553894043,-0.3643326759338379,0.6372941732406616,0.42267632484436035,0.06781826168298721,0.11122933030128479,0.20177344977855682,0.43253186345100403,0.6760091781616211,0.42000001668930054,-0.5800493359565735,3.0000011920928955,-0.5979369878768921,-2.9999985694885254,-0.15113386511802673,-0.15754693746566772,-0.16340753436088562,-0.16854868829250336,-0.5239314436912537,-0.40989843010902405,-0.27877992391586304,-0.1311374306678772
0.35,0.05971226841211319,0.06527519971132278,0.0,0.9207822680473328,0.0,0.0,-0.3900769054889679,-0.8160496950149536,-0.6677745580673218,0.0,0.0,0.0,1.8551045656204224,-0.3511868119239807,0.6384645700454712,0.42047080397605896,0.9950787425041199,0.0008996204123832285,0.011465989053249359,-0.09841665625572205,0.20923346281051636,0.4333215057849884,0.03279023617506027,0.6467161178588867,1.0360803604125977,-14.45670223236084,-0.36167776584625244,0.6435506939888,0.4242647886276245,0.28355729579925537,0.5556895732879639,-0.02981792390346527,0.43253186345100403,0.6760091781616211,0.42000001668930054,-0.5300443768501282,2.9999911785125732,-0.6479629278182983,-3.0,-0.1606590449810028,-0.16466252505779266,-0.16780667006969452,-0.1699572503566742,-0.5508066415786743,-0.39407745003700256,-0.21861927211284637,-0.027056695893406868
0.36666666666666664,0.050226569175720215,0.052032191306352615,0.0,0.9177135229110718,0.0,0.0,-0.39724287390708923,-0.4829983711242676,-0.8433843851089478,0.0,0.0,0.0,-1.8549245595932007,-0.34666913747787476,0.6469760537147522,0.4200029671192169,0.990032434463501,-9.953447442967445e-05,1.2345500181254465e-05,-0.14083892107009888,0.34863561391830444,0.5798575282096863,-0.0005120848072692752,0.026275871321558952,-0.011236601509153843,5.129972457885742,-0.352291077375412,0.6529514789581299,0.42062363028526306,0.8143690824508667,0.6044842600822449,-0.38689738512039185,0.43253186345100403,0.6760091781616211,0.42000001668930054,-0.4800398647785187,2.9999895095825195,-0.6979879140853882,-2.999999523162842,-0.16968001425266266,-0.17071358859539032,-0.17054983973503113,-0.1691192090511322,-0.4984305799007416,-0.31020599603652954,-0.10249342769384384,0.12016179412603378
0.3833333333333333,0.038818519562482834,0.03715584799647331,0.0,0.9019588828086853,0.0,0.0,-0.43182191252708435,-0.7808871865272522,-0.9137039184570312,0.0,0.0,0.0,-5.505677700042725,-0.3350805342197418,0.6623871922492981,0.4202638864517212,0.978235125541687,-0.006491555366665125,0.0010950383730232716,-0.20739465951919556,0.9570879340171814,1.0568841695785522,0.11282621324062347,-5.337756633758545,1.9964556694030762,-7.946885108947754,-0.33789777755737305,0.6639722585678101,0.4212978184223175,1.1119641065597534,0.9281619191169739,0.15600551664829254,0.43253186345100403,0.6760091781616211,0.42000001668930054,-0.4299543499946594,2.994725227355957,-0.7479832172393799,-2.99924898147583,-0.17882367968559265,-0.17655402421951294,-0.1727256178855896,-0.16735899448394775,-0.5008688569068909,-0.3127431273460388,-0.10321126133203506,0.12219889461994171
0.4,0.03003738448023796,0.019428886473178864,0.0,0.8715243339538574,0.0,0.0,-0.49035221338272095,-0.4764734208583832,-1.1098982095718384,0.0,0.0,0.0,-8.700895309448242,-0.3024575710296631,0.6843827366828918,0.4244767427444458,0.9647694826126099,-0.006607827264815569,-0.035590533167123795,-0.26059433817863464,3.2392165660858154,1.6660035848617554,0.2829420864582062,24.73238754272461,-15.424300193786621,11.255743980407715,-0.30500996112823486,0.6866499185562134,0.4249362051486969,2.801157236099243,1.7793335914611816,0.4866895079612732,0.43253186345100403,0.6760091781616211,0.42000001668930054,-0.3923380672931671,1.4786559343338013,-0.7980071902275085,-3.0000014305114746,-0.18722054362297058,-0.18156097829341888,-0.17401966452598572,-0.16472624242305756,-0.561152458190918,-0.3324628472328186,-0.08819714188575745,0.16408438980579376
0.4166666666666667,0.023702893406152725,0.007140099536627531,0.0,0.8240146040916443,0.0,0.0,-0.5665685534477234,-0.33078327775001526,-0.6123878359794617,0.0,0.0,0.0,-11.583918571472168,-0.22831003367900848,0.7186943888664246,0.43025606870651245,0.9448724985122681,0.05486912280321121,-0.08472754061222076,-0.31149062514305115,6.013652324676514,2.017723560333252,0.3848423659801483,5.758179664611816,-9.744450569152832,13.87057876586914,-0.23079746961593628,0.7214767932891846,0.4307059049606323,5.670928955078125,2.488135576248169,0.4455428421497345,0.43253186345100403,0.6760091781616211,0.42000001668930054,-0.37283122539520264,0.9372024536132812,-0.7611562609672546,2.9996883869171143,-0.202225923538208,-0.19281692802906036,-0.1800978183746338,-0.1658574342727661,-0.8669781684875488,-0.7397926449775696,-0.4447101950645447,-0.17352910339832306
0.43333333333333335,0.02082356996834278,-0.0019157960778102279,0.0,0.7856205701828003,0.0,0.0,-0.6187085509300232,-0.11260617524385452,-0.5066143870353699,0.0,0.0,0.0,-6.591794013977051,-0.13413560390472412,0.7574521899223328,0.4395099878311157,0.8985660672187805,0.09014232456684113,-0.12010893225669861,-0.4123436212539673,5.947281837463379,1.6966137886047363,0.7662674188613892,20.256027221679688,-4.905322074890137,10.742093086242676,-0.13675862550735474,0.7611311674118042,0.4395533800125122,5.797222137451172,2.0542986392974854,0.5962997674942017,0.43253186345100403,0.6760091781616211,0.42000001668930054,-0.35724562406539917,0.9979976415634155,-0.7886011600494385,-3.000005006790161,-0.2121746838092804,-0.20293378829956055,-0.18666481971740723,-0.16926884651184082,-0.4975995421409607,-0.5083600878715515,-0.34411489963531494,-0.20519843697547913
0.45,0.021143900230526924,-0.007553515024483204,0.0,0.7683880925178528,0.0,0.0,-0.639984130859375,0.07370264828205109,-0.2834116220474243,0.0,0.0,0.0,-2.170450448989868,-0.03718074783682823,0.7823221683502197,0.45022347569465637,0.8492094278335571,0.09153413027524948,-0.12691742181777954,-0.5043379068374634,5.936903953552246,0.20766229927539825,0.5823517441749573,-8.018326759338379,-23.669822692871094,23.952770233154297,-0.039453018456697464,0.7879769206047058,0.4493755102157593,6.005135536193848,1.1838555335998535,0.7749364972114563,0.43253186345100403,0.6760091781616211,0.42000001668930054,-0.3383849859237671,0.9856739640235901,-0.8386252522468567,-3.0000033378601074,-0.2213875651359558,-0.21152256429195404,-0.19247716665267944,-0.17275138199329376,-0.5234323143959045,-0.4646960496902466,-0.3155571222305298,-0.19238929450511932
0.4666666666666667,0.02035135217010975,-0.009560875594615936,0.0,0.7441478371620178,0.0,0.0,-0.6680149435997009,-0.06809738278388977,-0.05098681524395943,0.0,0.0,0.0,-5.197828769683838,0.0606159046292305,0.7898615598678589,0.4581995904445648,0.7854079008102417,0.0844360813498497,-0.14409379661083221,-0.5960217714309692,5.772198677062988,-0.8112996220588684,0.6107698678970337,16.454586029052734,-14.198952674865723,27.00002098083496,0.058068305253982544,0.79702228307724,0.4582936763763428,5.892181396484375,-0.022097766399383545,0.5169791579246521,0.43253186345100403,0.6760091781616211,0.42000001668930054,-0.3240819275379181,0.6295340061187744,-0.8886508345603943,-3.000002861022949,-0.2301677167415619,-0.21903535723686218,-0.19766226410865784,-0.17590384185314178,-0.4910145401954651,-0.39773789048194885,-0.266140878200531,-0.14673559367656708
0.48333333333333334,0.022923337295651436,-0.017109647393226624,0.0,0.7313425540924072,0.0,0.0,-0.682010293006897,0.22806644439697266,-0.5868489742279053,0.0,0.0,0.0,-1.3186531066894531,0.15360136330127716,0.782875657081604,0.4633896052837372,0.7021401524543762,0.06379783153533936,-0.15489435195922852,-0.69205242395401,5.007157802581787,-1.3269362449645996,0.3155052661895752,-0.5466988682746887,-5.417902946472168,17.566736221313477,0.15060172975063324,0.7915748953819275,0.46407824754714966,5.411121368408203,-0.7400040626525879,0.25608354806900024,0.43253186345100403,0.6760091781616211,0.42000001668930054,-0.3157109022140503,0.3697302043437958,-0.9386751651763916,-3.0000009536743164,-0.23168165981769562,-0.21969819068908691,-0.19734232127666473,-0.17479614913463593,0.061699941754341125,0.10488660633563995,0.1278250813484192,0.13643182814121246
0.5,0.02198476344347,-0.021186580881476402,0.0,0.7085368037223816,0.0,0.0,-0.70567387342453,-0.04416324570775032,-0.22418533265590668,0.0,0.0,0.0,-4.626466751098633,0.2345401793718338,0.7658970355987549,0.4628807604312897,0.6387110352516174,0.034750401973724365,-0.16622501611709595,-0.7504730820655823,4.226696491241455,-1.3417531251907349,-0.3111617863178253,-15.515061378479004,2.8153016567230225,20.174556732177734,0.23164048790931702,0.7761353254318237,0.46518129110336304,4.738591194152832,-1.145197868347168,-0.027950551360845566,0.43253186345100403,0.6760091781616211,0.42000001668930054,-0.3079407513141632,0.5437182784080505,-0.988699197769165,-3.0,-0.2331571877002716,-0.2201816588640213,-0.1975751668214798,-0.17508365213871002,0.077281154692173,0.08367252349853516,0.034563612192869186,-0.02559676580131054
0.5166666666666666,0.023048892617225647,-0.02209319919347763,0.0,0.7010841369628906,0.0,0.0,-0.7130785584449768,0.09776005148887634,0.0054335398599505424,0.0,0.0,0.0,-0.22234250605106354,0.3027142882347107,0.7428340911865234,0.4566877782344818,0.5646236538887024,-0.011190921999514103,-0.16718760132789612,-0.8081603646278381,3.540945053100586,-1.5706634521484375,-0.4126383364200592,-7.092895984649658,4.177751541137695,-5.165542125701904,0.30034202337265015,0.7543961405754089,0.4605868458747864,3.7049221992492676,-1.5180854797363281,-0.4437812566757202,0.43253186345100403,0.6760091781616211,0.42000001668930054,-0.29581430554389954,0.7966570854187012,-1.0387217998504639,-3.0,-0.23182472586631775,-0.21883822977542877,-0.19734013080596924,-0.17611972987651825,0.14796364307403564,0.13187530636787415,0.03860853612422943,-0.06311631947755814
0.5333333333333333,0.026508409529924393,-0.021924640983343124,0.0,0.6849502325057983,0.0,0.0,-0.7285898327827454,0.24628883600234985,0.086154505610466,0.0,0.0,0.0,-3.486450433731079,0.3572794497013092,0.7201879024505615,0.4419820308685303,0.4992583394050598,-0.05841667577624321,-0.1716388463973999,-0.8472713232040405,2.9983909130096436,-1.530378818511963,-0.9044159650802612,-9.205702781677246,8.969770431518555,14.074271202087402,0.3551371991634369,0.7324304580688477,0.44804155826568604,2.829463005065918,-1.324824333190918,-0.9798634052276611,0.43253186345100403,0.6760091781616211,0.42000001668930054,-0.27855730056762695,1.0883841514587402,-1.0887439250946045,-2.999999761581421,-0.22706609964370728,-0.21515381336212158,-0.19603823125362396,-0.17722661793231964,0.27787792682647705,0.20371708273887634,0.04647703468799591,-0.11122739315032959
0.55,0.03184646740555763,-0.02322334609925747,0.0,0.6824074387550354,0.0,0.0,-0.7309719920158386,0.3505682945251465,-0.15359491109848022,0.0,0.0,0.0,0.5080472230911255,0.3952838182449341,0.6983287930488586,0.4259836971759796,0.4840337932109833,-0.07039064913988113,-0.09290043264627457,-0.8672518730163574,1.649277687072754,-1.2381316423416138,-0.6272067427635193,29.391433715820312,-18.767019271850586,36.34809112548828,0.39431965351104736,0.7088363766670227,0.43121305108070374,1.3313851356506348,-0.899798572063446,0.048991382122039795,0.43253186345100403,0.6760091781616211,0.42000001668930054,-0.26724880933761597,0.2875133156776428,-1.1387660503387451,-3.0000228881835938,-0.22358199954032898,-0.21249279379844666,-0.19567236304283142,-0.1792219877243042,0.2984738349914551,0.23028430342674255,0.08041441440582275,-0.06577560305595398
0.5666666666666667,0.037643030285835266,-0.02199537865817547,0.0,0.6698421239852905,0.0,0.0,-0.7425035834312439,0.3441024720668793,0.09439815580844879,0.0,0.0,0.0,-2.882880449295044,0.41340211033821106,0.6890786290168762,0.4248131215572357,0.48448872566223145,-0.07704808562994003,-0.07502414286136627,-0.8681621551513672,0.7949393391609192,-0.3669220805168152,-0.0533268041908741,-1.1571381092071533,7.981353759765625,-0.11785290390253067,0.4114625155925751,0.6988004446029663,0.4311255216598511,0.8025645613670349,-0.4179392457008362,-0.03405556082725525,0.43253186345100403,0.6760091781616211,0.42000001668930054,-0.2626045048236847,0.5198032855987549,-1.1887805461883545,-3.0000014305114746,-0.21815362572669983,-0.2087407261133194,-0.19482523202896118,-0.1810983568429947,0.46864691376686096,0.32802507281303406,0.1210850328207016,-0.06880758702754974
0.5833333333333334,0.04476601257920265,-0.02405446022748947,0.0,0.6698369383811951,0.0,0.0,-0.7425082325935364,0.45558932423591614,-0.1571846306324005,0.0,0.0,0.0,0.9104033708572388,0.4226306676864624,0.683456301689148,0.4227334260940552,0.4967372715473175,-0.05742552876472473,-0.03753901645541191,-0.8651850819587708,0.33473870158195496,-0.3111819922924042,-0.16053330898284912,7.152681350708008,-1.0828129053115845,1.9320909976959229,0.4198758006095886,0.6908940076828003,0.4271528720855713,0.2583524286746979,-0.525192379951477,-0.44534456729888916,0.43253186345100403,0.6760091781616211,0.42000001668930054,-0.2590213716030121,0.010657173581421375,-1.1786121129989624,3.0000007152557373,-0.2098584771156311,-0.20255613327026367,-0.1918436735868454,-0.18108774721622467,0.44185686111450195,0.3340832591056824,0.16123291850090027,1.4656949076652381e-07
0.6,0.04959104210138321,-0.023282529786229134,0.0,0.6594704985618591,0.0,0.0,-0.7517304420471191,0.2388492226600647,0.08045633137226105,0.0,0.0,0.0,-2.564220905303955,0.42549067735671997,0.6793676614761353,0.4200262725353241,0.5216538310050964,0.00015897223784122616,-9.723696166474838e-06,-0.853157103061676,0.08878429979085922,-0.16841007769107819,-0.006738417781889439,-0.20294351875782013,-0.2951492965221405,1.8260594606399536,0.4219231605529785,0.6866227388381958,0.4246410131454468,0.03803630545735359,-0.11868007481098175,0.1560845822095871,0.43253186345100403,0.6760091781616211,0.42000001668930054,-0.285750150680542,-2.9301748275756836,-1.2008088827133179,-2.9997758865356445,-0.20302072167396545,-0.1977357417345047,-0.18994681537151337,-0.18183456361293793,0.5204241871833801,0.3678652048110962,0.17003130912780762,-0.006635985802859068
0.6166666666666667,0.05480360984802246,-0.019859595224261284,0.0,0.6615320444107056,0.0,0.0,-0.7499169111251831,0.34227368235588074,0.2536410689353943,0.0,0.0,0.0,1.2196381092071533,0.4264819324016571,0.6774992942810059,0.4200000464916229,0.5292178392410278,-3.0663866823488206e-07,-2.119936937106104e-08,-0.8484859466552734,0.04962542653083801,-0.09342502802610397,-5.105976015329361e-07,1.919379792525433e-05,-1.252856327482732e-05,0.8399708271026611,0.4221532940864563,0.685438871383667,0.42722809314727783,-0.02519172616302967,0.018894104287028313,0.15491662919521332,0.43253186345100403,0.6760091781616211,0.42000001668930054,-0.331150621175766,-2.516394853591919,-1.2507896423339844,-2.9996280670166016,-0.1946503221988678,-0.191965714097023,-0.18739458918571472,-0.18211722373962402,0.5108376145362854,0.3547753393650055,0.16639167070388794,-6.892312285344815e-07
0.6333333333333333,0.06189369037747383,-0.02035384438931942,0.0,0.6523001194000244,0.0,0.0,-0.7579607963562012,0.4559231102466583,-0.034712668508291245,0.0,0.0,0.0,-2.3466670513153076,0.4268372356891632,0.6768320798873901,0.4200000464916229,0.5313000679016113,-1.4283173754847667e-08,1.1887441360158846e-06,-0.8471837043762207,0.011500928550958633,-0.021450024098157883,-4.493282176554203e-05,-0.0014016724890097976,-0.002161127282306552,0.13623715937137604,0.4229999780654907,0.6889169216156006,0.43008482456207275,-0.024731911718845367,0.20303934812545776,0.2026672214269638,0.43253186345100403,0.6760091781616211,0.42000001668930054,-0.38085177540779114,-3.0000007152557373,-1.3007515668869019,-3.0000009536743164,-0.18239907920360565,-0.1828705370426178,-0.18186067044734955,-0.17972984910011292,0.5945359468460083,0.44925838708877563,0.2805626094341278,0.13071994483470917
0.65,0.0713948979973793,-0.018701370805501938,0.0,0.6555479764938354,0.0,0.0,-0.7551535367965698,0.5889612436294556,0.11354398727416992,0.0,0.0,0.0,1.405702829360962,0.4268370568752289,0.6768324375152588,0.42000001668930054,0.5313004851341248,-1.8427728036840563e-06,-4.1441207940806635e-06,-0.847183346748352,2.6477562641957775e-05,-0.00021523002942558378,-6.394158117473125e-05,0.0034796122927218676,-0.004058405291289091,-0.000958002230618149,0.42154496908187866,0.6907471418380737,0.43629759550094604,-0.06770973652601242,0.1360967606306076,0.5362584590911865,0.43253186345100403,0.6760091781616211,0.42000001668930054,-0.430867075920105,-3.000000476837158,-1.350770115852356,-2.999999523162842,-0.17575021088123322,-0.1777375489473343,-0.17851389944553375,-0.17786048352718353,0.42477890849113464,0.3364105820655823,0.24163168668746948,0.1696738749742508
0.6666666666666666,0.08209750056266785,-0.019714267924427986,0.0,0.6474927663803101,0.0,0.0,-0.7620716094970703,0.6703964471817017,-0.13051269948482513,0.0,0.0,0.0,-2.25899338722229,0.42683714628219604,0.6768324375152588,0.41999998688697815,0.5313001871109009,-3.127220679743914e-06,-4.247807737556286e-06,-0.8471836447715759,-6.0371545259840786e-05,-0.00031567583209834993,-9.110174141824245e-05,0.008451140485703945,-0.003599689807742834,-0.0007688401383347809,0.4236738979816437,0.6922962665557861,0.4428356885910034,0.30700597167015076,0.020487353205680847,0.4232066869735718,0.43253186345100403,0.6760091781616211,0.42000001668930054,-0.48088040947914124,-3.0000007152557373,-1.400788426399231,-2.999999761581421,-0.17033231258392334,-0.17309175431728363,-0.17462463676929474,-0.17433269321918488,0.2728455066680908,0.2613684833049774,0.2557752728462219,0.27339473366737366
0.6833333333333333,0.09455888718366623,-0.024729048833251,0.0,0.6180196404457092,0.0,0.0,-0.7861626148223877,0.7868679165840149,-0.3686634600162506,0.0,0.0,0.0,-5.478892803192139,0.42683717608451843,0.676832377910614,0.41999998688697815,0.5313000082969666,-3.2320226637239102e-06,-4.2178585317742545e-06,-0.8471837639808655,-5.36958577868063e-05,-0.000314293778501451,-8.80751758813858e-05,0.0084415003657341,-0.0035778451710939407,-0.0007753648096695542,0.43299606442451477,0.692967414855957,0.45714879035949707,0.8390135765075684,0.04888365790247917,1.4096490144729614,0.43253186345100403,0.6760091781616211,0.42000001668930054,-0.5308930277824402,-2.9999520778656006,-1.450806736946106,-2.9999966621398926,-0.16856054961681366,-0.17099544405937195,-0.17208655178546906,-0.17103201150894165,0.013977053575217724,0.053188763558864594,0.09988445043563843,0.16217327117919922
0.7,0.11072539538145065,-0.02485731430351734,0.0,0.6012229919433594,0.0,0.0,-0.7990813255310059,0.9243634343147278,0.052669327706098557,0.0,0.0,0.0,-1.5184556245803833,0.42683717608451843,0.676832377910614,0.41999998688697815,0.5313003659248352,-3.3587225516384933e-06,-3.893916982633527e-06,-0.8471835255622864,-5.682702612830326e-05,-0.00031399697763845325,-8.883606642484665e-05,0.00843216385692358,-0.0035968574229627848,-0.0007689454359933734,0.447196900844574,0.6969385147094727,0.4857492744922638,0.8907827138900757,0.5393397808074951,1.9367629289627075,0.43253186345100403,0.6760091781616211,0.42000001668930054,-0.5579795241355896,-0.4518234431743622,-1.500825047492981,-2.9999990463256836,-0.17313210666179657,-0.1745200902223587,-0.1745494157075882,-0.17234908044338226,-0.14298512041568756,-0.14013081789016724,-0.13468915224075317,-0.12393960356712341
0.7166666666666667,0.12251511961221695,-0.023703675717115402,0.0,0.6096972227096558,0.0,0.0,-0.7926344275474548,0.6278451085090637,0.09660420566797256,0.0,0.0,0.0,2.1662397384643555,0.42683717608451843,0.676832377910614,0.41999998688697815,0.5313003659248352,-3.181708962074481e-06,-4.038166935060872e-06,-0.8471834063529968,-5.389814032241702e-05,-0.00031418356229551136,-8.797436021268368e-05,0.008441897109150887,-0.003583888988941908,-0.0007747188210487366,0.4648585319519043,0.7047528028488159,0.5108407735824585,1.0584443807601929,0.41085296869277954,1.1530722379684448,0.43253186345100403,0.6760091781616211,0.42000001668930054,-0.5503773093223572,1.2097772359848022,-1.4620914459228516,2.9999990463256836,-0.17270077764987946,-0.17438654601573944,-0.17462676763534546,-0.17254967987537384,0.08638669550418854,0.07387962937355042,0.06440074741840363,0.0557418093085289
0.7333333333333333,0.12966066598892212,-0.026946771889925003,0.0,0.6057042479515076,0.0,0.0,-0.7956898808479309,0.3828447759151459,-0.25578194856643677,0.0,0.0,0.0,-1.5969561338424683,0.42683714628219604,0.676832377910614,0.41999998688697815,0.53130042552948,-3.187431957485387e-06,-4.029699539387366e-06,-0.8471834659576416,-5.567730840994045e-05,-0.0003141772758681327,-8.854223415255547e-05,0.008438445627689362,-0.0035932983737438917,-0.0007714917883276939,0.47741007804870605,0.7100543975830078,0.5231361389160156,0.4145473837852478,0.1452033817768097,0.4937274754047394,0.43253186345100403,0.6760091781616211,0.42000001668930054,-0.5558401346206665,-1.6145139932632446,-1.412038803100586,2.9999990463256836,-0.16957399249076843,-0.17138834297657013,-0.1717589944601059,-0.16988171637058258,0.09416733682155609,0.12458588182926178,0.14933562278747559,0.16202251613140106
0.75,0.1333668828010559,-0.024814510717988014,0.0,0.6136661767959595,0.0,0.0,-0.7895656228065491,0.16525866091251373,0.2553173899650574,0.0,0.0,0.0,2.0934836864471436,0.42683717608451843,0.676832377910614,0.41999998688697815,0.5313003659248352,-3.20829417432833e-06,-3.849459972116165e-06,-0.8471834659576416,-5.3858944738749415e-05,-0.00031401304295286536,-8.79545696079731e-05,0.00843642558902502,-0.0035781520418822765,-0.0007742213783785701,0.48296862840652466,0.7105008363723755,0.5277486443519592,0.2751886248588562,0.030412249267101288,0.10288116335868835,0.43253186345100403,0.6760091781616211,0.42000001668930054,-0.5571925640106201,1.2079113721847534,-1.4299099445343018,-2.999999761581421,-0.17370228469371796,-0.17377662658691406,-0.1726415753364563,-0.16964703798294067,-0.29702746868133545,-0.18461816012859344,-0.0890536978840828,-0.020531941205263138
0.7666666666666666,0.1334749460220337,-0.026372095569968224,0.0,0.6088148355484009,0.0,0.0,-0.7933123707771301,-0.038644030690193176,-0.204184427857399,0.0,0.0,0.0,-1.6502368450164795,0.42683717608451843,0.676832377910614,0.41999998688697815,0.53130042552948,-3.1786780709808227e-06,-4.010188604297582e-06,-0.8471834659576416,-5.395987682277337e-05,-0.0003141900524497032,-8.800439536571503e-05,0.008441549725830555,-0.003583888988941908,-0.0007746475748717785,0.4821523427963257,0.709831714630127,0.5230029821395874,-0.37381547689437866,-0.11575180292129517,-0.47334933280944824,0.43253186345100403,0.6760091781616211,0.42000001668930054,-0.5636263489723206,-1.7210596799850464,-1.3913841247558594,2.999999761581421,-0.17572274804115295,-0.17439137399196625,-0.17207865417003632,-0.16830287873744965,-0.053811799734830856,0.024706082418560982,0.08971583098173141,0.1310148984193802
0.7833333333333333,0.1357327401638031,-0.0246408823877573,0.0,0.6155991554260254,0.0,0.0,-0.788059413433075,0.11288488656282425,0.07774557918310165,0.0,0.0,0.0,1.5680776834487915,0.42683717608451843,0.6768324375152588,0.41999998688697815,0.5313001275062561,-3.176990048814332e-06,-3.8105690691736527e-06,-0.8471836447715759,-5.705900548491627e-05,-0.00031436956487596035,-8.91371164470911e-05,0.008438133634626865,-0.0035999654792249203,-0.0007698025438003242,0.4779740571975708,0.7078211903572083,0.5173390507698059,-0.06492122262716293,0.08265086263418198,-0.22357535362243652,0.43253186345100403,0.6760091781616211,0.42000001668930054,-0.5739507079124451,0.3132684826850891,-1.4096784591674805,-3.000000238418579,-0.17964065074920654,-0.17675812542438507,-0.1730537712574005,-0.16822710633277893,1.5279510989785194e-07,0.02005801908671856,0.04152103513479233,0.05587898939847946
0.8,0.13640956580638885,-0.026619432494044304,0.0,0.6108549237251282,0.0,0.0,-0.7917425632476807,0.011317044496536255,-0.11604441702365875,0.0,0.0,0.0,-1.8692913055419922,0.42683714628219604,0.6768324375152588,0.41999998688697815,0.5313000082969666,-3.1936178856994957e-06,-3.979657321906416e-06,-0.8471836447715759,-5.566304753301665e-05,-0.0003143838548567146,-8.871708996593952e-05,0.008440536446869373,-0.003590917680412531,-0.0007721268921159208,0.4772632122039795,0.7078598737716675,0.5127781629562378,-0.04909118264913559,-0.12318713217973709,-0.2077402025461197,0.43253186345100403,0.6760091781616211,0.42000001668930054,-0.6051546335220337,-3.0000011920928955,-1.4022018909454346,2.999999761581421,-0.17894956469535828,-0.17575699090957642,-0.1716495156288147,-0.16646769642829895,-0.08215585350990295,-0.034693531692028046,0.019339818507432938,0.07089588046073914
0.8166666666666667,0.13852012157440186,-0.02512352541089058,0.0,0.607035756111145,0.0,0.0,-0.7946745157241821,0.14882232248783112,0.12864045798778534,0.0,0.0,0.0,-0.034683194011449814,0.42683717608451843,0.676832377910614,0.41999998688697815,0.5313003063201904,-3.212753654224798e-06,-3.988991466030711e-06,-0.8471834659576416,-5.363025775295682e-05,-0.000313940312480554,-8.783861994743347e-05,0.008435535244643688,-0.003575313603505492,-0.0007742682355456054,0.4783782362937927,0.7069317102432251,0.5152724981307983,0.19206824898719788,0.042673394083976746,0.5345039367675781,0.43253186345100403,0.6760091781616211,0.42000001668930054,-0.6551693081855774,-2.99999737739563,-1.4203070402145386,-2.999999523162842,-0.18139350414276123,-0.1776358038187027,-0.17275318503379822,-0.16673336923122406,-0.08178107440471649,-0.07605381309986115,-0.05251077190041542,-0.018883120268583298
0.8333333333333334,0.1423618495464325,-0.026843205094337463,0.0,0.6155182123184204,0.0,0.0,-0.7881226539611816,0.27549058198928833,-0.12404292821884155,0.0,0.0,0.0,1.911617398262024,0.42683717608451843,0.6768324375152588,0.41999998688697815,0.5313000679016113,-3.229654112146818e-06,-3.6048475067218533e-06,-0.8471837043762207,-5.7408513384871185e-05,-0.0003144013462588191,-8.928519673645496e-05,0.00843772105872631,-0.0036011952906847,-0.0007690749480389059,0.48476797342300415,0.7075735926628113,0.5245267152786255,0.4998670816421509,-0.05672211945056915,0.6568489074707031,0.43253186345100403,0.6760091781616211,0.42000001668930054,-0.6953624486923218,-1.886392593383789,-1.4703253507614136,-2.9999992847442627,-0.18102531135082245,-0.17718897759914398,-0.17188534140586853,-0.16522502899169922,-0.07564018666744232,-0.03520294278860092,0.024339109659194946,0.09541584551334381
0.85,0.1482902616262436,-0.03082091547548771,0.0,0.6103172302246094,0.0,0.0,-0.7921571135520935,0.39246228337287903,-0.2997013032436371,0.0,0.0,0.0,-1.6960550546646118,0.42683717608451843,0.6768324375152588,0.41999998688697815,0.5313001275062561,-3.191618361597648e-06,-3.961347374570323e-06,-0.8471835851669312,-5.3962132369633764e-05,-0.0003144667425658554,-8.818553760647774e-05,0.008446015417575836,-0.003583632642403245,-0.000775480642914772,0.4928542971611023,0.7057963609695435,0.5341930389404297,0.49149954319000244,-0.17375615239143372,0.6489958167076111,0.43253186345100403,0.6760091781616211,0.42000001668930054,-0.7300048470497131,-2.212567090988159,-1.5203436613082886,-2.999999761581421,-0.18302182853221893,-0.17828026413917542,-0.17175713181495667,-0.1636878103017807,-0.0980268344283104,-0.037845905870199203,0.040124841034412384,0.12891440093517303
0.8666666666666667,0.15693841874599457,-0.031949762254953384,0.0,0.5949487090110779,0.0,0.0,-0.8037636280059814,0.5468074083328247,-0.041197486221790314,0.0,0.0,0.0,-2.644486427307129,0.42683717608451843,0.676832377910614,0.41999998688697815,0.5313001275062561,-3.169027877447661e-06,-4.019036168756429e-06,-0.8471836447715759,-5.38262611371465e-05,-0.00031442451290786266,-8.812709711492062e-05,0.008445256389677525,-0.003581911325454712,-0.0007755457772873342,0.5001548528671265,0.7051624655723572,0.5471644401550293,0.4316897988319397,0.11127579212188721,0.9801377058029175,0.43253186345100403,0.6760091781616211,0.42000001668930054,-0.7439118027687073,0.33472713828086853,-1.5703619718551636,-3.000000476837158,-0.18522317707538605,-0.17988763749599457,-0.17248842120170593,-0.16335923969745636,-0.012256057001650333,-0.01840997114777565,-0.007519222795963287,0.01597076654434204
0.8833333333333333,0.16243360936641693,-0.031067416071891785,0.0,0.5966048836708069,0.0,0.0,-0.8025351166725159,0.2514064908027649,0.10029852390289307,0.0,0.0,0.0,1.1285209655761719,0.42683717608451843,0.6768324375152588,0.41999998688697815,0.5313000082969666,-3.390063056940562e-06,-3.5694806683750357e-06,-0.8471837639808655,-5.8768619055626914e-05,-0.0003143175854347646,-8.967355825006962e-05,0.008433649316430092,-0.003608041675761342,-0.0007665316807106137,0.5057854652404785,0.709962010383606,0.5642575025558472,0.19868707656860352,0.44205981492996216,1.1004797220230103,0.43253186345100403,0.6760091781616211,0.42000001668930054,-0.7143451571464539,2.9596266746520996,-1.5319639444351196,2.999999761581421,-0.18320970237255096,-0.178642138838768,-0.1717936098575592,-0.16304458677768707,0.19181184470653534,0.12259424477815628,0.060555100440979004,0.004437501076608896
