vladlanda/robotic-transformer/data/env_000_episode_0270.csv
sim_time_s,robot_box_x,robot_box_y,robot_box_z,robot_box_quat_w,robot_box_quat_x,robot_box_quat_y,robot_box_quat_z,robot_box_linvel_x,robot_box_linvel_y,robot_box_linvel_z,robot_box_angvel_x,robot_box_angvel_y,robot_box_angvel_z,cube_world_x,cube_world_y,cube_world_z,cube_quat_w,cube_quat_x,cube_quat_y,cube_quat_z,cube_linvel_x,cube_linvel_y,cube_linvel_z,cube_angvel_x,cube_angvel_y,cube_angvel_z,endpoint_world_x,endpoint_world_y,endpoint_world_z,endpoint_linvel_x,endpoint_linvel_y,endpoint_linvel_z,target_cube_world_x,target_cube_world_y,target_cube_world_z,gripper_actual_pos_rad_gp_leftgearjoint,gripper_actual_vel_rad_s_gp_leftgearjoint,gripper_actual_pos_rad_gp_rotatingjoint,gripper_actual_vel_rad_s_gp_rotatingjoint,motor_angle_rad_joint1,motor_angle_rad_joint2,motor_angle_rad_joint3,motor_angle_rad_joint4,motor_speed_rad_s_joint1,motor_speed_rad_s_joint2,motor_speed_rad_s_joint3,motor_speed_rad_s_joint4
0.0,0.0,0.0,0.0,1.0,0.0,0.0,0.0,0.0,0.0,0.0,0.0,0.0,0.0,-0.4059973657131195,0.6904276013374329,0.41999998688697815,1.0,0.0,0.0,0.0,0.0,0.0,0.0,0.0,0.0,0.0,3.42540442943573e-06,-0.005000244826078415,1.313499927520752,0.0,0.0,0.0,0.44963139295578003,0.6817660331726074,0.42000001668930054,-1.5707999467849731,0.0,0.0,0.0,0.0,0.0,0.0,0.0,0.0,0.0,0.0,0.0
0.016666666666666666,0.0028778850100934505,0.0021806680597364902,0.0,0.9998081922531128,0.0,0.0,0.019586581736803055,0.24087215960025787,0.18240931630134583,0.0,0.0,0.0,3.1418697834014893,-0.40599748492240906,0.690427303314209,0.41999998688697815,1.0,3.279964630564791e-06,-8.339746386809566e-07,8.465587342243452e-08,-1.9833529222523794e-05,0.00017983045836444944,-6.132945418357849e-05,0.0009432713268324733,-0.004689474124461412,-0.00031981561915017664,-0.007110234349966049,0.003379564033821225,1.3159373998641968,-0.8143353462219238,0.9868683815002441,0.18095196783542633,0.44963139295578003,0.6817660331726074,0.42000001668930054,-1.5301095247268677,3.0000011920928955,-0.04584788903594017,-2.9999992847442627,0.0008691533003002405,0.0007963840034790337,0.0007110277656465769,0.0006108740926720202,0.11094217747449875,0.09756709635257721,0.08334315568208694,0.06823883205652237
0.03333333333333333,0.008960992097854614,0.006801977753639221,0.0,0.9997960329055786,0.0,0.0,0.02019684389233589,0.407022088766098,0.3153081238269806,0.0,0.0,0.0,-0.8691313862800598,-0.4059976041316986,0.6904272437095642,0.4200000464916229,1.0,3.3908179375430336e-06,-2.132458348569344e-06,-3.7097745320124886e-08,0.00026357852038927376,0.00026937833172269166,-0.00010509369894862175,-0.0017707126680761576,0.004130884539335966,-0.0001354814594378695,-0.02755286544561386,0.026187971234321594,1.3165974617004395,-1.5914192199707031,1.615949034690857,-0.0848107784986496,0.44963139295578003,0.6817660331726074,0.42000001668930054,-1.4800903797149658,3.000001907348633,-0.09588773548603058,-3.0000009536743164,0.002990113105624914,0.002652724739164114,0.002277296269312501,0.001860752934589982,0.16421638429164886,0.13976016640663147,0.11381936818361282,0.08630155771970749
0.05,0.018177775666117668,0.013673513196408749,0.0,0.9999969005584717,0.0,0.0,0.00249150930903852,0.6252143979072571,0.4576363265514374,0.0,0.0,0.0,-2.797152519226074,-0.405997633934021,0.690427303314209,0.4200000464916229,1.0,3.7651293496310245e-06,-2.2119379536889028e-06,5.6273887771851605e-09,0.0002653067058417946,0.00026691422681324184,-0.00010440615005791187,-0.0017243530601263046,0.00417736079543829,-0.00012949267693329602,-0.05777779594063759,0.05659949406981468,1.3117949962615967,-1.9894068241119385,2.009037494659424,-0.4625594913959503,0.44963139295578003,0.6817660331726074,0.42000001668930054,-1.4300720691680908,3.000002145767212,-0.14592641592025757,-3.000000238418579,0.005894719623029232,0.005068323574960232,0.0041695996187627316,0.003194244811311364,0.20384131371974945,0.16402094066143036,0.12230010330677032,0.07859504967927933
0.06666666666666667,0.029939699918031693,0.02298251911997795,0.0,0.999994695186615,0.0,0.0,0.0032617871183902025,0.744380533695221,0.6039167046546936,0.0,0.0,0.0,1.0881143808364868,-0.405997633934021,0.6904272437095642,0.4200000464916229,0.9999999403953552,3.406754103707499e-06,-2.2856077066535363e-06,4.300980265270482e-07,0.0002670255198609084,0.0002679179306142032,-0.0001043803058564663,-0.001740670995786786,0.004211848136037588,-0.00012850687198806554,-0.09546332061290741,0.08892017602920532,1.3005461692810059,-2.390876293182373,2.043496608734131,-0.8658504486083984,0.44963139295578003,0.6817660331726074,0.42000001668930054,-1.3800537586212158,3.0000014305114746,-0.1959301084280014,-3.0000016689300537,0.008419378660619259,0.006883398629724979,0.005235570017248392,0.0034704788122326136,0.14151985943317413,0.0903901606798172,0.03717191144824028,-0.018210994079709053
0.08333333333333333,0.043784696608781815,0.034459587186574936,0.0,0.9999399185180664,0.0,0.0,-0.010962210595607758,0.8945600390434265,0.7232327461242676,0.0,0.0,0.0,-2.5997314453125,-0.405997633934021,0.6904272437095642,0.4200000464916229,0.9999999403953552,3.6260603337723296e-06,-2.3353738924924983e-06,3.0322857469400333e-07,0.00026613770751282573,0.00026685066404752433,-0.00010405178181827068,-0.0017283547203987837,0.004196325317025185,-0.000127911422168836,-0.132244274020195,0.1284572035074234,1.284075379371643,-2.0452475547790527,2.6263504028320312,-1.0889862775802612,0.44963139295578003,0.6817660331726074,0.42000001668930054,-1.3300241231918335,2.999998092651367,-0.1621614694595337,3.000000476837158,0.009305473417043686,0.006712291389703751,0.0039657652378082275,0.0010599427623674273,0.013104046694934368,-0.0653647631406784,-0.14597901701927185,-0.2286992371082306
0.1,0.051871053874492645,0.04960361868143082,0.0,0.9984386563301086,0.0,0.0,-0.05585888773202896,0.34951674938201904,0.9845595955848694,0.0,0.0,0.0,-6.336795330047607,-0.405997633934021,0.6904272437095642,0.4200000464916229,1.0,3.4220743145851884e-06,-2.30867885875341e-06,1.7964234189093986e-07,0.0002668164379429072,0.0002680036413948983,-0.00010440708138048649,-0.0017430284060537815,0.004207152873277664,-0.00012891023652628064,-0.1640615463256836,0.1741633117198944,1.2644565105438232,-1.818076491355896,2.8210816383361816,-1.2134215831756592,0.44963139295578003,0.6817660331726074,0.42000001668930054,-1.2800307273864746,3.000000238418579,-0.19390012323856354,-2.9999992847442627,0.0031456048600375652,-0.00034287796006537974,-0.004036431200802326,-0.007943823002278805,-0.49310386180877686,-0.5469816327095032,-0.6033746004104614,-0.6624919772148132
0.11666666666666667,0.05534961819648743,0.06586883962154388,0.0,0.9967471957206726,0.0,0.0,-0.0805918350815773,0.23837488889694214,0.9616662859916687,0.0,0.0,0.0,-1.7426996231079102,-0.405997633934021,0.690427303314209,0.4200000464916229,1.0,3.7114557471795706e-06,-2.332793883397244e-06,2.5744137133187905e-07,0.0002648575755301863,0.00026635421090759337,-0.00010423525236546993,-0.001718215993605554,0.004170078784227371,-0.00012915751722175628,-0.20128180086612701,0.21599361300468445,1.2432467937469482,-2.3571507930755615,2.6009020805358887,-1.334883213043213,0.44963139295578003,0.6817660331726074,0.42000001668930054,-1.230027675628662,2.9998421669006348,-0.24392957985401154,-2.9999258518218994,-0.004186352249234915,-0.00882700178772211,-0.013673386536538601,-0.018736496567726135,-0.29502642154693604,-0.38538533449172974,-0.4733911156654358,-0.5590405464172363
0.13333333333333333,0.06789655983448029,0.07855106145143509,0.0,0.9931680560112,0.0,0.0,-0.11669284850358963,0.7575275301933289,0.8003187775611877,0.0,0.0,0.0,-4.9623517990112305,-0.405997633934021,0.6904272437095642,0.4200000464916229,1.0,3.335647988933488e-06,-2.2320116386254085e-06,3.113250670594425e-07,0.00026669682119973004,0.000267594848992303,-0.00010428694076836109,-0.0017371177673339844,0.004205875098705292,-0.00012840732233598828,-0.2360486388206482,0.26681679487228394,1.220893144607544,-1.8573814630508423,3.4937734603881836,-1.4955381155014038,0.44963139295578003,0.6817660331726074,0.42000001668930054,-1.1800068616867065,2.999994993209839,-0.20990070700645447,3.000001907348633,-0.0023554577492177486,-0.009451442398130894,-0.016658227890729904,-0.0239818524569273,-0.14167600870132446,-0.2589976191520691,-0.3726021945476532,-0.4822072684764862
0.15,0.07607416808605194,0.08935132622718811,0.0,0.9841552972793579,0.0,0.0,-0.1773085594177246,0.44044461846351624,0.596199095249176,0.0,0.0,0.0,-8.400877952575684,-0.405997633934021,0.6904272437095642,0.4200000464916229,1.0,3.518864104989916e-06,-2.283212324982742e-06,-3.625428917075624e-07,0.00026618369156494737,0.00026735756546258926,-0.00010425550863146782,-0.0017349214758723974,0.004195664543658495,-0.00012860912829637527,-0.266851007938385,0.32645905017852783,1.1911389827728271,-1.6971046924591064,3.8623228073120117,-2.04829740524292,0.44963139295578003,0.6817660331726074,0.42000001668930054,-1.1455295085906982,1.258708119392395,-0.24130186438560486,-3.0000009536743164,-0.00923907570540905,-0.0176840852946043,-0.02619374357163906,-0.03477444127202034,-0.4759278893470764,-0.5434202551841736,-0.6079514622688293,-0.66962069272995
0.16666666666666666,0.07979430258274078,0.10264138877391815,0.0,0.9756943583488464,0.0,0.0,-0.21913579106330872,0.21046042442321777,0.7349328994750977,0.0,0.0,0.0,-3.8230745792388916,-0.405997633934021,0.6904272437095642,0.4200000464916229,1.0,3.666546717795427e-06,-2.3392813091049902e-06,-3.150027225728991e-07,0.0002659583115018904,0.00026667400379665196,-0.00010403734631836414,-0.001725324080325663,0.004192811902612448,-0.00012778834206983447,-0.30111604928970337,0.38823097944259644,1.1479754447937012,-2.035356044769287,3.9884581565856934,-2.9565577507019043,0.44963139295578003,0.6817660331726074,0.42000001668930054,-1.103384017944336,3.0,-0.27533841133117676,-1.2149920463562012,-0.02066814713180065,-0.029551897197961807,-0.03845616802573204,-0.04739479720592499,-0.594048798084259,-0.6233025789260864,-0.6482707262039185,-0.6692293286323547
0.18333333333333332,0.08199623972177505,0.11214972287416458,0.0,0.9630554914474487,0.0,0.0,-0.26930302381515503,0.10219450294971466,0.4690394401550293,0.0,0.0,0.0,-7.199615001678467,-0.405997633934021,0.6904272437095642,0.4200000464916229,1.0,3.8142911762406584e-06,-2.3995992251002463e-06,-2.7027797955270216e-07,0.00026548971072770655,0.000266111281234771,-0.00010391324758529663,-0.0017178148264065385,0.004184778779745102,-0.00012754148337990046,-0.3336271643638611,0.4568042755126953,1.091224193572998,-1.6676547527313232,4.358393669128418,-3.8151018619537354,0.44963139295578003,0.6817660331726074,0.42000001668930054,-1.0533829927444458,2.9999992847442627,-0.32385581731796265,-3.0,-0.030968274921178818,-0.040135353803634644,-0.04925120621919632,-0.05833663418889046,-0.6411334872245789,-0.6440731883049011,-0.6432594060897827,-0.6391523480415344
0.2,0.08782558143138885,0.12194882333278656,0.0,0.9530138373374939,0.0,0.0,-0.3029267489910126,0.46642184257507324,0.5885523557662964,0.0,0.0,0.0,-3.167612314224243,-0.405997633934021,0.6904272437095642,0.4200000464916229,1.0,3.5999869396619033e-06,-2.2913013708603103e-06,-2.201937832069234e-07,0.00026573010836727917,0.0002664492931216955,-0.00010398332960903645,-0.0017227825010195374,0.004188841208815575,-0.00012773113849107176,-0.36306464672088623,0.5238497257232666,1.0196423530578613,-1.4968607425689697,4.024147033691406,-4.685187339782715,0.44963139295578003,0.6817660331726074,0.42000001668930054,-1.0033799409866333,2.9999985694885254,-0.3738817572593689,-3.0000007152557373,-0.0418400764465332,-0.050608400255441666,-0.05929139629006386,-0.06792254000902176,-0.6184232234954834,-0.5867079496383667,-0.5534150004386902,-0.5192546248435974
0.21666666666666667,0.08942203223705292,0.12980104982852936,0.0,0.952378511428833,0.0,0.0,-0.3049182891845703,0.04787877947092056,0.3796836733818054,0.0,0.0,0.0,0.7721084952354431,-0.405997633934021,0.6904272437095642,0.4200000464916229,0.9999999403953552,3.639563374235877e-06,-2.2620122308580903e-06,2.2247465381042275e-07,0.00026687391800805926,0.0002675444120541215,-0.00010411837138235569,-0.001740379841066897,0.004211025312542915,-0.00012783984129782766,-0.3911740779876709,0.5779324769973755,0.934572696685791,-1.4764809608459473,2.912179946899414,-5.437262535095215,0.44963139295578003,0.6817660331726074,0.42000001668930054,-0.9533706903457642,2.9999945163726807,-0.42390963435173035,-3.0000014305114746,-0.05656106024980545,-0.06475610285997391,-0.07288934290409088,-0.08093804121017456,-0.7894713878631592,-0.8136124014854431,-0.8356237411499023,-0.8550634384155273
0.23333333333333334,0.08723437786102295,0.13754107058048248,0.0,0.9476467967033386,0.0,0.0,-0.319320410490036,-0.20938657224178314,0.5230183005332947,0.0,0.0,0.0,-2.645812511444092,-0.4059976041316986,0.6904272437095642,0.4200000464916229,1.0,3.420630036998773e-06,-2.3168879579316126e-06,2.955902687062917e-07,0.0002668013039510697,0.0002680388279259205,-0.00010442384518682957,-0.0017437251517549157,0.004206957295536995,-0.00012900005094707012,-0.41306084394454956,0.6244366765022278,0.8388332724571228,-1.1041185855865479,2.4798836708068848,-5.9420905113220215,0.44963139295578003,0.6817660331726074,0.42000001668930054,-0.9033600091934204,2.999999761581421,-0.4739394783973694,-2.9999992847442627,-0.07228518277406693,-0.08055153489112854,-0.08872457593679428,-0.09678433835506439,-0.9889028668403625,-0.9912709593772888,-0.9894502758979797,-0.9850252270698547
0.25,0.08852259814739227,0.14133833348751068,0.0,0.9473187923431396,0.0,0.0,-0.32029226422309875,0.11065050959587097,0.1592722237110138,0.0,0.0,0.0,0.8964869379997253,-0.405997633934021,0.6904272437095642,0.4200000464916229,0.9999999403953552,3.347485289850738e-06,-2.2592903405893594e-06,1.8084206487856136e-07,0.0002668781380634755,0.00026791184791363776,-0.0001043954398483038,-0.001740514999255538,0.004208283498883247,-0.000128701634821482,-0.4315683841705322,0.6574480533599854,0.7376166582107544,-0.9226055145263672,1.449554443359375,-6.199615478515625,0.44963139295578003,0.6817660331726074,0.42000001668930054,-0.8533493280410767,2.9999914169311523,-0.523969829082489,-3.0000009536743164,-0.08759370446205139,-0.0958123579621315,-0.10387793183326721,-0.11176835745573044,-0.9902864098548889,-0.9917715787887573,-0.9853008985519409,-0.9736846089363098
0.26666666666666666,0.08566848933696747,0.14242903888225555,0.0,0.9427018761634827,0.0,0.0,-0.3336363136768341,-0.26719924807548523,0.026597149670124054,0.0,0.0,0.0,-2.5685105323791504,-0.405997633934021,0.6904272437095642,0.4200000464916229,0.9999999403953552,3.707919859152753e-06,-2.392595661149244e-06,-1.2726982845379098e-07,0.00026603692094795406,0.00026716693537309766,-0.00010421336628496647,-0.0017321702325716615,0.004193120636045933,-0.00012854926171712577,-0.4395713210105896,0.6751931309700012,0.6334426999092102,-0.04709926247596741,0.6072217226028442,-6.044279098510742,0.44963139295578003,0.6817660331726074,0.42000001668930054,-0.8033400177955627,3.0000009536743164,-0.5739995241165161,-2.9999988079071045,-0.10538773238658905,-0.11331626027822495,-0.12116396427154541,-0.12888506054878235,-1.0122504234313965,-1.009198546409607,-1.0068752765655518,-1.0050315856933594
0.2833333333333333,0.07970534265041351,0.14128386974334717,0.0,0.943427324295044,0.0,0.0,-0.3315794765949249,-0.33232253789901733,-0.13559529185295105,0.0,0.0,0.0,1.1100534200668335,-0.405997633934021,0.690427303314209,0.4200000464916229,0.9999999403953552,3.5725404359254753e-06,-2.304164354427485e-06,1.2984229158519156e-07,0.0002652165130712092,0.00026455134502612054,-0.00010317238047719002,-0.0017021878156811,0.004185077268630266,-0.00012500181037466973,-0.4382612705230713,0.6826353669166565,0.5408574938774109,0.2221452295780182,0.38159453868865967,-5.234138011932373,0.44963139295578003,0.6817660331726074,0.42000001668930054,-0.7533312439918518,2.999999761581421,-0.6240280866622925,-3.000000238418579,-0.12163173407316208,-0.12968163192272186,-0.13769672811031342,-0.14559337496757507,-0.8726911544799805,-0.9138444662094116,-0.9551809430122375,-0.9935545921325684
0.3,0.07240763306617737,0.13739950954914093,0.0,0.9390962719917297,0.0,0.0,-0.3436542749404907,-0.48743709921836853,-0.27414822578430176,0.0,0.0,0.0,-2.4001359939575195,-0.405997633934021,0.6904272437095642,0.4200000464916229,1.0,3.744931063920376e-06,-2.238220076833386e-06,-1.7679303709883243e-07,0.00026436246116645634,0.00026623631129041314,-0.00010443315841257572,-0.0017120876582339406,0.004158840514719486,-0.0001299011637456715,-0.42856407165527344,0.690169632434845,0.4525480568408966,0.9548627138137817,0.4043813645839691,-5.132604598999023,0.44963139295578003,0.6817660331726074,0.42000001668930054,-0.7033233642578125,3.0000016689300537,-0.6740552186965942,-3.00000262260437,-0.13892601430416107,-0.14683575928211212,-0.1547420769929886,-0.16255025565624237,-1.0096369981765747,-1.0072978734970093,-1.0055063962936401,-1.0040689706802368
0.31666666666666665,0.06295649707317352,0.13125522434711456,0.0,0.9405081868171692,0.0,0.0,-0.3397710621356964,-0.6047334671020508,-0.4076277017593384,0.0,0.0,0.0,1.406111478805542,-0.40599703788757324,0.690427303314209,0.42000001668930054,0.9999999403953552,4.2727797335828654e-06,4.9601680984778795e-06,9.539558050164487e-07,-0.0002494867076165974,0.0003891232772730291,-0.0001769309164956212,-0.0059122359380126,-0.006773602683097124,-0.0031172730959951878,-0.42019644379615784,0.6943232417106628,0.42244353890419006,0.17361994087696075,-0.052381280809640884,-0.15190169215202332,0.44963139295578003,0.6817660331726074,0.42000001668930054,-0.65350741147995,2.997904062271118,-0.7245630025863647,-2.825711965560913,-0.14790837466716766,-0.15629684925079346,-0.16442079842090607,-0.17212726175785065,-0.25499552488327026,-0.2741334140300751,-0.2690882980823517,-0.23509085178375244
0.3333333333333333,0.0512874536216259,0.12288034707307816,0.0,0.9365634322166443,0.0,0.0,-0.35049811005592346,-0.7451364398002625,-0.5416885614395142,0.0,0.0,0.0,-2.2923195362091064,-0.4059427082538605,0.6904997825622559,0.4200037121772766,0.9999995827674866,-0.0006657108897343278,0.0005001466488465667,-0.0001920099457493052,0.08908790349960327,0.11585450172424316,-0.00886833481490612,0.8901570439338684,-0.4402737319469452,-1.2098203897476196,-0.4184471368789673,0.695758044719696,0.42308253049850464,0.2454824149608612,0.04971522092819214,-0.17739525437355042,0.44963139295578003,0.6817660331726074,0.42000001668930054,-0.60350102186203,3.0000009536743164,-0.774617075920105,-2.9997293949127197,-0.15284892916679382,-0.16090089082717896,-0.16825243830680847,-0.17469848692417145,-0.37309110164642334,-0.3121426999568939,-0.2278902381658554,-0.11880326271057129
0.35,0.039815399795770645,0.11225055158138275,0.0,0.9382348656654358,0.0,0.0,-0.3459990620613098,-0.6922389268875122,-0.6715217232704163,0.0,0.0,0.0,1.5099116563796997,-0.40236806869506836,0.6948498487472534,0.4200034737586975,0.9997323155403137,1.6838812371133827e-05,0.00010857434244826436,-0.023131901398301125,0.3118157982826233,0.37044286727905273,-0.003095992375165224,0.011988366954028606,-0.15668140351772308,-3.88354754447937,-0.412913978099823,0.6988255977630615,0.42058849334716797,0.4158155918121338,0.3062927722930908,-0.11338256299495697,0.44963139295578003,0.6817660331726074,0.42000001668930054,-0.5534961223602295,2.999998092651367,-0.8246506452560425,-2.999983787536621,-0.16113543510437012,-0.16732342541217804,-0.17245635390281677,-0.17633643746376038,-0.555664598941803,-0.4165472686290741,-0.25754183530807495,-0.08028271049261093
0.36666666666666664,0.02917453646659851,0.09938786923885345,0.0,0.9344985485076904,0.0,0.0,-0.3559669554233551,-0.6308349967002869,-0.8102771043777466,0.0,0.0,0.0,-2.212838888168335,-0.39625993371009827,0.7004032731056213,0.4200003445148468,0.9939113855361938,-1.5939413344767672e-07,-5.676089358530589e-07,-0.11018252372741699,0.4766826629638672,0.40515127778053284,-0.0005591942463070154,0.010036585852503777,0.019056973978877068,-14.591176986694336,-0.404355525970459,0.7041420936584473,0.4208794832229614,0.6605134606361389,0.4119735658168793,0.09251514077186584,0.44963139295578003,0.6817660331726074,0.42000001668930054,-0.5034583210945129,3.000000476837158,-0.8746534585952759,-2.999971866607666,-0.170580193400383,-0.17408260703086853,-0.17615029215812683,-0.17663335800170898,-0.5439720153808594,-0.3675103783607483,-0.16847142577171326,0.04930732399225235
0.3833333333333333,0.01920868456363678,0.08436498790979385,0.0,0.9195781946182251,0.0,0.0,-0.392907053232193,-0.5779114961624146,-0.9417206048965454,0.0,0.0,0.0,-5.675482749938965,-0.3840041756629944,0.7118775844573975,0.42074713110923767,0.9744097590446472,-0.018438607454299927,0.0028325419407337904,-0.22400322556495667,1.1267099380493164,1.0825819969177246,0.09613955020904541,-4.5430169105529785,1.7442352771759033,-6.827360153198242,-0.3895982503890991,0.7161886096000671,0.4226926863193512,1.1284064054489136,1.0073926448822021,0.12966260313987732,0.44963139295578003,0.6817660331726074,0.42000001668930054,-0.4534168839454651,2.9995105266571045,-0.9246646761894226,-2.9999756813049316,-0.1794068068265915,-0.1799425184726715,-0.17862384021282196,-0.17537762224674225,-0.4642988443374634,-0.2917076647281647,-0.09383856505155563,0.12441004812717438
0.4,0.012774033471941948,0.06659598648548126,0.0,0.8913748860359192,0.0,0.0,-0.45326685905456543,-0.31107598543167114,-1.1222268342971802,0.0,0.0,0.0,-8.805121421813965,-0.3515249192714691,0.7363817095756531,0.4237295985221863,0.9621015787124634,-0.0021692763548344374,-0.020369170233607292,-0.2719205319881439,2.868882179260254,2.0260064601898193,0.35368356108665466,23.607524871826172,-13.330927848815918,2.3508076667785645,-0.3570999205112457,0.7405332922935486,0.4259657859802246,2.7970669269561768,1.91353178024292,0.4496503472328186,0.44963139295578003,0.6817660331726074,0.42000001668930054,-0.40532606840133667,2.279491424560547,-0.9071435928344727,2.9955668449401855,-0.18883033096790314,-0.18586787581443787,-0.18069398403167725,-0.17334765195846558,-0.597528874874115,-0.3633686900138855,-0.11236375570297241,0.1476910263299942
0.4166666666666667,0.00904969684779644,0.05311606451869011,0.0,0.8466528058052063,0.0,0.0,-0.5321456789970398,-0.1456468254327774,-0.8012619614601135,0.0,0.0,0.0,-11.552921295166016,-0.27899885177612305,0.7746519446372986,0.43039122223854065,0.9393863081932068,0.06525451689958572,-0.06341370195150375,-0.33056575059890747,5.842193126678467,2.619731903076172,0.5417879223823547,8.536890029907227,-8.097887992858887,6.586597442626953,-0.2843441069126129,0.7790194153785706,0.432722270488739,5.407997131347656,2.7538766860961914,0.46900099515914917,0.44963139295578003,0.6817660331726074,0.42000001668930054,-0.3823827803134918,1.041655421257019,-0.8571101427078247,2.9998106956481934,-0.20346036553382874,-0.19717484712600708,-0.18668080866336823,-0.17423498630523682,-0.6099205613136292,-0.586940348148346,-0.3239145576953888,-0.07933370023965836
0.43333333333333335,0.0028356960974633694,0.04430694133043289,0.0,0.7932124733924866,0.0,0.0,-0.6089449524879456,-0.37332457304000854,-0.4691801369190216,0.0,0.0,0.0,-10.884881019592285,-0.18281203508377075,0.8154729604721069,0.44008028507232666,0.906231164932251,0.10484270006418228,-0.0915750041604042,-0.3992079198360443,6.402167320251465,1.7528694868087769,0.6459577083587646,6.618751525878906,-12.193744659423828,14.137422561645508,-0.18704116344451904,0.8217340707778931,0.44240760803222656,6.202874660491943,2.3222997188568115,0.5799988508224487,0.44963139295578003,0.6817660331726074,0.42000001668930054,-0.3664248287677765,0.9722224473953247,-0.8836600184440613,-3.0000007152557373,-0.2172362506389618,-0.20984739065170288,-0.19494600594043732,-0.1785886287689209,-0.7047594785690308,-0.6798528432846069,-0.46450725197792053,-0.27893853187561035
0.45,-0.0003180977946612984,0.03882797434926033,0.0,0.7534353137016296,0.0,0.0,-0.6575220227241516,-0.13838450610637665,-0.27136513590812683,0.0,0.0,0.0,-6.406708240509033,-0.07716725766658783,0.8435583710670471,0.45056089758872986,0.8384959697723389,0.12654055655002594,-0.10219919681549072,-0.5200647711753845,6.400173187255859,0.32398703694343567,0.5498403310775757,-5.476472854614258,-15.30101203918457,21.893823623657227,-0.08236929029226303,0.8514249920845032,0.45160776376724243,6.45079231262207,1.251163363456726,0.6980682611465454,0.44963139295578003,0.6817660331726074,0.42000001668930054,-0.3489270806312561,0.9605931043624878,-0.9336839914321899,-3.0000035762786865,-0.23071503639221191,-0.22160382568836212,-0.2026875615119934,-0.18290789425373077,-0.7943505048751831,-0.6607494354248047,-0.43230852484703064,-0.23984336853027344
0.4666666666666667,-0.0006909663788974285,0.0278517697006464,0.0,0.7339469790458679,0.0,0.0,-0.6792067289352417,0.06211124360561371,-0.7949437499046326,0.0,0.0,0.0,-2.5426950454711914,0.028423886746168137,0.8521434664726257,0.45959439873695374,0.7628691792488098,0.1306573897600174,-0.09599610418081284,-0.6258945465087891,6.535775184631348,-0.5893288850784302,0.6292992830276489,-5.209966659545898,-14.8278226852417,5.613884925842285,0.022999171167612076,0.8621857166290283,0.46024003624916077,6.1677470207214355,-0.02995777130126953,0.4912711977958679,0.44963139295578003,0.6817660331726074,0.42000001668930054,-0.3362794518470764,0.5402103662490845,-0.9837080240249634,-3.000002145767212,-0.2393038421869278,-0.22768162190914154,-0.2052471786737442,-0.18246835470199585,-0.39786988496780396,-0.2208448201417923,-0.013531407341361046,0.1659371256828308
0.48333333333333334,-0.0032940173987299204,0.01965632103383541,0.0,0.704796314239502,0.0,0.0,-0.7094097137451172,-0.18775106966495514,-0.45070675015449524,0.0,0.0,0.0,-5.744687080383301,0.12823745608329773,0.8444175720214844,0.46554285287857056,0.707184910774231,0.12528403103351593,-0.09039782732725143,-0.6899431347846985,5.587922096252441,-1.4684438705444336,0.21795135736465454,-13.865966796875,-9.392291069030762,22.414077758789062,0.12434865534305573,0.8547030687332153,0.46704423427581787,6.132219314575195,-0.7458903789520264,0.4002395570278168,0.44963139295578003,0.6817660331726074,0.42000001668930054,-0.32783231139183044,0.44604772329330444,-1.033731460571289,-3.00000262260437,-0.23985202610492706,-0.23474232852458954,-0.20902541279792786,-0.1834847331047058,0.020474672317504883,-0.29718688130378723,-0.1711013913154602,-0.07002469897270203
0.5,-0.004054147284477949,0.01622603088617325,0.0,0.6922016143798828,0.0,0.0,-0.7217041850090027,0.014845507219433784,-0.1225510910153389,0.0,0.0,0.0,-0.9203472137451172,0.21912682056427002,0.8227310180664062,0.4673548936843872,0.6398293972015381,0.11549557745456696,-0.07775774598121643,-0.755799412727356,4.665504455566406,-2.3397297859191895,-0.183014914393425,-8.318129539489746,-5.542526721954346,18.800830841064453,0.21655476093292236,0.8339322209358215,0.4689561128616333,5.197491645812988,-1.6826058626174927,0.024750355631113052,0.44963139295578003,0.6817660331726074,0.42000001668930054,-0.3196916878223419,0.45034050941467285,-1.0837535858154297,-3.000001907348633,-0.23998074233531952,-0.2399737685918808,-0.21372199058532715,-0.18654517829418182,-0.027043890208005905,-0.01711241528391838,-0.28848329186439514,-0.218352809548378
0.5166666666666666,-0.0016404720954596996,0.011696560308337212,0.0,0.6716929078102112,0.0,0.0,-0.7408297061920166,0.19343088567256927,-0.3774743974208832,0.0,0.0,0.0,-4.148989200592041,0.2962267994880676,0.7904477715492249,0.458152174949646,0.5478396415710449,0.03217450529336929,-0.1265927106142044,-0.8263236284255981,4.153404712677002,-2.2245473861694336,-0.9051848649978638,-23.439794540405273,10.911375045776367,-14.880513191223145,0.29275983572006226,0.8049488067626953,0.4637313783168793,4.129046440124512,-1.9868866205215454,-0.46638745069503784,0.44963139295578003,0.6817660331726074,0.42000001668930054,-0.3101353943347931,0.6725072264671326,-1.1337757110595703,-3.0,-0.23932583630084991,-0.23863521218299866,-0.2165711522102356,-0.18888308107852936,0.062008727341890335,0.13748444616794586,-0.08641499280929565,-0.0829801857471466
0.5333333333333333,0.0033441896084696054,0.009377994574606419,0.0,0.6652176380157471,0.0,0.0,-0.7466495037078857,0.3287688195705414,-0.07696224749088287,0.0,0.0,0.0,-0.061554424464702606,0.3555101156234741,0.7542510032653809,0.44437935948371887,0.5044181942939758,-0.004172515124082565,-0.10815998166799545,-0.856648325920105,3.024444580078125,-2.7932345867156982,-0.773930549621582,0.7416958212852478,7.504323482513428,3.5798137187957764,0.35419052839279175,0.7689098119735718,0.4505608081817627,3.187303066253662,-2.232405662536621,-0.9902417659759521,0.44963139295578003,0.6817660331726074,0.42000001668930054,-0.2998811900615692,0.5133846998214722,-1.183797836303711,-2.999725580215454,-0.23981024324893951,-0.2373313307762146,-0.21847297251224518,-0.19111014902591705,0.04473421722650528,0.14406225085258484,-0.05025969073176384,-0.11576385796070099
0.55,0.010540787130594254,0.010414731688797474,0.0,0.6500006914138794,0.0,0.0,-0.759933590888977,0.47895073890686035,0.12811681628227234,0.0,0.0,0.0,-3.326029062271118,0.40288859605789185,0.7211112976074219,0.4231549799442291,0.4751355051994324,-0.044902000576257706,-0.09529849141836166,-0.8735835552215576,2.409679651260376,-2.089055299758911,-1.2726331949234009,-0.4536857306957245,9.949675559997559,1.9156473875045776,0.4024805426597595,0.7352737188339233,0.4294165074825287,2.5536584854125977,-1.9109468460083008,-1.4444894790649414,0.44963139295578003,0.6817660331726074,0.42000001668930054,-0.29115456342697144,0.5550928711891174,-1.2338199615478516,-2.9997551441192627,-0.2365928292274475,-0.23351608216762543,-0.21861307322978973,-0.19358479976654053,0.2813279330730438,0.2866562604904175,0.03379567712545395,-0.15526416897773743
0.5666666666666667,0.020742829889059067,0.006405217107385397,0.0,0.6472715735435486,0.0,0.0,-0.7622594833374023,0.5934740900993347,-0.21868926286697388,0.0,0.0,0.0,0.5016207695007324,0.43191957473754883,0.704481840133667,0.4204445779323578,0.46510952711105347,-0.006478613242506981,0.010548246093094349,-0.885166585445404,1.0243796110153198,-0.7790493965148926,0.2164354771375656,5.823146343231201,9.572885513305664,-0.11283444613218307,0.43059319257736206,0.7147334814071655,0.42394453287124634,1.077523946762085,-0.8527378439903259,0.25155285000801086,0.44963139295578003,0.6817660331726074,0.42000001668930054,-0.2789445221424103,0.9498752951622009,-1.2838819026947021,-2.9980738162994385,-0.22582261264324188,-0.22379463911056519,-0.2137783169746399,-0.19291213154792786,0.5587774515151978,0.5180165767669678,0.262603759765625,0.019764553755521774
0.5833333333333334,0.02767144702374935,0.00658623781055212,0.0,0.6337798237800598,0.0,0.0,-0.7735134959220886,0.38324105739593506,-0.008913107216358185,0.0,0.0,0.0,-2.9210658073425293,0.4470897614955902,0.6942241787910461,0.4211190640926361,0.47997531294822693,-0.013709614053368568,0.024996815249323845,-0.8768185973167419,0.5618072152137756,-1.0929676294326782,0.19928760826587677,5.554266452789307,7.689860820770264,12.950963020324707,0.445120632648468,0.7033610343933105,0.4236452579498291,0.6705693602561951,-0.5096827149391174,-0.027769410982728004,0.44963139295578003,0.6817660331726074,0.42000001668930054,-0.2701481282711029,-0.3891294598579407,-1.2457610368728638,2.999896764755249,-0.21690745651721954,-0.21570435166358948,-0.2097328007221222,-0.19308553636074066,0.6247755289077759,0.5486248135566711,0.3024120032787323,0.029819361865520477
0.6,0.03542950376868248,0.009037437848746777,0.0,0.6338456273078918,0.0,0.0,-0.7734596133232117,0.4941275715827942,0.21004386246204376,0.0,0.0,0.0,0.9224153161048889,0.4549007713794708,0.6857290267944336,0.42145517468452454,0.5110337138175964,-0.01820625737309456,0.027333980426192284,-0.8589329719543457,0.17764991521835327,-0.33148491382598877,0.0733352079987526,-0.16915862262248993,1.9716517925262451,2.78310489654541,0.45144444704055786,0.695963978767395,0.4242476224899292,0.17693643271923065,-0.3008750379085541,0.16090600192546844,0.44963139295578003,0.6817660331726074,0.42000001668930054,-0.2857041358947754,-1.356914758682251,-1.266315221786499,-2.9997804164886475,-0.2073168158531189,-0.20740444958209991,-0.20515362918376923,-0.1928950995206833,0.5676912665367126,0.4892016649246216,0.2850491404533386,0.028162669390439987
0.6166666666666667,0.044836170971393585,0.008808393962681293,0.0,0.6225756406784058,0.0,0.0,-0.7825596332550049,0.5955752730369568,-0.044306039810180664,0.0,0.0,0.0,-2.6838433742523193,0.4560565948486328,0.6825116872787476,0.4207130968570709,0.5476869344711304,-0.010073569603264332,0.01492343284189701,-0.8364894986152649,0.059684038162231445,-0.16450445353984833,-0.05869721993803978,-1.3718278408050537,-2.8072850704193115,6.793344974517822,0.4523998200893402,0.694635808467865,0.4237561821937561,-0.08518588542938232,-0.011313118040561676,-0.03572417423129082,0.44963139295578003,0.6817660331726074,0.42000001668930054,-0.3218455910682678,-2.833850622177124,-1.2295929193496704,2.9997899532318115,-0.1957184076309204,-0.1975710541009903,-0.1988249570131302,-0.19107064604759216,0.6447162628173828,0.5522010326385498,0.37121424078941345,0.12049360573291779
0.6333333333333333,0.05651754140853882,0.011783759109675884,0.0,0.6238704919815063,0.0,0.0,-0.7815277576446533,0.7196222543716431,0.21188342571258545,0.0,0.0,0.0,1.1265112161636353,0.4566011130809784,0.680741548538208,0.4200000464916229,0.5757550597190857,-2.597510331270314e-07,-1.3770741214003124e-09,-0.817622184753418,0.01836402155458927,-0.07002788037061691,-3.8441503420472145e-06,-0.00013611272152047604,0.0001317860442213714,2.4088380336761475,0.45152851939201355,0.6949249505996704,0.4255197048187256,-0.05038667470216751,0.13390493392944336,0.1641426682472229,0.44963139295578003,0.6817660331726074,0.42000001668930054,-0.37184083461761475,-2.999999761581421,-1.2503060102462769,-2.999974250793457,-0.18746310472488403,-0.19070547819137573,-0.19453419744968414,-0.19060291349887848,0.5316035747528076,0.425531804561615,0.26446714997291565,0.02704712003469467
0.65,0.06510674953460693,0.01034669578075409,0.0,0.6477767825126648,0.0,0.0,-0.76183021068573,0.44143587350845337,-0.13230553269386292,0.0,0.0,0.0,4.404874324798584,0.4561358690261841,0.6807025074958801,0.4201386272907257,0.5724648833274841,0.002002542372792959,-0.00283038429915905,-0.8199217915534973,-0.07977977395057678,0.0430901013314724,0.019308671355247498,-0.3157944679260254,-0.9151023626327515,-2.500595808029175,0.4496333599090576,0.6971548199653625,0.428286612033844,-0.1570892184972763,0.12104596197605133,0.17635393142700195,0.44963139295578003,0.6817660331726074,0.42000001668930054,-0.4218793511390686,-3.000000238418579,-1.30027437210083,-2.998547077178955,-0.17759785056114197,-0.1823490858078003,-0.1883782595396042,-0.1879526972770691,0.4563930034637451,0.40826302766799927,0.3284667134284973,0.16676275432109833
0.6666666666666666,0.0738111063838005,0.005757353268563747,0.0,0.6561951041221619,0.0,0.0,-0.7545912861824036,0.555022120475769,-0.3214435279369354,0.0,0.0,0.0,0.30397146940231323,0.45541509985923767,0.6810663938522339,0.4200000464916229,0.5650850534439087,2.053094902976227e-07,4.1642519477136375e-07,-0.825032651424408,-0.02172982320189476,0.009228541515767574,-1.2427393812686205e-05,-0.0002555921673774719,0.006878762040287256,-0.4053875803947449,0.44884106516838074,0.6994847059249878,0.4327295422554016,-0.05672495812177658,0.14830131828784943,0.31246763467788696,0.44963139295578003,0.6817660331726074,0.42000001668930054,-0.4719037413597107,-2.9935197830200195,-1.350246548652649,-2.9988632202148438,-0.17107954621315002,-0.17586630582809448,-0.18211139738559723,-0.18309183418750763,0.33161461353302,0.3756765127182007,0.42395368218421936,0.40789613127708435
0.6833333333333333,0.08431931585073471,-0.0017300046747550368,0.0,0.6419751644134521,0.0,0.0,-0.7667254209518433,0.665993869304657,-0.509351909160614,0.0,0.0,0.0,-3.139585494995117,0.4553956091403961,0.681074321269989,0.4200000762939453,0.5649935007095337,-6.293889782682527e-06,6.425824267353164e-06,-0.8250952959060669,-0.0006602509529329836,0.0002505949523765594,-0.0002228347584605217,0.0012930085649713874,-0.004419310949742794,0.0014856484485790133,0.4510883688926697,0.703755259513855,0.44505390524864197,0.31918519735336304,0.31582289934158325,1.2594599723815918,0.44963139295578003,0.6817660331726074,0.42000001668930054,-0.5219167470932007,-2.9999825954437256,-1.4002647399902344,-2.9999985694885254,-0.16812175512313843,-0.17190325260162354,-0.17692796885967255,-0.17768806219100952,0.08737190812826157,0.15858016908168793,0.24923010170459747,0.2838531732559204
0.7,0.09912439435720444,-0.0033994982950389385,0.0,0.6044723391532898,0.0,0.0,-0.796626091003418,0.9735291600227356,0.03583678975701332,0.0,0.0,0.0,-6.815133571624756,0.45539456605911255,0.6810750365257263,0.41999995708465576,0.5649940967559814,-1.567061190144159e-06,-5.740515007346403e-06,-0.8250948190689087,9.11483439267613e-05,-0.0003974649007432163,-7.705879397690296e-05,0.010160484351217747,-0.003097720444202423,-0.0009985229698941112,0.46502602100372314,0.7019127607345581,0.4716571271419525,1.480039119720459,-0.5029656291007996,2.051107168197632,0.44963139295578003,0.6817660331726074,0.42000001668930054,-0.5719290375709534,-2.9996347427368164,-1.4502830505371094,-2.9999566078186035,-0.17580148577690125,-0.17663143575191498,-0.17839255928993225,-0.1768861711025238,-0.6698979139328003,-0.4476584792137146,-0.2047298401594162,-0.020077455788850784
0.7166666666666667,0.11038760095834732,-0.0010470413835719228,0.0,0.5801687836647034,0.0,0.0,-0.8144962787628174,0.5398239493370056,-0.05198541656136513,0.0,0.0,0.0,-2.279141902923584,0.45539459586143494,0.6810750365257263,0.41999995708465576,0.5649941563606262,-1.654132574913092e-06,-5.7796246437646914e-06,-0.8250948190689087,8.703244384378195e-05,-0.0003892848617397249,-7.530441507697105e-05,0.009958979673683643,-0.0030745682306587696,-0.0009740034583956003,0.4865666627883911,0.6971089839935303,0.5054314732551575,1.2497291564941406,-0.07286497950553894,1.961655616760254,0.44963139295578003,0.6817660331726074,0.42000001668930054,-0.5917988419532776,0.33033132553100586,-1.5003012418746948,-3.0,-0.1837514340877533,-0.18189872801303864,-0.18062052130699158,-0.1769651621580124,-0.038538552820682526,-1.2738746590912342e-07,0.06612340360879898,0.09286484122276306
0.7333333333333333,0.11571938544511795,-0.00024629352265037596,0.0,0.5839099287986755,0.0,0.0,-0.8118184208869934,0.24616271257400513,0.09836793690919876,0.0,0.0,0.0,1.405604600906372,0.45539459586143494,0.6810750365257263,0.41999995708465576,0.5649942755699158,-1.6799613149487413e-06,-5.5603513828828e-06,-0.8250948190689087,8.368553244508803e-05,-0.00038924140972085297,-7.53581989556551e-05,0.009952227585017681,-0.003077506087720394,-0.0009659977513365448,0.5055274963378906,0.6982746124267578,0.5312224626541138,0.9189243316650391,0.15706248581409454,1.2294069528579712,0.44963139295578003,0.6817660331726074,0.42000001668930054,-0.5647911429405212,2.681673765182495,-1.4681681394577026,2.999997854232788,-0.18243341147899628,-0.18025584518909454,-0.17819008231163025,-0.17433372139930725,0.15998226404190063,0.16834747791290283,0.20224091410636902,0.20302608609199524
0.75,0.11746620386838913,-0.002786591649055481,0.0,0.5765262246131897,0.0,0.0,-0.8170786499977112,0.06757301837205887,-0.23729208111763,0.0,0.0,0.0,-2.0019469261169434,0.45539459586143494,0.6810750365257263,0.41999995708465576,0.5649940371513367,-1.6070315496108378e-06,-5.374743068387033e-06,-0.8250949382781982,8.620622247690335e-05,-0.000389675929909572,-7.536751218140125e-05,0.009968877770006657,-0.0030835105571895838,-0.0009728336008265615,0.5142865777015686,0.7009862661361694,0.5461912751197815,0.1337737888097763,0.1670796424150467,0.7327058911323547,0.44963139295578003,0.6817660331726074,0.42000001668930054,-0.5335649847984314,1.169817566871643,-1.418115496635437,2.9999983310699463,-0.17922236025333405,-0.17696192860603333,-0.17445696890354156,-0.1706985980272293,0.19730015099048615,0.20346273481845856,0.2260543704032898,0.2164507955312729
0.7666666666666666,0.11679376661777496,-0.0007270501228049397,0.0,0.5824968814849854,0.0,0.0,-0.8128329515457153,-0.07945651561021805,0.2529808282852173,0.0,0.0,0.0,1.7570260763168335,0.45539459586143494,0.6810750365257263,0.41999995708465576,0.5649942755699158,-1.577685225129244e-06,-5.57192424821551e-06,-0.8250947594642639,8.601161243859679e-05,-0.0003895672271028161,-7.535121403634548e-05,0.009965498931705952,-0.0030811200849711895,-0.000972093956079334,0.5140382051467896,0.7028442621231079,0.5556371212005615,-0.12798172235488892,0.1573568433523178,0.4293937087059021,0.44963139295578003,0.6817660331726074,0.42000001668930054,-0.49710941314697266,3.0000009536743164,-1.43588125705719,-3.000000476837158,-0.18102233111858368,-0.1776311844587326,-0.173875093460083,-0.16949604451656342,-0.15264764428138733,-0.08309102803468704,-0.010089517571032047,0.026237018406391144
0.7833333333333333,0.1180102527141571,-0.0004343962646089494,0.0,0.5767619013786316,0.0,0.0,-0.8169122934341431,0.08125650137662888,0.0187685489654541,0.0,0.0,0.0,-1.596738576889038,0.45539459586143494,0.6810749769210815,0.41999995708465576,0.5649940371513367,-1.5719377870482276e-06,-5.721530214941595e-06,-0.825094997882843,8.668521331856027e-05,-0.00038982313708402216,-7.536099292337894e-05,0.009974386543035507,-0.0030851843766868114,-0.0009742256952449679,0.5048512816429138,0.7055374979972839,0.5560274720191956,-0.9784010648727417,0.12594766914844513,-0.18812116980552673,0.44963139295578003,0.6817660331726074,0.42000001668930054,-0.4796534776687622,-0.6079892516136169,-1.3973362445831299,3.000000238418579,-0.18148596584796906,-0.1774354726076126,-0.17295324802398682,-0.1683485358953476,-0.08600141108036041,-0.036296579986810684,0.01500714011490345,0.03852201998233795
0.8,0.12140630930662155,0.0021006688475608826,0.0,0.5836503505706787,0.0,0.0,-0.8120051026344299,0.1929571032524109,0.16020211577415466,0.0,0.0,0.0,1.6036571264266968,0.45539459586143494,0.6810749769210815,0.41999995708465576,0.5649940371513367,-1.6023908528950415e-06,-5.6427065828756895e-06,-0.8250948786735535,8.394556061830372e-05,-0.0003896842827089131,-7.537868805229664e-05,0.009965970180928707,-0.0030821317341178656,-0.0009673801250755787,0.4928896427154541,0.7075153589248657,0.5519415140151978,-0.42537033557891846,0.21657347679138184,-0.2730267345905304,0.44963139295578003,0.6817660331726074,0.42000001668930054,-0.49355271458625793,-1.0126451253890991,-1.415507197380066,-2.999999523162842,-0.18276859819889069,-0.17812734842300415,-0.17291919887065887,-0.16786564886569977,0.12888850271701813,0.10465213656425476,0.09875160455703735,0.09169507771730423
0.8166666666666667,0.1259019523859024,0.0015225880779325962,0.0,0.5878158211708069,0.0,0.0,-0.8089947700500488,0.3030380606651306,-0.07374461740255356,0.0,0.0,0.0,0.1962336003780365,0.45539459586143494,0.6810749769210815,0.41999995708465576,0.5649940967559814,-1.5977735756678157e-06,-5.576260264206212e-06,-0.8250948786735535,8.365129178855568e-05,-0.00038964280975051224,-7.538427598774433e-05,0.009964121505618095,-0.0030815841164439917,-0.00096659897826612,0.4880349636077881,0.7095673680305481,0.5437667965888977,-0.16618269681930542,0.0021609440445899963,-0.5677706003189087,0.44963139295578003,0.6817660331726074,0.42000001668930054,-0.5362775921821594,-3.000000476837158,-1.3814021348953247,3.0000007152557373,-0.1799294352531433,-0.17561042308807373,-0.17039848864078522,-0.1652720421552658,0.11464652419090271,0.11982539296150208,0.14301489293575287,0.17205919325351715
0.8333333333333334,0.1323121041059494,-0.0020221173763275146,0.0,0.5724808573722839,0.0,0.0,-0.8199180364608765,0.42631494998931885,-0.2753468453884125,0.0,0.0,0.0,-3.1666007041931152,0.45539459586143494,0.6810749769210815,0.41999995708465576,0.5649941563606262,-1.5735453189336113e-06,-5.651006631524069e-06,-0.8250948190689087,8.737709140405059e-05,-0.0003899341681972146,-7.535680197179317e-05,0.009978491812944412,-0.0030836760997772217,-0.0009761123801581562,0.4889924228191376,0.7076552510261536,0.5358502268791199,0.29270726442337036,-0.22704139351844788,-0.22845882177352905,0.44963139295578003,0.6817660331726074,0.42000001668930054,-0.586292564868927,-2.999983549118042,-1.3999005556106567,-3.0,-0.17957963049411774,-0.17495161294937134,-0.16910536587238312,-0.1631712168455124,-0.006890584249049425,0.01872408762574196,0.06411204487085342,0.12313466519117355
0.85,0.14132028818130493,-0.0026460031513124704,0.0,0.5702925324440002,0.0,0.0,-0.8214417099952698,0.5591152906417847,0.01348028238862753,0.0,0.0,0.0,0.8064186573028564,0.45539459586143494,0.6810749769210815,0.41999995708465576,0.5649941563606262,-1.6030446658987785e-06,-5.582705398410326e-06,-0.8250948190689087,8.364775567315519e-05,-0.0003896502312272787,-7.538683712482452e-05,0.009964357130229473,-0.0030814094934612513,-0.0009665896068327129,0.49512702226638794,0.7063298225402832,0.5362389087677002,0.4446523189544678,0.07521144300699234,0.27053767442703247,0.44963139295578003,0.6817660331726074,0.42000001668930054,-0.60933917760849,-0.006306905765086412,-1.4499188661575317,-3.0,-0.18068934977054596,-0.17598626017570496,-0.1697879582643509,-0.1632511019706726,0.015220013447105885,-0.020345203578472137,-0.041289154440164566,-0.04456787183880806
0.8666666666666667,0.14693142473697662,-0.00779319554567337,0.0,0.5934955477714539,0.0,0.0,-0.8048372268676758,0.2770911157131195,-0.34437212347984314,0.0,0.0,0.0,4.040870666503906,0.45539459586143494,0.6810749769210815,0.41999995708465576,0.564994215965271,-1.5664589909647475e-06,-5.652973413816653e-06,-0.8250947594642639,8.74724646564573e-05,-0.00038996091461740434,-7.535610347986221e-05,0.009979556314647198,-0.0030839943792670965,-0.0009763858397491276,0.5044897794723511,0.7071622610092163,0.5383400321006775,0.5830180048942566,-0.0712265744805336,0.014967188239097595,0.44963139295578003,0.6817660331726074,0.42000001668930054,-0.6270846724510193,-1.942796230316162,-1.4113316535949707,3.000000476837158,-0.17719103395938873,-0.17319275438785553,-0.16749541461467743,-0.16117431223392487,0.09588909149169922,0.09231367707252502,0.09582089632749557,0.1116386130452156
0.8833333333333333,0.14917434751987457,-0.008401058614253998,0.0,0.6004484295845032,0.0,0.0,-0.7996634840965271,0.0404917374253273,-0.06151041388511658,0.0,0.0,0.0,-0.03470904007554054,0.45539459586143494,0.6810749769210815,0.41999995708465576,0.5649940967559814,-1.5660465351174935e-06,-5.749902356910752e-06,-0.8250948190689087,8.713237184565514e-05,-0.0003899870498571545,-7.537729106843472e-05,0.0099793067201972,-0.0030844416469335556,-0.0009756662766449153,0.5129284262657166,0.7024129629135132,0.5342870950698853,0.5554326772689819,-0.34736311435699463,-0.3827584385871887,0.44963139295578003,0.6817660331726074,0.42000001668930054,-0.6664078831672668,-2.677872657775879,-1.429232120513916,-2.9999923706054688,-0.1797139048576355,-0.17495942115783691,-0.16846299171447754,-0.16121667623519897,0.016138257458806038,0.027476374059915543,0.044225260615348816,0.07271582633256912
