vladlanda/robotic-transformer/data/env_000_episode_0114.csv
sim_time_s,robot_box_x,robot_box_y,robot_box_z,robot_box_quat_w,robot_box_quat_x,robot_box_quat_y,robot_box_quat_z,robot_box_linvel_x,robot_box_linvel_y,robot_box_linvel_z,robot_box_angvel_x,robot_box_angvel_y,robot_box_angvel_z,cube_world_x,cube_world_y,cube_world_z,cube_quat_w,cube_quat_x,cube_quat_y,cube_quat_z,cube_linvel_x,cube_linvel_y,cube_linvel_z,cube_angvel_x,cube_angvel_y,cube_angvel_z,endpoint_world_x,endpoint_world_y,endpoint_world_z,endpoint_linvel_x,endpoint_linvel_y,endpoint_linvel_z,target_cube_world_x,target_cube_world_y,target_cube_world_z,gripper_actual_pos_rad_gp_leftgearjoint,gripper_actual_vel_rad_s_gp_leftgearjoint,gripper_actual_pos_rad_gp_rotatingjoint,gripper_actual_vel_rad_s_gp_rotatingjoint,motor_angle_rad_joint1,motor_angle_rad_joint2,motor_angle_rad_joint3,motor_angle_rad_joint4,motor_speed_rad_s_joint1,motor_speed_rad_s_joint2,motor_speed_rad_s_joint3,motor_speed_rad_s_joint4
0.0,0.0,0.0,0.0,1.0,0.0,0.0,0.0,0.0,0.0,0.0,0.0,0.0,0.0,-0.3339405655860901,0.7252147197723389,0.41999998688697815,1.0,0.0,0.0,0.0,0.0,0.0,0.0,0.0,0.0,0.0,3.42540442943573e-06,-0.005000244826078415,1.313499927520752,0.0,0.0,0.0,0.4551957845687866,0.6255234479904175,0.42000001668930054,-1.5707999467849731,0.0,0.0,0.0,0.0,0.0,0.0,0.0,0.0,0.0,0.0,0.0
0.016666666666666666,0.0028682679403573275,0.0021581188775599003,0.0,0.9998219609260559,0.0,0.0,-0.01886952482163906,0.23907655477523804,0.1802006959915161,0.0,0.0,0.0,-3.1460320949554443,-0.33394068479537964,0.725214421749115,0.41999998688697815,1.0,3.2799905511637917e-06,-8.339794135281409e-07,8.465515577427141e-08,-1.9833774786093272e-05,0.00017983047291636467,-6.132945418357849e-05,0.0009432245860807598,-0.004689525347203016,-0.00031981084612198174,-0.006979694589972496,0.004104374907910824,1.3159258365631104,-0.7934123277664185,1.0450528860092163,0.17918391525745392,0.4551957845687866,0.6255234479904175,0.42000001668930054,-1.5301092863082886,3.000002145767212,-0.045871056616306305,-3.0000007152557373,0.0008641341119073331,0.0007908088155090809,0.0007054246962070465,0.0006058014696463943,0.11032350361347198,0.09689110517501831,0.0825958102941513,0.0674024373292923
0.03333333333333333,0.008866241201758385,0.006756164599210024,0.0,0.9998040795326233,0.0,0.0,-0.01979513093829155,0.40246593952178955,0.31434857845306396,0.0,0.0,0.0,0.8702196478843689,-0.3339408040046692,0.7252143621444702,0.4200000464916229,1.0,3.3908531804627273e-06,-2.132488134520827e-06,-3.710428941872124e-08,0.0002635785494931042,0.0002693783608265221,-0.00010509602725505829,-0.0017707846127450466,0.004130862653255463,-0.00013547409616876394,-0.025765882804989815,0.025842521339654922,1.316859245300293,-1.3991482257843018,1.5907407999038696,-0.04568494111299515,0.4551957845687866,0.6255234479904175,0.42000001668930054,-1.4800900220870972,3.000000238418579,-0.09591083228588104,-3.0000007152557373,0.002849218202754855,0.0024826359003782272,0.0020787313114851713,0.0016332288505509496,0.15053106844425201,0.12340359389781952,0.09478025138378143,0.06459122896194458
0.05,0.017512962222099304,0.01356260385364294,0.0,0.9993937015533447,0.0,0.0,-0.03481630980968475,0.5811410546302795,0.4509449899196625,0.0,0.0,0.0,-2.634310007095337,-0.3339408338069916,0.725214421749115,0.4200000464916229,1.0,3.7651284401363228e-06,-2.2118861124909017e-06,5.622759147172474e-09,0.00026530996547080576,0.00026691515813581645,-0.00010440382175147533,-0.00172425655182451,0.004177390597760677,-0.00012948956282343715,-0.049399785697460175,0.05794105306267738,1.3133807182312012,-1.428647756576538,2.213465452194214,-0.3424462378025055,0.4551957845687866,0.6255234479904175,0.42000001668930054,-1.4300717115402222,3.000002861022949,-0.14592011272907257,-3.0000009536743164,0.004854096099734306,0.0038310072850435972,0.0027361211832612753,0.0015652284491807222,0.12113325297832489,0.06604716926813126,0.009089638479053974,-0.049811042845249176
0.06666666666666667,0.029680758714675903,0.02284870110452175,0.0,0.9970573782920837,0.0,0.0,-0.0766589343547821,0.7898720502853394,0.6020476818084717,0.0,0.0,0.0,-5.857692241668701,-0.3339408338069916,0.7252143621444702,0.4200000464916229,0.9999999403953552,3.406779342185473e-06,-2.285526988998754e-06,4.300881926155853e-07,0.00026702668401412666,0.00026791810523718596,-0.00010437914170324802,-0.0017406379338353872,0.004211799707263708,-0.00012850595521740615,-0.0741889551281929,0.09809616208076477,1.3056831359863281,-1.5333342552185059,2.571420669555664,-0.5831776857376099,0.4551957845687866,0.6255234479904175,0.42000001668930054,-1.380051612854004,2.9999985694885254,-0.1124144196510315,3.000000238418579,0.0064046336337924,0.004422158934175968,0.002329014241695404,0.000120477270684205,0.08376939594745636,0.020555876195430756,-0.044717397540807724,-0.11207253485918045
0.08333333333333333,0.03602062910795212,0.036863476037979126,0.0,0.994820773601532,0.0,0.0,-0.10164428502321243,0.28734421730041504,0.9068689942359924,0.0,0.0,0.0,-1.8806583881378174,-0.3339408338069916,0.7252143621444702,0.4200000464916229,1.0,3.6973510759708006e-06,-2.1889595700486097e-06,-2.632473012909031e-07,0.00026389595586806536,0.0002658632874954492,-0.0001043388620018959,-0.0017081330297514796,0.004150238819420338,-0.00012991279072593898,-0.1027631014585495,0.13805636763572693,1.2933937311172485,-1.695862054824829,2.45212721824646,-0.7857916951179504,0.4551957845687866,0.6255234479904175,0.42000001668930054,-1.3300561904907227,2.9999992847442627,-0.14440518617630005,-2.9999988079071045,0.001612493651919067,-0.001025918871164322,-0.0038276135455816984,-0.006801113951951265,-0.3249228298664093,-0.37648239731788635,-0.43008241057395935,-0.4859570264816284
0.1,0.04714548960328102,0.05056175962090492,0.0,0.9905109405517578,0.0,0.0,-0.13743379712104797,0.728184163570404,0.8994591236114502,0.0,0.0,0.0,-5.14324426651001,-0.3339408338069916,0.7252143621444702,0.4200000464916229,0.9999999403953552,3.62046125701454e-06,-2.2652770894637797e-06,1.745990232393524e-07,0.0002667673397809267,0.00026740715838968754,-0.0001040794886648655,-0.0017385382670909166,0.004209098871797323,-0.0001277524424949661,-0.12799841165542603,0.18213102221488953,1.2813549041748047,-1.3392858505249023,2.9305167198181152,-0.7637162208557129,0.4551957845687866,0.6255234479904175,0.42000001668930054,-1.280036449432373,3.0000011920928955,-0.15067090094089508,1.8377470970153809,0.0013657771050930023,-0.0030082070734351873,-0.007530741393566132,-0.012209533713757992,-0.07752493768930435,-0.18378598988056183,-0.28905272483825684,-0.3932501971721649
0.11666666666666667,0.05633796751499176,0.06334397941827774,0.0,0.9817963242530823,0.0,0.0,-0.1899368017911911,0.530502438545227,0.7173286080360413,0.0,0.0,0.0,-6.828929901123047,-0.3339408338069916,0.7252143621444702,0.4200000464916229,1.0,3.7984573282301426e-06,-2.262856924062362e-06,-1.5021495869405044e-07,0.00026374036679044366,0.000265661277808249,-0.00010429229587316513,-0.001705389702692628,0.004147546831518412,-0.000129798921989277,-0.15140320360660553,0.2325156331062317,1.2668155431747437,-1.387319803237915,3.2505009174346924,-0.934028148651123,0.4551957845687866,0.6255234479904175,0.42000001668930054,-1.2392252683639526,1.9532890319824219,-0.18884189426898956,-2.99999737739563,-0.001229686662554741,-0.0072869546711444855,-0.01346448715776205,-0.019768862053751945,-0.14905576407909393,-0.251562237739563,-0.3514634966850281,-0.4486062228679657
0.13333333333333333,0.0628979355096817,0.07248173654079437,0.0,0.9758809208869934,0.0,0.0,-0.2183036357164383,0.33916130661964417,0.48095932602882385,0.0,0.0,0.0,-2.377685308456421,-0.3339408338069916,0.725214421749115,0.4200000464916229,0.9999999403953552,3.5505674986779923e-06,-2.2298811472865054e-06,2.928988749317796e-07,0.0002670325629878789,0.0002677947923075408,-0.00010417005978524685,-0.0017441295785829425,0.004213639069348574,-0.00012800269178114831,-0.18243393301963806,0.2869890034198761,1.245419979095459,-1.9358879327774048,3.5700368881225586,-1.5891458988189697,0.4551957845687866,0.6255234479904175,0.42000001668930054,-1.1950544118881226,2.9999945163726807,-0.1550656259059906,2.999999761581421,-0.004359269980341196,-0.011855090036988258,-0.019416531547904015,-0.027048291638493538,-0.2256249040365219,-0.2945656478404999,-0.3601713180541992,-0.4224192798137665
0.15,0.06557901203632355,0.08237629383802414,0.0,0.9666075110435486,0.0,0.0,-0.2562614679336548,0.08663945645093918,0.659238338470459,0.0,0.0,0.0,-5.4800333976745605,-0.3339408040046692,0.7252143621444702,0.4200000464916229,1.0,3.3323015031783143e-06,-2.102055532304803e-06,1.3129393039434945e-07,0.0002673060225788504,0.0002685941581148654,-0.00010459520854055882,-0.0017496503423899412,0.0042156013660132885,-0.00012928296928294003,-0.2124617099761963,0.34870997071266174,1.2167688608169556,-1.5553975105285645,3.9415364265441895,-1.8594207763671875,0.4551957845687866,0.6255234479904175,0.42000001668930054,-1.1450620889663696,3.0000011920928955,-0.18683430552482605,-3.0,-0.009614023379981518,-0.018308334052562714,-0.026998840272426605,-0.03568946570158005,-0.3906392753124237,-0.45830437541007996,-0.5217520594596863,-0.5809386968612671
0.16666666666666666,0.07197194546461105,0.08955419808626175,0.0,0.9606313109397888,0.0,0.0,-0.27782636880874634,0.40159353613853455,0.3048444092273712,0.0,0.0,0.0,-1.3226873874664307,-0.3339408338069916,0.7252143621444702,0.4200000464916229,1.0,3.7373970371845644e-06,-2.2331828404276166e-06,-1.8766169773698493e-07,0.0002643293410073966,0.0002662685001268983,-0.00010445946827530861,-0.0017119462136179209,0.004157547373324633,-0.00013001658953726292,-0.2433016002178192,0.4130414128303528,1.1776750087738037,-1.8133007287979126,4.043594837188721,-2.802002429962158,0.4551957845687866,0.6255234479904175,0.42000001668930054,-1.1084001064300537,1.4981569051742554,-0.23683632910251617,-2.999999761581421,-0.01449452992528677,-0.02403031475841999,-0.033498555421829224,-0.04290483519434929,-0.431478887796402,-0.4442213177680969,-0.4548857808113098,-0.4636508524417877
0.18333333333333332,0.07289529591798782,0.09869836270809174,0.0,0.9507495760917664,0.0,0.0,-0.3099600374698639,0.05377333238720894,0.5488823652267456,0.0,0.0,0.0,-4.723471641540527,-0.3339408338069916,0.725214421749115,0.4200000464916229,0.9999999403953552,3.6603839816962136e-06,-2.3022842015052447e-06,2.5284006710535323e-07,0.00026690884260460734,0.0002676031144801527,-0.00010412419214844704,-0.0017413157038390636,0.004211471416056156,-0.00012786804290954024,-0.271714448928833,0.4815795123577118,1.1215145587921143,-1.523087978363037,4.264541149139404,-3.7145023345947266,0.4551957845687866,0.6255234479904175,0.42000001668930054,-1.0618808269500732,3.0000009536743164,-0.271176278591156,-1.2412759065628052,-0.027352461591362953,-0.036717768758535385,-0.04604868218302727,-0.05508912354707718,-0.6134939789772034,-0.6505447030067444,-0.6929718852043152,-0.7043673396110535
0.2,0.07833460718393326,0.10804134607315063,0.0,0.9450361728668213,0.0,0.0,-0.326965868473053,0.2930576205253601,0.6569995284080505,0.0,0.0,0.0,-0.6962957382202148,-0.3339408338069916,0.7252143621444702,0.4200000464916229,1.0,3.5909681628254475e-06,-2.300425876455847e-06,1.3870655379832897e-07,0.0002665469073690474,0.0002673210692591965,-0.00010423827916383743,-0.0017325730295851827,0.004203351214528084,-0.00012819882249459624,-0.2988414764404297,0.548136830329895,1.0521900653839111,-1.444359302520752,3.838736057281494,-4.606147766113281,0.4551957845687866,0.6255234479904175,0.42000001668930054,-1.0118781328201294,2.9999148845672607,-0.3197438418865204,-2.9999923706054688,-0.03640515357255936,-0.04605243727564812,-0.05574407801032066,-0.06473332643508911,-0.7465987205505371,-0.7155949473381042,-0.6906103491783142,-0.6485117673873901
0.21666666666666667,0.0804687887430191,0.11548756808042526,0.0,0.9355796575546265,0.0,0.0,-0.35311564803123474,0.0902046412229538,0.3929778039455414,0.0,0.0,0.0,-4.119534492492676,-0.3339408338069916,0.725214421749115,0.4200000464916229,1.0,3.6070816804567585e-06,-2.261013833049219e-06,1.9594006417378296e-08,0.0002644706692080945,0.000265584938460961,-0.00010396563448011875,-0.0017088844906538725,0.004164294805377722,-0.0001283210440305993,-0.3198082745075226,0.6105841398239136,0.9686323404312134,-0.9934367537498474,3.5805840492248535,-5.317657470703125,0.4551957845687866,0.6255234479904175,0.42000001668930054,-0.961868941783905,2.999999523162842,-0.36977073550224304,-2.9999992847442627,-0.05112620070576668,-0.05984840914607048,-0.06871908158063889,-0.07670529931783676,-0.9545907974243164,-0.8874141573905945,-0.8257840871810913,-0.7575230002403259
0.23333333333333334,0.07906384021043777,0.12409728765487671,0.0,0.9324048161506653,0.0,0.0,-0.36141565442085266,-0.14650075137615204,0.5393993258476257,0.0,0.0,0.0,-0.0408693291246891,-0.3339408040046692,0.7252143621444702,0.4200000464916229,0.9999999403953552,3.7423803860292537e-06,-2.2275726223597303e-06,4.588900992530398e-07,0.00026475079357624054,0.0002667132648639381,-0.00010453537106513977,-0.0017188824713230133,0.004165737424045801,-0.00013019502512179315,-0.33808255195617676,0.6608012914657593,0.8752467632293701,-0.9703540205955505,2.5697593688964844,-5.804288864135742,0.4551957845687866,0.6255234479904175,0.42000001668930054,-0.911859393119812,2.999998092651367,-0.4198000133037567,-3.000002384185791,-0.06644182652235031,-0.0752183198928833,-0.08405233174562454,-0.09151729941368103,-0.9451722502708435,-0.9320242404937744,-0.9158859252929688,-0.8806518316268921
0.25,0.08127466589212418,0.1283317655324936,0.0,0.9244144558906555,0.0,0.0,-0.38138940930366516,0.15388721227645874,0.20977966487407684,0.0,0.0,0.0,-3.2012393474578857,-0.3339408338069916,0.7252143621444702,0.4200000464916229,1.0,3.394552777535864e-06,-2.2820759113528766e-06,1.3360092054881534e-07,0.0002667939115781337,0.00026794092264026403,-0.00010439474135637283,-0.0017418104689568281,0.004206564277410507,-0.00012883881572633982,-0.3522089719772339,0.7006704807281494,0.7727656960487366,-0.6279785633087158,1.9792122840881348,-6.36324405670166,0.4551957845687866,0.6255234479904175,0.42000001668930054,-0.8618489503860474,2.99999737739563,-0.469830721616745,-2.999999523162842,-0.08115033805370331,-0.08986204862594604,-0.09858289361000061,-0.10557834804058075,-0.9896866083145142,-0.9914088845252991,-0.9913739562034607,-0.9572814702987671
0.26666666666666666,0.07883907854557037,0.13535209000110626,0.0,0.9234657287597656,0.0,0.0,-0.3836809992790222,-0.14459210634231567,0.507145345211029,0.0,0.0,0.0,0.6241331696510315,-0.3339408338069916,0.725214421749115,0.4200000464916229,1.0,3.683615432237275e-06,-2.3101263195712818e-06,2.1006846395721368e-07,0.00026479296502657235,0.0002662580809555948,-0.00010421290062367916,-0.0017168235499411821,0.004168986808508635,-0.0001290914515266195,-0.3616318106651306,0.7196573615074158,0.669249415397644,-0.3687986433506012,0.5454094409942627,-5.979698181152344,0.4551957845687866,0.6255234479904175,0.42000001668930054,-0.811839759349823,2.9999916553497314,-0.5198609232902527,-2.9999969005584717,-0.09816931188106537,-0.10673980414867401,-0.11537769436836243,-0.12232834100723267,-0.8882080316543579,-0.9104858636856079,-0.9323744177818298,-0.953911542892456
0.2833333333333333,0.08014336228370667,0.1385606825351715,0.0,0.9176074266433716,0.0,0.0,-0.39748793840408325,0.114105224609375,0.12121138721704483,0.0,0.0,0.0,-2.4435956478118896,-0.3339408338069916,0.7252143621444702,0.4200000464916229,1.0,3.3071373763959855e-06,-2.2125616396806436e-06,2.625232013997447e-07,0.00026660869480110705,0.0002674512506928295,-0.00010424340143799782,-0.0017352959839627147,0.004204402677714825,-0.00012827638420276344,-0.3652850389480591,0.7268134951591492,0.5664632320404053,0.07596740871667862,0.08052559942007065,-6.116878509521484,0.4551957845687866,0.6255234479904175,0.42000001668930054,-0.7618309855461121,3.00000262260437,-0.5698906779289246,-2.9999964237213135,-0.11337529867887497,-0.12210162729024887,-0.13090507686138153,-0.13804331421852112,-1.0028043985366821,-1.0021101236343384,-1.0015805959701538,-1.0011588335037231
0.3,0.07828792184591293,0.1388317495584488,0.0,0.9194718599319458,0.0,0.0,-0.3931558132171631,-0.18913760781288147,-0.014888295903801918,0.0,0.0,0.0,1.423884391784668,-0.3339408338069916,0.7252143621444702,0.4200000464916229,1.0,3.6565779737429693e-06,-2.2969809378992068e-06,-2.45018014766174e-07,0.00026533016352914274,0.00026595202507451177,-0.00010385061614215374,-0.0017164858290925622,0.004181961994618177,-0.00012745661661028862,-0.3601032495498657,0.7282780408859253,0.47304290533065796,0.6213969588279724,0.08809084445238113,-5.13403844833374,0.4551957845687866,0.6255234479904175,0.42000001668930054,-0.7118229269981384,3.0000016689300537,-0.6199183464050293,-3.000000476837158,-0.13131384551525116,-0.13976147770881653,-0.14835640788078308,-0.15533114969730377,-1.0208351612091064,-1.0157603025436401,-1.0118744373321533,-1.0087616443634033
0.31666666666666665,0.07399031519889832,0.13655366003513336,0.0,0.9154221415519714,0.0,0.0,-0.40249505639076233,-0.2891393303871155,-0.18912175297737122,0.0,0.0,0.0,-2.046520709991455,-0.33394259214401245,0.725210428237915,0.4200006425380707,0.9999999403953552,2.793829480651766e-05,-1.0460144949320238e-05,-4.494919267017394e-05,-0.012001007795333862,-0.04071107134222984,0.0005467047449201345,0.6131836771965027,-0.26043903827667236,-0.3924348056316376,-0.35425716638565063,0.7299843430519104,0.4262623190879822,0.07530354708433151,-0.010898713022470474,-0.2268628031015396,0.4551957845687866,0.6255234479904175,0.42000001668930054,-0.6618180274963379,2.9956817626953125,-0.6703240871429443,-2.9985153675079346,-0.1456485241651535,-0.1539694368839264,-0.1619599610567093,-0.1680586338043213,-0.6714688539505005,-0.6518588662147522,-0.5726168155670166,-0.4607486426830292
0.3333333333333333,0.0676906406879425,0.1317891925573349,0.0,0.9180415868759155,0.0,0.0,-0.3964841663837433,-0.42017728090286255,-0.3247300386428833,0.0,0.0,0.0,1.6785495281219482,-0.3320820927619934,0.728213906288147,0.4200285077095032,0.999530553817749,0.000686089915689081,5.01199065183755e-05,-0.03062949702143669,0.27279791235923767,0.41292452812194824,0.009947576560080051,0.5656958818435669,-0.05383840203285217,-7.257268905639648,-0.3517593443393707,0.736775815486908,0.4234575033187866,0.28800153732299805,0.4652489423751831,-0.17504657804965973,0.4551957845687866,0.6255234479904175,0.42000001668930054,-0.611812174320221,2.999974250793457,-0.7203908562660217,-3.000002384185791,-0.15721529722213745,-0.16444848477840424,-0.17046873271465302,-0.1741642951965332,-0.6712899804115295,-0.5814183950424194,-0.44545477628707886,-0.2896100580692291
0.35,0.05910644307732582,0.12478435784578323,0.0,0.9143621325492859,0.0,0.0,-0.4048973619937897,-0.5650621652603149,-0.46221569180488586,0.0,0.0,0.0,-1.9450525045394897,-0.3279215395450592,0.7344832420349121,0.419999897480011,0.9965941309928894,4.771627573063597e-06,3.0074099299781665e-07,-0.08246175944805145,0.2505301535129547,0.3714640736579895,-1.3484341252478771e-05,-0.0027143280021846294,0.004340637009590864,-6.03710412979126,-0.34476524591445923,0.7423449754714966,0.42075806856155396,0.5573693513870239,0.3020372688770294,-0.155965656042099,0.4551957845687866,0.6255234479904175,0.42000001668930054,-0.5618072152137756,2.9999327659606934,-0.7704552412033081,-2.9999682903289795,-0.1689913272857666,-0.17411138117313385,-0.1773325353860855,-0.17797014117240906,-0.6889049410820007,-0.5406970381736755,-0.3564096987247467,-0.16068194806575775
0.36666666666666664,0.048204582184553146,0.11551834642887115,0.0,0.9173272848129272,0.0,0.0,-0.3981339931488037,-0.6944894790649414,-0.5941230058670044,0.0,0.0,0.0,1.8239293098449707,-0.322872519493103,0.7418076992034912,0.42000001668930054,0.9869935512542725,3.3494441140646813e-06,7.1915674197953194e-06,-0.16075977683067322,0.3544832468032837,0.5062336921691895,-4.980960875400342e-05,0.003026936436071992,-0.001501230406574905,-12.379390716552734,-0.333560585975647,0.7492449283599854,0.418460875749588,0.7954277992248535,0.50732421875,-0.10570486634969711,0.4551957845687866,0.6255234479904175,0.42000001668930054,-0.5118010640144348,2.9999725818634033,-0.8205015063285828,-2.999976396560669,-0.1806037575006485,-0.18281112611293793,-0.18259292840957642,-0.17966006696224213,-0.6287825703620911,-0.44757601618766785,-0.2393071949481964,-0.02604624815285206
0.3833333333333333,0.035095274448394775,0.10400137305259705,0.0,0.9140077829360962,0.0,0.0,-0.4056966006755829,-0.8285314440727234,-0.7306854128837585,0.0,0.0,0.0,-1.9416344165802002,-0.31453949213027954,0.752208948135376,0.42026185989379883,0.9702550172805786,-0.006411396432667971,0.0012991598341614008,-0.2419966459274292,0.6572579145431519,0.7526435852050781,0.05258071422576904,-2.39744234085083,1.096930980682373,-5.56867790222168,-0.3194623589515686,0.7568621039390564,0.41988229751586914,0.9969209432601929,0.5034728050231934,0.10695616155862808,0.4551957845687866,0.6255234479904175,0.42000001668930054,-0.4617404043674469,2.9999890327453613,-0.8705014586448669,-2.99997615814209,-0.19003304839134216,-0.18920420110225677,-0.18549072742462158,-0.17894746363162994,-0.4729156196117401,-0.29370713233947754,-0.08998730033636093,0.11941796541213989
0.4,0.024755483493208885,0.08975761383771896,0.0,0.8985534906387329,0.0,0.0,-0.43886399269104004,-0.5451878309249878,-0.9066482782363892,0.0,0.0,0.0,-5.2413716316223145,-0.29573383927345276,0.7668610215187073,0.422245591878891,0.959138810634613,-0.02282952331006527,-0.0051868148148059845,-0.2819654643535614,1.1017282009124756,1.426613450050354,-0.12448003143072128,-14.114235877990723,-1.743281364440918,-23.854475021362305,-0.2990609407424927,0.7700923681259155,0.42213141918182373,1.5913469791412354,1.0177029371261597,0.14964982867240906,0.4551957845687866,0.6255234479904175,0.42000001668930054,-0.41181978583335876,2.826575517654419,-0.9205132722854614,-3.00052809715271,-0.196472629904747,-0.19282080233097076,-0.18585053086280823,-0.1759042739868164,-0.2781088054180145,-0.12304959446191788,0.05540164187550545,0.24195966124534607
0.4166666666666667,0.01864723488688469,0.07251836359500885,0.0,0.8691364526748657,0.0,0.0,-0.49457231163978577,-0.29826363921165466,-1.0915029048919678,0.0,0.0,0.0,-8.39824390411377,-0.25979936122894287,0.7884134650230408,0.4267413020133972,0.936556339263916,-0.0371120348572731,-0.035487499088048935,-0.34673556685447693,3.2203598022460938,1.1273113489151,0.37950414419174194,22.384159088134766,-18.681169509887695,14.869994163513184,-0.26230746507644653,0.7913955450057983,0.4262271523475647,2.945669412612915,1.619339942932129,0.5506741404533386,0.4551957845687866,0.6255234479904175,0.42000001668930054,-0.3845554292201996,0.8233112096786499,-0.9705356359481812,-3.0000016689300537,-0.20250234007835388,-0.1959114521741867,-0.18572276830673218,-0.172519251704216,-0.39770713448524475,-0.20227347314357758,0.003006129525601864,0.20473076403141022
0.43333333333333335,0.014798479154706001,0.06045420840382576,0.0,0.8225856423377991,0.0,0.0,-0.5686412453651428,-0.1894424706697464,-0.592925488948822,0.0,0.0,0.0,-11.308680534362793,-0.18476730585098267,0.8161734938621521,0.4336511492729187,0.9175273180007935,0.014077307656407356,-0.07769271731376648,-0.3897554874420166,6.001855373382568,1.4608521461486816,0.4595763385295868,9.266752243041992,-15.59709358215332,13.342765808105469,-0.186883807182312,0.8198913335800171,0.4330942630767822,5.8123459815979,1.9941365718841553,0.5038679242134094,0.4551957845687866,0.6255234479904175,0.42000001668930054,-0.3713519275188446,0.848063588142395,-0.9331147074699402,2.997716188430786,-0.21637782454490662,-0.20517835021018982,-0.1902095377445221,-0.17271095514297485,-0.8920998573303223,-0.6353253722190857,-0.3503076732158661,-0.10709533095359802
0.45,0.007203325163573027,0.05572235584259033,0.0,0.7828662991523743,0.0,0.0,-0.6221899390220642,-0.5739239454269409,-0.2751632034778595,0.0,0.0,0.0,-6.742274761199951,-0.08931173384189606,0.8404541015625,0.4449078142642975,0.8742285370826721,0.03969133645296097,-0.11174578219652176,-0.4708098769187927,5.713872909545898,0.691694438457489,0.8374221324920654,20.413597106933594,-4.8750786781311035,9.374350547790527,-0.09068405628204346,0.8458333015441895,0.4444882869720459,5.8646745681762695,1.2300362586975098,0.7850760221481323,0.4551957845687866,0.6255234479904175,0.42000001668930054,-0.35407888889312744,1.147541880607605,-0.9587056636810303,-3.000002861022949,-0.23016119003295898,-0.21896372735500336,-0.1998656541109085,-0.17838487029075623,-0.5952516198158264,-0.6526666283607483,-0.5212913751602173,-0.3471142053604126
0.4666666666666667,0.004092376679182053,0.04370427504181862,0.0,0.7634865045547485,0.0,0.0,-0.6458237767219543,-0.058581747114658356,-0.8818424940109253,0.0,0.0,0.0,-2.6504390239715576,0.010185003280639648,0.8513604998588562,0.4586390554904938,0.8180917501449585,0.04226081445813179,-0.08391238003969193,-0.5673609972000122,6.12506103515625,-0.3725017309188843,0.7617427110671997,17.198869705200195,-13.887081146240234,7.622226238250732,0.00922771543264389,0.8577145338058472,0.4565034508705139,6.09117317199707,0.0632878839969635,0.8345419764518738,0.4551957845687866,0.6255234479904175,0.42000001668930054,-0.3332766890525818,1.1254780292510986,-1.008729338645935,-3.0000052452087402,-0.23391635715961456,-0.22326570749282837,-0.20225051045417786,-0.1782522052526474,-0.10954483598470688,-0.09144742041826248,0.035981178283691406,0.1899963766336441
0.48333333333333334,-0.00017274591664317995,0.03355026617646217,0.0,0.7358952760696411,0.0,0.0,-0.6770954132080078,-0.2960381805896759,-0.5444868206977844,0.0,0.0,0.0,-5.736294269561768,0.10779375582933426,0.8442867398262024,0.4687771797180176,0.7739173173904419,0.025141410529613495,-0.08111163973808289,-0.6275672912597656,5.887118339538574,-1.1745883226394653,0.6397160291671753,5.347987651824951,-9.070990562438965,1.5151982307434082,0.10849043726921082,0.8513244390487671,0.46772289276123047,5.859279632568359,-0.8482235074043274,0.6071733236312866,0.4551957845687866,0.6255234479904175,0.42000001668930054,-0.31808164715766907,0.6994591951370239,-1.0587514638900757,-3.000001907348633,-0.23770761489868164,-0.22620080411434174,-0.2031916230916977,-0.176984965801239,-0.1433771252632141,-0.09771502763032913,-0.016726719215512276,0.06904186308383942
0.5,-0.00258633797056973,0.027970999479293823,0.0,0.7230803966522217,0.0,0.0,-0.6907638907432556,-0.07666711509227753,-0.22263404726982117,0.0,0.0,0.0,-1.0419012308120728,0.19819025695323944,0.822659969329834,0.4755863547325134,0.7132310271263123,0.0016393335536122322,-0.07159527391195297,-0.6972609758377075,4.8114776611328125,-2.3968257904052734,0.34664851427078247,3.6197516918182373,-8.32535457611084,20.430896759033203,0.19951826333999634,0.8302299976348877,0.4753483831882477,5.173212051391602,-1.7131892442703247,0.3619382381439209,0.4551957845687866,0.6255234479904175,0.42000001668930054,-0.3094254434108734,0.36811965703964233,-1.1087735891342163,-3.000002384185791,-0.2399507761001587,-0.22869467735290527,-0.20438453555107117,-0.17703494429588318,-0.02651190757751465,-0.1377519816160202,-0.07949993014335632,-0.041457466781139374
0.5166666666666666,-0.001465443056076765,0.020753324031829834,0.0,0.7030905485153198,0.0,0.0,-0.7111002802848816,0.1224064752459526,-0.4848361909389496,0.0,0.0,0.0,-4.267850399017334,0.2764781713485718,0.7919557094573975,0.47565552592277527,0.6513575315475464,-0.028445784002542496,-0.05510280653834343,-0.756232738494873,4.084344387054443,-2.47214937210083,-0.031496696174144745,-1.8985600471496582,6.867130756378174,6.523526191711426,0.27766063809394836,0.7994542121887207,0.4766080677509308,4.35433292388916,-2.139941692352295,-0.09325118362903595,0.4551957845687866,0.6255234479904175,0.42000001668930054,-0.30106860399246216,0.5766788125038147,-1.158795714378357,-2.9988598823547363,-0.23870432376861572,-0.22885993123054504,-0.20406286418437958,-0.17661800980567932,0.09033683687448502,0.04395638033747673,0.06091564521193504,0.04907387122511864
0.5333333333333333,-0.0012479883152991533,0.017761316150426865,0.0,0.6960808634757996,0.0,0.0,-0.7179633378982544,-0.02582288347184658,-0.09897010773420334,0.0,0.0,0.0,-0.06732177734375,0.3395078778266907,0.7526233196258545,0.47150281071662903,0.6148031949996948,-0.04959491640329361,-0.028313130140304565,-0.7866103053092957,3.0331385135650635,-3.0073468685150146,-0.4077250361442566,-4.260082244873047,0.6502211093902588,12.614270210266113,0.3416008949279785,0.7590329647064209,0.4727856516838074,3.460761547088623,-2.5581207275390625,-0.3327633738517761,0.4551957845687866,0.6255234479904175,0.42000001668930054,-0.28909409046173096,0.7218892574310303,-1.2088178396224976,-2.999450445175171,-0.23944787681102753,-0.22958500683307648,-0.20453277230262756,-0.17745204269886017,0.07647579908370972,0.05790703371167183,0.019350245594978333,-0.05408358946442604
0.55,0.0007978721405379474,0.010836522094905376,0.0,0.6801912784576416,0.0,0.0,-0.7330346703529358,0.14453044533729553,-0.45388686656951904,0.0,0.0,0.0,-3.471590280532837,0.3915373384952545,0.7135811448097229,0.45866721868515015,0.5696361660957336,-0.10133262723684311,-0.018610315397381783,-0.8154139518737793,2.3925578594207764,-2.8565475940704346,-0.859502375125885,-3.553269624710083,-2.7296879291534424,20.106884002685547,0.3941577672958374,0.7201133966445923,0.4615803360939026,2.8285670280456543,-2.3162989616394043,-0.8486157655715942,0.4551957845687866,0.6255234479904175,0.42000001668930054,-0.2773454785346985,0.5266845226287842,-1.2588399648666382,-3.0000014305114746,-0.23243610560894012,-0.2239406406879425,-0.20102325081825256,-0.17653672397136688,0.43737491965293884,0.36213675141334534,0.21282993257045746,0.034216202795505524
0.5666666666666667,0.0052293832413852215,0.00828277226537466,0.0,0.6766824126243591,0.0,0.0,-0.7362750172615051,0.295758455991745,-0.1448550820350647,0.0,0.0,0.0,0.2987219989299774,0.430146187543869,0.6745886206626892,0.4404989778995514,0.5333636403083801,-0.12945257127285004,-0.03249990940093994,-0.8352897763252258,1.5300031900405884,-2.696197032928467,-1.1356803178787231,-3.9199163913726807,-2.1232619285583496,18.108104705810547,0.4322362542152405,0.6806763410568237,0.4444928765296936,1.9989341497421265,-2.3248233795166016,-1.1591520309448242,0.4551957845687866,0.6255234479904175,0.42000001668930054,-0.2688698172569275,0.4360376000404358,-1.231980323791504,2.9991657733917236,-0.22729235887527466,-0.21968993544578552,-0.1992739737033844,-0.17780843377113342,0.44398418068885803,0.35237160325050354,0.1535608023405075,-0.06932280212640762
0.5833333333333334,0.011845163069665432,0.008106517605483532,0.0,0.6638592481613159,0.0,0.0,-0.7478575110435486,0.44361427426338196,0.0714002400636673,0.0,0.0,0.0,-2.9301164150238037,0.4553535282611847,0.6480238437652588,0.426170289516449,0.5228783488273621,-0.1232728362083435,0.0007170435856096447,-0.8434462547302246,0.4705173969268799,-1.207977533340454,0.10204694420099258,-1.1327332258224487,4.375600337982178,19.9599666595459,0.45701301097869873,0.6530537009239197,0.4289584755897522,0.8524530529975891,-0.8570963740348816,0.13526064157485962,0.4551957845687866,0.6255234479904175,0.42000001668930054,-0.2587854266166687,0.7249797582626343,-1.252844214439392,-3.000614643096924,-0.2175193876028061,-0.21258841454982758,-0.1966037154197693,-0.17972016334533691,0.6783270835876465,0.4827573597431183,0.18443405628204346,-0.11051438748836517
0.6,0.02120834030210972,0.003737831022590399,0.0,0.6635553240776062,0.0,0.0,-0.7481272220611572,0.5393303036689758,-0.25431501865386963,0.0,0.0,0.0,0.866418719291687,0.4655343294143677,0.6362388730049133,0.42599359154701233,0.5319169759750366,-0.1206686869263649,-0.0032735506538301706,-0.838148295879364,0.15738332271575928,-0.6537327766418457,-0.01855778507888317,3.269127368927002,0.10851636528968811,7.943484306335449,0.4656626880168915,0.6413490176200867,0.4297758638858795,0.2651040554046631,-0.5997111797332764,-0.07110892236232758,0.4551957845687866,0.6255234479904175,0.42000001668930054,-0.25986456871032715,-0.6170540452003479,-1.2147986888885498,3.0000007152557373,-0.20268045365810394,-0.20072731375694275,-0.19023405015468597,-0.1787383109331131,0.7559328079223633,0.657803475856781,0.3531026840209961,0.05070551857352257
0.6166666666666667,0.027384476736187935,0.0032146594021469355,0.0,0.6527131795883179,0.0,0.0,-0.7576050758361816,0.335425466299057,-0.005832652095705271,0.0,0.0,0.0,-2.5810928344726562,0.46765244007110596,0.6278334259986877,0.4238290786743164,0.5648249983787537,-0.07119618356227875,0.004877245984971523,-0.8221191763877869,0.02299928292632103,-0.42378896474838257,-0.1312878578901291,3.9264326095581055,-4.34541654586792,2.4763126373291016,0.4671192765235901,0.6354080438613892,0.4276132583618164,-0.016282789409160614,-0.1950390636920929,-0.0025162547826766968,0.4551957845687866,0.6255234479904175,0.42000001668930054,-0.29606354236602783,-2.9997222423553467,-1.1867154836654663,0.5671052932739258,-0.19153545796871185,-0.19134686887264252,-0.18572403490543365,-0.17901666462421417,0.6690471172332764,0.548953115940094,0.26233145594596863,-0.016423404216766357
0.6333333333333333,0.03468574583530426,0.005964971147477627,0.0,0.6546288728713989,0.0,0.0,-0.755950391292572,0.4469384551048279,0.206118643283844,0.0,0.0,0.0,1.2093517780303955,0.4667496383190155,0.6233860850334167,0.42125803232192993,0.5593008995056152,-0.02607380598783493,-0.016671955585479736,-0.8283867835998535,-0.021765677258372307,0.016439691185951233,0.03874007239937782,-1.8556965589523315,0.8973516821861267,-1.173060655593872,0.466016560792923,0.634062647819519,0.4294315576553345,-0.035738226026296616,0.05856357514858246,0.12094855308532715,0.4551957845687866,0.6255234479904175,0.42000001668930054,-0.32709190249443054,-0.9077633619308472,-1.2262113094329834,-2.9991137981414795,-0.18168286979198456,-0.1835053414106369,-0.18229717016220093,-0.17982366681098938,0.6288571953773499,0.49347811937332153,0.23292988538742065,-0.015034250915050507
0.65,0.043454721570014954,0.004896133206784725,0.0,0.6450886726379395,0.0,0.0,-0.7641077041625977,0.5547557473182678,-0.0735509917140007,0.0,0.0,0.0,-2.424722194671631,0.4668329358100891,0.6236095428466797,0.4209538996219635,0.5533843040466309,-0.020306481048464775,-0.01352772582322359,-0.8325684666633606,-0.07217847555875778,0.04202425479888916,-0.03265126049518585,1.592940092086792,-0.6275902390480042,-1.8327481746673584,0.4638051390647888,0.6385394334793091,0.4287238121032715,-0.28692200779914856,0.3077612817287445,-0.04445438086986542,0.4551957845687866,0.6255234479904175,0.42000001668930054,-0.36739298701286316,-2.999831438064575,-1.1882015466690063,2.999786615371704,-0.16902436316013336,-0.17346854507923126,-0.1766705960035324,-0.17839336395263672,0.5877171158790588,0.46991991996765137,0.25725269317626953,0.05192037671804428
0.6666666666666666,0.054452020674943924,0.0075817955657839775,0.0,0.6478857398033142,0.0,0.0,-0.7617375254631042,0.675847053527832,0.1860526204109192,0.0,0.0,0.0,1.3588536977767944,0.46462175250053406,0.6246902942657471,0.4200044572353363,0.5664106607437134,0.0001715309772407636,-0.0002919140097219497,-0.824122965335846,-0.0979570746421814,0.06701821088790894,-0.00020452078024391085,-0.008075668476521969,-0.00653828214854002,2.641753911972046,0.460767924785614,0.6435360312461853,0.430065780878067,-0.09365562349557877,0.3910229504108429,0.12446233630180359,0.4551957845687866,0.6255234479904175,0.42000001668930054,-0.41742074489593506,-2.999967575073242,-1.209625244140625,-2.9999592304229736,-0.16217969357967377,-0.16836053133010864,-0.17461539804935455,-0.17929475009441376,0.42179638147354126,0.3005346357822418,0.11549819260835648,-0.06336714327335358
0.6833333333333333,0.06384971737861633,0.00595143623650074,0.0,0.6727296113967896,0.0,0.0,-0.7398884296417236,0.4853627681732178,-0.15048301219940186,0.0,0.0,0.0,4.647756099700928,0.462817519903183,0.6261380910873413,0.4201698899269104,0.5654606223106384,0.0024312809109687805,-0.0034871879033744335,-0.8247643113136292,-0.13776034116744995,0.11534800380468369,0.026341557502746582,-0.4564244747161865,-1.2348343133926392,-1.7285131216049194,0.45888668298721313,0.6484643816947937,0.43248650431632996,-0.15775656700134277,0.1987195461988449,0.19042524695396423,0.4551957845687866,0.6255234479904175,0.42000001668930054,-0.46744975447654724,-2.999994993209839,-1.2596039772033691,-2.9992287158966064,-0.15482477843761444,-0.16237413883209229,-0.17078697681427002,-0.177508145570755,0.29802340269088745,0.27252981066703796,0.21269091963768005,0.15843506157398224
0.7,0.0733243077993393,0.0008606908959336579,0.0,0.6820258498191833,0.0,0.0,-0.7313280701637268,0.6009182333946228,-0.350728839635849,0.0,0.0,0.0,0.49230557680130005,0.46106189489364624,0.6276206970214844,0.420000284910202,0.5572031736373901,-3.793505129578989e-06,-2.4683852188900346e-06,-0.8303760886192322,-0.08580239117145538,0.07226580381393433,-2.6745721697807312e-05,0.0009946604259312153,-0.000607913127169013,-0.8874301910400391,0.4587288498878479,0.6518943309783936,0.4373345375061035,0.02556183934211731,0.15651462972164154,0.34871649742126465,0.4551957845687866,0.6255234479904175,0.42000001668930054,-0.5174474716186523,-2.999101161956787,-1.3095884323120117,-2.9998562335968018,-0.15105584263801575,-0.15819041430950165,-0.1664513647556305,-0.1728365272283554,0.195065438747406,0.26056957244873047,0.3241381347179413,0.40140432119369507
0.7166666666666667,0.08458955585956573,-0.007126667536795139,0.0,0.6692159175872803,0.0,0.0,-0.7430680394172668,0.7104482054710388,-0.5419464111328125,0.0,0.0,0.0,-2.973057746887207,0.4603941738605499,0.6281799674034119,0.4200000464916229,0.5550029277801514,7.256019074475262e-08,-6.982580202929967e-08,-0.8318483233451843,-0.023760026320815086,0.019583867862820625,-5.938694812357426e-06,-0.00027938952553085983,0.0002281232737004757,-0.16049738228321075,0.46522608399391174,0.6558917164802551,0.45047199726104736,0.7035887241363525,0.2680279016494751,1.3204625844955444,0.4551957845687866,0.6255234479904175,0.42000001668930054,-0.5674595236778259,-2.9999825954437256,-1.3596068620681763,-2.999999523162842,-0.15069906413555145,-0.15636183321475983,-0.16303439438343048,-0.16761694848537445,-0.07597051560878754,0.028686314821243286,0.14709794521331787,0.2769712507724762
0.7333333333333333,0.09980200231075287,-0.009355873800814152,0.0,0.6337992548942566,0.0,0.0,-0.7734975814819336,0.9924519658088684,0.0018147967057302594,0.0,0.0,0.0,-6.642340660095215,0.4603939652442932,0.6281800270080566,0.4200000464916229,0.5550030469894409,8.310800581057265e-07,-1.7921180415214621e-06,-0.8318482041358948,9.532031253911555e-05,-0.0001497880439274013,-6.855675019323826e-05,0.0035759699530899525,-0.0005546032916754484,-0.000554378901142627,0.48510509729385376,0.6545032262802124,0.4779437780380249,1.755858302116394,-0.41067516803741455,2.121297836303711,0.4551957845687866,0.6255234479904175,0.42000001668930054,-0.6174702048301697,-2.999790906906128,-1.4096251726150513,-2.999969959259033,-0.16099913418293,-0.1632060706615448,-0.16618463397026062,-0.16702701151371002,-0.8171464800834656,-0.5650157332420349,-0.2960161566734314,-0.02839009091258049
0.75,0.11151675134897232,-0.007405675016343594,0.0,0.6113483309745789,0.0,0.0,-0.7913615703582764,0.5916489362716675,-0.06438036262989044,0.0,0.0,0.0,-2.0981876850128174,0.4603939354419708,0.6281801462173462,0.4200000464916229,0.55500328540802,1.7284436637510225e-07,-2.667148010004894e-06,-0.8318480849266052,5.634207627736032e-05,-0.0002519266272429377,-7.99132976680994e-05,0.006431991700083017,-0.0019349438371136785,-0.0007046092068776488,0.5113949179649353,0.6516869068145752,0.5147701501846313,1.5650599002838135,0.025244809687137604,2.271449565887451,0.4551957845687866,0.6255234479904175,0.42000001668930054,-0.6357517838478088,0.5127843618392944,-1.4596434831619263,-2.999999761581421,-0.17125052213668823,-0.17046163976192474,-0.17015309631824493,-0.16777341067790985,-0.198385089635849,-0.14216835796833038,-0.061912182718515396,0.019931206479668617
0.7666666666666666,0.117896169424057,-0.0065731024369597435,0.0,0.6160948276519775,0.0,0.0,-0.7876719832420349,0.30926424264907837,0.09955073893070221,0.0,0.0,0.0,1.5826423168182373,0.4603939354419708,0.6281801462173462,0.4200000464916229,0.5550031065940857,2.62625377445147e-07,-3.117567757726647e-06,-0.8318482637405396,5.970420897938311e-05,-0.0002531211939640343,-8.048256859183311e-05,0.006447798106819391,-0.0018962703179568052,-0.0007141545647755265,0.5329126119613647,0.6536198854446411,0.5462701320648193,0.9640793800354004,0.21173091232776642,1.6004457473754883,0.4551957845687866,0.6255234479904175,0.42000001668930054,-0.6045805215835571,2.9860458374023438,-1.446033239364624,3.000000238418579,-0.17272420227527618,-0.17129923403263092,-0.16995391249656677,-0.16655293107032776,0.01404911745339632,0.03447682410478592,0.07711537182331085,0.11558026075363159
0.7833333333333333,0.12011158466339111,-0.009520775638520718,0.0,0.6092533469200134,0.0,0.0,-0.792975664138794,0.11337829381227493,-0.2210288792848587,0.0,0.0,0.0,-1.921347975730896,0.4603939354419708,0.6281801462173462,0.4200000464916229,0.5550028681755066,1.87866575629414e-07,-2.534547775212559e-06,-0.8318483233451843,5.845005580340512e-05,-0.0002537578693591058,-8.029863238334656e-05,0.006470481399446726,-0.001916098059155047,-0.0007124737603589892,0.5421798229217529,0.6586936712265015,0.5663330554962158,0.07689381390810013,0.29150834679603577,0.9642777442932129,0.4551957845687866,0.6255234479904175,0.42000001668930054,-0.5654677748680115,1.7794785499572754,-1.3959805965423584,3.0,-0.17024299502372742,-0.16879509389400482,-0.16709864139556885,-0.1634654551744461,0.07335702329874039,0.09399642795324326,0.12896229326725006,0.15063366293907166
0.8,0.11950284987688065,-0.0072853141464293,0.0,0.6151943206787109,0.0,0.0,-0.7883754968643188,-0.08535775542259216,0.26170721650123596,0.0,0.0,0.0,1.786075234413147,0.4603939354419708,0.6281801462173462,0.4200000464916229,0.5550028681755066,1.9647593774152483e-07,-2.8070396638213424e-06,-0.8318483829498291,5.878406955162063e-05,-0.00025409122463315725,-8.036522194743156e-05,0.006477870047092438,-0.0019132702145725489,-0.0007138249929994345,0.536632239818573,0.6625094413757324,0.579243540763855,-0.6454700827598572,0.26368778944015503,0.6258124113082886,0.4551957845687866,0.6255234479904175,0.42000001668930054,-0.521312952041626,3.0000011920928955,-1.4070065021514893,-3.0,-0.17362801730632782,-0.1708328276872635,-0.16770033538341522,-0.16301724314689636,-0.22349028289318085,-0.14246265590190887,-0.059571053832769394,-0.0027950622607022524
0.8166666666666667,0.12145821750164032,-0.008707252331078053,0.0,0.6086065769195557,0.0,0.0,-0.7934721112251282,0.16868796944618225,-0.13959893584251404,0.0,0.0,0.0,-1.8598805665969849,0.4603939354419708,0.6281801462173462,0.4200000464916229,0.5550028085708618,1.5166757805218367e-07,-2.5896815714077093e-06,-0.8318483829498291,5.5396139941876754e-05,-0.00025695216027088463,-7.971841841936111e-05,0.006569798570126295,-0.001967893447726965,-0.000712351524271071,0.5209954977035522,0.6680443286895752,0.5826718807220459,-1.2978410720825195,0.34771034121513367,-0.010212071239948273,0.4551957845687866,0.6255234479904175,0.42000001668930054,-0.5062754154205322,-0.8750885725021362,-1.3685431480407715,2.99999737739563,-0.17287443578243256,-0.16973157227039337,-0.1661730706691742,-0.1614074409008026,0.06923986971378326,0.08443782478570938,0.10288853943347931,0.10084795951843262
0.8333333333333334,0.12396030873060226,-0.007494975812733173,0.0,0.6139345169067383,0.0,0.0,-0.7893569469451904,0.18815864622592926,0.0855182558298111,0.0,0.0,0.0,1.5674606561660767,0.4603939354419708,0.6281801462173462,0.4200000464916229,0.5550028085708618,1.5921860097023455e-07,-2.543517439335119e-06,-0.8318485021591187,5.514461008715443e-05,-0.00025691281189210713,-7.966673001646996e-05,0.006570096127688885,-0.0019708049949258566,-0.0007117305649444461,0.5035020112991333,0.6747273206710815,0.5800171494483948,-0.7666710615158081,0.5145886540412903,-0.25480833649635315,0.4551957845687866,0.6255234479904175,0.42000001668930054,-0.4991043210029602,1.5231980085372925,-1.387234091758728,-3.0,-0.1728466898202896,-0.16955488920211792,-0.16572684049606323,-0.16094858944416046,0.12555691599845886,0.09479400515556335,0.07563716173171997,0.04782668501138687
0.85,0.1267683058977127,-0.00959654152393341,0.0,0.6222888231277466,0.0,0.0,-0.7827877402305603,0.17984379827976227,-0.1834918111562729,0.0,0.0,0.0,1.2203580141067505,0.4603939354419708,0.6281801462173462,0.4200000464916229,0.5550030469894409,1.6222779208874272e-07,-2.8914148515468696e-06,-0.8318482637405396,5.6997465435415506e-05,-0.0002555414102971554,-8.003786206245422e-05,0.006524910219013691,-0.0019421024480834603,-0.0007131735328584909,0.491382360458374,0.6811927556991577,0.5735440254211426,-0.6923115253448486,0.24807003140449524,-0.4032424986362457,0.4551957845687866,0.6255234479904175,0.42000001668930054,-0.5181053280830383,-3.0000011920928955,-1.348825454711914,2.999999761581421,-0.17077060043811798,-0.1677100658416748,-0.16390374302864075,-0.1592499166727066,0.07525981217622757,0.0839613825082779,0.1046919897198677,0.1201651319861412
0.8666666666666667,0.13133667409420013,-0.014434446580708027,0.0,0.6137105822563171,0.0,0.0,-0.7895310521125793,0.31754714250564575,-0.3520039916038513,0.0,0.0,0.0,-2.2218422889709473,0.4603939354419708,0.6281800866127014,0.4200000464916229,0.5550032258033752,1.0204218625631256e-07,-2.6575655738270143e-06,-0.83184814453125,5.7202290918212384e-05,-0.00025273175560869277,-7.995846681296825e-05,0.0064517902210354805,-0.0019231113838031888,-0.000707685190718621,0.4860852062702179,0.6832528114318848,0.5637842416763306,0.022080637514591217,-0.021207142621278763,-0.5785948634147644,0.4551957845687866,0.6255234479904175,0.42000001668930054,-0.5681052207946777,-2.999945878982544,-1.3678646087646484,-2.999999523162842,-0.171175017952919,-0.1674947440624237,-0.16281156241893768,-0.15729165077209473,-0.05058736354112625,0.008395972661674023,0.08444557338953018,0.16285814344882965
0.8833333333333333,0.13932166993618011,-0.016809124499559402,0.0,0.5823209881782532,0.0,0.0,-0.8129589557647705,0.47612884640693665,-0.07054303586483002,0.0,0.0,0.0,-5.572381496429443,0.4603939354419708,0.6281800866127014,0.4200000464916229,0.5550032258033752,3.3639196317380993e-07,-2.8547631245601224e-06,-0.8318480849266052,6.01552746957168e-05,-0.00025258123059757054,-8.064741268754005e-05,0.00643061101436615,-0.0018905355827882886,-0.0007143667316995561,0.4918602705001831,0.6780387163162231,0.5550632476806641,0.7163839340209961,-0.4423266053199768,-0.30614206194877625,0.4551957845687866,0.6255234479904175,0.42000001668930054,-0.5970045328140259,-0.6483100056648254,-1.4178829193115234,-2.9999923706054688,-0.17591314017772675,-0.17082121968269348,-0.16453203558921814,-0.15743251144886017,-0.2283105105161667,-0.1715809851884842,-0.10351396352052689,-0.03486746549606323
0.9,0.14931662380695343,-0.016261301934719086,0.0,0.567233145236969,0.0,0.0,-0.8235572576522827,0.6366379857063293,0.0935809463262558,0.0,0.0,0.0,-1.180418610572815,0.4603939354419708,0.6281800866127014,0.4200000464916229,0.5550032258033752,3.2696740959181625e-07,-3.002155153808417e-06,-0.8318482041358948,6.128571840235963e-05,-0.00025258612004108727,-8.087535388767719e-05,0.006424505729228258,-0.0018773385090753436,-0.0007167639560066164,0.5026112198829651,0.6751899719238281,0.552594780921936,0.5110338926315308,0.01107773371040821,-0.04869280755519867,0.4551957845687866,0.6255234479904175,0.42000001668930054,-0.5834382176399231,2.0311226844787598,-1.4324653148651123,0.9196504950523376,-0.1777869313955307,-0.17274342477321625,-0.16631639003753662,-0.15902656316757202,-0.034537773579359055,-0.07903612405061722,-0.11566561460494995,-0.149663507938385
0.9166666666666666,0.15562786161899567,-0.02076600305736065,0.0,0.5781360864639282,0.0,0.0,-0.8159403800964355,0.36009469628334045,-0.3357735574245453,0.0,0.0,0.0,2.327816963195801,0.4603939354419708,0.6281801462173462,0.4200000464916229,0.5550031661987305,2.324725016933371e-07,-3.0360083655978087e-06,-0.8318482041358948,6.0879636293975636e-05,-0.00025295931845903397,-8.078711107373238e-05,0.006436309777200222,-0.00188373401761055,-0.0007166398572735488,0.509187638759613,0.6785024404525757,0.5511792898178101,0.21530893445014954,0.18846911191940308,-0.1984153687953949,0.4551957845687866,0.6255234479904175,0.42000001668930054,-0.5602259039878845,0.8395834565162659,-1.3835058212280273,3.0,-0.1728440374135971,-0.16928406059741974,-0.16425850987434387,-0.15832588076591492,0.18946053087711334,0.12689250707626343,0.06248722970485687,-0.005058757495135069
