vladlanda/robotic-transformer/data/env_000_episode_0173.csv
sim_time_s,robot_box_x,robot_box_y,robot_box_z,robot_box_quat_w,robot_box_quat_x,robot_box_quat_y,robot_box_quat_z,robot_box_linvel_x,robot_box_linvel_y,robot_box_linvel_z,robot_box_angvel_x,robot_box_angvel_y,robot_box_angvel_z,cube_world_x,cube_world_y,cube_world_z,cube_quat_w,cube_quat_x,cube_quat_y,cube_quat_z,cube_linvel_x,cube_linvel_y,cube_linvel_z,cube_angvel_x,cube_angvel_y,cube_angvel_z,endpoint_world_x,endpoint_world_y,endpoint_world_z,endpoint_linvel_x,endpoint_linvel_y,endpoint_linvel_z,target_cube_world_x,target_cube_world_y,target_cube_world_z,gripper_actual_pos_rad_gp_leftgearjoint,gripper_actual_vel_rad_s_gp_leftgearjoint,gripper_actual_pos_rad_gp_rotatingjoint,gripper_actual_vel_rad_s_gp_rotatingjoint,motor_angle_rad_joint1,motor_angle_rad_joint2,motor_angle_rad_joint3,motor_angle_rad_joint4,motor_speed_rad_s_joint1,motor_speed_rad_s_joint2,motor_speed_rad_s_joint3,motor_speed_rad_s_joint4
0.0,0.0,0.0,0.0,1.0,0.0,0.0,0.0,0.0,0.0,0.0,0.0,0.0,0.0,-0.4560040235519409,0.748631477355957,0.41999998688697815,1.0,0.0,0.0,0.0,0.0,0.0,0.0,0.0,0.0,0.0,3.42540442943573e-06,-0.005000244826078415,1.313499927520752,0.0,0.0,0.0,0.4217798411846161,0.7256230115890503,0.42000001668930054,-1.5707999467849731,0.0,0.0,0.0,0.0,0.0,0.0,0.0,0.0,0.0,0.0,0.0
0.016666666666666666,0.0028778850100934505,0.0021806680597364902,0.0,0.9998081922531128,0.0,0.0,0.019586581736803055,0.24087215960025787,0.18240931630134583,0.0,0.0,0.0,3.1418697834014893,-0.45600414276123047,0.7486311793327332,0.41999998688697815,1.0,3.2799832752061775e-06,-8.339598593920527e-07,8.465660528145236e-08,-1.9833856640616432e-05,0.00017983021098189056,-6.132945418357849e-05,0.0009432561928406358,-0.004689492750912905,-0.0003198107879143208,-0.007110234349966049,0.003379564033821225,1.3159373998641968,-0.8143353462219238,0.9868683815002441,0.18095196783542633,0.4217798411846161,0.7256230115890503,0.42000001668930054,-1.5301095247268677,3.0000011920928955,-0.04584788903594017,-2.9999992847442627,0.0008691533003002405,0.0007963840034790337,0.0007110277656465769,0.0006108740926720202,0.11094217747449875,0.09756709635257721,0.08334315568208694,0.06823883205652237
0.03333333333333333,0.008960993029177189,0.0068020024336874485,0.0,0.9997960329055786,0.0,0.0,0.020196840167045593,0.4070221483707428,0.31530800461769104,0.0,0.0,0.0,-0.869132936000824,-0.45600426197052,0.7486311197280884,0.4200000464916229,1.0,3.39081861966406e-06,-2.1323587588994997e-06,-3.7098015326364475e-08,0.0002635778218973428,0.00026937888469547033,-0.00010509602725505829,-0.0017707271035760641,0.0041307792998850346,-0.000135479771415703,-0.027554098516702652,0.02624453976750374,1.3165889978408813,-1.5913619995117188,1.6161510944366455,-0.0859827846288681,0.4217798411846161,0.7256230115890503,0.42000001668930054,-1.4800903797149658,3.0000011920928955,-0.09588771313428879,-3.000000238418579,0.0029900972731411457,0.002652703318744898,0.002277268562465906,0.001860720687545836,0.1642136573791504,0.13975724577903748,0.11381589621305466,0.08629787713289261
0.05,0.017733866348862648,0.013769370503723621,0.0,0.9993816614151001,0.0,0.0,0.035160571336746216,0.5935303568840027,0.46497946977615356,0.0,0.0,0.0,2.6507089138031006,-0.4560042917728424,0.7486311793327332,0.4200000464916229,1.0,3.765183919313131e-06,-2.2118208562460495e-06,5.611563214102944e-09,0.0002653097326401621,0.00026691521634347737,-0.0001044049859046936,-0.0017243342008441687,0.004177424591034651,-0.00012949183292221278,-0.05968741327524185,0.054602138698101044,1.3114454746246338,-2.187662124633789,1.8144299983978271,-0.4944561719894409,0.4217798411846161,0.7256230115890503,0.42000001668930054,-1.4300720691680908,3.000000238418579,-0.1459263563156128,-3.0000014305114746,0.005701050627976656,0.0049092452973127365,0.00404532952234149,0.0031048632226884365,0.19251686334609985,0.15560784935951233,0.11682678014039993,0.07608059793710709
0.06666666666666667,0.029044851660728455,0.023061523213982582,0.0,0.9994528889656067,0.0,0.0,0.03307446837425232,0.7201112508773804,0.5951337218284607,0.0,0.0,0.0,-1.2085429430007935,-0.4560042917728424,0.7486311197280884,0.4200000464916229,0.9999999403953552,3.4068107197526842e-06,-2.2855549559608335e-06,4.3007796080019034e-07,0.0002670242392923683,0.0002679162425920367,-0.00010437914170324802,-0.0017406085971742868,0.004211718216538429,-0.0001285039325011894,-0.09671109169721603,0.09012966603040695,1.2989040613174438,-2.2822108268737793,2.3327317237854004,-0.9818626046180725,0.4217798411846161,0.7256230115890503,0.42000001668930054,-1.3800537586212158,3.0000033378601074,-0.19596366584300995,-3.000000238418579,0.008119440637528896,0.006582349073141813,0.004934373311698437,0.0031694434583187103,0.13228432834148407,0.07549973577260971,0.01666037179529667,-0.044295068830251694
0.08333333333333333,0.034415557980537415,0.03569800406694412,0.0,1.0,0.0,0.0,-6.914082041475922e-05,0.19002564251422882,0.8245930671691895,0.0,0.0,0.0,-4.931995868682861,-0.4560042917728424,0.7486311197280884,0.4200000464916229,1.0,3.697329702845309e-06,-2.1888738501729676e-06,-2.632421285397868e-07,0.0002638976147864014,0.00026586613967083395,-0.00010433932766318321,-0.001708156312815845,0.004150198306888342,-0.00012991606490686536,-0.13223405182361603,0.13321226835250854,1.2785470485687256,-2.042036294937134,2.7130250930786133,-1.3719162940979004,0.4217798411846161,0.7256230115890503,0.42000001668930054,-1.3300316333770752,3.0000014305114746,-0.2184804528951645,0.0554063655436039,0.004700921010226011,0.002498365007340908,0.00013368434156291187,-0.0024031209759414196,-0.3027113974094391,-0.3489425778388977,-0.39775368571281433,-0.4494114816188812
0.1,0.04404439777135849,0.04964836686849594,0.0,0.9998924136161804,0.0,0.0,-0.014666411094367504,0.6747145056724548,0.8507081866264343,0.0,0.0,0.0,-0.6982148885726929,-0.4560042917728424,0.7486311197280884,0.4200000464916229,0.9999999403953552,3.620408961069188e-06,-2.265111106680706e-06,1.7460979506722651e-07,0.0002667685621418059,0.00026740742032416165,-0.0001040799543261528,-0.0017385648097842932,0.00420914264395833,-0.00012775155482813716,-0.16885946691036224,0.17491525411605835,1.257084608078003,-2.1827449798583984,2.566476345062256,-1.296205997467041,0.4217798411846161,0.7256230115890503,0.42000001668930054,-1.2800284624099731,3.0000009536743164,-0.2637934386730194,-3.0000009536743164,0.004619400482624769,0.0008554502273909748,-0.0030681767966598272,-0.007161141838878393,0.018270069733262062,-0.086499884724617,-0.1903752237558365,-0.29330146312713623
0.11666666666666667,0.05161315202713013,0.0657019093632698,0.0,0.9991283416748047,0.0,0.0,-0.041744183748960495,0.45759883522987366,1.0244266986846924,0.0,0.0,0.0,-3.9309256076812744,-0.4560042917728424,0.7486311197280884,0.4200000464916229,1.0,3.7984264054102823e-06,-2.2626581994700246e-06,-1.5021373656054493e-07,0.0002637417346704751,0.00026566089945845306,-0.00010428880341351032,-0.0017054196214303374,0.004147616680711508,-0.00012979877647012472,-0.20128490030765533,0.2230086624622345,1.2361433506011963,-1.7193779945373535,3.213167190551758,-1.2002923488616943,0.4217798411846161,0.7256230115890503,0.42000001668930054,-1.2300045490264893,2.999992609024048,-0.22967369854450226,3.000000476837158,0.0027964962646365166,-0.0028944071382284164,-0.008716898038983345,-0.014679127372801304,-0.06656752526760101,-0.20428305864334106,-0.33883970975875854,-0.46999606490135193
0.13333333333333333,0.056577108800411224,0.08435985445976257,0.0,0.9955677390098572,0.0,0.0,-0.09404710680246353,0.23184166848659515,1.1784255504608154,0.0,0.0,0.0,-7.095719814300537,-0.4560042917728424,0.7486311793327332,0.4200000464916229,0.9999999403953552,3.5505834148352733e-06,-2.229631036243518e-06,2.9289705594237603e-07,0.00026703314506448805,0.000267793278908357,-0.00010416889563202858,-0.0017440826632082462,0.004213642794638872,-0.00012800424883607775,-0.2302529215812683,0.27758288383483887,1.21688711643219,-1.7263355255126953,3.3743045330047607,-1.1858035326004028,0.4217798411846161,0.7256230115890503,0.42000001668930054,-1.1962300539016724,1.181203007698059,-0.260938823223114,-2.9999985694885254,0.000535129860509187,-0.0074118683114647865,-0.015422248281538486,-0.02349938079714775,-0.21152226626873016,-0.3346634805202484,-0.4535544812679291,-0.5679292678833008
0.15,0.05844230204820633,0.10098137706518173,0.0,0.9920070171356201,0.0,0.0,-0.1261829137802124,0.060789577662944794,0.9216388463973999,0.0,0.0,0.0,-2.827181339263916,-0.4560042917728424,0.7486311197280884,0.4200000464916229,0.9999999403953552,3.338187298140838e-06,-2.2427418571169255e-06,-2.804477539086747e-08,0.00026674612308852375,0.00026758070453070104,-0.00010427739471197128,-0.0017367061227560043,0.004206916783004999,-0.00012831547064706683,-0.2671091854572296,0.3317353427410126,1.191562533378601,-2.3189079761505127,3.4571070671081543,-1.820652961730957,0.4217798411846161,0.7256230115890503,0.42000001668930054,-1.1557092666625977,2.9999935626983643,-0.2375585287809372,3.000000476837158,-0.0036175076384097338,-0.013264412991702557,-0.022893667221069336,-0.032506026327610016,-0.30387642979621887,-0.38266098499298096,-0.45679622888565063,-0.526251494884491
0.16666666666666666,0.05678129941225052,0.11799212545156479,0.0,0.985372006893158,0.0,0.0,-0.17041702568531036,-0.16495414078235626,1.0618377923965454,0.0,0.0,0.0,-6.229778289794922,-0.4560042917728424,0.7486311793327332,0.4200000464916229,0.9999999403953552,3.6479573282122146e-06,-2.3072102521837223e-06,3.523956593198818e-08,0.00026726999203674495,0.0002680135949049145,-0.00010418728925287724,-0.001747245667502284,0.0042176335118710995,-0.00012798208626918495,-0.3031894564628601,0.3923376202583313,1.1596660614013672,-1.9330129623413086,3.8967795372009277,-2.027494430541992,0.4217798411846161,0.7256230115890503,0.42000001668930054,-1.1118862628936768,2.2824275493621826,-0.2687555253505707,-3.000000476837158,-0.01065066084265709,-0.02155030332505703,-0.03234849497675896,-0.04304533824324608,-0.5077349543571472,-0.5737830400466919,-0.6350588202476501,-0.6915271878242493
0.18333333333333332,0.06035425513982773,0.13153082132339478,0.0,0.9803224802017212,0.0,0.0,-0.19740279018878937,0.24799706041812897,0.7705253958702087,0.0,0.0,0.0,-2.1501529216766357,-0.4560042917728424,0.7486311197280884,0.4200000464916229,0.9999999403953552,3.2907466902543092e-06,-2.1938460577075602e-06,-2.792836255594011e-07,0.00026677740970626473,0.00026775922742672265,-0.00010433956049382687,-0.0017390171997249126,0.004206871148198843,-0.00012846080062445253,-0.33992987871170044,0.45528000593185425,1.117949366569519,-2.079629898071289,4.006597518920898,-3.04718017578125,0.4217798411846161,0.7256230115890503,0.42000001668930054,-1.0801055431365967,1.5681849718093872,-0.31878378987312317,-3.000000476837158,-0.015827573835849762,-0.027601564303040504,-0.039195239543914795,-0.05061235651373863,-0.5429762005805969,-0.5376829504966736,-0.5305547118186951,-0.5220505595207214
0.2,0.058776866644620895,0.1474885791540146,0.0,0.9714618921279907,0.0,0.0,-0.23719573020935059,-0.11548952013254166,0.9192224740982056,0.0,0.0,0.0,-5.65529203414917,-0.4560042917728424,0.7486311197280884,0.4200000464916229,1.0,3.281018734924146e-06,-2.2191513835423393e-06,1.594105611957275e-07,0.00026627889019437134,0.0002674002607818693,-0.0001042510848492384,-0.0017357075121253729,0.0041977171786129475,-0.00012864933523815125,-0.37359392642974854,0.5224185585975647,1.0591847896575928,-1.8843004703521729,4.1605024337768555,-3.8194026947021484,0.4217798411846161,0.7256230115890503,0.42000001668930054,-1.0336858034133911,3.0000007152557373,-0.36880970001220703,-2.9999990463256836,-0.02971368469297886,-0.04118509590625763,-0.05248706415295601,-0.06359460204839706,-0.6541116833686829,-0.6868791580200195,-0.7196272015571594,-0.7507783770561218
0.21666666666666667,0.06164131313562393,0.15854637324810028,0.0,0.9661834836006165,0.0,0.0,-0.25785553455352783,0.19606420397758484,0.5568280816078186,0.0,0.0,0.0,-1.400328278541565,-0.4560042917728424,0.7486311793327332,0.4200000464916229,1.0,3.6133887988398783e-06,-2.2700851332047023e-06,2.2095262863786047e-07,0.00026712619001045823,0.00026781720225699246,-0.00010414118878543377,-0.0017445421544834971,0.004215226974338293,-0.00012786578736267984,-0.40680819749832153,0.5860896110534668,0.9872945547103882,-1.7561488151550293,3.7528936862945557,-4.777580261230469,0.4217798411846161,0.7256230115890503,0.42000001668930054,-0.9853837490081787,2.773796319961548,-0.4188356101512909,-3.0000007152557373,-0.04079588130116463,-0.05208534374833107,-0.0632338672876358,-0.07420280575752258,-0.8528540730476379,-0.792949378490448,-0.7367337346076965,-0.6839513182640076
0.23333333333333334,0.05867482349276543,0.1720436066389084,0.0,0.9565668702125549,0.0,0.0,-0.29151302576065063,-0.2738710641860962,0.7959128022193909,0.0,0.0,0.0,-5.0573320388793945,-0.4560042917728424,0.7486311197280884,0.4200000464916229,1.0,3.382148179298383e-06,-2.2908925529918633e-06,2.727378500821942e-07,0.00026691448874771595,0.00026779979816637933,-0.00010433024726808071,-0.001739569823257625,0.004209708422422409,-0.00012843745935242623,-0.4319794178009033,0.6427762508392334,0.9010758996009827,-1.235297441482544,3.1790952682495117,-5.341876983642578,0.4217798411846161,0.7256230115890503,0.42000001668930054,-0.9354249238967896,3.0000011920928955,-0.46886393427848816,-2.999999523162842,-0.05717817321419716,-0.06841421872377396,-0.07952044159173965,-0.09041019529104233,-0.8608137965202332,-0.87643963098526,-0.8943714499473572,-0.9120514392852783
0.25,0.06104200705885887,0.18048639595508575,0.0,0.9517245888710022,0.0,0.0,-0.3069533407688141,0.15754951536655426,0.4134485721588135,0.0,0.0,0.0,-0.8163816332817078,-0.45600426197052,0.7486311197280884,0.4200000464916229,0.9999999403953552,3.70682323591609e-06,-2.222986950073391e-06,-2.255617914670438e-07,0.00026424857787787914,0.00026656937552616,-0.00010458100587129593,-0.0017170169157907367,0.004155629780143499,-0.00013063172809779644,-0.45356786251068115,0.6884856224060059,0.8083056211471558,-1.039278268814087,2.3741321563720703,-5.863687515258789,0.4217798411846161,0.7256230115890503,0.42000001668930054,-0.8854160308837891,2.9999966621398926,-0.5188937783241272,-3.0,-0.06923552602529526,-0.0803072452545166,-0.09129540622234344,-0.10208633542060852,-0.9625930190086365,-0.8929703235626221,-0.8285499215126038,-0.7687739133834839
0.26666666666666666,0.05761095881462097,0.19200767576694489,0.0,0.9420762658119202,0.0,0.0,-0.33539867401123047,-0.20500504970550537,0.6730548739433289,0.0,0.0,0.0,-4.280025005340576,-0.4560042917728424,0.7486311197280884,0.4200000464916229,0.9999999403953552,3.7199345115368487e-06,-2.4035207388806157e-06,-1.8313633631805715e-07,0.0002662320912349969,0.000267291150521487,-0.00010425853542983532,-0.0017326887464150786,0.004196553956717253,-0.00012850847269874066,-0.46524888277053833,0.7193591594696045,0.7079254388809204,-0.3885396122932434,1.5217981338500977,-5.958502292633057,0.4217798411846161,0.7256230115890503,0.42000001668930054,-0.8354053497314453,3.0000016689300537,-0.5689235329627991,-3.0,-0.08637863397598267,-0.09728866070508957,-0.10818134993314743,-0.11890317499637604,-0.761445164680481,-0.8102717995643616,-0.8550967574119568,-0.8945209383964539
0.2833333333333333,0.05933108925819397,0.19792097806930542,0.0,0.9383898377418518,0.0,0.0,-0.34557855129241943,0.11995494365692139,0.25817859172821045,0.0,0.0,0.0,-0.23479290306568146,-0.4560042917728424,0.7486311197280884,0.4200000464916229,0.9999999403953552,3.783127340284409e-06,-2.424309741400066e-06,2.6969897248818597e-07,0.00026540548424236476,0.0002650861570145935,-0.00010338099673390388,-0.001708629191853106,0.004187512211501598,-0.00012571841944009066,-0.47308486700057983,0.7381951808929443,0.6100258827209473,-0.23857370018959045,0.7242646217346191,-5.862546443939209,0.4217798411846161,0.7256230115890503,0.42000001668930054,-0.7853965163230896,2.9999969005584717,-0.618953287601471,-2.999995708465576,-0.09904125332832336,-0.11018514633178711,-0.12109997868537903,-0.13182321190834045,-0.9930218458175659,-0.9838230609893799,-0.924593985080719,-0.8683081269264221
0.3,0.057691436260938644,0.1998724788427353,0.0,0.9389886856079102,0.0,0.0,-0.34394803643226624,-0.16341273486614227,0.06830159574747086,0.0,0.0,0.0,0.42924603819847107,-0.4560042917728424,0.7486311197280884,0.4200000464916229,0.9999999403953552,3.595015868995688e-06,-2.293348643434001e-06,3.1973758041203837e-07,0.0002659793826751411,0.0002666958898771554,-0.00010402454063296318,-0.0017263191984966397,0.004193468950688839,-0.0001278812123928219,-0.4737240672111511,0.7478905916213989,0.5152972936630249,0.2635835111141205,0.3944297134876251,-5.3771467208862305,0.4217798411846161,0.7256230115890503,0.42000001668930054,-0.7353877425193787,2.999999761581421,-0.6689815521240234,-3.000000476837158,-0.11641044169664383,-0.12737925350666046,-0.13817234337329865,-0.14880742132663727,-1.018171787261963,-1.0137395858764648,-1.0103710889816284,-1.0076806545257568
0.31666666666666665,0.05103595554828644,0.19986103475093842,0.0,0.9328368902206421,0.0,0.0,-0.3602989912033081,-0.48123589158058167,-0.03498033806681633,0.0,0.0,0.0,-3.071413278579712,-0.4560042917728424,0.7486311197280884,0.4200000464916229,0.9999999403953552,3.600428499339614e-06,-2.2995473045739345e-06,1.9272300733064185e-07,0.00026597053511068225,0.0002667028165888041,-0.00010403105989098549,-0.001726472401060164,0.0041933427564799786,-0.0001279159914702177,-0.4633217453956604,0.7475771903991699,0.4276052713394165,0.9767858982086182,-0.3588559031486511,-5.144716262817383,0.4217798411846161,0.7256230115890503,0.42000001668930054,-0.6853808164596558,2.9999966621398926,-0.7190083265304565,-3.000002384185791,-0.1341494470834732,-0.14484058320522308,-0.15542387962341309,-0.16589315235614777,-1.0000462532043457,-1.0000271797180176,-1.0000147819519043,-1.0000063180923462
0.3333333333333333,0.043454814702272415,0.1969805806875229,0.0,0.9326943755149841,0.0,0.0,-0.3606676459312439,-0.46794408559799194,-0.22319374978542328,0.0,0.0,0.0,0.8867844939231873,-0.4557510316371918,0.7484673857688904,0.4200000464916229,0.9999743103981018,1.582874915584398e-06,-2.653303909028182e-06,-0.007158510386943817,0.004231126047670841,-0.0035175213124603033,-7.854809518903494e-05,-0.002178306458517909,0.005855387542396784,-0.17928621172904968,-0.4640616774559021,0.7520405054092407,0.4278349280357361,-0.011605596169829369,0.24841469526290894,-0.2166031002998352,0.4217798411846161,0.7256230115890503,0.42000001668930054,-0.6353757381439209,2.9999923706054688,-0.7694371938705444,-2.9996938705444336,-0.1395338773727417,-0.15080930292606354,-0.16163811087608337,-0.17190879583358765,-0.3526577353477478,-0.3584918677806854,-0.34689316153526306,-0.3127896189689636
0.35,0.03394581377506256,0.19161930680274963,0.0,0.927213728427887,0.0,0.0,-0.3745326101779938,-0.6201215982437134,-0.3625839948654175,0.0,0.0,0.0,-2.6698200702667236,-0.4543555676937103,0.7505006790161133,0.42021146416664124,0.9995405673980713,0.005272100679576397,-7.165934221120551e-05,-0.029846280813217163,0.12118101119995117,0.1789086014032364,0.0016414051642641425,0.12209459394216537,-0.036466702818870544,-3.7302467823028564,-0.4625433385372162,0.7546873092651367,0.42445939779281616,0.19963817298412323,0.19051580131053925,-0.18307223916053772,0.4217798411846161,0.7256230115890503,0.42000001668930054,-0.5853704214096069,2.9999897480010986,-0.8194957971572876,-2.999981164932251,-0.1469307690858841,-0.15764875710010529,-0.16762493550777435,-0.17668773233890533,-0.4960768520832062,-0.42967426776885986,-0.3469136655330658,-0.24539139866828918
0.36666666666666664,0.0222637802362442,0.18390822410583496,0.0,0.9279489517211914,0.0,0.0,-0.37270739674568176,-0.7380829453468323,-0.5030091404914856,0.0,0.0,0.0,1.1725424528121948,-0.4508146047592163,0.7558716535568237,0.4200019836425781,0.9951737523078918,1.5273386452463455e-05,6.08247282798402e-05,-0.09812839329242706,0.2730204164981842,0.4156342148780823,-0.0016214754432439804,0.0017556707607582211,-0.08148941397666931,-11.556675910949707,-0.4580124616622925,0.7609515190124512,0.42157697677612305,0.357390820980072,0.5273033976554871,-0.14134229719638824,0.4217798411846161,0.7256230115890503,0.42000001668930054,-0.5353654623031616,2.9999842643737793,-0.8695396780967712,-2.999999523162842,-0.1563546061515808,-0.16527889668941498,-0.17317412793636322,-0.17985425889492035,-0.5608090162277222,-0.4326753616333008,-0.28684255480766296,-0.12329500913619995
0.3833333333333333,0.008418344892561436,0.17393191158771515,0.0,0.9228797554969788,0.0,0.0,-0.3850882649421692,-0.8751740455627441,-0.6377477049827576,0.0,0.0,0.0,-2.5387864112854004,-0.4436193108558655,0.7661786675453186,0.42000311613082886,0.9914422631263733,4.422900019562803e-05,0.00010322102752979845,-0.1305454969406128,0.5759776830673218,0.7921697497367859,-0.0014171735383570194,0.14833903312683105,-0.3362668454647064,-3.5664350986480713,-0.45013004541397095,0.7704991102218628,0.41994577646255493,0.6091440916061401,0.719176709651947,-0.06814662367105484,0.4217798411846161,0.7256230115890503,0.42000001668930054,-0.4853609800338745,3.0000007152557373,-0.9195874333381653,-3.00000262260437,-0.16571353375911713,-0.17227299511432648,-0.17746761441230774,-0.1811264157295227,-0.5242529511451721,-0.3753870725631714,-0.20606452226638794,-0.017775768414139748
0.4,-0.0030487850308418274,0.16115736961364746,0.0,0.906550943851471,0.0,0.0,-0.42209646105766296,-0.6657360792160034,-0.8062898516654968,0.0,0.0,0.0,-5.584069728851318,-0.43130308389663696,0.7831939458847046,0.42065149545669556,0.9860303997993469,-0.013631459325551987,-0.0008837690693326294,-0.16600416600704193,0.9585996270179749,1.2996081113815308,0.08251925557851791,-2.1184372901916504,-2.295754909515381,-5.624173164367676,-0.437682569026947,0.7859176993370056,0.42089730501174927,0.9570285677909851,1.2026522159576416,0.1159953624010086,0.4217798411846161,0.7256230115890503,0.42000001668930054,-0.43530020117759705,3.0000007152557373,-0.9695916771888733,-2.999969482421875,-0.174105703830719,-0.17799049615859985,-0.18009980022907257,-0.18030457198619843,-0.5058214068412781,-0.3320285677909851,-0.1326194852590561,0.08899915218353271
0.4166666666666667,-0.011134766042232513,0.14548781514167786,0.0,0.876916229724884,0.0,0.0,-0.48064327239990234,-0.4161703884601593,-0.9964144229888916,0.0,0.0,0.0,-8.69471549987793,-0.4033534824848175,0.8103652596473694,0.4237430989742279,0.9758561849594116,0.00041010850691236556,-0.02958240546286106,-0.21640080213546753,2.642892837524414,2.1922059059143066,0.11966028809547424,31.8490047454834,-12.273049354553223,8.020642280578613,-0.4094699025154114,0.8142310976982117,0.4234079420566559,2.4567031860351562,2.1635804176330566,0.4139921963214874,0.4217798411846161,0.7256230115890503,0.42000001668930054,-0.3936634659767151,1.526027798652649,-0.9805319905281067,1.3129340410232544,-0.18376822769641876,-0.18427440524101257,-0.1826278567314148,-0.17878317832946777,-0.605516254901886,-0.38418158888816833,-0.1440804898738861,0.1088067814707756
0.43333333333333335,-0.016664082184433937,0.13494715094566345,0.0,0.8305082321166992,0.0,0.0,-0.5570063591003418,-0.2849840223789215,-0.5011407732963562,0.0,0.0,0.0,-11.471399307250977,-0.33762213587760925,0.8529674410820007,0.43038544058799744,0.9579848051071167,0.06862424314022064,-0.06541814655065536,-0.2706959843635559,5.47555685043335,2.5308170318603516,0.5061802864074707,16.06761360168457,-13.676902770996094,20.074045181274414,-0.34324729442596436,0.8574374914169312,0.4300236701965332,5.090147495269775,3.073192596435547,0.5535590052604675,0.4217798411846161,0.7256230115890503,0.42000001668930054,-0.37734565138816833,0.7550122737884521,-0.931300938129425,2.9972453117370605,-0.19926606118679047,-0.196661576628685,-0.18986216187477112,-0.18104110658168793,-0.8981820940971375,-0.8319097757339478,-0.5323898792266846,-0.2548880875110626
0.45,-0.02034682221710682,0.12211006879806519,0.0,0.7893251180648804,0.0,0.0,-0.613975465297699,-0.17932216823101044,-0.9108390808105469,0.0,0.0,0.0,-6.794084072113037,-0.2501799762248993,0.89804607629776,0.4419681131839752,0.9190058708190918,0.10837831348180771,-0.08410432934761047,-0.36960604786872864,5.792884826660156,1.9936619997024536,0.8700130581855774,19.55185317993164,-3.2967348098754883,14.320552825927734,-0.25539112091064453,0.9039075374603271,0.44126778841018677,5.581468105316162,2.5368385314941406,0.8192806839942932,0.4217798411846161,0.7256230115890503,0.42000001668930054,-0.3634372353553772,0.9514719247817993,-0.9570839405059814,-3.000002145767212,-0.21275442838668823,-0.20835217833518982,-0.19686061143875122,-0.1838344782590866,-0.732386589050293,-0.6044472455978394,-0.34586870670318604,-0.11960459500551224
0.4666666666666667,-0.026270022615790367,0.11216810345649719,0.0,0.7400231957435608,0.0,0.0,-0.6725813150405884,-0.34098491072654724,-0.6106432676315308,0.0,0.0,0.0,-9.853558540344238,-0.14998362958431244,0.9276084899902344,0.4549265205860138,0.8498296737670898,0.1266152262687683,-0.11153866350650787,-0.4993168115615845,6.282071113586426,0.6676542162895203,0.8682075142860413,-7.084083557128906,0.05413883179426193,8.726648330688477,-0.15697208046913147,0.9350149035453796,0.4541609585285187,6.36822509765625,1.487818717956543,0.8258916735649109,0.4217798411846161,0.7256230115890503,0.42000001668930054,-0.34624648094177246,1.0012481212615967,-1.0071076154708862,-2.9998393058776855,-0.22748880088329315,-0.22200575470924377,-0.20538680255413055,-0.18755720555782318,-0.6151411533355713,-0.6608521342277527,-0.4145628809928894,-0.15733690559864044
0.48333333333333334,-0.029331089928746223,0.10210928320884705,0.0,0.7017264366149902,0.0,0.0,-0.7124465107917786,-0.1304815113544464,-0.5215300917625427,0.0,0.0,0.0,-5.377810478210449,-0.04472283646464348,0.9423385858535767,0.4665222465991974,0.7881122827529907,0.12870581448078156,-0.10941143333911896,-0.5918976664543152,6.675121784210205,-0.1664246916770935,0.6579436659812927,-0.5248146653175354,-11.308974266052246,-0.962693452835083,-0.05066108703613281,0.9516972303390503,0.4657699167728424,6.404844284057617,0.4049951434135437,0.7019145488739014,0.4217798411846161,0.7256230115890503,0.42000001668930054,-0.3335689306259155,0.6409692168235779,-1.0571297407150269,-3.0000011920928955,-0.23803381621837616,-0.23203158378601074,-0.21132172644138336,-0.1894177347421646,-0.6758825182914734,-0.5865787863731384,-0.3495650589466095,-0.12201863527297974
0.5,-0.03337714076042175,0.09177465736865997,0.0,0.6892213225364685,0.0,0.0,-0.7245509028434753,-0.2820690870285034,-0.6928223967552185,0.0,0.0,0.0,-1.0406818389892578,0.05934683978557587,0.934313178062439,0.47422558069229126,0.7175145745277405,0.11042673885822296,-0.09606952965259552,-0.6809914708137512,5.644888877868652,-1.9017516374588013,0.15817876160144806,-12.329286575317383,-9.1398344039917,18.820898056030273,0.05462401360273361,0.9455713033676147,0.4736054539680481,6.147082328796387,-1.0527912378311157,0.41924411058425903,0.4217798411846161,0.7256230115890503,0.42000001668930054,-0.3232285678386688,0.45988789200782776,-1.1071518659591675,-3.000002145767212,-0.24003833532333374,-0.24002934992313385,-0.21966856718063354,-0.19297270476818085,-0.03765600919723511,-0.026031333953142166,-0.493097722530365,-0.1992720067501068
0.5166666666666666,-0.035453762859106064,0.08431605249643326,0.0,0.6686920523643494,0.0,0.0,-0.7435394525527954,-0.06635609269142151,-0.3855196237564087,0.0,0.0,0.0,-4.198392868041992,0.15086258947849274,0.9084723591804504,0.4751845598220825,0.6469688415527344,0.08359768986701965,-0.08341756463050842,-0.7533154487609863,4.920461177825928,-2.375744342803955,-0.10202055424451828,-9.37885856628418,-0.7395904660224915,10.393892288208008,0.14750291407108307,0.9212265014648438,0.47507476806640625,5.392375946044922,-1.8934428691864014,-0.058257848024368286,0.4217798411846161,0.7256230115890503,0.42000001668930054,-0.31572625041007996,0.37999576330184937,-1.1571738719940186,-3.00000262260437,-0.24001482129096985,-0.2399493157863617,-0.2272137552499771,-0.19648058712482452,-0.022300945594906807,0.02511421963572502,-0.28331971168518066,-0.10456092655658722
0.5333333333333333,-0.03427156060934067,0.07457415759563446,0.0,0.6610957384109497,0.0,0.0,-0.7503015398979187,0.08499131351709366,-0.6347724199295044,0.0,0.0,0.0,-0.2825821042060852,0.23242530226707458,0.8755972981452942,0.47023695707321167,0.5747265815734863,0.057099152356386185,-0.08036857098340988,-0.8123852014541626,4.387424945831299,-2.504596710205078,-0.35266414284706116,-0.6978328227996826,4.929896831512451,-7.928248405456543,0.2294388860464096,0.8866639137268066,0.47063952684402466,4.4821319580078125,-2.3890485763549805,-0.39194875955581665,0.4217798411846161,0.7256230115890503,0.42000001668930054,-0.30643028020858765,0.8935443758964539,-1.2071959972381592,-2.999997138977051,-0.23811127245426178,-0.23689787089824677,-0.2284802943468094,-0.19605162739753723,0.09841940551996231,0.20770466327667236,0.013185608200728893,0.0654233917593956
0.55,-0.030576089397072792,0.06770499050617218,0.0,0.6444180607795715,0.0,0.0,-0.7646733522415161,0.2766290307044983,-0.364491730928421,0.0,0.0,0.0,-3.462200164794922,0.2995648980140686,0.8374639749526978,0.45990845561027527,0.5294543504714966,0.022103140130639076,-0.06774182617664337,-0.8453405499458313,3.6656875610351562,-2.4651167392730713,-0.6377607583999634,-3.8474929332733154,-0.6225075721740723,-3.8116772174835205,0.29799455404281616,0.8480585813522339,0.460886150598526,3.7423362731933594,-2.340862989425659,-0.72921222448349,0.4217798411846161,0.7256230115890503,0.42000001668930054,-0.28553929924964905,1.2740479707717896,-1.2572181224822998,-3.0000009536743164,-0.2365347295999527,-0.2337512969970703,-0.2282104790210724,-0.19611549377441406,0.2075844407081604,0.2694057822227478,0.09886538237333298,-8.295131692648283e-09
0.5666666666666667,-0.024437149986624718,0.06478863954544067,0.0,0.6420060992240906,0.0,0.0,-0.766699492931366,0.40216752886772156,-0.10192622989416122,0.0,0.0,0.0,0.49150609970092773,0.3543517589569092,0.7987213730812073,0.4460340142250061,0.4812809228897095,-0.021694788709282875,-0.03616766259074211,-0.8755511045455933,2.63397479057312,-2.7812464237213135,-0.9498241543769836,-1.5136505365371704,-18.3563175201416,1.5104507207870483,0.3530982732772827,0.8086061477661133,0.44707179069519043,2.8489532470703125,-2.338935136795044,-0.8440931439399719,0.4217798411846161,0.7256230115890503,0.42000001668930054,-0.2699807584285736,0.6365662217140198,-1.3072397708892822,-3.000002861022949,-0.23354275524616241,-0.22984933853149414,-0.22668588161468506,-0.19696129858493805,0.2107609212398529,0.2515787184238434,0.12533244490623474,-0.061207618564367294
0.5833333333333334,-0.015580419450998306,0.0571441724896431,0.0,0.6276878118515015,0.0,0.0,-0.7784651517868042,0.533480167388916,-0.4458848237991333,0.0,0.0,0.0,-3.075374126434326,0.3983291983604431,0.7647188305854797,0.4266115427017212,0.45780766010284424,-0.039938896894454956,-0.03942014276981354,-0.8872783780097961,2.102803945541382,-2.227567434310913,-1.2332720756530762,-4.0314483642578125,-7.442043304443359,4.505429744720459,0.3970024883747101,0.7745155096054077,0.42742979526519775,2.2664971351623535,-1.9658074378967285,-1.281919240951538,0.4217798411846161,0.7256230115890503,0.42000001668930054,-0.26236656308174133,0.3275294303894043,-1.2924003601074219,2.998478651046753,-0.2234271913766861,-0.2206016331911087,-0.2204837054014206,-0.1954769492149353,0.4753357172012329,0.45306700468063354,0.32181236147880554,0.04272376000881195
0.6,-0.009341564029455185,0.05400049313902855,0.0,0.6258439421653748,0.0,0.0,-0.7799482941627502,0.2710929214954376,-0.19415345788002014,0.0,0.0,0.0,0.53273606300354,0.4229497015476227,0.7429860830307007,0.423190176486969,0.4574029743671417,-0.04514336958527565,-0.027287514880299568,-0.8876935839653015,1.0255414247512817,-1.3602732419967651,0.18511788547039032,13.149266242980957,5.765623092651367,4.20327091217041,0.4212716817855835,0.7517144680023193,0.4248148500919342,1.1353888511657715,-1.1046977043151855,0.0858873575925827,0.4217798411846161,0.7256230115890503,0.42000001668930054,-0.25685983896255493,0.3311857581138611,-1.311253309249878,-2.9978911876678467,-0.2178165167570114,-0.2152242511510849,-0.2166709303855896,-0.19616758823394775,0.44198036193847656,0.3816959857940674,0.2691482603549957,-0.03717360645532608
0.6166666666666667,-0.0026345360092818737,0.0539441853761673,0.0,0.6134679913520813,0.0,0.0,-0.7897195816040039,0.4412368834018707,0.056091733276844025,0.0,0.0,0.0,-2.778510332107544,0.43701988458633423,0.7299426794052124,0.4215112328529358,0.47901099920272827,-0.026367109268903732,-0.02005157805979252,-0.8771836757659912,0.3947090804576874,-0.8652766346931458,-0.01662755012512207,-0.01348663680255413,-2.651843309402466,12.013324737548828,0.4346315562725067,0.7381633520126343,0.4230450391769409,0.4818195104598999,-0.544475793838501,-0.10368774831295013,0.4217798411846161,0.7256230115890503,0.42000001668930054,-0.25023341178894043,0.3863767981529236,-1.2730220556259155,2.986694812774658,-0.21002048254013062,-0.2090299129486084,-0.21248339116573334,-0.19733475148677826,0.5054094791412354,0.3966011106967926,0.28380268812179565,-0.03704717382788658
0.6333333333333333,0.0061545055359601974,0.04985374957323074,0.0,0.6141103506088257,0.0,0.0,-0.7892201542854309,0.5191377401351929,-0.23526424169540405,0.0,0.0,0.0,1.0025103092193604,0.44075268507003784,0.7229877710342407,0.4211656451225281,0.5118707418441772,-0.022448057308793068,-0.016239510849118233,-0.858615517616272,0.0188545323908329,-0.3145405352115631,0.0006880857981741428,0.5032290816307068,-2.1115455627441406,4.817211627960205,0.43720072507858276,0.7320529222488403,0.42431390285491943,-0.12715111672878265,-0.2823488414287567,0.16088789701461792,0.4217798411846161,0.7256230115890503,0.42000001668930054,-0.2735297381877899,-2.6909005641937256,-1.2934057712554932,-2.9992387294769287,-0.19885961711406708,-0.19992466270923615,-0.2052231729030609,-0.195407435297966,0.5378038287162781,0.455703467130661,0.3949061632156372,0.11943916976451874
0.65,0.016846394166350365,0.05020761489868164,0.0,0.6108264923095703,0.0,0.0,-0.791764497756958,0.6678898334503174,0.045663829892873764,0.0,0.0,0.0,-1.2231560945510864,0.44128182530403137,0.7184342741966248,0.4201745390892029,0.5375844836235046,-0.002029055031016469,0.0034799757413566113,-0.8432002663612366,0.16914986073970795,-0.12089278548955917,0.07468827068805695,1.6191036701202393,3.3225409984588623,0.32885152101516724,0.4379854202270508,0.730564296245575,0.42688292264938354,0.1489729881286621,0.06884051114320755,0.1739308089017868,0.4217798411846161,0.7256230115890503,0.42000001668930054,-0.3072565495967865,-1.4097363948822021,-1.3433539867401123,-2.9980099201202393,-0.19102665781974792,-0.1935974806547165,-0.19980250298976898,-0.1943042278289795,0.5998197793960571,0.47143733501434326,0.39175212383270264,0.12061092257499695
0.6666666666666666,0.026879923418164253,0.04798070341348648,0.0,0.6207835078239441,0.0,0.0,-0.7839820384979248,0.5443339347839355,-0.22389544546604156,0.0,0.0,0.0,2.2542948722839355,0.4415363371372223,0.7180086374282837,0.4205227792263031,0.549085795879364,-0.008026747964322567,0.007315387018024921,-0.8356953263282776,-0.13389062881469727,-0.008268440142273903,0.00875141005963087,-0.760357141494751,0.03508072346448898,1.1528195142745972,0.43695592880249023,0.7304994463920593,0.4294258952140808,-0.25347211956977844,-0.025358442217111588,0.14182835817337036,0.4217798411846161,0.7256230115890503,0.42000001668930054,-0.3539464771747589,-2.9999985694885254,-1.3767008781433105,-1.1378636360168457,-0.1813581883907318,-0.18555086851119995,-0.19254009425640106,-0.19091513752937317,0.4378534257411957,0.3884102404117584,0.38879257440567017,0.2094348818063736
0.6833333333333333,0.03778630495071411,0.048526156693696976,0.0,0.6173087358474731,0.0,0.0,-0.7867209911346436,0.6787613034248352,0.08996012061834335,0.0,0.0,0.0,-1.5225392580032349,0.439956933259964,0.7179362773895264,0.4200001657009125,0.5551416873931885,1.00829238363076e-05,-4.5351439439400565e-06,-0.8317558169364929,-0.058361563831567764,-0.004135132301598787,-0.0004635393852367997,-0.009780067019164562,0.026294395327568054,0.6442189812660217,0.4372449517250061,0.7322607040405273,0.4329816401004791,0.10261718928813934,0.2085440307855606,0.23838208615779877,0.4217798411846161,0.7256230115890503,0.42000001668930054,-0.4039919376373291,-2.999999761581421,-1.4234638214111328,-2.999206304550171,-0.1750793159008026,-0.18025603890419006,-0.18730729818344116,-0.18843935430049896,0.4402206242084503,0.3622101843357086,0.3418443202972412,0.17596226930618286
0.7,0.05026191473007202,0.04518325254321098,0.0,0.6258290410041809,0.0,0.0,-0.7799602746963501,0.7480862736701965,-0.23650391399860382,0.0,0.0,0.0,2.1993865966796875,0.43978095054626465,0.7179167866706848,0.42000019550323486,0.5561989545822144,2.3799559130566195e-05,-9.093511835089885e-06,-0.8310490846633911,0.002577680628746748,0.00040639229700900614,-0.0008837704081088305,-0.02137766033411026,0.017882460728287697,-0.006441236473619938,0.43619275093078613,0.7361984252929688,0.4382484555244446,-0.2819627523422241,0.2493225336074829,0.4589771628379822,0.4217798411846161,0.7256230115890503,0.42000001668930054,-0.4540054202079773,-2.999999523162842,-1.4734821319580078,-2.9999985694885254,-0.16668115556240082,-0.17296412587165833,-0.18015457689762115,-0.1835731416940689,0.38216012716293335,0.35839441418647766,0.38968756794929504,0.3043261170387268
0.7166666666666667,0.0648917481303215,0.04172757640480995,0.0,0.6218866109848022,0.0,0.0,-0.7831072807312012,0.9076976180076599,-0.2668535113334656,0.0,0.0,0.0,-1.6136423349380493,0.43945378065109253,0.7180843353271484,0.4200000464916229,0.5662968754768372,7.206432428574772e-08,5.375880505198438e-07,-0.8242012858390808,-0.0014329752884805202,0.00013811221288051456,-1.9837752915918827e-05,-0.0004035846795886755,-0.0009277303470298648,0.0385328009724617,0.43532058596611023,0.739575207233429,0.4437881410121918,0.166957825422287,0.18151889741420746,0.359282910823822,0.4217798411846161,0.7256230115890503,0.42000001668930054,-0.504018247127533,-3.0,-1.5235004425048828,-2.999999761581421,-0.16387440264225006,-0.16971825063228607,-0.17554257810115814,-0.1792476624250412,0.13299906253814697,0.1797323375940323,0.28248897194862366,0.30337288975715637
0.7333333333333333,0.08122262358665466,0.03491457924246788,0.0,0.595191478729248,0.0,0.0,-0.8035838603973389,1.0118193626403809,-0.4820283353328705,0.0,0.0,0.0,-4.9592719078063965,0.43945351243019104,0.7180845737457275,0.4200000464916229,0.5662972331047058,1.8622530717493646e-07,-3.2594036838418106e-06,-0.8242010474205017,7.867874955991283e-05,-0.00027082907035946846,-8.219410665333271e-05,0.006750051397830248,-0.001700913067907095,-0.0007182874833233654,0.4418621063232422,0.7412230968475342,0.4572349190711975,0.6797944903373718,0.0040362924337387085,1.3623019456863403,0.4217798411846161,0.7256230115890503,0.42000001668930054,-0.5540308356285095,-2.999931812286377,-1.5735176801681519,-2.999995708465576,-0.1649589091539383,-0.16941635310649872,-0.17300212383270264,-0.1756296157836914,-0.16839782893657684,-0.06397868692874908,0.08657015115022659,0.17887718975543976
0.75,0.09504931420087814,0.030687639489769936,0.0,0.5823323726654053,0.0,0.0,-0.8129507899284363,0.743698000907898,-0.24359188973903656,0.0,0.0,0.0,-0.8911928534507751,0.4394535422325134,0.7180845737457275,0.4200000464916229,0.5662972331047058,3.402666663987475e-07,-2.763998054433614e-06,-0.8242011070251465,7.655363151570782e-05,-0.00026246748166158795,-8.395104669034481e-05,0.006505422759801149,-0.0017663961043581367,-0.000706772378180176,0.4551050662994385,0.7450811266899109,0.4846166968345642,0.9163143038749695,0.48481565713882446,1.8589107990264893,0.4217798411846161,0.7256230115890503,0.42000001668930054,-0.5790205597877502,-0.22166268527507782,-1.6235321760177612,-3.0,-0.16970567405223846,-0.17260077595710754,-0.17401202023029327,-0.17530997097492218,-0.1506926268339157,-0.11671752482652664,-0.05082865059375763,-0.02367844060063362
0.7666666666666666,0.10420379042625427,0.02902563475072384,0.0,0.5945093035697937,0.0,0.0,-0.8040887713432312,0.4801757037639618,-0.048172567039728165,0.0,0.0,0.0,2.640651226043701,0.43945351243019104,0.7180845141410828,0.4200000464916229,0.566297173500061,2.8398673634910665e-07,-2.8167269192636013e-06,-0.8242011070251465,7.884441583883017e-05,-0.00025870639365166426,-8.451822213828564e-05,0.006396809592843056,-0.001723042456433177,-0.0007052473374642432,0.47070443630218506,0.751666784286499,0.5085722208023071,0.872455358505249,0.34415045380592346,1.101736307144165,0.4217798411846161,0.7256230115890503,0.42000001668930054,-0.5654428601264954,1.6725773811340332,-1.584450602531433,2.999999761581421,-0.172251895070076,-0.1743406355381012,-0.17451941967010498,-0.17510244250297546,-0.11397993564605713,-0.05917642265558243,0.014295171946287155,0.0625021904706955
0.7833333333333333,0.10919877141714096,0.024174202233552933,0.0,0.593163788318634,0.0,0.0,-0.8050817847251892,0.23226113617420197,-0.37306445837020874,0.0,0.0,0.0,-1.1903632879257202,0.43945351243019104,0.7180845737457275,0.4200000464916229,0.566297173500061,2.904974678585859e-07,-3.15998340738588e-06,-0.8242010474205017,7.57947054808028e-05,-0.0002589804062154144,-8.380669169127941e-05,0.006420304998755455,-0.0017588967457413673,-0.0006987370434217155,0.4798285961151123,0.7549558877944946,0.51964271068573,0.2146240770816803,0.06522926688194275,0.41427692770957947,0.4217798411846161,0.7256230115890503,0.42000001668930054,-0.5632091164588928,-1.1608086824417114,-1.5343941450119019,3.0000014305114746,-0.17344287037849426,-0.17443473637104034,-0.17332948744297028,-0.17297568917274475,-0.05156729370355606,0.026701726019382477,0.10857746005058289,0.17241565883159637
0.8,0.11094655096530914,0.024249324575066566,0.0,0.603326141834259,0.0,0.0,-0.7974945902824402,0.04528322070837021,0.1355319768190384,0.0,0.0,0.0,2.3812601566314697,0.4394535422325134,0.7180845737457275,0.4200000464916229,0.5662971138954163,3.647251389793382e-07,-2.7965772915194975e-06,-0.8242010474205017,7.644859579158947e-05,-0.0002622349129524082,-8.391519077122211e-05,0.0065000117756426334,-0.00176625931635499,-0.0007061073556542397,0.48357874155044556,0.7537272572517395,0.5254247784614563,0.24481327831745148,-0.0898401141166687,0.32000982761383057,0.4217798411846161,0.7256230115890503,0.42000001668930054,-0.5657726526260376,0.6935360431671143,-1.5498180389404297,-2.999999761581421,-0.17973166704177856,-0.17829611897468567,-0.17484328150749207,-0.1724524348974228,-0.4220617711544037,-0.2718057930469513,-0.12949231266975403,2.1245796233415604e-08
0.8166666666666667,0.11420583724975586,0.021955164149403572,0.0,0.6016334295272827,0.0,0.0,-0.7987722754478455,0.16895604133605957,-0.20741477608680725,0.0,0.0,0.0,-0.8759328126907349,0.43945351243019104,0.7180845141410828,0.4200000464916229,0.5662971138954163,9.01795402796779e-08,-3.0700734896527138e-06,-0.8242011070251465,7.64658470870927e-05,-0.00025881556211970747,-8.397968485951424e-05,0.006413046270608902,-0.0017503889976069331,-0.0006998986937105656,0.4845261573791504,0.7511301636695862,0.5253138542175293,-0.13294491171836853,-0.23846334218978882,-0.16735009849071503,0.4217798411846161,0.7256230115890503,0.42000001668930054,-0.585022509098053,-2.693964958190918,-1.5138064622879028,3.000000238418579,-0.18358445167541504,-0.18025510013103485,-0.1750064641237259,-0.17087064683437347,-0.16784384846687317,-0.06758841127157211,0.0283360593020916,0.12826141715049744
0.8333333333333334,0.11863412708044052,0.021552475169301033,0.0,0.6105074286460876,0.0,0.0,-0.7920105457305908,0.31964734196662903,0.03741975128650665,0.0,0.0,0.0,2.327737331390381,0.43945351243019104,0.7180845737457275,0.4200000464916229,0.566297173500061,2.820862619046238e-07,-3.347763822603156e-06,-0.8242011070251465,7.217178063001484e-05,-0.0002617796417325735,-8.305092342197895e-05,0.006511340383440256,-0.0018154947319999337,-0.0006957015721127391,0.48578429222106934,0.7477197647094727,0.5260342359542847,0.21610847115516663,-0.16993141174316406,0.3205379843711853,0.4217798411846161,0.7256230115890503,0.42000001668930054,-0.6268502473831177,-2.324169635772705,-1.529693365097046,-3.0,-0.18608689308166504,-0.1816106140613556,-0.17514866590499878,-0.16951696574687958,-0.107620008289814,-0.0580897256731987,1.0477378964424133e-09,0.08111712336540222
0.85,0.12507623434066772,0.01779857836663723,0.0,0.6076570749282837,0.0,0.0,-0.794199526309967,0.39541760087013245,-0.25216349959373474,0.0,0.0,0.0,-1.3948767185211182,0.43945351243019104,0.7180845141410828,0.4200000464916229,0.566297173500061,3.7173944633650535e-07,-2.7928454073844478e-06,-0.8242011070251465,7.542537059634924e-05,-0.0002619743172544986,-8.372683078050613e-05,0.0064991544932127,-0.0017775760497897863,-0.0007032352150417864,0.4922378957271576,0.7451426982879639,0.5291303396224976,0.46577778458595276,-0.2504943311214447,0.20272324979305267,0.4217798411846161,0.7256230115890503,0.42000001668930054,-0.6735468506813049,-2.9999959468841553,-1.579711675643921,-2.999999761581421,-0.18438661098480225,-0.17961813509464264,-0.17263653874397278,-0.16595610976219177,0.07561035454273224,0.1136593148112297,0.16455323994159698,0.24816064536571503
0.8666666666666667,0.13417474925518036,0.015896985307335854,0.0,0.5819809436798096,0.0,0.0,-0.813202440738678,0.5829440951347351,-0.09492157399654388,0.0,0.0,0.0,-4.69543981552124,0.43945351243019104,0.7180845141410828,0.4200000464916229,0.5662973523139954,2.1684492423901247e-07,-2.9514310426748125e-06,-0.8242010474205017,7.960174116306007e-05,-0.00025882796035148203,-8.462811820209026e-05,0.0063951825723052025,-0.0017141043208539486,-0.0007073030574247241,0.5022426843643188,0.7408384084701538,0.5379461050033569,0.7856169939041138,-0.21098332107067108,0.9500433802604675,0.4217798411846161,0.7256230115890503,0.42000001668930054,-0.7235479950904846,-2.9999825954437256,-1.629729986190796,-2.9999985694885254,-0.1849546730518341,-0.1796022206544876,-0.1718287616968155,-0.16379445791244507,0.06567024439573288,0.06273544579744339,0.07485277950763702,0.12492132931947708
0.8833333333333333,0.14521175622940063,0.017149275168776512,0.0,0.5713253021240234,0.0,0.0,-0.8207237124443054,0.6982805132865906,0.14362733066082,0.0,0.0,0.0,-0.5811984539031982,0.43945351243019104,0.7180845141410828,0.4200000464916229,0.5662969350814819,2.2184403292158095e-07,-3.1965355447027832e-06,-0.8242013454437256,8.120293932734057e-05,-0.0002577007398940623,-8.495314978063107e-05,0.006357826758176088,-0.0016893571009859443,-0.0007083358359523118,0.5124672651290894,0.7415171265602112,0.5546355247497559,0.4288839101791382,0.24335679411888123,1.0728763341903687,0.4217798411846161,0.7256230115890503,0.42000001668930054,-0.7379321455955505,0.9433419704437256,-1.679745078086853,-3.000000238418579,-0.18333730101585388,-0.1785781979560852,-0.17123518884181976,-0.16307233273983002,0.15157875418663025,0.08869760483503342,0.028911836445331573,-0.0029736424330621958
0.9,0.15328291058540344,0.016722649335861206,0.0,0.5859963297843933,0.0,0.0,-0.8103137016296387,0.43631139397621155,-0.10172396153211594,0.0,0.0,0.0,2.982713460922241,0.4394535422325134,0.7180845737457275,0.4200000464916229,0.566297173500061,2.3705969454113074e-07,-3.1292063340515597e-06,-0.8242011070251465,7.611417095176876e-05,-0.0002624392509460449,-8.38693231344223e-05,0.006506061181426048,-0.001772615360096097,-0.0007058823830448091,0.515555739402771,0.7478607892990112,0.5699203014373779,-0.08568933606147766,0.4526848793029785,0.7953579425811768,0.4217798411846161,0.7256230115890503,0.42000001668930054,-0.7032119035720825,2.999976873397827,-1.640506625175476,3.000000238418579,-0.17863354086875916,-0.17507581412792206,-0.16899287700653076,-0.1617359220981598,0.2633938193321228,0.20428593456745148,0.13426318764686584,0.07735897600650787
0.9166666666666666,0.15652133524417877,0.01288888230919838,0.0,0.5863826274871826,0.0,0.0,-0.8100342154502869,0.09926143288612366,-0.3064787983894348,0.0,0.0,0.0,-0.9011425375938416,0.4394535422325134,0.7180845737457275,0.4200000464916229,0.566297173500061,3.5857902958014165e-07,-2.794771262415452e-06,-0.8242011070251465,7.645029108971357e-05,-0.0002619788283482194,-8.396175689995289e-05,0.0064932797104120255,-0.0017662610625848174,-0.0007057471666485071,0.5071514844894409,0.7541396617889404,0.5792863368988037,-0.8640203475952148,0.32715681195259094,0.48382458090782166,0.4217798411846161,0.7256230115890503,0.42000001668930054,-0.6862158179283142,-0.6575686931610107,-1.5904501676559448,2.999999523162842,-0.17609091103076935,-0.17304746806621552,-0.16772228479385376,-0.16110092401504517,0.13228999078273773,0.11272718012332916,0.07557820528745651,0.041433997452259064
0.9333333333333333,0.15622223913669586,0.013860726729035378,0.0,0.5982983112335205,0.0,0.0,-0.8012734651565552,-0.06367730349302292,0.18482767045497894,0.0,0.0,0.0,2.6555774211883545,0.43945351243019104,0.7180845141410828,0.4200000464916229,0.5662969350814819,2.5494190936115046e-07,-2.8462920909078093e-06,-0.8242011666297913,8.033606718527153e-05,-0.00025886407820507884,-8.483091369271278e-05,0.006392467301338911,-0.0017063700361177325,-0.0007087517296895385,0.49597692489624023,0.7568854689598083,0.5857181549072266,-0.48735886812210083,0.13968709111213684,0.33842140436172485,0.4217798411846161,0.7256230115890503,0.42000001668930054,-0.6691533327102661,2.4221065044403076,-1.5404280424118042,2.999999761581421,-0.17936228215694427,-0.1754077821969986,-0.16953453421592712,-0.16244067251682281,-0.25099989771842957,-0.1830337643623352,-0.13592812418937683,-0.09428092837333679
