vladlanda/robotic-transformer/data/env_000_episode_0253.csv
sim_time_s,robot_box_x,robot_box_y,robot_box_z,robot_box_quat_w,robot_box_quat_x,robot_box_quat_y,robot_box_quat_z,robot_box_linvel_x,robot_box_linvel_y,robot_box_linvel_z,robot_box_angvel_x,robot_box_angvel_y,robot_box_angvel_z,cube_world_x,cube_world_y,cube_world_z,cube_quat_w,cube_quat_x,cube_quat_y,cube_quat_z,cube_linvel_x,cube_linvel_y,cube_linvel_z,cube_angvel_x,cube_angvel_y,cube_angvel_z,endpoint_world_x,endpoint_world_y,endpoint_world_z,endpoint_linvel_x,endpoint_linvel_y,endpoint_linvel_z,target_cube_world_x,target_cube_world_y,target_cube_world_z,gripper_actual_pos_rad_gp_leftgearjoint,gripper_actual_vel_rad_s_gp_leftgearjoint,gripper_actual_pos_rad_gp_rotatingjoint,gripper_actual_vel_rad_s_gp_rotatingjoint,motor_angle_rad_joint1,motor_angle_rad_joint2,motor_angle_rad_joint3,motor_angle_rad_joint4,motor_speed_rad_s_joint1,motor_speed_rad_s_joint2,motor_speed_rad_s_joint3,motor_speed_rad_s_joint4
0.0,0.0,0.0,0.0,1.0,0.0,0.0,0.0,0.0,0.0,0.0,0.0,0.0,0.0,-0.3889073133468628,0.7281635403633118,0.41999998688697815,1.0,0.0,0.0,0.0,0.0,0.0,0.0,0.0,0.0,0.0,3.42540442943573e-06,-0.005000244826078415,1.313499927520752,0.0,0.0,0.0,0.381512314081192,0.6225218772888184,0.42000001668930054,-1.5707999467849731,0.0,0.0,0.0,0.0,0.0,0.0,0.0,0.0,0.0,0.0,0.0
0.016666666666666666,0.0028778850100934505,0.0021806680597364902,0.0,0.9998081922531128,0.0,0.0,0.019586581736803055,0.24087215960025787,0.18240931630134583,0.0,0.0,0.0,3.1418697834014893,-0.38890743255615234,0.7281632423400879,0.41999998688697815,1.0,3.279964630564791e-06,-8.339746386809566e-07,8.465587342243452e-08,-1.9833529222523794e-05,0.00017983045836444944,-6.132945418357849e-05,0.0009432713268324733,-0.004689474124461412,-0.00031981561915017664,-0.007110234349966049,0.003379564033821225,1.3159373998641968,-0.8143353462219238,0.9868683815002441,0.18095196783542633,0.381512314081192,0.6225218772888184,0.42000001668930054,-1.5301095247268677,3.0000011920928955,-0.04584788903594017,-2.9999992847442627,0.0008691533003002405,0.0007963840034790337,0.0007110277656465769,0.0006108740926720202,0.11094217747449875,0.09756709635257721,0.08334315568208694,0.06823883205652237
0.03333333333333333,0.00896098930388689,0.006801994517445564,0.0,0.9997960329055786,0.0,0.0,0.020196838304400444,0.40702202916145325,0.31530797481536865,0.0,0.0,0.0,-0.8691330552101135,-0.3889075517654419,0.7281631827354431,0.4200000464916229,1.0,3.3908354453160428e-06,-2.1324485715012997e-06,-3.710144014235084e-08,0.00026357831666246057,0.00026937946677207947,-0.00010509486310184002,-0.0017707672668620944,0.004130808170884848,-0.000135478752781637,-0.027553681284189224,0.026226092129945755,1.316591739654541,-1.5913808345794678,1.6160883903503418,-0.08564046770334244,0.381512314081192,0.6225218772888184,0.42000001668930054,-1.4800903797149658,2.9999985694885254,-0.09588772058486938,-3.0000011920928955,0.002990098437294364,0.0026527061127126217,0.002277274616062641,0.0018607282545417547,0.16421422362327576,0.13975790143013,0.11381667107343674,0.08629879355430603
0.05,0.018468955531716347,0.013898896984755993,0.0,0.9999787211418152,0.0,0.0,-0.006523879710584879,0.6362576484680176,0.4722164571285248,0.0,0.0,0.0,-4.0746564865112305,-0.3889075815677643,0.7281632423400879,0.4200000464916229,1.0,3.765139354072744e-06,-2.2119161258160602e-06,5.630195420991413e-09,0.0002653095289133489,0.00026691411039792,-0.00010440382175147533,-0.0017242460744455457,0.004177400842308998,-0.00012949357915204018,-0.05713968724012375,0.057322774082422256,1.3119502067565918,-1.9458740949630737,2.045206308364868,-0.45316192507743835,0.381512314081192,0.6225218772888184,0.42000001668930054,-1.4300720691680908,3.0000009536743164,-0.14592640101909637,-3.0000009536743164,0.006001907400786877,0.005159582477062941,0.004244777373969555,0.003253309056162834,0.2060428112745285,0.16541153192520142,0.12286362797021866,0.0783180370926857
0.06666666666666667,0.030758630484342575,0.023385701701045036,0.0,0.9998875856399536,0.0,0.0,-0.014995049685239792,0.7727261781692505,0.6159030199050903,0.0,0.0,0.0,-0.0390600711107254,-0.3889075815677643,0.7281631827354431,0.4200000464916229,0.9999999403953552,3.4067325032083318e-06,-2.285616346853203e-06,4.301086846680846e-07,0.0002670263056643307,0.0002679172612261027,-0.00010437914170324802,-0.0017406872939318419,0.004211808554828167,-0.0001285045873373747,-0.092453733086586,0.09046614915132523,1.3020405769348145,-2.153273820877075,2.097196340560913,-0.7243601083755493,0.381512314081192,0.6225218772888184,0.42000001668930054,-1.3800443410873413,3.0000038146972656,-0.12404199689626694,3.0000007152557373,0.00847015343606472,0.0068311239592731,0.005078566260635853,0.003208842361345887,0.12295292317867279,0.06407187134027481,0.003031041705980897,-0.060247160494327545
0.08333333333333333,0.03679472208023071,0.036749932914972305,0.0,0.9992439150810242,0.0,0.0,-0.03887847438454628,0.22706791758537292,0.8751876950263977,0.0,0.0,0.0,-3.810235023498535,-0.3889075815677643,0.7281631827354431,0.4200000464916229,0.9999999403953552,3.626018951763399e-06,-2.335360477445647e-06,3.0324326871777885e-07,0.00026613904628902674,0.00026685016928240657,-0.00010405411012470722,-0.0017283597262576222,0.004196425899863243,-0.00012790990876965225,-0.12266787886619568,0.12966875731945038,1.2884228229522705,-1.5079905986785889,2.611252784729004,-0.8410981893539429,0.381512314081192,0.6225218772888184,0.42000001668930054,-1.3300420045852661,2.9999992847442627,-0.15600289404392242,-3.000000476837158,0.004166010767221451,0.0016757111297920346,-0.0009825235465541482,-0.0038162977434694767,-0.38941967487335205,-0.4546234905719757,-0.5226064324378967,-0.5936154127120972
0.1,0.04660627618432045,0.051702529191970825,0.0,0.9959174990653992,0.0,0.0,-0.09026825428009033,0.738476037979126,0.9032912850379944,0.0,0.0,0.0,-6.967537879943848,-0.3889075815677643,0.7281631827354431,0.4200000464916229,1.0,3.422117288209847e-06,-2.3086265628080582e-06,1.7964211451726442e-07,0.0002668147499207407,0.0002680043689906597,-0.00010440591722726822,-0.0017430688021704555,0.004207088612020016,-0.0001289069332415238,-0.14970266819000244,0.1752644032239914,1.2740328311920166,-1.72581148147583,2.884951591491699,-0.9372342824935913,0.381512314081192,0.6225218772888184,0.42000001668930054,-1.2800260782241821,2.999999761581421,-0.14645284414291382,3.000002145767212,0.002112205373123288,-0.001981557346880436,-0.006247053388506174,-0.010692241601645947,-0.03184312954545021,-0.1349242925643921,-0.23699994385242462,-0.3380171060562134
0.11666666666666667,0.055140431970357895,0.06374496221542358,0.0,0.992526650428772,0.0,0.0,-0.12202807515859604,0.5392590761184692,0.6847382187843323,0.0,0.0,0.0,-2.5798614025115967,-0.3889075815677643,0.7281632423400879,0.4200000464916229,1.0,3.7115232771611772e-06,-2.332744770683348e-06,2.5743875653461146e-07,0.0002648573135957122,0.0002663538616616279,-0.0001042329240590334,-0.0017182383453473449,0.004170004278421402,-0.00012915604747831821,-0.18194863200187683,0.22066257894039154,1.2567743062973022,-1.8889472484588623,2.934018135070801,-1.0460115671157837,0.381512314081192,0.6225218772888184,0.42000001668930054,-1.2300374507904053,3.000000238418579,-0.17823800444602966,-3.000000238418579,-0.0006388111505657434,-0.006354199256747961,-0.01221549604088068,-0.018230579793453217,-0.08042582124471664,-0.19632622599601746,-0.3089252710342407,-0.41806310415267944
0.13333333333333333,0.06150607764720917,0.0737835168838501,0.0,0.9865367412567139,0.0,0.0,-0.16353972256183624,0.3410515785217285,0.5017552971839905,0.0,0.0,0.0,-5.842363357543945,-0.3889075815677643,0.7281631827354431,0.4200000464916229,0.9999999403953552,3.4247721032443224e-06,-2.302058646819205e-06,1.5600532776716136e-07,0.0002670695830602199,0.00026811397401615977,-0.0001044438686221838,-0.0017433526227250695,0.004212038591504097,-0.00012877356493845582,-0.21192894876003265,0.2749727964401245,1.235670566558838,-1.6396188735961914,3.6484198570251465,-1.4648005962371826,0.381512314081192,0.6225218772888184,0.42000001668930054,-1.1800243854522705,2.9999923706054688,-0.14455504715442657,3.0000007152557373,-0.003289174987003207,-0.010846294462680817,-0.018483079969882965,-0.02620554156601429,-0.19651342928409576,-0.300126314163208,-0.39947471022605896,-0.4944659173488617
0.15,0.06410787254571915,0.08389797806739807,0.0,0.9824891686439514,0.0,0.0,-0.1863197684288025,0.07652365416288376,0.6418424844741821,0.0,0.0,0.0,-1.359734058380127,-0.3889075815677643,0.7281631827354431,0.4200000464916229,1.0,3.7139011510589626e-06,-2.207917759733391e-06,-1.6907199551496888e-07,0.0002635329437907785,0.00026536150835454464,-0.00010421965271234512,-0.0017012760508805513,0.004144118633121252,-0.0001296106056543067,-0.2460673451423645,0.33219191431999207,1.205522060394287,-2.1314239501953125,3.4941158294677734,-2.140439510345459,0.381512314081192,0.6225218772888184,0.42000001668930054,-1.149977684020996,0.7756567597389221,-0.17635692656040192,-2.9999992847442627,-0.007990673184394836,-0.01693849079310894,-0.025884918868541718,-0.03483542799949646,-0.3447026014328003,-0.4065258502960205,-0.4636949598789215,-0.516275942325592
0.16666666666666666,0.06897664815187454,0.09574951976537704,0.0,0.975652813911438,0.0,0.0,-0.21932072937488556,0.31817007064819336,0.7628158330917358,0.0,0.0,0.0,-4.915566921234131,-0.3889075815677643,0.7281631827354431,0.4200000464916229,0.9999999403953552,3.6384042232384672e-06,-2.2789229205955053e-06,2.7008715619558643e-07,0.0002668272063601762,0.00026750034885481,-0.00010409974493086338,-0.001739923725835979,0.00421003857627511,-0.00012781501573044807,-0.2803189754486084,0.39629530906677246,1.1643491983413696,-1.8745582103729248,4.168666839599609,-2.83021879196167,0.381512314081192,0.6225218772888184,0.42000001668930054,-1.1073296070098877,3.0000016689300537,-0.2045111507177353,-0.5634459853172302,-0.014367690309882164,-0.02407136745750904,-0.03370964899659157,-0.043291013687849045,-0.5219194889068604,-0.5393334627151489,-0.5543488264083862,-0.5672637820243835
0.18333333333333332,0.0717778205871582,0.10561387985944748,0.0,0.9680115580558777,0.0,0.0,-0.2509056329727173,0.12551672756671906,0.5199538469314575,0.0,0.0,0.0,-3.380225658416748,-0.3889075815677643,0.7281631827354431,0.4200000464916229,1.0,3.386441903785453e-06,-2.3003881324257236e-06,1.4394986180832348e-07,0.00026674504624679685,0.00026787177193909883,-0.00010436959564685822,-0.0017412236193194985,0.004205957055091858,-0.00012878549750894308,-0.3129039406776428,0.4630645513534546,1.1104216575622559,-1.7623183727264404,4.0836567878723145,-3.5993242263793945,0.381512314081192,0.6225218772888184,0.42000001668930054,-1.0635807514190674,2.2754263877868652,-0.2516278624534607,-3.0000007152557373,-0.025056766346096992,-0.03463561460375786,-0.04412176460027695,-0.05353282019495964,-0.6848527193069458,-0.6639692783355713,-0.6419023871421814,-0.619259774684906
0.2,0.07072289288043976,0.11633241176605225,0.0,0.9548460841178894,0.0,0.0,-0.29710087180137634,-0.13824237883090973,0.6878251433372498,0.0,0.0,0.0,-6.571409225463867,-0.3889075815677643,0.7281632423400879,0.4200000464916229,1.0,3.6755063774762675e-06,-2.326639560124022e-06,2.2115435172054276e-07,0.00026484508998692036,0.0002663136983755976,-0.00010421895422041416,-0.001717768725939095,0.004169930703938007,-0.00012909887300338596,-0.3404386341571808,0.5332854986190796,1.0437742471694946,-1.356887936592102,4.306160926818848,-4.335409164428711,0.381512314081192,0.6225218772888184,0.42000001668930054,-1.0146205425262451,3.0000014305114746,-0.30165332555770874,-3.000000476837158,-0.038946732878685,-0.04798191413283348,-0.05690114572644234,-0.06573380529880524,-0.8929183483123779,-0.85284423828125,-0.8115335702896118,-0.769660472869873
0.21666666666666667,0.07309623062610626,0.1256224364042282,0.0,0.9455958008766174,0.0,0.0,-0.32534387707710266,0.14908593893051147,0.5234302282333374,0.0,0.0,0.0,-2.347524881362915,-0.3889075815677643,0.7281631827354431,0.4200000464916229,1.0,3.3222438560187584e-06,-2.2081051156419562e-06,2.74300816727191e-07,0.0002666279615368694,0.00026749621611088514,-0.00010426435619592667,-0.0017357913311570883,0.004204741679131985,-0.00012833758955821395,-0.36512136459350586,0.5982270836830139,0.9644899964332581,-1.1825973987579346,3.750408172607422,-5.190010070800781,0.381512314081192,0.6225218772888184,0.42000001668930054,-0.9646174311637878,2.9999983310699463,-0.3516806960105896,-3.0000011920928955,-0.05279292166233063,-0.060849472880363464,-0.06873790919780731,-0.07656926661729813,-0.9750609993934631,-0.9201663732528687,-0.8216312527656555,-0.7275694608688354
0.23333333333333334,0.07112666219472885,0.13750115036964417,0.0,0.931556224822998,0.0,0.0,-0.3635973334312439,-0.1679484099149704,0.7417196035385132,0.0,0.0,0.0,-5.644415378570557,-0.3889075815677643,0.7281631827354431,0.4200000464916229,1.0,3.656482931546634e-06,-2.3735231025057146e-06,-4.0765050357549626e-07,0.00026611628709360957,0.00026726044598035514,-0.00010423432104289532,-0.0017335705924779177,0.004194592125713825,-0.00012855060049332678,-0.38274478912353516,0.6552512645721436,0.8699018955230713,-0.7929978370666504,3.211000919342041,-5.948274612426758,0.381512314081192,0.6225218772888184,0.42000001668930054,-0.9146074056625366,2.9999990463256836,-0.40171074867248535,-3.0000011920928955,-0.06805974990129471,-0.07631314545869827,-0.08438210189342499,-0.09232021123170853,-0.9285680651664734,-0.9368202686309814,-0.942238986492157,-0.9436569809913635
0.25,0.06817155331373215,0.14277052879333496,0.0,0.9284968972206116,0.0,0.0,-0.37134015560150146,-0.31598275899887085,0.16205213963985443,0.0,0.0,0.0,0.763650119304657,-0.3889075815677643,0.7281632423400879,0.4200000464916229,1.0,3.6304659261077177e-06,-2.2426834220823366e-06,1.1243809439065444e-08,0.0002668007218744606,0.00026706093922257423,-0.00010391091927886009,-0.0017341827042400837,0.004210536368191242,-0.00012702924141194671,-0.4001448154449463,0.6981261968612671,0.7707229852676392,-0.9835706949234009,1.9900145530700684,-6.0376715660095215,0.381512314081192,0.6225218772888184,0.42000001668930054,-0.8645969033241272,2.9999892711639404,-0.4517419636249542,-2.9999990463256836,-0.08069926500320435,-0.08893566578626633,-0.09695766866207123,-0.10480479896068573,-0.9043561816215515,-0.8667553663253784,-0.8294423222541809,-0.7920203804969788
0.26666666666666666,0.06569905579090118,0.1430547535419464,0.0,0.9237568378448486,0.0,0.0,-0.38297954201698303,-0.1788153350353241,-0.10589069128036499,0.0,0.0,0.0,-1.652965784072876,-0.3889075517654419,0.7281631827354431,0.4200000464916229,0.9999999403953552,3.7401318877527956e-06,-2.2363806237990502e-06,4.4999393367106677e-07,0.00026479564257897437,0.00026673072716221213,-0.00010453932918608189,-0.0017189128557220101,0.004166663624346256,-0.00013017054880037904,-0.4128103256225586,0.7266432642936707,0.6646856665611267,-0.5293461084365845,1.2854392528533936,-6.42529296875,0.381512314081192,0.6225218772888184,0.42000001668930054,-0.8145874738693237,3.0000016689300537,-0.5017732381820679,-2.999981641769409,-0.09707918018102646,-0.10523325204849243,-0.1130872517824173,-0.12025906890630722,-0.9698329567909241,-0.9667428731918335,-0.9543805718421936,-0.9444849491119385
0.2833333333333333,0.056693535298109055,0.14742450416088104,0.0,0.9275428652763367,0.0,0.0,-0.3737167716026306,-0.6651748418807983,0.39628201723098755,0.0,0.0,0.0,2.193850040435791,-0.3889075815677643,0.7281631827354431,0.4200000464916229,1.0,3.3915966923814267e-06,-2.2912456643098267e-06,1.2462975007565547e-07,0.0002667733933776617,0.0002678931050468236,-0.0001043747179210186,-0.0017412645975127816,0.004206323996186256,-0.00012878462439402938,-0.418276846408844,0.7345589399337769,0.5630897283554077,-0.09480784833431244,-0.23716706037521362,-5.690749645233154,0.381512314081192,0.6225218772888184,0.42000001668930054,-0.7645787000656128,2.9999990463256836,-0.551802933216095,-2.9999990463256836,-0.11539760231971741,-0.12313112616539001,-0.13066957890987396,-0.13759510219097137,-1.0084822177886963,-1.006404161453247,-1.0048155784606934,-1.003548502922058
0.3,0.05119384825229645,0.1486969143152237,0.0,0.9259029030799866,0.0,0.0,-0.3777616620063782,-0.3077876567840576,0.0774870216846466,0.0,0.0,0.0,-1.0957295894622803,-0.3889075815677643,0.7281632423400879,0.4200000464916229,1.0,3.680711870401865e-06,-2.3191942091216333e-06,2.0111754395202297e-07,0.0002647892397362739,0.00026625761529430747,-0.00010421173647046089,-0.0017168031772598624,0.0041688899509608746,-0.00012909690849483013,-0.4165102243423462,0.7333358526229858,0.46728241443634033,0.46787676215171814,-0.27407559752464294,-5.562456130981445,0.381512314081192,0.6225218772888184,0.42000001668930054,-0.7145704627037048,3.0000011920928955,-0.6018313765525818,-3.0000011920928955,-0.12991668283939362,-0.13791784644126892,-0.14571444690227509,-0.15279734134674072,-1.0152883529663086,-1.0115575790405273,-1.0087045431137085,-1.0064194202423096
0.31666666666666665,0.04315805807709694,0.14895494282245636,0.0,0.9309145212173462,0.0,0.0,-0.3652370572090149,-0.5630583167076111,-0.010704802349209785,0.0,0.0,0.0,2.471031904220581,-0.3887660503387451,0.7275674939155579,0.4203357994556427,0.999916672706604,0.008318792097270489,0.00010375681449659169,-0.00986525695770979,0.024170570075511932,-0.20169632136821747,0.11462397873401642,5.860380172729492,-0.12803658843040466,-8.247946739196777,-0.4111456573009491,0.7325210571289062,0.4267590045928955,0.10937494039535522,-0.19611850380897522,-0.20258793234825134,0.381512314081192,0.6225218772888184,0.42000001668930054,-0.6645877361297607,2.997196674346924,-0.6522514820098877,-3.002384662628174,-0.14068752527236938,-0.1489754468202591,-0.1569133996963501,-0.16393156349658966,-0.22942829132080078,-0.2808748185634613,-0.31416720151901245,-0.3240945637226105
0.3333333333333333,0.0316917710006237,0.14692115783691406,0.0,0.9297271370887756,0.0,0.0,-0.36824917793273926,-0.5571282505989075,-0.24677324295043945,0.0,0.0,0.0,-1.2909015417099,-0.38827309012413025,0.724428653717041,0.42117080092430115,0.9978283047676086,0.030097566545009613,-0.0016212363261729479,-0.05856772139668465,0.03149005398154259,-0.1812620759010315,0.030728910118341446,1.6094365119934082,-0.1190759539604187,-5.162187576293945,-0.40938618779182434,0.7319868206977844,0.424072265625,0.22423392534255981,0.11276225000619888,-0.2200441062450409,0.381512314081192,0.6225218772888184,0.42000001668930054,-0.6145813465118408,2.999985933303833,-0.7023014426231384,-2.9997410774230957,-0.1470547467470169,-0.15529657900333405,-0.16289910674095154,-0.1692533642053604,-0.16463838517665863,-0.1899654120206833,-0.1946832835674286,-0.17719708383083344
0.35,0.02080341801047325,0.1413375288248062,0.0,0.9341670274734497,0.0,0.0,-0.35683614015579224,-0.7119163274765015,-0.3865761160850525,0.0,0.0,0.0,2.1426501274108887,-0.38469967246055603,0.7258762717247009,0.42146214842796326,0.9915623068809509,0.037722740322351456,-0.004569188226014376,-0.12393654137849808,0.38439464569091797,0.3104248046875,0.0118288304656744,0.6468653082847595,-0.11930513381958008,-12.646403312683105,-0.40388593077659607,0.7368679046630859,0.4207495450973511,0.3746252655982971,0.43357327580451965,-0.16323097050189972,0.381512314081192,0.6225218772888184,0.42000001668930054,-0.5645763278007507,2.999199390411377,-0.752336859703064,-2.9995973110198975,-0.15191906690597534,-0.15986321866512299,-0.16686119139194489,-0.17231616377830505,-0.313510924577713,-0.2847956120967865,-0.23735401034355164,-0.1732804924249649
0.36666666666666664,0.00808539055287838,0.13317818939685822,0.0,0.9321273565292358,0.0,0.0,-0.36213061213493347,-0.8366552591323853,-0.5334785580635071,0.0,0.0,0.0,-1.6200834512710571,-0.3782937228679657,0.7311117649078369,0.4203420877456665,0.97884202003479,0.003999984823167324,-0.002781459130346775,-0.2045590877532959,0.4538710415363312,0.3865381181240082,-0.08924312144517899,-7.692227840423584,2.3006110191345215,-0.14155800640583038,-0.3967140316963196,0.7427810430526733,0.4209381341934204,0.5655726194381714,0.4055495858192444,0.0846736803650856,0.381512314081192,0.6225218772888184,0.42000001668930054,-0.5145712494850159,3.000002145767212,-0.802361249923706,-2.999953269958496,-0.15870042145252228,-0.1653129756450653,-0.17063434422016144,-0.17413842678070068,-0.40510109066963196,-0.2976677417755127,-0.16953694820404053,-0.026224525645375252
0.3833333333333333,-0.0024982094764709473,0.12212113291025162,0.0,0.9197507500648499,0.0,0.0,-0.39250290393829346,-0.5622631907463074,-0.7189038395881653,0.0,0.0,0.0,-4.736063003540039,-0.3667992353439331,0.7410875558853149,0.4203255772590637,0.9749003648757935,-0.00802620779722929,0.0018039322458207607,-0.22248922288417816,0.8057764768600464,0.7251997590065002,0.06197180598974228,-2.8701364994049072,1.3067655563354492,-3.6497600078582764,-0.3847026526927948,0.7517093420028687,0.42070916295051575,0.860367476940155,0.6412294507026672,0.10865559428930283,0.381512314081192,0.6225218772888184,0.42000001668930054,-0.46452802419662476,2.9999945163726807,-0.8523727059364319,-2.9999773502349854,-0.16575738787651062,-0.1701347678899765,-0.17284438014030457,-0.17347478866577148,-0.39260250329971313,-0.24262391030788422,-0.06943206489086151,0.11939898878335953
0.4,-0.01536109670996666,0.10908450186252594,0.0,0.8941418528556824,0.0,0.0,-0.44778382778167725,-0.8780063390731812,-0.8030024170875549,0.0,0.0,0.0,-8.227852821350098,-0.3454083204269409,0.7579824924468994,0.42254313826560974,0.9617433547973633,-0.04429309815168381,-0.013242138549685478,-0.2700229287147522,1.7828351259231567,1.210597038269043,0.5570747256278992,-4.5419020652771,-9.580435752868652,9.73659896850586,-0.3630068600177765,0.768563985824585,0.422847718000412,1.8603894710540771,1.4147286415100098,0.13237443566322327,0.381512314081192,0.6225218772888184,0.42000001668930054,-0.41451582312583923,2.934807062149048,-0.9023869633674622,-2.9947826862335205,-0.17473731935024261,-0.17601190507411957,-0.17525123059749603,-0.17219208180904388,-0.5868330001831055,-0.38072752952575684,-0.15511439740657806,0.08041304349899292
0.4166666666666667,-0.025579044595360756,0.09323947131633759,0.0,0.8522478938102722,0.0,0.0,-0.5231382250785828,-0.5624067783355713,-0.992716372013092,0.0,0.0,0.0,-11.040507316589355,-0.2908473610877991,0.7860211133956909,0.4268595278263092,0.9438363909721375,-0.010557462461292744,-0.05654294416308403,-0.32536786794662476,4.672970294952393,2.17977237701416,0.30082130432128906,24.337121963500977,-17.991283416748047,7.940206050872803,-0.3071773648262024,0.7999069094657898,0.42565810680389404,4.463078498840332,2.2228755950927734,0.3358169496059418,0.381512314081192,0.6225218772888184,0.42000001668930054,-0.38232913613319397,1.0854275226593018,-0.8654579520225525,2.996066093444824,-0.18680085241794586,-0.1833590567111969,-0.17771127820014954,-0.1697942167520523,-0.7938869595527649,-0.48052549362182617,-0.16386546194553375,0.1432054042816162
0.43333333333333335,-0.033038169145584106,0.08274483680725098,0.0,0.7910512089729309,0.0,0.0,-0.6117498874664307,-0.3691146671772003,-0.6894104480743408,0.0,0.0,0.0,-13.627943992614746,-0.19289031624794006,0.8190680742263794,0.4335635006427765,0.9155998229980469,0.053337469696998596,-0.10308834165334702,-0.3849738538265228,7.1702446937561035,1.6615161895751953,0.5521661043167114,0.4825904071331024,-6.5227179527282715,16.509458541870117,-0.20752514898777008,0.8356119394302368,0.43186378479003906,7.0834550857543945,2.307831048965454,0.46719878911972046,0.381512314081192,0.6225218772888184,0.42000001668930054,-0.36853906512260437,0.6965709328651428,-0.820959746837616,2.414663314819336,-0.20233002305030823,-0.19755953550338745,-0.18666291236877441,-0.17246748507022858,-0.5152106285095215,-0.5987902879714966,-0.4661208689212799,-0.17121589183807373
0.45,-0.037041325122117996,0.07410597056150436,0.0,0.7361604571342468,0.0,0.0,-0.6768070459365845,-0.19301292300224304,-0.44874250888824463,0.0,0.0,0.0,-9.09382438659668,-0.08153542876243591,0.8447657227516174,0.4439789354801178,0.8569433689117432,0.07685726881027222,-0.11793561279773712,-0.4958145320415497,6.601771831512451,0.2587827742099762,0.8994057774543762,18.498455047607422,-3.874547004699707,31.00373649597168,-0.09393414855003357,0.8648129105567932,0.4426473081111908,6.739727973937988,1.1055285930633545,0.7163991928100586,0.381512314081192,0.6225218772888184,0.42000001668930054,-0.3565390110015869,0.7492663860321045,-0.8516614437103271,-3.0000011920928955,-0.21489034593105316,-0.20965513586997986,-0.1957089602947235,-0.17657536268234253,-0.7930426001548767,-0.7143946886062622,-0.5280564427375793,-0.2640073895454407
0.4666666666666667,-0.042853984981775284,0.06203684210777283,0.0,0.7014670968055725,0.0,0.0,-0.7127018570899963,-0.3368470370769501,-0.6719026565551758,0.0,0.0,0.0,-4.630302429199219,0.023015562444925308,0.8506971001625061,0.4558575749397278,0.8104841709136963,0.08009418100118637,-0.10126873105764389,-0.5713536739349365,5.9652276039123535,-0.8575186133384705,0.5270611643791199,-2.585780620574951,-23.68587303161621,4.692944526672363,0.013533169403672218,0.873999297618866,0.4553517699241638,6.34647274017334,-0.20410564541816711,0.8863024711608887,0.381512314081192,0.6225218772888184,0.42000001668930054,-0.3426019251346588,0.8040181398391724,-0.9016855359077454,-3.000005006790161,-0.22805260121822357,-0.2199319303035736,-0.2020045965909958,-0.17814920842647552,-0.9999992251396179,-0.7657010555267334,-0.4588685631752014,-0.13704659044742584
0.48333333333333334,-0.04579384624958038,0.0562262162566185,0.0,0.6922619938850403,0.0,0.0,-0.721646249294281,-0.07682477682828903,-0.2594771385192871,0.0,0.0,0.0,-0.3524019718170166,0.11446605622768402,0.8340927958488464,0.46686500310897827,0.7473920583724976,0.06462812423706055,-0.09397855401039124,-0.6545198559761047,4.94775390625,-1.6919491291046143,0.38766083121299744,-25.5311279296875,-12.644441604614258,1.7356231212615967,0.10902552306652069,0.8600874543190002,0.4682241678237915,5.141010284423828,-1.2937347888946533,0.7911750078201294,0.381512314081192,0.6225218772888184,0.42000001668930054,-0.32981550693511963,0.5792094469070435,-0.9517095685005188,-3.000002145767212,-0.2400466501712799,-0.2357819527387619,-0.21281397342681885,-0.18309319019317627,0.0002306145615875721,-0.8024302124977112,-0.5998940467834473,-0.31013378500938416
0.5,-0.04426177591085434,0.046391069889068604,0.0,0.6742705702781677,0.0,0.0,-0.7384844422340393,0.11120407283306122,-0.6147060394287109,0.0,0.0,0.0,-3.8083157539367676,0.19077172875404358,0.8078935146331787,0.470822811126709,0.6416412591934204,-0.008114892989397049,-0.16235776245594025,-0.7495802640914917,3.85386061668396,-2.7187094688415527,0.21313996613025665,-28.551097869873047,18.983469009399414,-0.7812212705612183,0.18530645966529846,0.8360106348991394,0.47670841217041016,4.236008644104004,-1.8381184339523315,0.44005247950553894,0.381512314081192,0.6225218772888184,0.42000001668930054,-0.3239290714263916,0.060414135456085205,-1.0017333030700684,-2.9958949089050293,-0.23648642003536224,-0.24002252519130707,-0.21766656637191772,-0.184640571475029,0.08653078973293304,-0.02966240420937538,-0.22423413395881653,-0.04930739104747772
0.5166666666666666,-0.04377613961696625,0.042023494839668274,0.0,0.6685383319854736,0.0,0.0,-0.7436776757240295,-0.0031547730322927237,-0.1488693654537201,0.0,0.0,0.0,0.010633422993123531,0.25007930397987366,0.7732358574867249,0.4734511375427246,0.6010280847549438,-0.04243219271302223,-0.12187322974205017,-0.7887405157089233,3.448666572570801,-3.113722801208496,0.4369935691356659,-5.599127769470215,8.8728609085083,14.264924049377441,0.24800363183021545,0.8005304336547852,0.4807063341140747,3.235198497772217,-2.203519105911255,0.012184113264083862,0.381512314081192,0.6225218772888184,0.42000001668930054,-0.3283177614212036,-0.47521188855171204,-1.051755428314209,-3.0000014305114746,-0.23792067170143127,-0.2398567646741867,-0.2219073325395584,-0.18679054081439972,0.027205614373087883,0.03630218654870987,-0.1431543529033661,-0.10688942670822144
0.5333333333333333,-0.041268691420555115,0.03377889469265938,0.0,0.6522945165634155,0.0,0.0,-0.757965624332428,0.16542726755142212,-0.5035752654075623,0.0,0.0,0.0,-3.4182755947113037,0.3001076877117157,0.7392913103103638,0.4686632454395294,0.5569894909858704,-0.07307642698287964,-0.10091155022382736,-0.8211207985877991,2.6288530826568604,-2.9977188110351562,-0.01640208438038826,16.594011306762695,16.56043243408203,22.89727020263672,0.29874831438064575,0.764862060546875,0.4771113991737366,2.5628890991210938,-2.1329925060272217,-0.4767492413520813,0.381512314081192,0.6225218772888184,0.42000001668930054,-0.34103259444236755,-1.0214704275131226,-1.1017775535583496,-2.9982197284698486,-0.23087330162525177,-0.23344871401786804,-0.21940535306930542,-0.18571600317955017,0.3758077919483185,0.38041356205940247,0.17498233914375305,0.04701625555753708
0.55,-0.03682008758187294,0.03050592914223671,0.0,0.6492396593093872,0.0,0.0,-0.7605838775634766,0.314932644367218,-0.19145195186138153,0.0,0.0,0.0,0.34321343898773193,0.3366900682449341,0.7050047516822815,0.45910194516181946,0.5277056097984314,-0.11086961627006531,-0.06671006232500076,-0.839514434337616,1.7640492916107178,-2.157083511352539,-0.6895849108695984,-0.09052800387144089,7.83473539352417,-2.2133231163024902,0.3352377712726593,0.7282599806785583,0.46801599860191345,1.8501944541931152,-2.1008572578430176,-0.6668161153793335,0.381512314081192,0.6225218772888184,0.42000001668930054,-0.35772690176963806,-0.5042788982391357,-1.1517996788024902,-3.0000009536743164,-0.22644217312335968,-0.22834788262844086,-0.2172110378742218,-0.18615388870239258,0.4178110659122467,0.426503986120224,0.22669890522956848,-6.570771802216768e-06
0.5666666666666667,-0.02989341877400875,0.029246658086776733,0.0,0.63615882396698,0.0,0.0,-0.7715581059455872,0.46371716260910034,0.038769420236349106,0.0,0.0,0.0,-2.874997615814209,0.36152270436286926,0.6750755906105042,0.4429343044757843,0.5116543769836426,-0.15879657864570618,-0.03961775824427605,-0.8434594869613647,1.1502431631088257,-1.723063588142395,-1.0874409675598145,-5.243387222290039,8.791359901428223,-1.106930136680603,0.3615540564060211,0.6980303525924683,0.45175859332084656,1.2503291368484497,-1.6254384517669678,-1.103237271308899,0.381512314081192,0.6225218772888184,0.42000001668930054,-0.3522298038005829,0.9062669277191162,-1.2018065452575684,-2.9997498989105225,-0.217696875333786,-0.2202378362417221,-0.21298514306545258,-0.18678545951843262,0.5497325658798218,0.495523601770401,0.25580501556396484,-0.07281968742609024
0.5833333333333334,-0.023164162412285805,0.023746896535158157,0.0,0.636181652545929,0.0,0.0,-0.7715393304824829,0.36895132064819336,-0.45463910698890686,0.0,0.0,0.0,0.9509392380714417,0.3766573369503021,0.6539176106452942,0.42592325806617737,0.5130053758621216,-0.10591313987970352,0.021706612780690193,-0.8515495657920837,0.2916085422039032,-1.3072267770767212,-0.32336103916168213,23.216331481933594,-10.126200675964355,4.552173137664795,0.37623557448387146,0.6741654872894287,0.4324667453765869,0.2548336088657379,-1.0515267848968506,-0.7392810583114624,0.381512314081192,0.6225218772888184,0.42000001668930054,-0.33371007442474365,1.2517849206924438,-1.1639313697814941,3.000004291534424,-0.20363250374794006,-0.20767894387245178,-0.2048545628786087,-0.1849769651889801,0.95408034324646,0.851544201374054,0.5862723588943481,0.1890556663274765
0.6,-0.015111670829355717,0.021163562312722206,0.0,0.6261910200119019,0.0,0.0,-0.7796697020530701,0.5189051628112793,-0.07312425225973129,0.0,0.0,0.0,-2.294961929321289,0.3803534209728241,0.6459659934043884,0.4230506122112274,0.5432979464530945,-0.04551735147833824,0.07035278528928757,-0.8353477120399475,0.0499085932970047,-0.5544071197509766,-0.09185663610696793,-1.7872748374938965,-4.254542827606201,10.730947494506836,0.3766140937805176,0.6625197529792786,0.4280392825603485,-0.06519556790590286,-0.4539427161216736,-0.1194443330168724,0.381512314081192,0.6225218772888184,0.42000001668930054,-0.3233985900878906,0.22435002028942108,-1.1138536930084229,2.992983818054199,-0.19123269617557526,-0.19680270552635193,-0.19790019094944,-0.1843065321445465,0.6885921955108643,0.5905500650405884,0.364842027425766,-0.009698893874883652
0.6166666666666667,-0.010056775063276291,0.017019830644130707,0.0,0.6292802095413208,0.0,0.0,-0.7771784663200378,0.22593286633491516,-0.3219306170940399,0.0,0.0,0.0,1.2810968160629272,0.3791476786136627,0.6380477547645569,0.42157208919525146,0.583319902420044,-0.023742232471704483,0.031968578696250916,-0.8112657070159912,-0.11309069395065308,-0.46496546268463135,-0.13530012965202332,-2.8371622562408447,-7.436268329620361,3.2872471809387207,0.37367522716522217,0.6553102731704712,0.42892134189605713,-0.25904613733291626,-0.3404885530471802,0.13974380493164062,0.381512314081192,0.6225218772888184,0.42000001668930054,-0.35629019141197205,-3.0000367164611816,-1.1360450983047485,-2.9981870651245117,-0.18259456753730774,-0.1887734979391098,-0.19238920509815216,-0.1839333325624466,0.46698588132858276,0.4541723132133484,0.3396717309951782,0.06466352939605713
0.6333333333333333,-0.0037982510402798653,0.016919229179620743,0.0,0.6234583854675293,0.0,0.0,-0.7818565368652344,0.3922765851020813,-0.008207390084862709,0.0,0.0,0.0,-2.1825177669525146,0.37736013531684875,0.6348959803581238,0.42046618461608887,0.5825817584991455,-0.00782761536538601,0.0031849879305809736,-0.8127281069755554,0.11143270879983902,0.08274908363819122,0.1494339108467102,-1.7039483785629272,5.039273738861084,0.6989611983299255,0.37199634313583374,0.6537096500396729,0.4311102032661438,0.15440800786018372,0.10425739735364914,0.14117351174354553,0.381512314081192,0.6225218772888184,0.42000001668930054,-0.38486286997795105,-0.6194205284118652,-1.1859575510025024,-2.9969682693481445,-0.17733736336231232,-0.18355117738246918,-0.1886005848646164,-0.18415918946266174,0.4923439025878906,0.4416525661945343,0.32642897963523865,0.0682058185338974
0.65,0.004018575418740511,0.012230213731527328,0.0,0.627633273601532,0.0,0.0,-0.7785090804100037,0.472181111574173,-0.30876192450523376,0.0,0.0,0.0,1.521140217781067,0.37842047214508057,0.6374291777610779,0.4217051863670349,0.614988386631012,-0.030738569796085358,0.0023456453345716,-0.7879332304000854,0.03232067450881004,0.06730640679597855,0.051574770361185074,-1.154971957206726,1.5275535583496094,3.079390525817871,0.37263691425323486,0.6553157567977905,0.43408891558647156,-0.08827134966850281,0.07934814691543579,0.21622128784656525,0.381512314081192,0.6225218772888184,0.42000001668930054,-0.42534083127975464,-3.000000476837158,-1.235940933227539,-2.998885154724121,-0.16733971238136292,-0.17439787089824677,-0.1811918169260025,-0.18079407513141632,0.5052367448806763,0.48776569962501526,0.42323964834213257,0.22326961159706116
0.6666666666666666,0.014808492735028267,0.011073953472077847,0.0,0.6533715128898621,0.0,0.0,-0.7570374608039856,0.6817712783813477,-0.04935123398900032,0.0,0.0,0.0,4.7555341720581055,0.3773600459098816,0.6386673450469971,0.4213850200176239,0.6116793155670166,-0.023731477558612823,-0.020201295614242554,-0.7904917001724243,-0.11517073214054108,0.10927325487136841,-0.0279220063239336,-2.3066565990448,-4.953683376312256,-0.6800882816314697,0.37132370471954346,0.6572882533073425,0.43792396783828735,-0.08442758023738861,0.21110516786575317,0.276248961687088,0.381512314081192,0.6225218772888184,0.42000001668930054,-0.47530797123908997,-2.9984238147735596,-1.2859023809432983,-2.9987590312957764,-0.1618087887763977,-0.16859446465969086,-0.17567099630832672,-0.17761652171611786,0.4093557894229889,0.4127197861671448,0.39621272683143616,0.27033790946006775
0.6833333333333333,0.022927062585949898,0.006685412488877773,0.0,0.6637151837348938,0.0,0.0,-0.7479854226112366,0.3941570520401001,-0.309293657541275,0.0,0.0,0.0,0.577587902545929,0.37571996450424194,0.6398079991340637,0.420606791973114,0.6067246198654175,0.0053270477801561356,-0.011334177106618881,-0.7948133945465088,-0.12798768281936646,0.06193392351269722,-0.051772233098745346,3.7371909618377686,-2.5537710189819336,-0.7115429043769836,0.37019017338752747,0.6598442792892456,0.44369953870773315,-0.10708437860012054,0.06304888427257538,0.376781702041626,0.381512314081192,0.6225218772888184,0.42000001668930054,-0.5252875685691833,-2.9998135566711426,-1.3358792066574097,-2.999948263168335,-0.15636774897575378,-0.16221418976783752,-0.16848652064800262,-0.17123277485370636,0.22650085389614105,0.33028021454811096,0.4338855743408203,0.45139822363853455
0.7,0.03092603012919426,-0.0005770068382844329,0.0,0.6514957547187805,0.0,0.0,-0.7586522698402405,0.519318699836731,-0.5002884268760681,0.0,0.0,0.0,-2.8167011737823486,0.3746074140071869,0.6403226256370544,0.42000114917755127,0.6044536828994751,2.157192739105085e-06,-1.141581560659688e-05,-0.7966402173042297,-0.03106224350631237,0.016142556443810463,-0.0004522062372416258,0.014358778484165668,0.02129744179546833,-0.15535666048526764,0.3747017979621887,0.6610425710678101,0.4555847644805908,0.6089041233062744,0.06075587496161461,1.154494285583496,0.381512314081192,0.6225218772888184,0.42000001668930054,-0.5752987861633301,-2.999979257583618,-1.3858975172042847,-2.999999523162842,-0.15502125024795532,-0.15894219279289246,-0.1631675660610199,-0.1650966852903366,0.01422211341559887,0.13451039791107178,0.26760372519493103,0.337732195854187
0.7166666666666667,0.042639799416065216,-0.002988128922879696,0.0,0.6169006824493408,0.0,0.0,-0.7870410084724426,0.66790771484375,-0.12005322426557541,0.0,0.0,0.0,-6.1720685958862305,0.3746074140071869,0.6403225660324097,0.4200000464916229,0.604453980922699,5.199733550398378e-07,-4.0694012568565086e-06,-0.7966400384902954,0.00016466950182802975,-0.00032210262725129724,-0.000104858772829175,0.007189631927758455,-0.0010171255562454462,-0.0007092590676620603,0.39454054832458496,0.6562595367431641,0.4804803431034088,1.8333134651184082,-0.43717455863952637,1.9640183448791504,0.381512314081192,0.6225218772888184,0.42000001668930054,-0.6253094673156738,-2.999983310699463,-1.4359158277511597,-2.999999761581421,-0.16212953627109528,-0.16282124817371368,-0.16359297931194305,-0.16303136944770813,-0.3605421781539917,-0.18815739452838898,0.004267841577529907,0.1519554704427719
0.7333333333333333,0.05571606755256653,-0.002569742500782013,0.0,0.5977842807769775,0.0,0.0,-0.8016570210456848,0.8322170972824097,0.046461548656225204,0.0,0.0,0.0,-1.7848727703094482,0.37460747361183167,0.6403225064277649,0.4200000464916229,0.6044541001319885,5.4180412689675e-07,-3.3249182251893217e-06,-0.7966399192810059,0.00014755102165509015,-0.00027593932463787496,-9.697908535599709e-05,0.006076131947338581,-0.0009609357221052051,-0.0006340171676129103,0.4253724217414856,0.6538683772087097,0.5150375962257385,1.8474215269088745,0.07154877483844757,2.173541784286499,0.381512314081192,0.6225218772888184,0.42000001668930054,-0.6433731317520142,0.5409960150718689,-1.4859341382980347,-3.0000011920928955,-0.1668710708618164,-0.16581504046916962,-0.16451364755630493,-0.1625015288591385,-0.14835651218891144,-0.11154614388942719,-0.05619959905743599,-0.031273964792490005
0.75,0.06584444642066956,-0.00032001995714381337,0.0,0.60468989610672,0.0,0.0,-0.7964609861373901,0.5225517153739929,0.17311930656433105,0.0,0.0,0.0,1.9258615970611572,0.3746074438095093,0.6403225064277649,0.4200000464916229,0.6044538617134094,2.8132751594966976e-07,-3.3866288049466675e-06,-0.7966400384902954,0.0001405384246027097,-0.000276496954029426,-9.541655890643597e-05,0.006125948391854763,-0.0010519031202420592,-0.0006192094879224896,0.45165538787841797,0.6567074656486511,0.5465527772903442,1.255257487297058,0.26764369010925293,1.6650986671447754,0.381512314081192,0.6225218772888184,0.42000001668930054,-0.6115579009056091,2.999990701675415,-1.4472482204437256,3.0,-0.16718725860118866,-0.16587898135185242,-0.16402938961982727,-0.16187460720539093,0.07774746417999268,0.07655792683362961,0.09067893028259277,0.08451995998620987
0.7666666666666666,0.07045181840658188,-0.0036844471469521523,0.0,0.5991787910461426,0.0,0.0,-0.8006152510643005,0.30220285058021545,-0.2032107710838318,0.0,0.0,0.0,-1.5737439393997192,0.37460747361183167,0.6403225064277649,0.4200000464916229,0.604453980922699,4.3771129298875167e-07,-3.5183215914003085e-06,-0.7966399788856506,0.0001414214784745127,-0.0002769310667645186,-9.55092255026102e-05,0.006132261361926794,-0.001040395931340754,-0.0006213678861968219,0.4664630889892578,0.6638128757476807,0.5686375498771667,0.39886942505836487,0.3267013132572174,1.094531536102295,0.381512314081192,0.6225218772888184,0.42000001668930054,-0.5649495124816895,2.5921413898468018,-1.39719557762146,2.9999990463256836,-0.16008944809436798,-0.15975172817707062,-0.1586277186870575,-0.15741850435733795,0.152822345495224,0.15269707143306732,0.15927754342556,0.14881832897663116
0.7833333333333333,0.07280242443084717,-0.002086937427520752,0.0,0.6067450046539307,0.0,0.0,-0.7948965430259705,0.08178828656673431,0.13322480022907257,0.0,0.0,0.0,1.91403329372406,0.37460747361183167,0.6403225064277649,0.4200000464916229,0.604453980922699,3.1840900760471413e-07,-3.297324610684882e-06,-0.7966399788856506,0.00014090769400354475,-0.00027663656510412693,-9.547360241413116e-05,0.006127549801021814,-0.001047277357429266,-0.0006200688658282161,0.46489185094833374,0.6689097881317139,0.5847636461257935,-0.46259835362434387,0.37835827469825745,0.860069751739502,0.381512314081192,0.6225218772888184,0.42000001668930054,-0.515612781047821,3.000000476837158,-1.3471791744232178,2.999999761581421,-0.16108578443527222,-0.15997903048992157,-0.15807446837425232,-0.15639837086200714,0.02686580829322338,0.05212314799427986,0.07795769721269608,0.08998851478099823
0.8,0.07232556492090225,-0.0034679456148296595,0.0,0.6013665795326233,0.0,0.0,-0.7989732623100281,-0.0623914897441864,-0.1670503318309784,0.0,0.0,0.0,-1.7238292694091797,0.3746074438095093,0.6403225064277649,0.4200000464916229,0.604453980922699,2.764624582596298e-07,-3.4357431104581337e-06,-0.7966400384902954,0.00014076050138100982,-0.00027672445867210627,-9.544519707560539e-05,0.006130312103778124,-0.0010497007751837373,-0.000619833474047482,0.4512587785720825,0.6749422550201416,0.5928720831871033,-1.1783661842346191,0.3474131226539612,0.31215351819992065,0.381512314081192,0.6225218772888184,0.42000001668930054,-0.48721516132354736,0.5918289422988892,-1.2971265316009521,2.999999523162842,-0.15976384282112122,-0.1583600491285324,-0.1561390906572342,-0.15429192781448364,0.10721663385629654,0.12584002315998077,0.1446715146303177,0.1577053815126419
0.8166666666666667,0.0695107951760292,-0.00017422718519810587,0.0,0.6084501147270203,0.0,0.0,-0.793592095375061,-0.19238395988941193,0.17348480224609375,0.0,0.0,0.0,1.7998462915420532,0.3746074438095093,0.6403225064277649,0.4200000464916229,0.6044539213180542,2.7528486157279985e-07,-3.384254341654014e-06,-0.7966399788856506,0.00014029676094651222,-0.0002766342950053513,-9.529176168143749e-05,0.006131220608949661,-0.0010534474859014153,-0.000618631427641958,0.4306964874267578,0.6803503632545471,0.5975921154022217,-1.1263567209243774,0.456676185131073,0.2502824068069458,0.381512314081192,0.6225218772888184,0.42000001668930054,-0.46051833033561707,2.434911012649536,-1.2832109928131104,-0.9945508241653442,-0.1626569777727127,-0.16015897691249847,-0.15693606436252594,-0.154240682721138,0.019536688923835754,0.026386627927422523,0.03232986852526665,0.03778017312288284
0.8333333333333334,0.06891418993473053,-0.00016551450244151056,0.0,0.6030287146568298,0.0,0.0,-0.7977194786071777,-0.01298117358237505,-0.047235261648893356,0.0,0.0,0.0,-1.6778556108474731,0.37460747361183167,0.6403225064277649,0.4200000464916229,0.6044540405273438,4.318002027048351e-07,-3.515570597301121e-06,-0.7966399192810059,0.00014141970314085484,-0.00027693115407601,-9.550852701067924e-05,0.00613226555287838,-0.0010403954656794667,-0.0006213648011907935,0.40731945633888245,0.6864833831787109,0.5961441993713379,-1.6378309726715088,0.26977258920669556,-0.21170303225517273,0.381512314081192,0.6225218772888184,0.42000001668930054,-0.46201953291893005,-2.2098138332366943,-1.238229751586914,3.0000007152557373,-0.16264212131500244,-0.1600406914949417,-0.15670159459114075,-0.1538323611021042,-0.014608391560614109,-0.003602125681936741,0.008649264462292194,0.02658718265593052
0.85,0.07039763033390045,-0.0028497783932834864,0.0,0.6097065210342407,0.0,0.0,-0.7926272749900818,0.13719257712364197,-0.21496260166168213,0.0,0.0,0.0,1.8273075819015503,0.3746074438095093,0.6403225064277649,0.4200000464916229,0.6044538617134094,3.0952446650189813e-07,-3.408033080631867e-06,-0.7966400980949402,0.00014129797636996955,-0.0002764556265901774,-9.560026228427887e-05,0.006120981182903051,-0.0010425079381093383,-0.0006208542035892606,0.3878757357597351,0.6914539337158203,0.5934759378433228,-0.754828929901123,0.33473843336105347,-0.07679182291030884,0.381512314081192,0.6225218772888184,0.42000001668930054,-0.4805232584476471,-0.17253749072551727,-1.2591043710708618,-3.0000007152557373,-0.1640147566795349,-0.16077086329460144,-0.15669836103916168,-0.1529213786125183,-0.09012800455093384,-0.040594909340143204,0.01773732341825962,0.09105077385902405
0.8666666666666667,0.074310801923275,-0.008086342364549637,0.0,0.6041592359542847,0.0,0.0,-0.7968636155128479,0.2778250277042389,-0.369588702917099,0.0,0.0,0.0,-1.7241874933242798,0.37460747361183167,0.6403225064277649,0.4200000464916229,0.6044540405273438,4.706053289282863e-07,-3.3574331155250547e-06,-0.7966399788856506,0.00014155892131384462,-0.00027690455317497253,-9.55420546233654e-05,0.006130743771791458,-0.0010387382935732603,-0.0006216625333763659,0.38012510538101196,0.6936701536178589,0.5886234045028687,-0.16196276247501373,-0.033766280859708786,-0.280584454536438,0.381512314081192,0.6225218772888184,0.42000001668930054,-0.5176912546157837,-2.9999873638153076,-1.2210593223571777,3.0,-0.16682565212249756,-0.16240906715393066,-0.15696139633655548,-0.15150107443332672,-0.18279840052127838,-0.09556954354047775,0.005075173918157816,0.12574604153633118
0.8833333333333333,0.08097414672374725,-0.01202551368623972,0.0,0.5776711106300354,0.0,0.0,-0.8162696361541748,0.4572505056858063,-0.1062529981136322,0.0,0.0,0.0,-4.737195014953613,0.37460747361183167,0.6403225064277649,0.4200000464916229,0.6044540405273438,3.0842761589156e-07,-3.3141930089186644e-06,-0.7966399788856506,0.00014100671978667378,-0.00027667114045470953,-9.550433605909348e-05,0.00612771138548851,-0.0010465328814461827,-0.0006203417433425784,0.3831329345703125,0.6898494958877563,0.5846750736236572,0.48013484477996826,-0.38089996576309204,-0.02615092694759369,0.381512314081192,0.6225218772888184,0.42000001668930054,-0.5464029312133789,-0.6279000043869019,-1.242215633392334,-3.000000476837158,-0.17009368538856506,-0.1646309345960617,-0.15787623822689056,-0.15073202550411224,-0.2153182476758957,-0.16492633521556854,-0.09939746558666229,-0.011374774388968945
0.9,0.09024221450090408,-0.011310032568871975,0.0,0.5673087239265442,0.0,0.0,-0.8235052227973938,0.5911733508110046,0.12810072302818298,0.0,0.0,0.0,-0.5148330330848694,0.37460747361183167,0.6403225064277649,0.4200000464916229,0.6044540405273438,2.719779388371535e-07,-3.4541085369710345e-06,-0.7966400384902954,0.0001408961252309382,-0.00027670685085467994,-9.547965601086617e-05,0.0061291977763175964,-0.001048077829182148,-0.0006201278883963823,0.39125722646713257,0.6874828338623047,0.5865970253944397,0.461527019739151,-0.010264567099511623,0.18755890429019928,0.381512314081192,0.6225218772888184,0.42000001668930054,-0.5344024300575256,1.8435462713241577,-1.2395201921463013,2.8169398307800293,-0.17215794324874878,-0.1666572391986847,-0.1596548706293106,-0.15191851556301117,-0.05182280391454697,-0.08624936640262604,-0.11228983849287033,-0.12096600234508514
