vladlanda/robotic-transformer/data/env_000_episode_0086.csv
sim_time_s,robot_box_x,robot_box_y,robot_box_z,robot_box_quat_w,robot_box_quat_x,robot_box_quat_y,robot_box_quat_z,robot_box_linvel_x,robot_box_linvel_y,robot_box_linvel_z,robot_box_angvel_x,robot_box_angvel_y,robot_box_angvel_z,cube_world_x,cube_world_y,cube_world_z,cube_quat_w,cube_quat_x,cube_quat_y,cube_quat_z,cube_linvel_x,cube_linvel_y,cube_linvel_z,cube_angvel_x,cube_angvel_y,cube_angvel_z,endpoint_world_x,endpoint_world_y,endpoint_world_z,endpoint_linvel_x,endpoint_linvel_y,endpoint_linvel_z,target_cube_world_x,target_cube_world_y,target_cube_world_z,gripper_actual_pos_rad_gp_leftgearjoint,gripper_actual_vel_rad_s_gp_leftgearjoint,gripper_actual_pos_rad_gp_rotatingjoint,gripper_actual_vel_rad_s_gp_rotatingjoint,motor_angle_rad_joint1,motor_angle_rad_joint2,motor_angle_rad_joint3,motor_angle_rad_joint4,motor_speed_rad_s_joint1,motor_speed_rad_s_joint2,motor_speed_rad_s_joint3,motor_speed_rad_s_joint4
0.0,0.0,0.0,0.0,1.0,0.0,0.0,0.0,0.0,0.0,0.0,0.0,0.0,0.0,-0.36455264687538147,0.6508311629295349,0.41999998688697815,1.0,0.0,0.0,0.0,0.0,0.0,0.0,0.0,0.0,0.0,3.42540442943573e-06,-0.005000244826078415,1.313499927520752,0.0,0.0,0.0,0.3656202554702759,0.7621884346008301,0.42000001668930054,-1.5707999467849731,0.0,0.0,0.0,0.0,0.0,0.0,0.0,0.0,0.0,0.0,0.0
0.016666666666666666,0.0028808924835175276,0.0021771991159766912,0.0,0.999815046787262,0.0,0.0,0.019232261925935745,0.2409588247537613,0.18228429555892944,0.0,0.0,0.0,3.1418023109436035,-0.364552766084671,0.650830864906311,0.41999998688697815,1.0,3.279964630564791e-06,-8.339746386809566e-07,8.465587342243452e-08,-1.9833529222523794e-05,0.00017983045836444944,-6.132945418357849e-05,0.0009432713268324733,-0.004689474124461412,-0.00031981561915017664,-0.007108936086297035,0.0033886900637298822,1.3159383535385132,-0.8140264749526978,0.9872119426727295,0.18096113204956055,0.3656202554702759,0.7621884346008301,0.42000001668930054,-1.5301094055175781,3.0000030994415283,-0.0458487831056118,-3.000000476837158,0.000870110176037997,0.0007967638084664941,0.0007113355677574873,0.0006111905095167458,0.11094953119754791,0.097587451338768,0.08336413651704788,0.06825868040323257
0.03333333333333333,0.008964616805315018,0.00679657282307744,0.0,0.9998031258583069,0.0,0.0,0.019842464476823807,0.407061368227005,0.31519627571105957,0.0,0.0,0.0,-0.869081437587738,-0.36455288529396057,0.6508308053016663,0.4200000464916229,1.0,3.3908179375430336e-06,-2.132458348569344e-06,-3.7097745320124886e-08,0.00026357852038927376,0.00026937833172269166,-0.00010509369894862175,-0.0017707126680761576,0.004130884539335966,-0.0001354814594378695,-0.027535274624824524,0.02611861377954483,1.3166124820709229,-1.5904616117477417,1.6168553829193115,-0.08311288058757782,0.3656202554702759,0.7621884346008301,0.42000001668930054,-1.4800902605056763,3.0000016689300537,-0.09588860720396042,-3.0000007152557373,0.002990405075252056,0.0026527110021561384,0.0022772857919335365,0.0018607949605211616,0.164176806807518,0.13973557949066162,0.11379849165678024,0.08628308773040771
0.05,0.01847219094634056,0.013891766779124737,0.0,0.9999762177467346,0.0,0.0,-0.006899738684296608,0.636181652545929,0.47207263112068176,0.0,0.0,0.0,-4.0747551918029785,-0.36455291509628296,0.650830864906311,0.4200000464916229,1.0,3.7651902857760433e-06,-2.2119197637948673e-06,5.609367637049445e-09,0.00026530938339419663,0.00026691678795032203,-0.00010440615005791187,-0.0017243892652913928,0.004177466034889221,-0.00012949809024576098,-0.05720680207014084,0.05692615360021591,1.3120518922805786,-1.954731822013855,2.0123329162597656,-0.4442812204360962,0.3656202554702759,0.7621884346008301,0.42000001668930054,-1.4300719499588013,2.9999983310699463,-0.14592593908309937,-2.9999992847442627,0.006011314690113068,0.0051725152879953384,0.004261376801878214,0.003273590235039592,0.20708325505256653,0.16677086055278778,0.124532550573349,0.08029378950595856
0.06666666666666667,0.03077649138867855,0.023375045508146286,0.0,0.9998826384544373,0.0,0.0,-0.015320321545004845,0.7723655700683594,0.6158649921417236,0.0,0.0,0.0,-0.040310829877853394,-0.36455291509628296,0.6508308053016663,0.4200000464916229,0.9999999403953552,3.406832092878176e-06,-2.28558906201215e-06,4.300801492718165e-07,0.0002670248504728079,0.0002679176686797291,-0.0001043803058564663,-0.00174071139190346,0.00421183044090867,-0.00012850876373704523,-0.0948236733675003,0.08933629095554352,1.301305890083313,-2.409148693084717,2.053065061569214,-0.8347632884979248,0.3656202554702759,0.7621884346008301,0.42000001668930054,-1.3800451755523682,3.0000011920928955,-0.1460130363702774,2.5079152584075928,0.008767123334109783,0.007228164002299309,0.00557665666565299,0.0038074294570833445,0.15527930855751038,0.10614249855279922,0.05487025901675224,1.885928213596344e-08
0.08333333333333333,0.045550763607025146,0.03089374490082264,0.0,0.999276340007782,0.0,0.0,-0.03803595155477524,0.9504599571228027,0.375665545463562,0.0,0.0,0.0,-3.541560411453247,-0.36455291509628296,0.6508308053016663,0.4200000464916229,0.9999999403953552,3.626166289905086e-06,-2.3353043161478126e-06,3.032100153177453e-07,0.00026614085072651505,0.0002668516826815903,-0.00010405341163277626,-0.001728349830955267,0.004196455702185631,-0.0001279077841900289,-0.1297367513179779,0.1283893883228302,1.2868189811706543,-1.8276658058166504,2.6048243045806885,-0.8897989988327026,0.3656202554702759,0.7621884346008301,0.42000001668930054,-1.3300367593765259,3.0000030994415283,-0.18069720268249512,-3.0000014305114746,0.00987949501723051,0.007214426528662443,0.004392430651932955,0.0013913705479353666,0.013289667665958405,-0.07290385663509369,-0.16136296093463898,-0.25301241874694824
0.1,0.05442654341459274,0.04050617665052414,0.0,0.9959228038787842,0.0,0.0,-0.09020963311195374,0.39304423332214355,0.6584301590919495,0.0,0.0,0.0,-7.292457580566406,-0.36455291509628296,0.6508308053016663,0.4200000464916229,1.0,3.4222334761579987e-06,-2.3086047349352157e-06,1.796183539681806e-07,0.0002668157103471458,0.00026800340856425464,-0.00010440708138048649,-0.0017429988365620375,0.004207124002277851,-0.00012891183723695576,-0.16196690499782562,0.17464414238929749,1.2666113376617432,-1.9839755296707153,2.940033435821533,-1.4476141929626465,0.3656202554702759,0.7621884346008301,0.42000001668930054,-1.2800179719924927,2.9999947547912598,-0.14701281487941742,2.999999761581421,0.003595646470785141,0.0001274014066439122,-0.0035505997948348522,-0.007476974278688431,-0.49430757761001587,-0.5331577658653259,-0.5745328664779663,-0.6193276643753052
0.11666666666666667,0.06497807055711746,0.052810583263635635,0.0,0.992345929145813,0.0,0.0,-0.12348897755146027,0.8429888486862183,0.6858938336372375,0.0,0.0,0.0,-2.839179277420044,-0.36455291509628296,0.650830864906311,0.4200000464916229,1.0,3.7116215025889687e-06,-2.3326904283749172e-06,2.5741752551766695e-07,0.00026485833222977817,0.0002663549967110157,-0.00010423408821225166,-0.0017181988805532455,0.004170059692114592,-0.00012915713887196034,-0.2006474733352661,0.21786874532699585,1.2402156591415405,-2.347536087036133,2.6737558841705322,-1.6651605367660522,0.3656202554702759,0.7621884346008301,0.42000001668930054,-1.230022668838501,3.0000016689300537,-0.17879365384578705,-3.0000011920928955,-0.003076936351135373,-0.007483129855245352,-0.012112745083868504,-0.017014149576425552,-0.20013870298862457,-0.28609099984169006,-0.3704253137111664,-0.4533974826335907
0.13333333333333333,0.0752958208322525,0.06128348410129547,0.0,0.9857589602470398,0.0,0.0,-0.16816434264183044,0.7002426981925964,0.5007832050323486,0.0,0.0,0.0,-6.035247325897217,-0.36455291509628296,0.6508308053016663,0.4200000464916229,1.0,3.3357862321281573e-06,-2.231929329354898e-06,3.1130659294831275e-07,0.00026669795624911785,0.00026759557658806443,-0.00010428577661514282,-0.0017371183494105935,0.004205892328172922,-0.00012840361159760505,-0.236455500125885,0.26734957098960876,1.2094664573669434,-1.8749582767486572,3.4138131141662598,-1.9359182119369507,0.3656202554702759,0.7621884346008301,0.42000001668930054,-1.1800016164779663,2.999997615814209,-0.14575853943824768,2.999999761581421,-0.009064165875315666,-0.014851734973490238,-0.02082841284573078,-0.027046306058764458,-0.2208985537290573,-0.3340800702571869,-0.4427222013473511,-0.5467267632484436
0.15,0.08462481200695038,0.06704936921596527,0.0,0.9816070199012756,0.0,0.0,-0.19091276824474335,0.5004344582557678,0.2684532105922699,0.0,0.0,0.0,-1.6306332349777222,-0.36455291509628296,0.6508308053016663,0.4200000464916229,1.0,3.5189802929380676e-06,-2.2830829493614146e-06,-3.625531803663762e-07,0.00026618537958711386,0.0002673575363587588,-0.00010425481013953686,-0.0017349323024973273,0.004195748828351498,-0.0001286051847273484,-0.27191877365112305,0.32054731249809265,1.1712918281555176,-2.0356175899505615,3.3813529014587402,-2.6555962562561035,0.3656202554702759,0.7621884346008301,0.42000001668930054,-1.1329535245895386,2.6391892433166504,-0.17754435539245605,-3.000000476837158,-0.013676047325134277,-0.021026475355029106,-0.028483252972364426,-0.0360979326069355,-0.32999852299690247,-0.4043983817100525,-0.4740375578403473,-0.5389010310173035
0.16666666666666666,0.08957288414239883,0.0738060399889946,0.0,0.974920928478241,0.0,0.0,-0.22255146503448486,0.21929362416267395,0.4623454511165619,0.0,0.0,0.0,-4.641345500946045,-0.36455291509628296,0.6508308053016663,0.4200000464916229,1.0,3.666678594527184e-06,-2.3391096419800306e-06,-3.150171608012897e-07,0.00026595700182951987,0.0002666723739821464,-0.00010403268970549107,-0.0017252295510843396,0.0041927071288228035,-0.00012778618838638067,-0.30602240562438965,0.37980177998542786,1.1196048259735107,-1.894115686416626,3.7340621948242188,-3.5096988677978516,0.3656202554702759,0.7621884346008301,0.42000001668930054,-1.0832762718200684,3.0000016689300537,-0.15440775454044342,3.0000014305114746,-0.021439846605062485,-0.029708633199334145,-0.037998780608177185,-0.04636256396770477,-0.5459615588188171,-0.581870973110199,-0.6130583882331848,-0.6395843029022217
0.18333333333333332,0.09758260846138,0.08172235637903214,0.0,0.9597017765045166,0.0,0.0,-0.2810204327106476,0.4860909879207611,0.5397217273712158,0.0,0.0,0.0,-8.036853790283203,-0.36455291509628296,0.6508308053016663,0.4200000464916229,1.0,3.814429419435328e-06,-2.399473942205077e-06,-2.702885524286103e-07,0.0002654908748809248,0.00026611171779222786,-0.00010391091927886009,-0.0017177866538986564,0.00418477039784193,-0.00012754213821608573,-0.33367931842803955,0.4472701847553253,1.0538140535354614,-1.303560733795166,4.2495646476745605,-4.309206962585449,0.3656202554702759,0.7621884346008301,0.42000001668930054,-1.0332694053649902,2.999999523162842,-0.18617868423461914,-2.9999990463256836,-0.03066916950047016,-0.03938343748450279,-0.04805184155702591,-0.056728046387434006,-0.7332493662834167,-0.7291226387023926,-0.7228301167488098,-0.71452796459198
0.2,0.10239162296056747,0.08858165144920349,0.0,0.9478555917739868,0.0,0.0,-0.3187001645565033,0.2664905786514282,0.34466880559921265,0.0,0.0,0.0,-3.5695390701293945,-0.36455291509628296,0.6508308053016663,0.4200000464916229,1.0,3.600153604566003e-06,-2.291168357260176e-06,-2.202193059019919e-07,0.00026573051582090557,0.00026644981699064374,-0.00010398100130259991,-0.0017226870404556394,0.004188804421573877,-0.00012773176422342658,-0.3563268780708313,0.5099772214889526,0.9738431572914124,-0.9895754456520081,3.716923952102661,-5.176348686218262,0.3656202554702759,0.7621884346008301,0.42000001668930054,-0.9832625389099121,2.999999761581421,-0.23620720207691193,-3.000000238418579,-0.04633883014321327,-0.05486401915550232,-0.06262147426605225,-0.0703214481472969,-0.9535788297653198,-0.9289471507072449,-0.8644832372665405,-0.7965987324714661
0.21666666666666667,0.10352694243192673,0.09655007719993591,0.0,0.9451415538787842,0.0,0.0,-0.326661080121994,-0.006040478125214577,0.49634209275245667,0.0,0.0,0.0,0.4509980380535126,-0.36455291509628296,0.6508308053016663,0.4200000464916229,0.9999999403953552,3.6397530038811965e-06,-2.261884901599842e-06,2.2244500996748684e-07,0.00026687333593145013,0.0002675435971468687,-0.00010411720722913742,-0.0017403463134542108,0.004211017861962318,-0.0001278394483961165,-0.37585920095443726,0.5603303909301758,0.8838552832603455,-1.029994249343872,2.5900864601135254,-5.5840606689453125,0.3656202554702759,0.7621884346008301,0.42000001668930054,-0.9332523345947266,2.999992847442627,-0.2862383723258972,-3.00000262260437,-0.06179557740688324,-0.0703728049993515,-0.07816238701343536,-0.08581790328025818,-0.9622065424919128,-0.9491553902626038,-0.9358724355697632,-0.9225429892539978
0.23333333333333334,0.1086902767419815,0.09979933500289917,0.0,0.9390493631362915,0.0,0.0,-0.34378230571746826,0.327562153339386,0.13365569710731506,0.0,0.0,0.0,-2.778918504714966,-0.36455288529396057,0.6508308053016663,0.4200000464916229,1.0,3.420872644710471e-06,-2.3167410745372763e-06,2.955537183879642e-07,0.00026680261362344027,0.00026804054505191743,-0.00010442431084811687,-0.0017437575152143836,0.004206955898553133,-0.00012899519060738385,-0.3896118998527527,0.6023553013801575,0.7851323485374451,-0.5571813583374023,2.164053440093994,-6.165504455566406,0.3656202554702759,0.7621884346008301,0.42000001668930054,-0.8832416534423828,2.9999959468841553,-0.33627060055732727,-2.9999990463256836,-0.0762861967086792,-0.08471991866827011,-0.09237664937973022,-0.09982261061668396,-0.9896983504295349,-0.9912813305854797,-0.9916554093360901,-0.9721120595932007
0.25,0.10829074680805206,0.10709428787231445,0.0,0.9392805099487305,0.0,0.0,-0.34315025806427,-0.012744115665555,0.3896968960762024,0.0,0.0,0.0,0.9484497308731079,-0.36455291509628296,0.6508308053016663,0.4200000464916229,0.9999999403953552,3.3476585485914256e-06,-2.259105940538575e-06,1.8080821462262975e-07,0.0002668779925443232,0.0002679099270608276,-0.00010439381003379822,-0.00174038321711123,0.004208257421851158,-0.00012870164937339723,-0.39501047134399414,0.6233317852020264,0.6848722696304321,-0.10686028003692627,0.6651967763900757,-5.776837348937988,0.3656202554702759,0.7621884346008301,0.42000001668930054,-0.8332317471504211,2.999980926513672,-0.38630297780036926,-3.000000476837158,-0.09368494153022766,-0.10187407582998276,-0.10937442630529404,-0.11671612411737442,-0.6896089911460876,-0.7494887113571167,-0.8063343167304993,-0.8575595021247864
0.26666666666666666,0.11267735809087753,0.10877253115177155,0.0,0.9345545172691345,0.0,0.0,-0.3558199405670166,0.3052681088447571,0.03839780390262604,0.0,0.0,0.0,-2.177225351333618,-0.36455291509628296,0.6508308053016663,0.4200000464916229,0.9999999403953552,3.5357422802917426e-06,-2.3002112357062288e-06,-1.268858369485315e-07,0.00026601803256198764,0.00026712199905887246,-0.00010419590398669243,-0.0017316665034741163,0.004192826338112354,-0.00012849221820943058,-0.3947574496269226,0.6375346183776855,0.5882699489593506,0.2577902674674988,0.7549099922180176,-5.6219329833984375,0.3656202554702759,0.7621884346008301,0.42000001668930054,-0.7832229733467102,3.000001907348633,-0.43633416295051575,-2.999998092651367,-0.10578011721372604,-0.11480168998241425,-0.12311608344316483,-0.13119708001613617,-1.0083273649215698,-1.0062646865844727,-1.0046941041946411,-1.0034444332122803
0.2833333333333333,0.11258964985609055,0.1082228422164917,0.0,0.9365771412849426,0.0,0.0,-0.35046154260635376,-0.09096382558345795,-0.06879968196153641,0.0,0.0,0.0,1.535431146621704,-0.36455291509628296,0.650830864906311,0.4200000464916229,1.0,3.5934845072915778e-06,-2.262539965158794e-06,-5.657186008534154e-08,0.0002670453395694494,0.000267749244812876,-0.00010416400618851185,-0.0017430747393518686,0.004214037675410509,-0.00012789273750968277,-0.3872568607330322,0.6464916467666626,0.5017641186714172,0.6939449310302734,0.3894508481025696,-4.839812278747559,0.3656202554702759,0.7621884346008301,0.42000001668930054,-0.7332141399383545,3.000000476837158,-0.4863634705543518,-2.999999761581421,-0.12379912286996841,-0.1325051188468933,-0.14058269560337067,-0.1484779715538025,-1.0134329795837402,-1.0101542472839355,-1.0076510906219482,-1.0056476593017578
0.3,0.10965067893266678,0.10540757328271866,0.0,0.9331359267234802,0.0,0.0,-0.3595237731933594,-0.18440577387809753,-0.22134654223918915,0.0,0.0,0.0,-2.0388617515563965,-0.36455288529396057,0.6508308053016663,0.4200000464916229,0.9999999403953552,3.724986981978873e-06,-2.2359602098731557e-06,3.8285628534140415e-07,0.00026479759253561497,0.00026673171669244766,-0.0001045397948473692,-0.0017188882920891047,0.004166551399976015,-0.00013016769662499428,-0.3704969584941864,0.6511459350585938,0.42040926218032837,1.279360294342041,0.19967475533485413,-4.882053375244141,0.3656202554702759,0.7621884346008301,0.42000001668930054,-0.6832072138786316,2.9999923706054688,-0.5363914966583252,-3.0000007152557373,-0.14031849801540375,-0.14902876317501068,-0.15709267556667328,-0.16494569182395935,-1.0000061988830566,-1.000002145767212,-1.0000001192092896,-0.9882106184959412
0.31666666666666665,0.10500538349151611,0.10026643425226212,0.0,0.9355223178863525,0.0,0.0,-0.3532675802707672,-0.3214297890663147,-0.3459497094154358,0.0,0.0,0.0,1.6937700510025024,-0.36455291509628296,0.6508308053016663,0.4200000464916229,0.9999999403953552,3.557769332473981e-06,-2.278855163240223e-06,2.2830107582194614e-07,-0.0011999690905213356,0.00392905343323946,-0.00017186003969982266,-0.09080559015274048,-0.046103835105895996,-0.06832858175039291,-0.37178075313568115,0.6533697843551636,0.42677223682403564,-0.1335526704788208,0.06805691123008728,-0.16855056583881378,0.3656202554702759,0.7621884346008301,0.42000001668930054,-0.6332752704620361,2.999948501586914,-0.5868695974349976,-2.999997854232788,-0.14694419503211975,-0.1551789939403534,-0.1624070256948471,-0.16900911927223206,-0.429934024810791,-0.38146016001701355,-0.31725257635116577,-0.23390816152095795
0.3333333333333333,0.09795515239238739,0.09301447123289108,0.0,0.9322479367256165,0.0,0.0,-0.3618200421333313,-0.4683583080768585,-0.47300606966018677,0.0,0.0,0.0,-2.024503469467163,-0.3645758628845215,0.6513350605964661,0.42000025510787964,0.9999794960021973,-1.5483821016459842e-06,2.4741289962548763e-05,-0.006392450537532568,0.012536843307316303,0.06983546912670135,-0.000791623373515904,0.016666937619447708,-0.031182732433080673,-1.3392729759216309,-0.37117278575897217,0.6535350680351257,0.4240383505821228,0.13529983162879944,0.019622549414634705,-0.15740908682346344,0.3656202554702759,0.7621884346008301,0.42000001668930054,-0.5832701921463013,2.9999842643737793,-0.636929988861084,-2.9999754428863525,-0.1545739471912384,-0.16168491542339325,-0.16755378246307373,-0.17250698804855347,-0.47368934750556946,-0.3862079083919525,-0.28791841864585876,-0.17571844160556793
0.35,0.08864781260490417,0.08362901210784912,0.0,0.9347394704818726,0.0,0.0,-0.3553338944911957,-0.5986608862876892,-0.6011139154434204,0.0,0.0,0.0,1.7564024925231934,-0.36276721954345703,0.6546648144721985,0.4201863408088684,0.9988250732421875,0.004647533409297466,-0.00018622531206347048,-0.04823686182498932,0.17856037616729736,0.3086240291595459,-0.0009847625624388456,0.008342980407178402,-0.035796068608760834,-7.4880290031433105,-0.36818408966064453,0.6563884019851685,0.4217023551464081,0.2417449951171875,0.30289649963378906,-0.10831481218338013,0.3656202554702759,0.7621884346008301,0.42000001668930054,-0.5332652926445007,2.999976396560669,-0.6869808435440063,-2.999997615814209,-0.1627264767885208,-0.16800662875175476,-0.17186373472213745,-0.17458176612854004,-0.4508556127548218,-0.3331402838230133,-0.20495305955410004,-0.06384015083312988
0.36666666666666664,0.0771220400929451,0.0720396488904953,0.0,0.9316143989562988,0.0,0.0,-0.3634481728076935,-0.7416187524795532,-0.7377340197563171,0.0,0.0,0.0,-1.9760948419570923,-0.3591795861721039,0.6604085564613342,0.4200037717819214,0.9934809803962708,4.845647345064208e-05,0.00010971929441438988,-0.11399728059768677,0.29144081473350525,0.42945998907089233,-0.0036532466765493155,-0.05144790932536125,-0.12258661538362503,-10.274824142456055,-0.3619489371776581,0.6617527008056641,0.4205254912376404,0.5093894004821777,0.4187931418418884,-0.05548831820487976,0.3656202554702759,0.7621884346008301,0.42000001668930054,-0.48326101899147034,2.999988317489624,-0.7370347380638123,-2.9999756813049316,-0.17022094130516052,-0.173359677195549,-0.1748269647359848,-0.17487820982933044,-0.4099116027355194,-0.27606499195098877,-0.1258285790681839,0.042082007974386215
0.3833333333333333,0.0681496113538742,0.05776175856590271,0.0,0.917669415473938,0.0,0.0,-0.39734476804733276,-0.4629685878753662,-0.908048689365387,0.0,0.0,0.0,-5.236268997192383,-0.35046955943107605,0.671858549118042,0.42073923349380493,0.9835215210914612,0.010007770732045174,-0.009098353795707226,-0.18028447031974792,0.8290613293647766,1.04139244556427,0.1217077299952507,-1.5836831331253052,-5.385793209075928,-4.774840354919434,-0.35075175762176514,0.6725119352340698,0.4210864007472992,0.8680431842803955,0.9109718799591064,0.10884164273738861,0.3656202554702759,0.7621884346008301,0.42000001668930054,-0.4332575500011444,2.999964475631714,-0.7870915532112122,-2.999568462371826,-0.17619596421718597,-0.1770593672990799,-0.17590059340000153,-0.17296481132507324,-0.2816769778728485,-0.14789006114006042,0.00843337457627058,0.1876641809940338
0.4,0.06328149139881134,0.04058375582098961,0.0,0.8907564878463745,0.0,0.0,-0.4544808864593506,-0.2197750359773636,-1.0943653583526611,0.0,0.0,0.0,-8.38813304901123,-0.32308265566825867,0.6952767968177795,0.42417025566101074,0.9730493426322937,0.0016923402436077595,-0.03954894468188286,-0.22717387974262238,2.7049784660339355,1.9112986326217651,0.00892096571624279,34.57598114013672,-22.181638717651367,5.3518853187561035,-0.3233954608440399,0.6961686611175537,0.42411667108535767,2.469212293624878,1.9722760915756226,0.43852484226226807,0.3656202554702759,0.7621884346008301,0.42000001668930054,-0.39131107926368713,1.5532230138778687,-0.8371175527572632,-3.0000007152557373,-0.18255920708179474,-0.18061143159866333,-0.17631949484348297,-0.16997478902339935,-0.4281251132488251,-0.23407122492790222,-0.025130221620202065,0.19354242086410522
0.4166666666666667,0.06051498278975487,0.02813541702926159,0.0,0.8478160500526428,0.0,0.0,-0.530290424823761,-0.128223717212677,-0.6199882626533508,0.0,0.0,0.0,-11.209450721740723,-0.25584670901298523,0.7350908517837524,0.4288803040981293,0.9549736380577087,0.05819994583725929,-0.08350105583667755,-0.27868568897247314,5.57750940322876,2.4522101879119873,0.3133498430252075,19.746139526367188,-16.39813804626465,20.570547103881836,-0.25607237219810486,0.7361088991165161,0.4291226863861084,5.197277069091797,2.9219465255737305,0.39208027720451355,0.3656202554702759,0.7621884346008301,0.42000001668930054,-0.3731912076473236,0.8605252504348755,-0.8001741170883179,2.9980854988098145,-0.19672612845897675,-0.19047562777996063,-0.18138863146305084,-0.17046695947647095,-0.89193195104599,-0.6715549230575562,-0.38961514830589294,-0.13183389604091644
0.43333333333333335,0.06028517335653305,0.02182801440358162,0.0,0.8125662207603455,0.0,0.0,-0.5828688740730286,0.051288217306137085,-0.43572768568992615,0.0,0.0,0.0,-6.235027313232422,-0.16916075348854065,0.7789080142974854,0.4376666843891144,0.9135982394218445,0.09998031705617905,-0.11397551000118256,-0.3772953152656555,5.397715091705322,2.115095376968384,0.6277506351470947,14.287017822265625,-5.461214542388916,7.099485397338867,-0.1695389598608017,0.7802994251251221,0.4375668168067932,5.249473571777344,2.4396095275878906,0.575786828994751,0.3656202554702759,0.7621884346008301,0.42000001668930054,-0.3569893538951874,1.13685941696167,-0.8272639513015747,-3.000002861022949,-0.20979690551757812,-0.20369316637516022,-0.19036683440208435,-0.17553292214870453,-0.4838053584098816,-0.5772127509117126,-0.4187832772731781,-0.26087793707847595
0.45,0.05625496432185173,0.019640851765871048,0.0,0.7969786524772644,0.0,0.0,-0.6040074229240417,-0.3374582827091217,-0.04616522416472435,0.0,0.0,0.0,-2.1178925037384033,-0.0789373517036438,0.809610903263092,0.449523001909256,0.8658574819564819,0.11659407615661621,-0.10735759139060974,-0.4745218753814697,5.382318019866943,0.6483413577079773,0.7815710306167603,-11.729881286621094,2.6139121055603027,15.954267501831055,-0.07985096424818039,0.8121991157531738,0.447458416223526,5.643908500671387,1.5588276386260986,0.7672055959701538,0.3656202554702759,0.7621884346008301,0.42000001668930054,-0.33461764454841614,1.2107704877853394,-0.8772879838943481,-3.000002145767212,-0.22294817864894867,-0.21648043394088745,-0.19967781007289886,-0.18159620463848114,-0.7965098023414612,-0.7380161285400391,-0.5435967445373535,-0.36661896109580994
0.4666666666666667,0.05792394280433655,0.010855792090296745,0.0,0.7730585932731628,0.0,0.0,-0.6343346238136292,0.21814696490764618,-0.6835641264915466,0.0,0.0,0.0,-5.660314083099365,0.013530392199754715,0.8262411952018738,0.4577237367630005,0.8168573379516602,0.11990571767091751,-0.1147511824965477,-0.552448034286499,5.5967793464660645,0.1959482729434967,0.24232207238674164,-2.520392417907715,-21.69051170349121,4.6148834228515625,0.012713262811303139,0.8304710388183594,0.45576363801956177,5.564298629760742,0.5339151620864868,0.5596956014633179,0.3656202554702759,0.7621884346008301,0.42000001668930054,-0.3177551031112671,0.8262535929679871,-0.9273120164871216,-3.000004291534424,-0.2268657237291336,-0.22032426297664642,-0.20165637135505676,-0.18172229826450348,-0.088056780397892,-0.05360487103462219,0.05431155487895012,0.1648350954055786
0.48333333333333334,0.05755765736103058,0.004185372963547707,0.0,0.7605417370796204,0.0,0.0,-0.6492890119552612,-0.052577294409275055,-0.30758827924728394,0.0,0.0,0.0,-1.0971232652664185,0.10217535495758057,0.8311863541603088,0.4658414423465729,0.752910852432251,0.09313187003135681,-0.1363261193037033,-0.6370768547058105,5.123444080352783,-0.32796332240104675,0.5746838450431824,-9.436206817626953,1.0368411540985107,-8.316132545471191,0.1006094440817833,0.8350325226783752,0.46527934074401855,5.107928276062012,0.02987217903137207,0.7011563777923584,0.3656202554702759,0.7621884346008301,0.42000001668930054,-0.3070020079612732,0.5395681262016296,-0.977336049079895,-2.999999761581421,-0.2307516485452652,-0.22327031195163727,-0.20317032933235168,-0.18191586434841156,-0.17500264942646027,-0.14113247394561768,-0.11107762902975082,-0.09014005213975906
0.5,0.058890730142593384,0.0016726234462112188,0.0,0.7417849898338318,0.0,0.0,-0.6706377267837524,0.13470952212810516,-0.08726914972066879,0.0,0.0,0.0,-4.289131164550781,0.1808125078678131,0.8262621164321899,0.46902894973754883,0.6830183267593384,0.0425797700881958,-0.17450223863124847,-0.707970142364502,3.9947104454040527,-0.7681965231895447,0.08353544026613235,-3.482717752456665,-0.9375134706497192,20.57227325439453,0.1777104139328003,0.8318203687667847,0.4712977409362793,4.401736259460449,-0.5301370620727539,0.1538085788488388,0.3656202554702759,0.7621884346008301,0.42000001668930054,-0.2955474257469177,0.7739025950431824,-1.0273592472076416,-3.0000014305114746,-0.23245924711227417,-0.2245853841304779,-0.2044941633939743,-0.18332470953464508,-0.03610198572278023,-0.008218817412853241,-0.0255169365555048,-0.04741109907627106
0.5166666666666666,0.0626945048570633,0.0026257948484271765,0.0,0.7358618974685669,0.0,0.0,-0.6771315932273865,0.2634331285953522,0.11531762033700943,0.0,0.0,0.0,-0.08965463191270828,0.2454041838645935,0.8142040967941284,0.46618613600730896,0.6388446688652039,0.012907149270176888,-0.1612841635942459,-0.752129077911377,3.1764309406280518,-1.347774863243103,-0.3660486042499542,-5.61118745803833,1.7891591787338257,14.93420124053955,0.2426750659942627,0.8197967410087585,0.46915459632873535,3.627462387084961,-0.9410995244979858,-0.2802746891975403,0.3656202554702759,0.7621884346008301,0.42000001668930054,-0.28191298246383667,0.7711805105209351,-1.0773813724517822,-2.9998931884765625,-0.23242880403995514,-0.22408290207386017,-0.20458728075027466,-0.18409866094589233,0.05504794046282768,0.08343486487865448,0.030671298503875732,-0.029124170541763306
0.5333333333333333,0.06513946503400803,-0.00019211671315133572,0.0,0.7208331823348999,0.0,0.0,-0.6931086182594299,0.07578638195991516,-0.13435547053813934,0.0,0.0,0.0,-3.245830774307251,0.29822471737861633,0.800227701663971,0.45509880781173706,0.6125469207763672,-0.018290849402546883,-0.14727114140987396,-0.7763779759407043,2.500897169113159,-1.3403186798095703,-0.8356069922447205,-4.904078483581543,2.3624765872955322,11.750481605529785,0.2958664298057556,0.8052595853805542,0.4586470127105713,2.8776330947875977,-1.067129135131836,-0.7863682508468628,0.3656202554702759,0.7621884346008301,0.42000001668930054,-0.2682838439941406,0.7569666504859924,-1.1274034976959229,-2.999695301055908,-0.22723908722400665,-0.2191990315914154,-0.20150716602802277,-0.18289878964424133,0.11235719174146652,0.14197219908237457,0.06750182062387466,-0.02029036357998848
0.55,0.06818803399801254,0.0019026569789275527,0.0,0.7189761996269226,0.0,0.0,-0.6950346827507019,0.21827468276023865,0.11046422272920609,0.0,0.0,0.0,0.5627541542053223,0.3370966911315918,0.7813032865524292,0.4387744963169098,0.5722695589065552,-0.04370903596282005,-0.12827946245670319,-0.8087900876998901,2.0427043437957764,-1.0556010007858276,-1.1361901760101318,6.088213920593262,-5.889476299285889,-7.269810676574707,0.3338809907436371,0.7850319147109985,0.4422922730445862,1.8425430059432983,-1.1901090145111084,-1.1357154846191406,0.3656202554702759,0.7621884346008301,0.42000001668930054,-0.2541477084159851,1.031346321105957,-1.1774256229400635,-3.0000007152557373,-0.22706326842308044,-0.21834047138690948,-0.20180602371692657,-0.1846299171447754,0.21288327872753143,0.19602087140083313,0.07177753001451492,-0.06233399361371994
0.5666666666666667,0.07350857555866241,-0.0003527694207150489,0.0,0.7075986862182617,0.0,0.0,-0.7066145539283752,0.35751843452453613,-0.1810266077518463,0.0,0.0,0.0,-2.757267713546753,0.360562264919281,0.7692282795906067,0.42244383692741394,0.5606809854507446,-0.007280580699443817,-0.03708803281188011,-0.827168881893158,0.7173924446105957,-0.1164231151342392,-0.04594780132174492,2.016249418258667,-8.701706886291504,9.844260215759277,0.3576948046684265,0.7718844413757324,0.42495355010032654,0.6507245302200317,-0.36521416902542114,-0.19342732429504395,0.3656202554702759,0.7621884346008301,0.42000001668930054,-0.23172400891780853,1.4305384159088135,-1.2275526523590088,-2.990835189819336,-0.22101882100105286,-0.21333524584770203,-0.19953349232673645,-0.18515253067016602,0.39074233174324036,0.31242313981056213,0.14048652350902557,-0.029137354344129562
0.5833333333333334,0.07666981965303421,0.0007778456783853471,0.0,0.708349883556366,0.0,0.0,-0.705861508846283,0.14696627855300903,0.08886034786701202,0.0,0.0,0.0,0.980671226978302,0.3712177574634552,0.7672960758209229,0.4200618267059326,0.5690454840660095,0.0018346733413636684,0.001081067486666143,-0.8223032355308533,0.5171646475791931,-0.11607487499713898,-0.026762869209051132,-1.1608917713165283,0.4909246265888214,2.9994447231292725,0.3654119670391083,0.7635043859481812,0.42341911792755127,0.36339253187179565,-0.4661964774131775,0.0016635656356811523,0.3656202554702759,0.7621884346008301,0.42000001668930054,-0.22826600074768066,-0.7205061316490173,-1.2515672445297241,-0.08655081689357758,-0.21743647754192352,-0.210501566529274,-0.1989649087190628,-0.186855286359787,0.29242613911628723,0.22442667186260223,0.07263477146625519,-0.07616079598665237
0.6,0.08110316097736359,0.0004887253744527698,0.0,0.6985190510749817,0.0,0.0,-0.7155914902687073,0.29352012276649475,-0.03454148769378662,0.0,0.0,0.0,-2.462054967880249,0.37357786297798157,0.7656857371330261,0.41999951004981995,0.6027281284332275,-5.741878794651711e-06,-3.3945627819775837e-06,-0.7979466319084167,0.12914809584617615,-0.09103575348854065,-4.5887354644946754e-05,-0.00021336159261409193,0.00020103974384255707,3.718341112136841,0.3685882091522217,0.7613387107849121,0.4249172806739807,0.048415206372737885,-0.07511521875858307,0.12416786700487137,0.3656202554702759,0.7621884346008301,0.42000001668930054,-0.25693655014038086,-2.5634007453918457,-1.2942999601364136,-2.9992899894714355,-0.20964056253433228,-0.20457249879837036,-0.19610410928726196,-0.18689581751823425,0.46605879068374634,0.35636892914772034,0.18052874505519867,0.014630086719989777
0.6166666666666667,0.08720459043979645,0.002431591274216771,0.0,0.7011758685112,0.0,0.0,-0.7129883766174316,0.40115904808044434,0.17013926804065704,0.0,0.0,0.0,1.3311036825180054,0.37496131658554077,0.7647580504417419,0.4200000464916229,0.6150713562965393,-3.2889582257666916e-07,-2.422308682525909e-07,-0.7884713411331177,0.0671825185418129,-0.043764032423496246,-1.5542609617114067e-06,3.458833816694096e-05,7.567396096419543e-05,1.3554022312164307,0.3683410882949829,0.7593129873275757,0.42728519439697266,-0.07004009932279587,-0.10185074061155319,0.16547748446464539,0.3656202554702759,0.7621884346008301,0.42000001668930054,-0.3066573441028595,-2.9999983310699463,-1.34428071975708,-2.9995644092559814,-0.20258313417434692,-0.19923026859760284,-0.19340629875659943,-0.18663263320922852,0.43072688579559326,0.33301523327827454,0.1864030659198761,0.05251003056764603
0.6333333333333333,0.09523054957389832,0.0011018583318218589,0.0,0.6931296586990356,0.0,0.0,-0.7208129167556763,0.5069565176963806,-0.13107678294181824,0.0,0.0,0.0,-2.248908281326294,0.3752666115760803,0.7645713090896606,0.4199999272823334,0.6169484257698059,4.671910119213862e-06,-1.2455702744773589e-05,-0.7870034575462341,-0.00012887033517472446,-8.855956548359245e-05,-0.0003576596500352025,0.01754900999367237,0.015097622759640217,0.0012992271222174168,0.3685600757598877,0.7598029971122742,0.43067795038223267,-0.008801773190498352,0.04481907933950424,0.21949702501296997,0.3656202554702759,0.7621884346008301,0.42000001668930054,-0.35666805505752563,-2.996316432952881,-1.3942538499832153,-3.000274181365967,-0.19292816519737244,-0.1914338618516922,-0.1880815029144287,-0.1834789663553238,0.5018565654754639,0.4274454712867737,0.32177966833114624,0.23197978734970093
0.65,0.10546594113111496,0.003309058491140604,0.0,0.6965566277503967,0.0,0.0,-0.7175018191337585,0.634835958480835,0.13835076987743378,0.0,0.0,0.0,1.4943212270736694,0.37483590841293335,0.7645925879478455,0.4200001657009125,0.6249061822891235,-3.922372343367897e-06,1.3009247595618945e-05,-0.7806997895240784,-0.0727786123752594,0.005511106923222542,-0.00027704754029400647,-0.004664402920752764,-0.014276831410825253,3.738675594329834,0.3662847876548767,0.759096086025238,0.439793199300766,-0.1592615842819214,0.011893153190612793,0.8677183389663696,0.3656202554702759,0.7621884346008301,0.42000001668930054,-0.40668243169784546,-2.9999899864196777,-1.4442720413208008,-2.999999761581421,-0.18859580159187317,-0.18754637241363525,-0.18502353131771088,-0.18098843097686768,0.3106464445590973,0.2717992663383484,0.22107025980949402,0.1913449615240097
0.6666666666666666,0.11334703862667084,0.0014388049021363258,0.0,0.6894277930259705,0.0,0.0,-0.7243543863296509,0.3607867658138275,-0.16533081233501434,0.0,0.0,0.0,-2.0288047790527344,0.3743055760860443,0.7645295262336731,0.42000001668930054,0.6312046647071838,-9.307107688982796e-07,2.094602450597449e-06,-0.7756162285804749,-0.009587465785443783,-0.00339321605861187,-4.9682363169267774e-05,-0.0009426978067494929,-0.0026571296621114016,0.2802540957927704,0.36935675144195557,0.7591196298599243,0.45190995931625366,0.43782562017440796,-0.10588283091783524,0.744660496711731,0.3656202554702759,0.7621884346008301,0.42000001668930054,-0.4566960334777832,-3.0,-1.4942903518676758,-3.000000476837158,-0.18271470069885254,-0.18204793334007263,-0.1799710988998413,-0.17600524425506592,0.25208738446235657,0.2705461382865906,0.2895914316177368,0.3290803134441376
0.6833333333333333,0.12113863974809647,-0.004121444188058376,0.0,0.6633515954017639,0.0,0.0,-0.7483078837394714,0.5133556127548218,-0.4047567844390869,0.0,0.0,0.0,-5.115951061248779,0.3743051588535309,0.764529824256897,0.4200000464916229,0.6312049627304077,7.14561281256465e-07,-3.817802735284204e-06,-0.7756159901618958,0.00021031188953202218,-0.00028592642047442496,-0.00010338029824197292,0.005669028498232365,-4.2051496507156116e-07,-0.0005755739402957261,0.37882646918296814,0.7589747905731201,0.47163641452789307,0.738135039806366,0.05838167667388916,1.734344482421875,0.3656202554702759,0.7621884346008301,0.42000001668930054,-0.506709098815918,-2.999976634979248,-1.5443086624145508,-2.999999523162842,-0.18040670454502106,-0.17923171818256378,-0.1766013354063034,-0.17179401218891144,0.08396302163600922,0.12059454619884491,0.16107897460460663,0.21567215025424957
0.7,0.13303594291210175,-0.004429517313838005,0.0,0.6497288942337036,0.0,0.0,-0.7601660490036011,0.6525079011917114,0.002427836414426565,0.0,0.0,0.0,-1.106494426727295,0.3743051588535309,0.7645297646522522,0.4200000464916229,0.6312049031257629,5.495876393979415e-07,-3.8079690511949593e-06,-0.7756160497665405,0.00018683225789573044,-0.0002815335465129465,-0.00010245200246572495,0.005689846817404032,-0.0003842820005957037,-0.0005328283878043294,0.3900992274284363,0.7603256702423096,0.5054372549057007,0.6667393445968628,0.3258417844772339,2.2722344398498535,0.3656202554702759,0.7621884346008301,0.42000001668930054,-0.5435194969177246,-1.5182325839996338,-1.5943264961242676,-2.999997854232788,-0.18471717834472656,-0.1821867823600769,-0.17825159430503845,-0.17210112512111664,-0.05933314189314842,-0.048778235912323,-0.036267880350351334,-0.01812257245182991
0.7166666666666667,0.1406969577074051,-0.002406982472166419,0.0,0.6597835421562195,0.0,0.0,-0.7514557242393494,0.4082767367362976,0.10272284597158432,0.0,0.0,0.0,2.4008469581604004,0.3743051588535309,0.7645297646522522,0.4200000464916229,0.6312048435211182,5.668621838594845e-07,-3.846086201519938e-06,-0.7756161093711853,0.00018714879115577787,-0.00028135644970461726,-0.00010256096720695496,0.0056833913549780846,-0.00038053831667639315,-0.0005335606401786208,0.40279844403266907,0.7640458345413208,0.5360937118530273,0.8044154644012451,0.18468110263347626,1.4585679769515991,0.3656202554702759,0.7621884346008301,0.42000001668930054,-0.5498179197311401,0.5843106508255005,-1.5753092765808105,3.0,-0.1844804883003235,-0.18184372782707214,-0.17777682840824127,-0.17146137356758118,0.16063718497753143,0.14602814614772797,0.1331063061952591,0.12016800045967102
0.7333333333333333,0.14423105120658875,-0.0055486527271568775,0.0,0.6579659581184387,0.0,0.0,-0.7530477046966553,0.18988652527332306,-0.26357564330101013,0.0,0.0,0.0,-1.08541738986969,0.37430518865585327,0.7645297646522522,0.4200000464916229,0.6312049627304077,6.141376047708036e-07,-4.046726644446608e-06,-0.7756160497665405,0.0001877342292573303,-0.00028168639983050525,-0.00010263035073876381,0.0056882998906075954,-0.0003729982709046453,-0.0005347841652110219,0.41119542717933655,0.766790509223938,0.5535229444503784,0.186870738863945,-0.0520428791642189,0.7738060355186462,0.3656202554702759,0.7621884346008301,0.42000001668930054,-0.561280369758606,-1.7454767227172852,-1.5252528190612793,3.0000009536743164,-0.17801633477210999,-0.17606393992900848,-0.1726747751235962,-0.16707877814769745,0.2553248703479767,0.25982552766799927,0.2576529085636139,0.24317382276058197
0.75,0.14503803849220276,-0.004465513862669468,0.0,0.6677249670028687,0.0,0.0,-0.7444080710411072,0.009706315584480762,0.10589071363210678,0.0,0.0,0.0,2.306779384613037,0.3743051588535309,0.764529824256897,0.4200000464916229,0.6312046647071838,4.5576109641842777e-07,-3.7464499200723367e-06,-0.7756162881851196,0.00018541738972999156,-0.00028183942777104676,-0.00010207574814558029,0.005703525152057409,-0.00040406538755632937,-0.0005297163734212518,0.4143366813659668,0.7635777592658997,0.5617399215698242,0.24295052886009216,-0.17451584339141846,0.25332826375961304,0.3656202554702759,0.7621884346008301,0.42000001668930054,-0.5641916394233704,1.1476404666900635,-1.540862798690796,-2.999999761581421,-0.17771971225738525,-0.17484335601329803,-0.1707475185394287,-0.16479992866516113,0.10206378996372223,0.13596850633621216,0.15731747448444366,0.15752102434635162
0.7666666666666666,0.1464521735906601,-0.0058897146955132484,0.0,0.6648060083389282,0.0,0.0,-0.7470160722732544,0.12902703881263733,-0.1358543187379837,0.0,0.0,0.0,-1.3190611600875854,0.37430518865585327,0.764529824256897,0.4200000464916229,0.6312047243118286,5.523315280697716e-07,-3.7323313790693646e-06,-0.7756161689758301,0.00018111443205270916,-0.00028339418349787593,-0.000100722536444664,0.0057631004601716995,-0.0004594819329213351,-0.000520091038197279,0.41548672318458557,0.7621170282363892,0.5614893436431885,-0.0923374593257904,-0.09167271852493286,-0.13656309247016907,0.3656202554702759,0.7621884346008301,0.42000001668930054,-0.5612750053405762,-0.6439629793167114,-1.5020231008529663,2.9999990463256836,-0.1743578463792801,-0.17145627737045288,-0.16753174364566803,-0.16209052503108978,0.14098206162452698,0.14584091305732727,0.1371755599975586,0.10623224824666977
0.7833333333333333,0.14627563953399658,-0.005452513694763184,0.0,0.6716417670249939,0.0,0.0,-0.7408760786056519,-0.06208173558115959,0.08242080360651016,0.0,0.0,0.0,1.875453233718872,0.37430518865585327,0.764529824256897,0.4200000464916229,0.6312047243118286,7.254451475091628e-07,-3.821978680207394e-06,-0.7756162881851196,0.0001885378296719864,-0.0002831092569977045,-0.00010264664888381958,0.0057183317840099335,-0.00036555324913933873,-0.0005362717784009874,0.41653329133987427,0.758073627948761,0.5583639144897461,0.16059784591197968,-0.32944297790527344,-0.1757553517818451,0.3656202554702759,0.7621884346008301,0.42000001668930054,-0.5833268165588379,-1.8787789344787598,-1.518122673034668,-3.0,-0.1724947988986969,-0.1693822741508484,-0.16535507142543793,-0.1600797027349472,0.1266041398048401,0.14207029342651367,0.15555942058563232,0.15730787813663483
0.8,0.14721696078777313,-0.006768692750483751,0.0,0.6668937802314758,0.0,0.0,-0.7451527714729309,0.10609641671180725,-0.12088469415903091,0.0,0.0,0.0,-1.5872423648834229,0.37430518865585327,0.764529824256897,0.4200000464916229,0.6312046051025391,6.588650762751058e-07,-3.6794626794289798e-06,-0.7756162285804749,0.00018368149176239967,-0.00028442637994885445,-0.00010123825632035732,0.005774049554020166,-0.00042975987889803946,-0.0005255264113657176,0.42070162296295166,0.7521533370018005,0.5506715774536133,0.3141061067581177,-0.4619230628013611,-0.5799500346183777,0.3656202554702759,0.7621884346008301,0.42000001668930054,-0.6122868657112122,-1.5957980155944824,-1.568140983581543,-3.000000476837158,-0.16997970640659332,-0.1666138470172882,-0.16231608390808105,-0.1569121927022934,0.09901052713394165,0.13394947350025177,0.1699220985174179,0.19733093678951263
0.8166666666666667,0.1510753631591797,-0.007988792844116688,0.0,0.6419749855995178,0.0,0.0,-0.7667255997657776,0.2815098464488983,-0.06001874804496765,0.0,0.0,0.0,-4.843565464019775,0.37430518865585327,0.764529824256897,0.4200000464916229,0.6312047839164734,5.223115522312582e-07,-3.825746716756839e-06,-0.7756162285804749,0.00018252746667712927,-0.00028381633455865085,-0.0001010713167488575,0.005765506066381931,-0.00044393466669134796,-0.000523157010320574,0.4293857514858246,0.7447365522384644,0.5438145399093628,0.7214169502258301,-0.44213515520095825,-0.11514078080654144,0.3656202554702759,0.7621884346008301,0.42000001668930054,-0.6480053067207336,-2.575322151184082,-1.618159294128418,-3.0,-0.16889092326164246,-0.16522812843322754,-0.1605297476053238,-0.15477031469345093,0.08900617808103561,0.09146345406770706,0.10338886827230453,0.11676354706287384
0.8333333333333334,0.15742048621177673,-0.006404752843081951,0.0,0.6318956017494202,0.0,0.0,-0.7750535011291504,0.4151201546192169,0.1584678590297699,0.0,0.0,0.0,-0.5699511170387268,0.3743051588535309,0.7645297646522522,0.4200000464916229,0.6312049031257629,6.108758157097327e-07,-3.975419076596154e-06,-0.7756160497665405,0.00018784251005854458,-0.0002817173663061112,-0.00010266806930303574,0.005689387675374746,-0.00037120134220458567,-0.0005350008141249418,0.43783992528915405,0.7419761419296265,0.5446518659591675,0.322598397731781,0.05566537007689476,0.2095707654953003,0.3656202554702759,0.7621884346008301,0.42000001668930054,-0.6593891978263855,0.91652911901474,-1.6681745052337646,-2.999999523162842,-0.16692106425762177,-0.16384831070899963,-0.15960602462291718,-0.1542806178331375,0.1563957929611206,0.09072495996952057,0.02983369119465351,-0.03139754384756088
0.85,0.16130958497524261,-0.0023746504448354244,0.0,0.6450955867767334,0.0,0.0,-0.7641019225120544,0.18353478610515594,0.3334052562713623,0.0,0.0,0.0,2.8483574390411377,0.3743051588535309,0.7645297646522522,0.4200000464916229,0.6312048435211182,5.605255068985571e-07,-3.836252290057018e-06,-0.7756161093711853,0.0001870812993729487,-0.0002813059836626053,-0.00010253884829580784,0.005682664457708597,-0.00038090607267804444,-0.000533394399099052,0.4430615305900574,0.7450704574584961,0.5464112758636475,0.2721158564090729,0.2822014093399048,0.04384660720825195,0.3656202554702759,0.7621884346008301,0.42000001668930054,-0.6354886889457703,1.849955439567566,-1.6289682388305664,3.0000007152557373,-0.16296948492527008,-0.16144822537899017,-0.15868398547172546,-0.1548273265361786,0.22836367785930634,0.12767772376537323,0.02878931723535061,-0.0710957795381546
0.8666666666666667,0.16156351566314697,-0.0018238166812807322,0.0,0.6453832387924194,0.0,0.0,-0.7638589143753052,-0.03256995603442192,0.034860532730817795,0.0,0.0,0.0,-0.7933345437049866,0.37430518865585327,0.7645297646522522,0.4200000464916229,0.6312049627304077,6.028416805747838e-07,-4.034740868519293e-06,-0.7756160497665405,0.00018760022066999227,-0.00028168532298877835,-0.00010259309783577919,0.005688969511538744,-0.00037470427923835814,-0.0005344933015294373,0.4416063725948334,0.7509768605232239,0.5434664487838745,-0.479137659072876,0.30705851316452026,-0.25583213567733765,0.3656202554702759,0.7621884346008301,0.42000001668930054,-0.6259189248085022,-0.5054749846458435,-1.5789117813110352,2.999999761581421,-0.15719224512577057,-0.15758134424686432,-0.15671931207180023,-0.1547834426164627,0.14592215418815613,0.07589472085237503,1.2456439435482025e-08,-0.08038497716188431
