vladlanda/robotic-transformer/data/env_000_episode_0149.csv
sim_time_s,robot_box_x,robot_box_y,robot_box_z,robot_box_quat_w,robot_box_quat_x,robot_box_quat_y,robot_box_quat_z,robot_box_linvel_x,robot_box_linvel_y,robot_box_linvel_z,robot_box_angvel_x,robot_box_angvel_y,robot_box_angvel_z,cube_world_x,cube_world_y,cube_world_z,cube_quat_w,cube_quat_x,cube_quat_y,cube_quat_z,cube_linvel_x,cube_linvel_y,cube_linvel_z,cube_angvel_x,cube_angvel_y,cube_angvel_z,endpoint_world_x,endpoint_world_y,endpoint_world_z,endpoint_linvel_x,endpoint_linvel_y,endpoint_linvel_z,target_cube_world_x,target_cube_world_y,target_cube_world_z,gripper_actual_pos_rad_gp_leftgearjoint,gripper_actual_vel_rad_s_gp_leftgearjoint,gripper_actual_pos_rad_gp_rotatingjoint,gripper_actual_vel_rad_s_gp_rotatingjoint,motor_angle_rad_joint1,motor_angle_rad_joint2,motor_angle_rad_joint3,motor_angle_rad_joint4,motor_speed_rad_s_joint1,motor_speed_rad_s_joint2,motor_speed_rad_s_joint3,motor_speed_rad_s_joint4
0.0,0.0,0.0,0.0,1.0,0.0,0.0,0.0,0.0,0.0,0.0,0.0,0.0,0.0,-0.3782079517841339,0.7141226530075073,0.41999998688697815,1.0,0.0,0.0,0.0,0.0,0.0,0.0,0.0,0.0,0.0,3.42540442943573e-06,-0.005000244826078415,1.313499927520752,0.0,0.0,0.0,0.3881472051143646,0.7075692415237427,0.42000001668930054,-1.5707999467849731,0.0,0.0,0.0,0.0,0.0,0.0,0.0,0.0,0.0,0.0,0.0
0.016666666666666666,0.00287969084456563,0.002178614493459463,0.0,0.9998124241828918,0.0,0.0,0.019368404522538185,0.24092592298984528,0.18233256042003632,0.0,0.0,0.0,3.1418259143829346,-0.37820807099342346,0.7141223549842834,0.41999998688697815,1.0,3.279964630564791e-06,-8.339746386809566e-07,8.465587342243452e-08,-1.9833529222523794e-05,0.00017983045836444944,-6.132945418357849e-05,0.0009432713268324733,-0.004689474124461412,-0.00031981561915017664,-0.00710940919816494,0.003385164076462388,1.315937876701355,-0.8141436576843262,0.987080991268158,0.1809588372707367,0.3881472051143646,0.7075692415237427,0.42000001668930054,-1.5301095247268677,3.00000262260437,-0.04584844037890434,-3.0000009536743164,0.0008699477184563875,0.0007966008852235973,0.0007111531449481845,0.0006110049434937537,0.11094263941049576,0.09758087247610092,0.08335856348276138,0.0682530552148819
0.03333333333333333,0.008963160216808319,0.006798748392611742,0.0,0.9998003840446472,0.0,0.0,0.01997847482562065,0.40704432129859924,0.3152371346950531,0.0,0.0,0.0,-0.8691074848175049,-0.378208190202713,0.7141222953796387,0.4200000464916229,1.0,3.3908179375430336e-06,-2.132458348569344e-06,-3.7097745320124886e-08,0.00026357852038927376,0.00026937833172269166,-0.00010509369894862175,-0.0017707126680761576,0.004130884539335966,-0.0001354814594378695,-0.027545761317014694,0.02628800831735134,1.316584587097168,-1.5906898975372314,1.6170055866241455,-0.08655394613742828,0.3881472051143646,0.7075692415237427,0.42000001668930054,-1.4800902605056763,2.9999990463256836,-0.09588828682899475,-3.0000014305114746,0.002990435343235731,0.00265269516967237,0.0022772217635065317,0.0018606872763484716,0.16418133676052094,0.13973774015903473,0.11379968374967575,0.08628199994564056
0.05,0.01847401075065136,0.013901318423449993,0.0,0.9999758005142212,0.0,0.0,-0.006953468546271324,0.6362661719322205,0.4723457098007202,0.0,0.0,0.0,-4.07374382019043,-0.3782082200050354,0.7141223549842834,0.4200000464916229,1.0,3.7651902857760433e-06,-2.2119197637948673e-06,5.609367637049445e-09,0.00026530938339419663,0.00026691678795032203,-0.00010440615005791187,-0.0017243892652913928,0.004177466034889221,-0.00012949809024576098,-0.05716247484087944,0.05769875645637512,1.311830759048462,-1.949415683746338,2.077942371368408,-0.46637821197509766,0.3881472051143646,0.7075692415237427,0.42000001668930054,-1.4300719499588013,2.999998092651367,-0.14592698216438293,-3.0000009536743164,0.006013662088662386,0.005174153950065374,0.004262343514710665,0.0032738875597715378,0.20713980495929718,0.16678163409233093,0.12450088560581207,0.08022065460681915
0.06666666666666667,0.03079170733690262,0.0233910009264946,0.0,0.9998797178268433,0.0,0.0,-0.015510667115449905,0.772631049156189,0.616200864315033,0.0,0.0,0.0,-0.03754471242427826,-0.3782082200050354,0.7141222953796387,0.4200000464916229,0.9999999403953552,3.406832092878176e-06,-2.28558906201215e-06,4.300801492718165e-07,0.0002670248504728079,0.0002679176686797291,-0.0001043803058564663,-0.00174071139190346,0.00421183044090867,-0.00012850876373704523,-0.09257255494594574,0.09147565066814423,1.3015105724334717,-2.168323040008545,2.1429128646850586,-0.7615342140197754,0.3881472051143646,0.7075692415237427,0.42000001668930054,-1.380046010017395,2.9999988079071045,-0.15313869714736938,1.7265536785125732,0.008536061272025108,0.006910037714987993,0.005170735996216536,0.0033145390916615725,0.12673254311084747,0.06885381788015366,0.008813250809907913,-0.05346911400556564
0.08333333333333333,0.03682556748390198,0.036764778196811676,0.0,0.9992241859436035,0.0,0.0,-0.03938242048025131,0.2269200086593628,0.875832736492157,0.0,0.0,0.0,-3.8089942932128906,-0.3782082200050354,0.7141222953796387,0.4200000464916229,1.0,3.6973397072870284e-06,-2.18897503145854e-06,-2.6324283908252255e-07,0.00026389575214125216,0.000265863083768636,-0.00010433816350996494,-0.001708182506263256,0.004150256514549255,-0.00012991153926122934,-0.12355908751487732,0.13121527433395386,1.2869406938552856,-1.579620122909546,2.6294355392456055,-0.9153861403465271,0.3881472051143646,0.7075692415237427,0.42000001668930054,-1.3300402164459229,2.9999990463256836,-0.19184991717338562,-3.0,0.004356374032795429,0.001913202926516533,-0.0006975518772378564,-0.0034835778642445803,-0.3780788779258728,-0.4405026137828827,-0.5056974291801453,-0.5739187598228455
0.1,0.046685781329870224,0.051719654351472855,0.0,0.995866596698761,0.0,0.0,-0.09082763642072678,0.7373454570770264,0.904130756855011,0.0,0.0,0.0,-6.966689109802246,-0.3782082200050354,0.7141222953796387,0.4200000464916229,0.9999999403953552,3.6204189655109076e-06,-2.2651970539300237e-06,1.7461321988321288e-07,0.00026676736888475716,0.0002674079150892794,-0.0001040794886648655,-0.001738528604619205,0.004209060221910477,-0.00012775698269251734,-0.151555597782135,0.17732734978199005,1.2712879180908203,-1.7697460651397705,2.921355962753296,-1.0171757936477661,0.3881472051143646,0.7075692415237427,0.42000001668930054,-1.280023217201233,2.999997615814209,-0.17962564527988434,2.999999761581421,0.0025139327626675367,-0.0015047136694192886,-0.00569490110501647,-0.010064767673611641,-0.019864823669195175,-0.12213382869958878,-0.22340837121009827,-0.32364267110824585
0.11666666666666667,0.05520734563469887,0.06377626210451126,0.0,0.9924584627151489,0.0,0.0,-0.12258130311965942,0.5391188859939575,0.6854392886161804,0.0,0.0,0.0,-2.5790140628814697,-0.3782082200050354,0.7141222953796387,0.4200000464916229,1.0,3.798416400968563e-06,-2.2627416456089122e-06,-1.5020985699720768e-07,0.00026374010485596955,0.00026566069573163986,-0.00010429113171994686,-0.001705370144918561,0.00414750212803483,-0.0001298012211918831,-0.18443307280540466,0.22313663363456726,1.2529351711273193,-1.9184672832489014,2.950155258178711,-1.1006041765213013,0.3881472051143646,0.7075692415237427,0.42000001668930054,-1.2300349473953247,3.0,-0.21118895709514618,-3.0,-3.676048800116405e-05,-0.005686665885150433,-0.011482411995530128,-0.01743207313120365,-0.06778270751237869,-0.18542326986789703,-0.2997746169567108,-0.4106731414794922
0.13333333333333333,0.061589960008859634,0.07320084422826767,0.0,0.9864469170570374,0.0,0.0,-0.16408072412014008,0.3145240545272827,0.48372882604599,0.0,0.0,0.0,-5.755559921264648,-0.3782082200050354,0.7141223549842834,0.4200000464916229,0.9999999403953552,3.5505045161698945e-06,-2.2297124360193266e-06,2.9290509928614483e-07,0.0002670330286491662,0.000267792638624087,-0.00010417005978524685,-0.0017440036172047257,0.004213502164930105,-0.00012799850082956254,-0.2149069905281067,0.27779650688171387,1.230546474456787,-1.6944580078125,3.6662583351135254,-1.5534954071044922,0.3881472051143646,0.7075692415237427,0.42000001668930054,-1.1800212860107422,2.9999923706054688,-0.17733579874038696,3.000000238418579,-0.0025592015590518713,-0.010045461356639862,-0.017613505944609642,-0.025269679725170135,-0.22873125970363617,-0.3271424174308777,-0.4216954708099365,-0.5122876167297363
0.15,0.06380399316549301,0.08342476934194565,0.0,0.9760586023330688,0.0,0.0,-0.21750783920288086,0.06289299577474594,0.6685120463371277,0.0,0.0,0.0,-6.931520462036133,-0.3782082200050354,0.7141222953796387,0.4200000464916229,0.9999999403953552,3.3380501918145455e-06,-2.242820528408629e-06,-2.8022322240417452e-08,0.00026674597756937146,0.0002675814612302929,-0.00010427739471197128,-0.0017367637483403087,0.0042068837210536,-0.00012831276399083436,-0.24671725928783417,0.3386054039001465,1.1998875141143799,-1.8548693656921387,3.8514342308044434,-2.1482725143432617,0.3881472051143646,0.7075692415237427,0.42000001668930054,-1.1468217372894287,1.1202160120010376,-0.20895203948020935,-2.999999761581421,-0.008000067435204983,-0.016886141151189804,-0.025777660310268402,-0.034679874777793884,-0.39800068736076355,-0.4633430242538452,-0.524217426776886,-0.5806425213813782
0.16666666666666666,0.06938571482896805,0.09556455910205841,0.0,0.9685214757919312,0.0,0.0,-0.24893002212047577,0.33543744683265686,0.7720093131065369,0.0,0.0,0.0,-2.8138680458068848,-0.3782082200050354,0.7141223549842834,0.4200000464916229,0.9999999403953552,3.647779067250667e-06,-2.307212753294152e-06,3.527146219539645e-08,0.00026726859505288303,0.0002680137986317277,-0.00010418682359158993,-0.0017473286716267467,0.0042176577262580395,-0.00012798354146070778,-0.28388315439224243,0.4005523920059204,1.1568362712860107,-2.1489615440368652,3.92984676361084,-3.0223398208618164,0.3881472051143646,0.7075692415237427,0.42000001668930054,-1.1025729179382324,3.0000014305114746,-0.258977472782135,-2.999999523162842,-0.01366585586220026,-0.023368043825030327,-0.033002883195877075,-0.04257875308394432,-0.4916306734085083,-0.503875195980072,-0.5134551525115967,-0.5207301378250122
0.18333333333333332,0.07198784500360489,0.10545807331800461,0.0,0.9563429951667786,0.0,0.0,-0.29224663972854614,0.1269078552722931,0.5415360331535339,0.0,0.0,0.0,-6.1851582527160645,-0.3782082200050354,0.7141222953796387,0.4200000464916229,0.9999999403953552,3.290514769105357e-06,-2.1938158170087263e-06,-2.7924590995098697e-07,0.0002667787193786353,0.0002677605953067541,-0.0001043414231389761,-0.0017390446737408638,0.004206892102956772,-0.00012845569290220737,-0.3157755136489868,0.4685782194137573,1.1006360054016113,-1.5577607154846191,4.305205821990967,-3.6360034942626953,0.3881472051143646,0.7075692415237427,0.42000001668930054,-1.05256986618042,3.0000011920928955,-0.3090047836303711,-2.999999523162842,-0.02460021898150444,-0.03418693691492081,-0.043679092079401016,-0.05309459939599037,-0.7074046730995178,-0.695597767829895,-0.682383120059967,-0.6682833433151245
0.2,0.07607610523700714,0.11628446727991104,0.0,0.9484968185424805,0.0,0.0,-0.3167867362499237,0.3006913363933563,0.67130047082901,0.0,0.0,0.0,-2.0241048336029053,-0.3782082200050354,0.7141222953796387,0.4200000464916229,1.0,3.280726787124877e-06,-2.219165025962866e-06,1.5945686016038962e-07,0.0002662799961399287,0.0002674010756891221,-0.0001042510848492384,-0.0017357835313305259,0.004197876434773207,-0.00012865287135355175,-0.3441588282585144,0.5348267555236816,1.0315451622009277,-1.4764608144760132,3.9335639476776123,-4.572891712188721,0.3881472051143646,0.7075692415237427,0.42000001668930054,-1.0025690793991089,2.9999992847442627,-0.35902976989746094,-2.9999992847442627,-0.03910856321454048,-0.04776075854897499,-0.056333500891923904,-0.06485996395349503,-0.9388579726219177,-0.8622986078262329,-0.7876497507095337,-0.7158664464950562
0.21666666666666667,0.07864633947610855,0.12491042166948318,0.0,0.9358059167861938,0.0,0.0,-0.35251572728157043,0.09634771198034286,0.420295774936676,0.0,0.0,0.0,-5.395641803741455,-0.3782082200050354,0.7141223549842834,0.4200000464916229,1.0,3.613114131439943e-06,-2.270080813104869e-06,2.2099777652329067e-07,0.0002671255497261882,0.00026781627093441784,-0.0001041400246322155,-0.0017444631084799767,0.004215197172015905,-0.00012786380830220878,-0.36591029167175293,0.5989370942115784,0.9476308822631836,-0.9948750734329224,3.7167110443115234,-5.396544933319092,0.3881472051143646,0.7075692415237427,0.42000001668930054,-0.9525601863861084,3.000002145767212,-0.4090571701526642,-2.999999761581421,-0.05530189350247383,-0.06365417689085007,-0.07151962071657181,-0.07852521538734436,-0.9837286472320557,-0.9742166996002197,-0.9666785597801208,-0.8667287230491638
0.23333333333333334,0.07717657089233398,0.13394217193126678,0.0,0.9293310642242432,0.0,0.0,-0.36924755573272705,-0.15206068754196167,0.5827415585517883,0.0,0.0,0.0,-1.119545578956604,-0.3782082200050354,0.7141222953796387,0.4200000464916229,1.0,3.381833721505245e-06,-2.29093961934268e-06,2.727813352976227e-07,0.00026691294624470174,0.00026779971085488796,-0.00010433141142129898,-0.0017395353643223643,0.004209678154438734,-0.00012843581498600543,-0.3842466473579407,0.650865912437439,0.8529320955276489,-0.869134783744812,2.724391222000122,-5.935909748077393,0.3881472051143646,0.7075692415237427,0.42000001668930054,-0.9025498032569885,2.9999992847442627,-0.45908671617507935,-3.0000014305114746,-0.07181976735591888,-0.08012458682060242,-0.08791785687208176,-0.09483333677053452,-0.9886349439620972,-0.9855299592018127,-0.9776788949966431,-0.9648676514625549
0.25,0.07938064634799957,0.1388319581747055,0.0,0.917620837688446,0.0,0.0,-0.39745697379112244,0.15586568415164948,0.2500399351119995,0.0,0.0,0.0,-4.289341449737549,-0.378208190202713,0.7141222953796387,0.4200000464916229,0.9999999403953552,3.7065449305373477e-06,-2.222977173005347e-06,-2.2551901679435105e-07,0.0002642468025442213,0.0002665686479303986,-0.00010457751341164112,-0.0017169659258797765,0.004155547823756933,-0.00013063880032859743,-0.39656662940979004,0.6922569274902344,0.7482379674911499,-0.44887828826904297,2.0664119720458984,-6.524206161499023,0.3881472051143646,0.7075692415237427,0.42000001668930054,-0.8525391817092896,2.999998092651367,-0.5091172456741333,-3.0,-0.0869351401925087,-0.09521673619747162,-0.10293982177972794,-0.10976037383079529,-0.9915047883987427,-0.9926979541778564,-0.9936421513557434,-0.9932664036750793
0.26666666666666666,0.07690206170082092,0.14722032845020294,0.0,0.913066029548645,0.0,0.0,-0.4078117907047272,-0.14926360547542572,0.6200397610664368,0.0,0.0,0.0,-0.3635586202144623,-0.3782082200050354,0.7141222953796387,0.4200000464916229,0.9999999403953552,3.7196000448602717e-06,-2.403485495960922e-06,-1.8307810023543425e-07,0.0002662320912349969,0.00026729173259809613,-0.00010425853542983532,-0.0017327233217656612,0.0041965520940721035,-0.00012851424980908632,-0.4018310308456421,0.7099291682243347,0.6415219902992249,-0.046944037079811096,0.3812366724014282,-6.261863708496094,0.3881472051143646,0.7075692415237427,0.42000001668930054,-0.8025301098823547,2.9999942779541016,-0.5591470003128052,-3.0000009536743164,-0.10429345071315765,-0.11233863979578018,-0.11990343034267426,-0.1266125589609146,-0.9000118970870972,-0.9157808423042297,-0.9322542548179626,-0.9479151964187622
0.2833333333333333,0.07819116115570068,0.15163928270339966,0.0,0.9197475910186768,0.0,0.0,-0.3925102949142456,0.10508066415786743,0.2168145626783371,0.0,0.0,0.0,2.736870050430298,-0.3782082200050354,0.7141223549842834,0.4200000464916229,0.9999999403953552,3.5840146210830426e-06,-2.31546050599718e-06,7.404324975368581e-08,0.00026522012194618583,0.0002645521017257124,-0.00010317075066268444,-0.0017020526574924588,0.004185048397630453,-0.0001249978959094733,-0.40742045640945435,0.7111470699310303,0.5401960611343384,-0.26185593008995056,-0.3723984658718109,-5.9081501960754395,0.3881472051143646,0.7075692415237427,0.42000001668930054,-0.7525213360786438,2.999990701675415,-0.6091758012771606,-3.0000016689300537,-0.11852969974279404,-0.12679925560951233,-0.13460610806941986,-0.1415446549654007,-0.9962449669837952,-0.9973078966140747,-0.9981915354728699,-0.9989431500434875
0.3,0.07626204937696457,0.15324461460113525,0.0,0.9191225171089172,0.0,0.0,-0.39397186040878296,-0.13275004923343658,0.014881189912557602,0.0,0.0,0.0,-1.0271137952804565,-0.3782082200050354,0.7141222953796387,0.4200000464916229,1.0,3.724180714925751e-06,-2.2719079879607307e-06,9.637297893050345e-08,0.0002631253737490624,0.0002652592374943197,-0.00010437984019517899,-0.0016960874199867249,0.004134821705520153,-0.00013027869863435626,-0.40118178725242615,0.7092689275741577,0.44496333599090576,0.8174161911010742,0.12138913571834564,-5.348212242126465,0.3881472051143646,0.7075692415237427,0.42000001668930054,-0.7025134563446045,2.9999938011169434,-0.6592025756835938,-2.999997615814209,-0.13655859231948853,-0.14453142881393433,-0.15211710333824158,-0.15888166427612305,-0.9084054827690125,-0.9326430559158325,-0.9554979801177979,-0.9762236475944519
0.31666666666666665,0.07217202335596085,0.15188463032245636,0.0,0.9241485595703125,0.0,0.0,-0.3820333182811737,-0.2931753098964691,-0.12942352890968323,0.0,0.0,0.0,2.3768460750579834,-0.3787482678890228,0.7125179171562195,0.42015907168388367,0.9995991587638855,0.004141004290431738,0.00020025824778713286,-0.028004683554172516,0.006651825737208128,0.009100147522985935,-0.0005953276995569468,-0.0047744265757501125,-0.024821266531944275,1.6743866205215454,-0.39530354738235474,0.7136415243148804,0.4152946472167969,0.38378727436065674,0.4901331663131714,-0.02728128619492054,0.3881472051143646,0.7075692415237427,0.42000001668930054,-0.6527396440505981,2.9703269004821777,-0.709545373916626,-2.757359743118286,-0.14382535219192505,-0.15258540213108063,-0.16076792776584625,-0.16787904500961304,0.0013124938122928143,-0.09924133121967316,-0.17729611694812775,-0.22606618702411652
0.3333333333333333,0.06573445349931717,0.148048996925354,0.0,0.9226329326629639,0.0,0.0,-0.3856791853904724,-0.4301685392856598,-0.2706979811191559,0.0,0.0,0.0,-1.3806922435760498,-0.376808762550354,0.7153486013412476,0.4202425181865692,0.9986772537231445,0.006106501445174217,-0.000173129141330719,-0.05105165019631386,0.3940211832523346,0.5113798379898071,0.052800051867961884,2.640183210372925,-0.15199394524097443,-7.798986434936523,-0.39100921154022217,0.7226570844650269,0.4237406849861145,0.4347476363182068,0.5755893588066101,-0.14087440073490143,0.3881472051143646,0.7075692415237427,0.42000001668930054,-0.6027238965034485,2.9999918937683105,-0.7595949172973633,-3.0000076293945312,-0.14402303099632263,-0.15393240749835968,-0.162883460521698,-0.17030787467956543,-0.17160649597644806,-0.1937619149684906,-0.1996748447418213,-0.18716849386692047
0.35,0.05700206384062767,0.141882061958313,0.0,0.926934540271759,0.0,0.0,-0.3752230107784271,-0.5698012113571167,-0.4113495945930481,0.0,0.0,0.0,2.2075002193450928,-0.3690212368965149,0.7253187894821167,0.4202050268650055,0.9904759526252747,0.005059957038611174,-0.0008508263854309916,-0.13759030401706696,0.5187299251556396,0.653317928314209,-0.011093207634985447,-0.5214084982872009,0.0710933580994606,-12.133992195129395,-0.3817552328109741,0.7338058948516846,0.4211857318878174,0.6864341497421265,0.7313815951347351,-0.14414851367473602,0.3881472051143646,0.7075692415237427,0.42000001668930054,-0.5527189373970032,2.9999899864196777,-0.8096250891685486,-2.999999761581421,-0.14926321804523468,-0.15858396887779236,-0.16668933629989624,-0.17301790416240692,-0.3800716698169708,-0.30791598558425903,-0.22133854031562805,-0.12250576168298721
0.36666666666666664,0.04599439352750778,0.13335174322128296,0.0,0.9249582886695862,0.0,0.0,-0.38006865978240967,-0.7017488479614258,-0.5519536733627319,0.0,0.0,0.0,-1.569361686706543,-0.35912424325942993,0.7373470067977905,0.4200512170791626,0.9815517067909241,-0.0012659734347835183,0.00022138783242553473,-0.19119256734848022,0.7143552899360657,0.8403390049934387,0.022251226007938385,-1.041593074798584,0.39071744680404663,-3.739193916320801,-0.3687843084335327,0.744789719581604,0.42067182064056396,0.8982319831848145,0.6875108480453491,0.04525160416960716,0.3881472051143646,0.7075692415237427,0.42000001668930054,-0.5026891231536865,2.999967336654663,-0.8596513867378235,-2.999964952468872,-0.15645556151866913,-0.16413649916648865,-0.17032648622989655,-0.17452482879161835,-0.4351523220539093,-0.318279892206192,-0.18534742295742035,-0.04100692272186279
0.3833333333333333,0.03390831500291824,0.1225065216422081,0.0,0.9114961624145508,0.0,0.0,-0.41130852699279785,-0.7580263018608093,-0.6928709149360657,0.0,0.0,0.0,-4.9581780433654785,-0.34377649426460266,0.7543686628341675,0.4208959639072418,0.9736559987068176,-0.022198496386408806,0.0048423451371490955,-0.2268870770931244,1.151889681816101,1.2166163921356201,0.09134478867053986,-4.2495527267456055,1.8787161111831665,-6.088243007659912,-0.3505389988422394,0.7591488361358643,0.4218226671218872,1.3289551734924316,1.0662180185317993,0.09671805053949356,0.3881472051143646,0.7075692415237427,0.42000001668930054,-0.4526398777961731,2.9999589920043945,-0.909660816192627,-2.9999756813049316,-0.16432437300682068,-0.16966228187084198,-0.17318907380104065,-0.17450158298015594,-0.4459646940231323,-0.2931591868400574,-0.12013259530067444,0.06661105901002884
0.4,0.02435140311717987,0.10868611931800842,0.0,0.8850759863853455,0.0,0.0,-0.4654465317726135,-0.5018839240074158,-0.8860244750976562,0.0,0.0,0.0,-8.050359725952148,-0.3153330385684967,0.7787619233131409,0.42310646176338196,0.9586343765258789,-0.04500707611441612,-0.004076523706316948,-0.2810297906398773,2.337212562561035,1.7398557662963867,0.09205598384141922,30.03665542602539,-18.289602279663086,3.586029529571533,-0.32114920020103455,0.7836034297943115,0.423770934343338,2.2171154022216797,1.7587952613830566,0.28617650270462036,0.3881472051143646,0.7075692415237427,0.42000001668930054,-0.4046531617641449,2.295776605606079,-0.9596777558326721,-3.0000016689300537,-0.1719873547554016,-0.17458850145339966,-0.17501643300056458,-0.17299066483974457,-0.4535938799381256,-0.28132861852645874,-0.08907786756753922,0.11535930633544922
0.4166666666666667,0.01883118785917759,0.09162245690822601,0.0,0.8427985906600952,0.0,0.0,-0.5382290482521057,-0.26157456636428833,-1.0789119005203247,0.0,0.0,0.0,-10.811214447021484,-0.2542978823184967,0.8151265382766724,0.42662641406059265,0.9386366605758667,0.012645801529288292,-0.04764482006430626,-0.341366708278656,5.168118953704834,2.419954776763916,0.3934774100780487,9.661519050598145,-9.434158325195312,5.071427345275879,-0.2596352696418762,0.8200488090515137,0.4271930754184723,4.7695465087890625,2.575209140777588,0.3069099187850952,0.3881472051143646,0.7075692415237427,0.42000001668930054,-0.3827635943889618,0.9598248600959778,-0.9225151538848877,2.999281167984009,-0.183336541056633,-0.18179406225681305,-0.17798824608325958,-0.17180874943733215,-0.732024073600769,-0.4666581451892853,-0.20631378889083862,0.03837817162275314
0.43333333333333335,0.015741538256406784,0.08030948787927628,0.0,0.7816058993339539,0.0,0.0,-0.6237725615501404,-0.13741932809352875,-0.5413269996643066,0.0,0.0,0.0,-13.506122589111328,-0.1549883931875229,0.852134108543396,0.43458712100982666,0.911876380443573,0.06251383572816849,-0.07604329288005829,-0.39848577976226807,7.194151878356934,1.4044811725616455,0.6284874677658081,10.855096817016602,-14.105386734008789,23.876846313476562,-0.1597452461719513,0.8582943081855774,0.4352339804172516,7.023950576782227,2.1059062480926514,0.6426973342895508,0.3881472051143646,0.7075692415237427,0.42000001668930054,-0.3676207959651947,0.9326317310333252,-0.920917272567749,-2.2734687328338623,-0.19962480664253235,-0.1963888257741928,-0.1881878525018692,-0.1765807867050171,-0.9593754410743713,-0.9375801086425781,-0.7515212893486023,-0.41498643159866333
0.45,0.009240916930139065,0.0759982094168663,0.0,0.7255859971046448,0.0,0.0,-0.6881315112113953,-0.5093655586242676,-0.2323532998561859,0.0,0.0,0.0,-9.065382957458496,-0.04428963363170624,0.8690795302391052,0.4446572959423065,0.8724290728569031,0.08379252254962921,-0.07410677522420883,-0.4757670760154724,6.478423595428467,-0.3442787230014801,0.6252961158752441,0.4593742787837982,-12.30922794342041,22.73172950744629,-0.04778134450316429,0.877483069896698,0.44577598571777344,6.553401947021484,0.5377151370048523,0.6863560080528259,0.3881472051143646,0.7075692415237427,0.42000001668930054,-0.351245641708374,0.9312815070152283,-0.9704075455665588,-3.000002384185791,-0.21503761410713196,-0.2118096500635147,-0.20361658930778503,-0.187348410487175,-0.8295466899871826,-0.831428587436676,-0.8380977511405945,-0.6179641485214233
0.4666666666666667,0.007058783434331417,0.06412816047668457,0.0,0.6909676790237427,0.0,0.0,-0.7228856682777405,-0.04089493304491043,-0.8547222018241882,0.0,0.0,0.0,-4.920919418334961,0.06313465535640717,0.8710414171218872,0.4532296657562256,0.8233568668365479,0.08649878948926926,-0.06250406801700592,-0.5573999285697937,6.287024974822998,-1.2853691577911377,0.615807831287384,17.158802032470703,-7.7590203285217285,25.012117385864258,0.05937347933650017,0.8802245855331421,0.45435088872909546,6.291873931884766,-0.45651698112487793,0.4788084030151367,0.3881472051143646,0.7075692415237427,0.42000001668930054,-0.33527252078056335,0.8488359451293945,-1.0204306840896606,-3.000002145767212,-0.2234971821308136,-0.21972377598285675,-0.2111223042011261,-0.19153040647506714,-0.46392741799354553,-0.36654287576675415,-0.2839488685131073,-0.07671955972909927
0.48333333333333334,0.003303751815110445,0.054590027779340744,0.0,0.6806184649467468,0.0,0.0,-0.7326380610466003,-0.23823662102222443,-0.4637312889099121,0.0,0.0,0.0,-0.6090628504753113,0.156907320022583,0.8578169941902161,0.45864570140838623,0.7660508751869202,0.09481638669967651,-0.03134971484541893,-0.6349747776985168,4.544697284698486,-1.8648343086242676,-0.08989349752664566,-13.829063415527344,-11.391125679016113,41.51720428466797,0.15366554260253906,0.8682960867881775,0.4597490429878235,5.264454364776611,-1.0077898502349854,0.27363264560699463,0.3881472051143646,0.7075692415237427,0.42000001668930054,-0.3249173164367676,0.3176594376564026,-1.0704528093338013,-3.00000262260437,-0.2328510582447052,-0.22688235342502594,-0.21650226414203644,-0.1939001977443695,-0.5009396076202393,-0.37421414256095886,-0.27791449427604675,-0.147043839097023
0.5,0.0019074719166383147,0.049953706562519073,0.0,0.6631357669830322,0.0,0.0,-0.7484991550445557,-0.024908430874347687,-0.1871275156736374,0.0,0.0,0.0,-3.663198471069336,0.23410461843013763,0.8351218700408936,0.455582857131958,0.6920595765113831,0.06278352439403534,-0.0530131496489048,-0.7171480059623718,3.7744481563568115,-2.490036964416504,-0.21011994779109955,-2.9646482467651367,3.0062222480773926,17.26624298095703,0.22941479086875916,0.8469439744949341,0.45870068669319153,4.292726993560791,-1.6563854217529297,-0.2044920027256012,0.3881472051143646,0.7075692415237427,0.42000001668930054,-0.32062363624572754,0.17830799520015717,-1.120474934577942,-2.999819278717041,-0.2400193065404892,-0.23221400380134583,-0.22019250690937042,-0.19581666588783264,-0.0686986967921257,-0.3380807638168335,-0.21460217237472534,-0.11069293320178986
0.5166666666666666,0.0035990960896015167,0.04421381279826164,0.0,0.6594505310058594,0.0,0.0,-0.7517479658126831,0.14652647078037262,-0.36753106117248535,0.0,0.0,0.0,0.37910524010658264,0.2955063283443451,0.8044110536575317,0.44693005084991455,0.6345700025558472,0.0035191441420465708,-0.05947831645607948,-0.7705651521682739,3.1003122329711914,-1.87483811378479,-0.5826266407966614,-3.6317050457000732,10.430745124816895,-5.425833225250244,0.2913128733634949,0.8170149326324463,0.4520273804664612,3.265268564224243,-2.028212308883667,-0.5801497101783752,0.3881472051143646,0.7075692415237427,0.42000001668930054,-0.31363970041275024,0.6463218331336975,-1.1704970598220825,-2.9998958110809326,-0.23996077477931976,-0.235855370759964,-0.2218860238790512,-0.19639749825000763,2.578456769697368e-05,-0.1585436463356018,-0.05001099780201912,-0.01649683155119419
0.5333333333333333,0.00772427674382925,0.041279491037130356,0.0,0.6469821929931641,0.0,0.0,-0.7625051140785217,0.29490193724632263,-0.10932832956314087,0.0,0.0,0.0,-2.8357300758361816,0.3417702317237854,0.7731171250343323,0.4316276013851166,0.5990772843360901,-0.03450178727507591,-0.042488180100917816,-0.7988183498382568,2.346658945083618,-2.0387284755706787,-0.9525643587112427,-3.5155322551727295,9.4242525100708,0.8624839186668396,0.33858779072761536,0.785552442073822,0.43709856271743774,2.4414262771606445,-1.859980821609497,-1.1135954856872559,0.3881472051143646,0.7075692415237427,0.42000001668930054,-0.3002150356769562,0.8501095771789551,-1.2205191850662231,-2.9994993209838867,-0.23845522105693817,-0.2371010035276413,-0.22230330109596252,-0.1973540037870407,0.18794555962085724,0.04157903045415878,0.04338466748595238,-0.045356474816799164
0.55,0.014231093227863312,0.035340532660484314,0.0,0.6471585631370544,0.0,0.0,-0.7623554468154907,0.39662131667137146,-0.3967228829860687,0.0,0.0,0.0,0.9236570596694946,0.3722338080406189,0.7489226460456848,0.4215051233768463,0.5771216154098511,-0.02324049547314644,0.017717963084578514,-0.816135048866272,1.1730259656906128,-1.667800784111023,0.11343030631542206,-8.655993461608887,0.19919195771217346,14.473000526428223,0.369491845369339,0.7590593695640564,0.4250754117965698,1.040987491607666,-1.183038353919983,0.11293703317642212,0.3881472051143646,0.7075692415237427,0.42000001668930054,-0.2858218848705292,0.7797210216522217,-1.2705034017562866,-2.9980008602142334,-0.23209229111671448,-0.23312024772167206,-0.2190817892551422,-0.19646021723747253,0.3968580663204193,0.28517359495162964,0.2273326814174652,0.07274304330348969
0.5666666666666667,0.01853146217763424,0.03278040513396263,0.0,0.6371162533760071,0.0,0.0,-0.7707677483558655,0.21032236516475677,-0.11733558028936386,0.0,0.0,0.0,-2.462317705154419,0.38733652234077454,0.7326008081436157,0.420870304107666,0.5835338234901428,-0.012745756655931473,0.01871456764638424,-0.8117730617523193,0.6482770442962646,-1.3432608842849731,0.1791512817144394,12.0298490524292,-8.945327758789062,11.123936653137207,0.3835185170173645,0.741687536239624,0.42492440342903137,0.6080511808395386,-0.8499171137809753,-0.041812244802713394,0.3881472051143646,0.7075692415237427,0.42000001668930054,-0.27349740266799927,0.5113167762756348,-1.2323821783065796,2.9987688064575195,-0.22616273164749146,-0.22878116369247437,-0.21605226397514343,-0.1963234692811966,0.4488411247730255,0.35362905263900757,0.24294884502887726,0.04002309590578079
0.5833333333333334,0.02374570444226265,0.02980177104473114,0.0,0.6391983032226562,0.0,0.0,-0.7690419554710388,0.3405649662017822,-0.18907448649406433,0.0,0.0,0.0,1.132243037223816,0.3926093876361847,0.7213784456253052,0.42153626680374146,0.589543879032135,-0.02324703335762024,0.032144367694854736,-0.8067615628242493,-0.009649110957980156,-0.8968830704689026,0.02214989811182022,-0.7150523662567139,1.3055537939071655,6.42612361907959,0.3883804678916931,0.7295428514480591,0.4258877635002136,-0.04572010785341263,-0.5810319185256958,0.08636851608753204,0.3881472051143646,0.7075692415237427,0.42000001668930054,-0.2656727135181427,0.44506314396858215,-1.2532613277435303,-3.0000014305114746,-0.21771526336669922,-0.22171014547348022,-0.2110883593559265,-0.19495323300361633,0.48075202107429504,0.4250284731388092,0.29952794313430786,0.0855855792760849
0.6,0.030677877366542816,0.029517922550439835,0.0,0.6302168965339661,0.0,0.0,-0.7764191031455994,0.45807337760925293,0.0544344000518322,0.0,0.0,0.0,-2.2753772735595703,0.39156439900398254,0.7158550024032593,0.42086949944496155,0.6189920902252197,-0.013871810398995876,0.017137017101049423,-0.7850877046585083,-0.13490672409534454,-0.2735455334186554,-0.039270173758268356,-0.5589119791984558,-1.9757241010665894,4.471356391906738,0.3864372968673706,0.7236862182617188,0.42447346448898315,-0.16821125149726868,-0.16560299694538116,-0.059761349111795425,0.3881472051143646,0.7075692415237427,0.42000001668930054,-0.2764292359352112,-1.4138920307159424,-1.2151844501495361,2.9997613430023193,-0.2084675282239914,-0.21388478577136993,-0.206027090549469,-0.19390492141246796,0.581092894077301,0.4978836178779602,0.3211166560649872,0.076432004570961
0.6166666666666667,0.035981472581624985,0.025970540940761566,0.0,0.6335161924362183,0.0,0.0,-0.7737294435501099,0.20864874124526978,-0.26578769087791443,0.0,0.0,0.0,1.2818634510040283,0.38953450322151184,0.7122176289558411,0.4200006127357483,0.6389990448951721,-2.4121557089529233e-06,-1.1403580174373928e-05,-0.7692074179649353,-0.1040840893983841,-0.1820029467344284,-0.00029832590371370316,0.011754133738577366,0.013768990524113178,2.5523030757904053,0.3837158679962158,0.7214709520339966,0.4262831211090088,-0.3024293780326843,-0.1163782924413681,0.17690220475196838,0.3881472051143646,0.7075692415237427,0.42000001668930054,-0.3232954144477844,-3.0000009536743164,-1.235984444618225,-2.9995675086975098,-0.1981770545244217,-0.20443925261497498,-0.19919605553150177,-0.19076953828334808,0.47731325030326843,0.47821956872940063,0.36169111728668213,0.1808154433965683
0.6333333333333333,0.041827403008937836,0.026481198146939278,0.0,0.6262744665145874,0.0,0.0,-0.7796026468276978,0.37625235319137573,0.041996199637651443,0.0,0.0,0.0,-2.1752402782440186,0.38817229866981506,0.7100415229797363,0.4200000464916229,0.6487258076667786,-9.932622901942523e-08,6.983549951655732e-07,-0.76102215051651,-0.06509122997522354,-0.11235533654689789,-1.1629541404545307e-05,-0.00038508285069838166,0.0005823759129270911,1.7929027080535889,0.3820049464702606,0.7217097282409668,0.4295116066932678,0.00544782355427742,0.1568586230278015,0.23377643525600433,0.3881472051143646,0.7075692415237427,0.42000001668930054,-0.3733104169368744,-2.996880054473877,-1.2859257459640503,-2.9985978603363037,-0.19212253391742706,-0.19815410673618317,-0.19463881850242615,-0.18885686993598938,0.5245348811149597,0.5005896091461182,0.36317411065101624,0.18359503149986267
0.65,0.04938308522105217,0.022706104442477226,0.0,0.6305124163627625,0.0,0.0,-0.7761791348457336,0.4643792510032654,-0.2502857446670532,0.0,0.0,0.0,1.536309838294983,0.3875356614589691,0.7090256214141846,0.4200000762939453,0.6550391912460327,-1.3212190879130503e-06,2.6828308818949154e-07,-0.7555949091911316,-0.028481293469667435,-0.04279544577002525,-8.764432277530432e-05,0.0025316234678030014,-0.001898883143439889,0.7543006539344788,0.3813145160675049,0.7251399755477905,0.43407171964645386,-0.15369732677936554,0.20151178538799286,0.3611718416213989,0.3881472051143646,0.7075692415237427,0.42000001668930054,-0.42332351207733154,-2.9999825954437256,-1.335944414138794,-3.0000007152557373,-0.1824282854795456,-0.1888001561164856,-0.18751774728298187,-0.18458926677703857,0.4505777359008789,0.4645296037197113,0.36378780007362366,0.22697937488555908
0.6666666666666666,0.05979359522461891,0.02196170575916767,0.0,0.6551529765129089,0.0,0.0,-0.7554962635040283,0.6596680283546448,-0.002996783936396241,0.0,0.0,0.0,4.797924995422363,0.3870202898979187,0.7087340950965881,0.4200000464916229,0.647622287273407,5.906453225179575e-06,-3.0327879585456685e-07,-0.7619614005088806,-0.03781501576304436,-0.02746489830315113,-0.0002060987171716988,-0.01320011354982853,0.009702256880700588,-1.6877567768096924,0.38026362657546997,0.7269187569618225,0.43815433979034424,0.03603965416550636,0.09517725557088852,0.21119162440299988,0.3881472051143646,0.7075692415237427,0.42000001668930054,-0.4733366370201111,-2.9999725818634033,-1.385962724685669,-3.0,-0.1778058111667633,-0.1831790953874588,-0.1826048642396927,-0.18080106377601624,0.31281280517578125,0.37640324234962463,0.35104554891586304,0.31329065561294556
0.6833333333333333,0.07190748304128647,0.01876082830131054,0.0,0.6662622690200806,0.0,0.0,-0.745717465877533,0.7554939985275269,-0.24209852516651154,0.0,0.0,0.0,0.7321342825889587,0.3869006931781769,0.7086485028266907,0.4199998378753662,0.6456319093704224,-9.612797839508858e-06,-5.971303835394792e-06,-0.7636486887931824,-0.0005138294654898345,-0.000984888756647706,-0.00010481313802301884,0.02905459515750408,-0.013486355543136597,0.0013060164637863636,0.38212454319000244,0.7285501956939697,0.44297683238983154,0.1747574806213379,0.03155720233917236,0.43191730976104736,0.3881472051143646,0.7075692415237427,0.42000001668930054,-0.5233449935913086,-3.000000238418579,-1.4359756708145142,-3.000000238418579,-0.1733422875404358,-0.1773047000169754,-0.17663919925689697,-0.17483794689178467,0.21213996410369873,0.3179275691509247,0.35225850343704224,0.3852895200252533
0.7,0.08563762903213501,0.012469728477299213,0.0,0.6543501615524292,0.0,0.0,-0.7561916708946228,0.8551651239395142,-0.4424235224723816,0.0,0.0,0.0,-2.8258724212646484,0.38690054416656494,0.7086485624313354,0.42000001668930054,0.6456320881843567,-1.7771018292478402e-06,-4.966089363733772e-06,-0.7636485695838928,0.0001341393799521029,-0.0003646028635557741,-9.874231182038784e-05,0.007718951441347599,-0.001516561838798225,-0.00031861927709542215,0.3903103172779083,0.7304404973983765,0.45695972442626953,0.7846913933753967,0.14840596914291382,1.3346531391143799,0.3881472051143646,0.7075692415237427,0.42000001668930054,-0.5733571648597717,-2.9999804496765137,-1.4859939813613892,-2.999999523162842,-0.171797975897789,-0.17391015589237213,-0.17246146500110626,-0.16984836757183075,0.04256059229373932,0.15289942920207977,0.20566536486148834,0.2623349726200104
0.7166666666666667,0.1021837368607521,0.010426871478557587,0.0,0.620177149772644,0.0,0.0,-0.7844617962837219,1.0095571279525757,-0.1464514136314392,0.0,0.0,0.0,-6.081974029541016,0.38690054416656494,0.7086485028266907,0.42000001668930054,0.6456323266029358,-1.792223088159517e-06,-4.853478003497003e-06,-0.7636483907699585,0.00013509151176549494,-0.0003712914476636797,-0.00010042916983366013,0.007873044349253178,-0.0015509334625676274,-0.0003209836722817272,0.4126718044281006,0.728413462638855,0.4846643805503845,1.9580602645874023,-0.2427220642566681,2.073075294494629,0.3881472051143646,0.7075692415237427,0.42000001668930054,-0.6233678460121155,-2.9990897178649902,-1.5360122919082642,-2.9999985694885254,-0.17665481567382812,-0.1760522425174713,-0.1727687567472458,-0.1682915836572647,-0.20111308991909027,-0.06845475733280182,0.022355956956744194,0.12102819979190826
0.7333333333333333,0.11583752185106277,0.00957814697176218,0.0,0.6008658409118652,0.0,0.0,-0.7993499040603638,0.7396907210350037,-0.001359945978038013,0.0,0.0,0.0,-1.9076131582260132,0.38690057396888733,0.7086485028266907,0.42000001668930054,0.6456321477890015,-1.7119618860306218e-06,-4.6328455027833115e-06,-0.763648509979248,0.00013388486695475876,-0.00036947830813005567,-0.00010041357018053532,0.00782511942088604,-0.0015603980282321572,-0.0003186192479915917,0.44433343410491943,0.7283934354782104,0.5205100774765015,1.7318882942199707,0.20533612370491028,2.207859754562378,0.3881472051143646,0.7075692415237427,0.42000001668930054,-0.6415143609046936,0.528888463973999,-1.5860302448272705,-2.9999992847442627,-0.1782016158103943,-0.17626133561134338,-0.1722920686006546,-0.16703291237354279,0.0070082698948681355,0.03979043662548065,0.034840475767850876,0.03329215943813324
0.75,0.12456302344799042,0.011236289516091347,0.0,0.6068971157073975,0.0,0.0,-0.794780433177948,0.44591355323791504,0.14486415684223175,0.0,0.0,0.0,1.784985899925232,0.38690057396888733,0.7086485028266907,0.42000001668930054,0.645632266998291,-1.8032325215244782e-06,-4.688100943894824e-06,-0.7636483311653137,0.000133549387101084,-0.00036884768633171916,-0.0001003521028906107,0.007809354458004236,-0.0015615748707205057,-0.0003179151099175215,0.46692949533462524,0.7326915264129639,0.5526132583618164,0.9147781133651733,0.2982667088508606,1.6929926872253418,0.3881472051143646,0.7075692415237427,0.42000001668930054,-0.6099769473075867,2.99998140335083,-1.5470572710037231,2.999999761581421,-0.1765577644109726,-0.17431126534938812,-0.17059364914894104,-0.1655525118112564,0.1639501005411148,0.17390578985214233,0.15259018540382385,0.13055329024791718
0.7666666666666666,0.1289297342300415,0.008846758864820004,0.0,0.6008365750312805,0.0,0.0,-0.7993718981742859,0.22095125913619995,-0.21231837570667267,0.0,0.0,0.0,-1.8536934852600098,0.38690054416656494,0.7086485028266907,0.42000001668930054,0.6456324458122253,-2.014613301071222e-06,-4.805790467798943e-06,-0.763648271560669,0.00013418645539786667,-0.0003707710129674524,-0.00010065664537250996,0.00785586517304182,-0.0015617451863363385,-0.00031916284933686256,0.4744968116283417,0.7376667261123657,0.5734425783157349,-0.02297411859035492,0.23628030717372894,0.9845906496047974,0.3881472051143646,0.7075692415237427,0.42000001668930054,-0.5721515417098999,1.6264680624008179,-1.497000813484192,2.9999990463256836,-0.17210471630096436,-0.16987040638923645,-0.1666427105665207,-0.16214188933372498,0.22268489003181458,0.23747515678405762,0.2236214131116867,0.201820507645607
0.7833333333333333,0.1300259679555893,0.01166563294827938,0.0,0.6071560382843018,0.0,0.0,-0.7945826053619385,0.014490021392703056,0.3047657608985901,0.0,0.0,0.0,1.8277859687805176,0.38690054416656494,0.7086485028266907,0.42000001668930054,0.645632266998291,-1.699875383565086e-06,-4.578070729621686e-06,-0.7636483311653137,0.00013316863623913378,-0.00036896771052852273,-0.00010048598051071167,0.00781168881803751,-0.0015671203145757318,-0.0003171234857290983,0.46819746494293213,0.7402385473251343,0.5866515636444092,-0.6771150827407837,0.16334809362888336,0.633882999420166,0.3881472051143646,0.7075692415237427,0.42000001668930054,-0.5293390154838562,2.999998092651367,-1.4469748735427856,3.000000476837158,-0.17380768060684204,-0.17023921012878418,-0.16622291505336761,-0.16123317182064056,-0.14881186187267303,-0.06646229326725006,-0.015524361282587051,0.014857737347483635
0.8,0.12900294363498688,0.010905571281909943,0.0,0.6014677882194519,0.0,0.0,-0.7988970279693604,-0.0990884080529213,-0.1503533571958542,0.0,0.0,0.0,-1.7667502164840698,0.38690054416656494,0.7086485624313354,0.42000001668930054,0.645632266998291,-1.8278038851349265e-06,-4.6237937567639165e-06,-0.7636483907699585,0.0001330905652139336,-0.0003696722851600498,-0.00010070344433188438,0.007827462628483772,-0.0015721971867606044,-0.00031694667995907366,0.45158207416534424,0.7417018413543701,0.5905274152755737,-1.3301913738250732,-0.004364520311355591,0.03058648109436035,0.3881472051143646,0.7075692415237427,0.42000001668930054,-0.5102981925010681,-0.4344271123409271,-1.39692223072052,3.0000007152557373,-0.17334626615047455,-0.16891631484031677,-0.1644285023212433,-0.15922832489013672,0.08986128121614456,0.13482579588890076,0.16086167097091675,0.17264679074287415
0.8166666666666667,0.12935689091682434,0.013880271464586258,0.0,0.6074241995811462,0.0,0.0,-0.7943776249885559,0.04108200594782829,0.15400239825248718,0.0,0.0,0.0,1.3878448009490967,0.38690054416656494,0.7086485028266907,0.42000001668930054,0.6456323266029358,-1.7633836932873237e-06,-4.911054020340089e-06,-0.7636483311653137,0.000134929534397088,-0.0003714952035807073,-0.00010050740092992783,0.007878518663346767,-0.0015546508366242051,-0.00032070776796899736,0.4323453903198242,0.7426105737686157,0.5906777381896973,-0.9037622213363647,0.2866958677768707,-0.01907810941338539,0.3881472051143646,0.7075692415237427,0.42000001668930054,-0.4968843460083008,1.8381545543670654,-1.4151068925857544,-3.000000476837158,-0.1751905232667923,-0.16979670524597168,-0.16459167003631592,-0.1588994413614273,0.11557069420814514,0.09368869662284851,0.07030481845140457,0.045257069170475006
0.8333333333333334,0.12768851220607758,0.012243539094924927,0.0,0.6012860536575317,0.0,0.0,-0.7990338206291199,-0.15072064101696014,-0.12607795000076294,0.0,0.0,0.0,-1.8967334032058716,0.38690057396888733,0.7086485028266907,0.42000001668930054,0.6456321477890015,-1.7341010334348539e-06,-4.692155471275328e-06,-0.7636484503746033,0.0001340327871730551,-0.00036949559580534697,-0.00010036956518888474,0.007826151326298714,-0.0015586917288601398,-0.000318948325002566,0.4183618426322937,0.7455554604530334,0.5873997211456299,-0.7966174483299255,0.015058547258377075,-0.2358674705028534,0.3881472051143646,0.7075692415237427,0.42000001668930054,-0.5118942260742188,-2.999999761581421,-1.3766200542449951,3.000000238418579,-0.17176049947738647,-0.16690531373023987,-0.1621665060520172,-0.1569019854068756,0.1013820692896843,0.09460103511810303,0.09409590065479279,0.09554066509008408
0.85,0.12788820266723633,0.00905987061560154,0.0,0.6069338321685791,0.0,0.0,-0.7947523593902588,0.05466075986623764,-0.27021029591560364,0.0,0.0,0.0,1.715491533279419,0.38690054416656494,0.7086485028266907,0.42000001668930054,0.6456324458122253,-1.99495957531326e-06,-4.640154202206759e-06,-0.763648271560669,0.00013439648319035769,-0.00037089723628014326,-0.00010063243098556995,0.007859230041503906,-0.001560624223202467,-0.00031966640381142497,0.40996527671813965,0.7459959983825684,0.5856331586837769,-0.23134297132492065,0.04969613254070282,0.04511662945151329,0.3881472051143646,0.7075692415237427,0.42000001668930054,-0.5413582921028137,-0.7095450162887573,-1.395187258720398,-3.000000238418579,-0.17188306152820587,-0.1665946990251541,-0.16126622259616852,-0.15536397695541382,0.009953352622687817,0.04021545872092247,0.08385183662176132,0.1332417130470276
0.8666666666666667,0.13072526454925537,0.0032918418291956186,0.0,0.6006872653961182,0.0,0.0,-0.7994840741157532,0.2139577716588974,-0.4003926217556,0.0,0.0,0.0,-1.8356698751449585,0.38690054416656494,0.7086485028266907,0.42000001668930054,0.6456319093704224,-1.9263593458163086e-06,-4.703465947386576e-06,-0.7636487483978271,0.0001316857960773632,-0.000368030508980155,-0.00010071834549307823,0.007785242982208729,-0.001584077486768365,-0.0003140066110063344,0.4107350707054138,0.7435720562934875,0.5833305716514587,0.3496679663658142,-0.2781384587287903,-0.11516813188791275,0.3881472051143646,0.7075692415237427,0.42000001668930054,-0.5795544981956482,-3.0000011920928955,-1.3567579984664917,2.999999761581421,-0.17341473698616028,-0.1672433316707611,-0.16074980795383453,-0.15355204045772552,-0.09307970106601715,-0.030942492187023163,0.050577305257320404,0.14168885350227356
0.8833333333333333,0.13705310225486755,0.0015213204314932227,0.0,0.5720660090446472,0.0,0.0,-0.8202075958251953,0.3996819257736206,-0.13047151267528534,0.0,0.0,0.0,-4.902161121368408,0.38690054416656494,0.7086485028266907,0.42000001668930054,0.6456322073936462,-1.7556466218593414e-06,-4.714695478469366e-06,-0.7636484503746033,0.0001345954806311056,-0.0003713074838742614,-0.0001006503589451313,0.00787035096436739,-0.0015597629826515913,-0.0003198856138624251,0.41933465003967285,0.7350772619247437,0.5821712017059326,0.7644367814064026,-0.521571159362793,0.11730489134788513,0.3881472051143646,0.7075692415237427,0.42000001668930054,-0.6030077934265137,-0.049195002764463425,-1.375685453414917,-2.999999523162842,-0.17779165506362915,-0.17051690816879272,-0.16262660920619965,-0.15390901267528534,-0.06377258151769638,-0.060404982417821884,-0.034737031906843185,0.003934132866561413
0.9,0.14070521295070648,0.0008665077039040625,0.0,0.560710072517395,0.0,0.0,-0.828012228012085,0.13891708850860596,0.0015632297145202756,0.0,0.0,0.0,-0.5836306214332581,0.38690057396888733,0.7086485624313354,0.42000001668930054,0.6456322073936462,-1.7373810123899602e-06,-4.704371804109542e-06,-0.7636484503746033,0.00013410381507128477,-0.0003697638458106667,-0.00010043615475296974,0.007831991650164127,-0.0015595105942338705,-0.0003190895076841116,0.4307783842086792,0.730474591255188,0.5854284763336182,0.5433676838874817,-0.12435770034790039,0.21096937358379364,0.3881472051143646,0.7075692415237427,0.42000001668930054,-0.5808625221252441,2.4685959815979004,-1.3646725416183472,3.0000007152557373,-0.17628084123134613,-0.16970179975032806,-0.16217799484729767,-0.15363433957099915,0.18619009852409363,0.11457913368940353,0.05824477970600128,0.010352748446166515
