vladlanda/robotic-transformer/data/env_000_episode_0148.csv
sim_time_s,robot_box_x,robot_box_y,robot_box_z,robot_box_quat_w,robot_box_quat_x,robot_box_quat_y,robot_box_quat_z,robot_box_linvel_x,robot_box_linvel_y,robot_box_linvel_z,robot_box_angvel_x,robot_box_angvel_y,robot_box_angvel_z,cube_world_x,cube_world_y,cube_world_z,cube_quat_w,cube_quat_x,cube_quat_y,cube_quat_z,cube_linvel_x,cube_linvel_y,cube_linvel_z,cube_angvel_x,cube_angvel_y,cube_angvel_z,endpoint_world_x,endpoint_world_y,endpoint_world_z,endpoint_linvel_x,endpoint_linvel_y,endpoint_linvel_z,target_cube_world_x,target_cube_world_y,target_cube_world_z,gripper_actual_pos_rad_gp_leftgearjoint,gripper_actual_vel_rad_s_gp_leftgearjoint,gripper_actual_pos_rad_gp_rotatingjoint,gripper_actual_vel_rad_s_gp_rotatingjoint,motor_angle_rad_joint1,motor_angle_rad_joint2,motor_angle_rad_joint3,motor_angle_rad_joint4,motor_speed_rad_s_joint1,motor_speed_rad_s_joint2,motor_speed_rad_s_joint3,motor_speed_rad_s_joint4
0.0,0.0,0.0,0.0,1.0,0.0,0.0,0.0,0.0,0.0,0.0,0.0,0.0,0.0,-0.3524531126022339,0.6511985659599304,0.41999998688697815,1.0,0.0,0.0,0.0,0.0,0.0,0.0,0.0,0.0,0.0,3.42540442943573e-06,-0.005000244826078415,1.313499927520752,0.0,0.0,0.0,0.4715181291103363,0.6737643480300903,0.42000001668930054,-1.5707999467849731,0.0,0.0,0.0,0.0,0.0,0.0,0.0,0.0,0.0,0.0,0.0
0.016666666666666666,0.0029061660170555115,0.0021087131462991238,0.0,0.9998941421508789,0.0,0.0,0.014549009501934052,0.24155253171920776,0.18049098551273346,0.0,0.0,0.0,3.064706325531006,-0.35245323181152344,0.6511982679367065,0.41999998688697815,1.0,3.2799905511637917e-06,-8.339794135281409e-07,8.465515577427141e-08,-1.9833774786093272e-05,0.00017983047291636467,-6.132945418357849e-05,0.0009432245860807598,-0.004689525347203016,-0.00031981084612198174,-0.007089670747518539,0.003508280962705612,1.3159465789794922,-0.8115189075469971,0.990635097026825,0.18088586628437042,0.4715181291103363,0.6737643480300903,0.42000001668930054,-1.5301095247268677,3.000002861022949,-0.04585600271821022,-3.0000009536743164,0.0008793070446699858,0.0008054322679527104,0.0007194580393843353,0.0006195513997226954,0.11087065935134888,0.09751485288143158,0.08329659700393677,0.06817659735679626
0.03333333333333333,0.008944131433963776,0.006680851336568594,0.0,0.9998909831047058,0.0,0.0,0.014765794388949871,0.4053996205329895,0.3121650218963623,0.0,0.0,0.0,-0.9109014868736267,-0.352453351020813,0.6511982083320618,0.4200000464916229,1.0,3.3908531804627273e-06,-2.132488134520827e-06,-3.710428941872124e-08,0.0002635785494931042,0.0002693783608265221,-0.00010509602725505829,-0.0017707846127450466,0.004130862653255463,-0.00013547409616876394,-0.02732139080762863,0.026521380990743637,1.3165857791900635,-1.5753135681152344,1.6354649066925049,-0.08541267365217209,0.4715181291103363,0.6737643480300903,0.42000001668930054,-1.4800901412963867,3.0000016689300537,-0.09589584171772003,-3.0000007152557373,0.0029721707105636597,0.0026356058660894632,0.0022612682078033686,0.0018463177839294076,0.1630552113056183,0.13865596055984497,0.11276184767484665,0.08527335524559021
0.05,0.018413836136460304,0.01374082826077938,0.0,0.9999184608459473,0.0,0.0,-0.012771331705152988,0.6333240866661072,0.46946632862091064,0.0,0.0,0.0,-4.11499547958374,-0.3524533808231354,0.6511982679367065,0.4200000464916229,1.0,3.7651284401363228e-06,-2.2118861124909017e-06,5.622759147172474e-09,0.00026530996547080576,0.00026691515813581645,-0.00010440382175147533,-0.00172425655182451,0.004177390597760677,-0.00012948956282343715,-0.05665872246026993,0.05774790048599243,1.311975359916687,-1.9327614307403564,2.0415782928466797,-0.44846177101135254,0.4715181291103363,0.6737643480300903,0.42000001668930054,-1.4300718307495117,2.9999992847442627,-0.14591002464294434,-3.0000016689300537,0.005966725759208202,0.005129488650709391,0.004219927359372377,0.0032339589670300484,0.20525433123111725,0.1649734079837799,0.12277249246835709,0.0785621777176857
0.06666666666666667,0.030712684616446495,0.023191159591078758,0.0,0.9997638463973999,0.0,0.0,-0.021732382476329803,0.770952045917511,0.6137570738792419,0.0,0.0,0.0,-0.0662810280919075,-0.3524533808231354,0.6511982083320618,0.4200000464916229,0.9999999403953552,3.406727046240121e-06,-2.285541313540307e-06,4.300959517422598e-07,0.0002670243557076901,0.00026791688287630677,-0.00010437681339681149,-0.0017406673869118094,0.004211694002151489,-0.00012850009079556912,-0.09358581155538559,0.09087437391281128,1.3013060092926025,-2.3450071811676025,2.096482753753662,-0.82277512550354,0.4715181291103363,0.6737643480300903,0.42000001668930054,-1.3800442218780518,3.000000476837158,-0.11815759539604187,2.999999761581421,0.008641556836664677,0.007086101453751326,0.005417670123279095,0.0036326097324490547,0.14669744670391083,0.09591463953256607,0.04301001504063606,-0.012126597575843334
0.08333333333333333,0.04546903073787689,0.030471326783299446,0.0,0.9990050196647644,0.0,0.0,-0.04459834471344948,0.9515151381492615,0.3733014464378357,0.0,0.0,0.0,-3.557854175567627,-0.3524533808231354,0.6511982083320618,0.4200000464916229,0.9999999403953552,3.626046236604452e-06,-2.3352185962721705e-06,3.032309905393049e-07,0.0002661395992618054,0.00026685046032071114,-0.00010405178181827068,-0.001728326897136867,0.004196362104266882,-0.0001279068528674543,-0.12790291011333466,0.13028839230537415,1.2869884967803955,-1.8170418739318848,2.6028523445129395,-0.8833174705505371,0.4715181291103363,0.6737643480300903,0.42000001668930054,-1.3300368785858154,3.000002861022949,-0.15015171468257904,-3.0000007152557373,0.009681790135800838,0.006997599266469479,0.00415768614038825,0.0011582011356949806,0.012677800841629505,-0.07239478826522827,-0.15973441302776337,-0.24930375814437866
0.1,0.054355986416339874,0.040112413465976715,0.0,0.9952457547187805,0.0,0.0,-0.09739574790000916,0.3938613831996918,0.6617514491081238,0.0,0.0,0.0,-7.314267635345459,-0.3524533808231354,0.6511982083320618,0.4200000464916229,1.0,3.4220856832689606e-06,-2.308508555870503e-06,1.796387323338422e-07,0.0002668147790245712,0.0002680039615370333,-0.00010440708138048649,-0.001743073109537363,0.0042070988565683365,-0.00012890923244412988,-0.15932825207710266,0.17676708102226257,1.2671958208084106,-1.9078798294067383,2.9606847763061523,-1.4041638374328613,0.4715181291103363,0.6737643480300903,0.42000001668930054,-1.2800191640853882,2.999995708465576,-0.11662420630455017,3.0000007152557373,0.003329081693664193,-0.00016482883074786514,-0.0038675619289278984,-0.007786722853779793,-0.5009462237358093,-0.5413731932640076,-0.5843467712402344,-0.6301746964454651
0.11666666666666667,0.058740176260471344,0.05195990204811096,0.0,0.9914652705192566,0.0,0.0,-0.1303708702325821,0.19273392856121063,0.6498515605926514,0.0,0.0,0.0,-2.6545658111572266,-0.3524533808231354,0.6511982679367065,0.4200000464916229,1.0,3.7115089526196243e-06,-2.3326181235461263e-06,2.574328163973405e-07,0.00026485760463401675,0.0002663538616616279,-0.00010423408821225166,-0.001718149520456791,0.0041700140573084354,-0.00012915405386593193,-0.1971721649169922,0.21987271308898926,1.2421644926071167,-2.3232738971710205,2.638855457305908,-1.555074691772461,0.4715181291103363,0.6737643480300903,0.42000001668930054,-1.2300245761871338,2.999997615814209,-0.14858926832675934,-3.000000238418579,-0.004805225413292646,-0.009224426932632923,-0.013859049417078495,-0.018720857799053192,-0.40752071142196655,-0.4813997447490692,-0.5536577701568604,-0.6244372129440308
0.13333333333333333,0.07080669701099396,0.059241339564323425,0.0,0.9848343729972839,0.0,0.0,-0.1734973043203354,0.8010667562484741,0.514155387878418,0.0,0.0,0.0,-5.740398406982422,-0.3524533808231354,0.6511982083320618,0.4200000464916229,0.9999999403953552,3.4247336770931724e-06,-2.301910399182816e-06,1.5600640779211972e-07,0.0002670715330168605,0.00026811304269358516,-0.0001044438686221838,-0.0017433013999834657,0.004212083760648966,-0.00012877254630438983,-0.23206526041030884,0.2711891233921051,1.2142324447631836,-1.8566877841949463,3.565668821334839,-1.903136968612671,0.4715181291103363,0.6737643480300903,0.42000001668930054,-1.1800047159194946,2.999904155731201,-0.14243458211421967,3.000000476837158,-0.0044069779105484486,-0.010991743765771389,-0.017705779522657394,-0.02455862984061241,-0.13692377507686615,-0.24586261808872223,-0.35083284974098206,-0.451656699180603
0.15,0.07965268939733505,0.06541232764720917,0.0,0.9744908213615417,0.0,0.0,-0.2244274914264679,0.4810282588005066,0.314601331949234,0.0,0.0,0.0,-6.345080375671387,-0.3524533808231354,0.6511982083320618,0.4200000464916229,1.0,3.7139102460059803e-06,-2.207734723924659e-06,-1.690771540552305e-07,0.0002635330893099308,0.0002653599367477,-0.00010421965271234512,-0.0017012956086546183,0.004144070204347372,-0.00012960158346686512,-0.2638052701950073,0.3306722939014435,1.1758902072906494,-1.704815149307251,3.866462230682373,-2.640618085861206,0.4715181291103363,0.6737643480300903,0.42000001668930054,-1.1357494592666626,2.3312902450561523,-0.17427268624305725,-3.000000476837158,-0.01135796308517456,-0.01909024827182293,-0.026906011626124382,-0.03481704741716385,-0.4722302258014679,-0.5278782248497009,-0.5806483030319214,-0.6307453513145447
0.16666666666666666,0.0839717760682106,0.07406383752822876,0.0,0.9683852791786194,0.0,0.0,-0.2494593858718872,0.22314025461673737,0.45800310373306274,0.0,0.0,0.0,-1.7508134841918945,-0.3524533808231354,0.6511982083320618,0.4200000464916229,0.9999999403953552,3.638394900917774e-06,-2.2786573481425876e-06,2.7008260872207757e-07,0.00026682819589041173,0.00026750031975097954,-0.00010410277172923088,-0.0017399706412106752,0.004210254643112421,-0.0001278170384466648,-0.2965303659439087,0.3904869556427002,1.1234726905822754,-1.8560880422592163,3.7280664443969727,-3.498020648956299,0.4715181291103363,0.6737643480300903,0.42000001668930054,-1.0872678756713867,2.9999985694885254,-0.22429399192333221,-3.000000238418579,-0.022622736170887947,-0.030682390555739403,-0.03878283500671387,-0.046944573521614075,-0.5908740162849426,-0.6157317161560059,-0.6364732384681702,-0.6534686088562012
0.18333333333333332,0.09325221925973892,0.07803826034069061,0.0,0.9582964777946472,0.0,0.0,-0.2857758700847626,0.6843485832214355,0.2126714289188385,0.0,0.0,0.0,-5.177706718444824,-0.3524533808231354,0.6511982083320618,0.4200000464916229,1.0,3.3864457691379357e-06,-2.30015280067164e-06,1.4395375558251544e-07,0.00026674618129618466,0.0002678719174582511,-0.00010436843149363995,-0.0017412154702469707,0.004206051118671894,-0.0001287856139242649,-0.32495999336242676,0.4545323848724365,1.0581812858581543,-1.404163122177124,3.9567365646362305,-4.338234901428223,0.4715181291103363,0.6737643480300903,0.42000001668930054,-1.0372610092163086,2.9999985694885254,-0.274321049451828,-3.000000476837158,-0.03026418574154377,-0.03873216733336449,-0.04717840254306793,-0.05563030019402504,-0.5876489281654358,-0.5815601348876953,-0.5735999345779419,-0.564247190952301
0.2,0.09728842973709106,0.08452422171831131,0.0,0.9533816576004028,0.0,0.0,-0.30176714062690735,0.20061634480953217,0.38553768396377563,0.0,0.0,0.0,-0.7692472338676453,-0.3524533808231354,0.6511982679367065,0.4200000464916229,1.0,3.675527068480733e-06,-2.326378989891964e-06,2.2116010711670242e-07,0.00026484543923288584,0.0002663143095560372,-0.00010421895422041416,-0.0017176928231492639,0.004169886466115713,-0.0001290956570301205,-0.3499065637588501,0.5106762051582336,0.9784749746322632,-1.2783081531524658,3.1900196075439453,-5.033379554748535,0.4715181291103363,0.6737643480300903,0.42000001668930054,-0.9872508645057678,2.9999990463256836,-0.32434841990470886,-2.9999988079071045,-0.04585205018520355,-0.05437561497092247,-0.06274179369211197,-0.07059066742658615,-0.8231944441795349,-0.8459504842758179,-0.8664925694465637,-0.8845484852790833
0.21666666666666667,0.09785164147615433,0.09253355115652084,0.0,0.9450673460960388,0.0,0.0,-0.3268756568431854,-0.043243300169706345,0.5553419589996338,0.0,0.0,0.0,-3.999277353286743,-0.3524533808231354,0.6511982083320618,0.4200000464916229,1.0,3.322290922369575e-06,-2.2078170331951696e-06,2.74303062042236e-07,0.00026662991149351,0.0002674962452147156,-0.0001042631920427084,-0.0017357823671773076,0.0042047821916639805,-0.00012833590153604746,-0.3694874048233032,0.561521589756012,0.8878481388092041,-0.9216783046722412,2.8089985847473145,-5.732083797454834,0.4715181291103363,0.6737643480300903,0.42000001668930054,-0.9372404217720032,3.0000009536743164,-0.37437814474105835,-2.999997854232788,-0.06181526929140091,-0.07039707899093628,-0.07880150526762009,-0.08667480945587158,-0.9883328080177307,-0.9905927777290344,-0.9893494248390198,-0.987608790397644
0.23333333333333334,0.103462815284729,0.0958511009812355,0.0,0.9418079257011414,0.0,0.0,-0.3361515402793884,0.4631102681159973,0.07901032269001007,0.0,0.0,0.0,-0.12362425029277802,-0.3524533808231354,0.6511982083320618,0.4200000464916229,1.0,3.656512717498117e-06,-2.373275947320508e-06,-4.0765530684439e-07,0.00026611698558554053,0.0002672603295650333,-0.00010423362255096436,-0.001733599347062409,0.004194695968180895,-0.0001285477919736877,-0.38645708560943604,0.6002249717712402,0.791382908821106,-0.8135703206062317,1.9032299518585205,-5.878129482269287,0.4715181291103363,0.6737643480300903,0.42000001668930054,-0.8872297406196594,2.999998092651367,-0.4244092106819153,-2.9999985694885254,-0.07430200278759003,-0.0828256607055664,-0.09114964306354523,-0.09897764027118683,-0.7188314199447632,-0.6985777020454407,-0.6789535880088806,-0.6637248992919922
0.25,0.10508673638105392,0.10203380882740021,0.0,0.9338234066963196,0.0,0.0,-0.35773441195487976,0.07982674986124039,0.3423752188682556,0.0,0.0,0.0,-3.4503941535949707,-0.3524533808231354,0.6511982679367065,0.4200000464916229,1.0,3.63056960850372e-06,-2.24254154090886e-06,1.1235481878202336e-08,0.0002668009838089347,0.0002670602116268128,-0.00010390975512564182,-0.0017342310165986419,0.00421064393594861,-0.00012702654930762947,-0.3934682607650757,0.6267743110656738,0.6915208101272583,-0.09233148396015167,1.2551109790802002,-5.761863708496094,0.4715181291103363,0.6737643480300903,0.42000001668930054,-0.8372193574905396,2.999950408935547,-0.4744402766227722,-2.9999947547912598,-0.09172417223453522,-0.09997689723968506,-0.10806005448102951,-0.11568998545408249,-0.7379580140113831,-0.7928310632705688,-0.8438459634780884,-0.8896138668060303
0.26666666666666666,0.10353574901819229,0.1047392413020134,0.0,0.932751476764679,0.0,0.0,-0.36052003502845764,-0.14643076062202454,0.09546376764774323,0.0,0.0,0.0,0.49770456552505493,-0.352453351020813,0.6511982083320618,0.4200000464916229,0.9999999403953552,3.740204874702613e-06,-2.2362648905982496e-06,4.499875103647355e-07,0.0002647969813551754,0.00026673171669244766,-0.00010454095900058746,-0.0017190256621688604,0.004166694357991219,-0.0001301641168538481,-0.3960422873497009,0.6423689126968384,0.5982605218887329,0.03657662123441696,0.5981374979019165,-5.425339698791504,0.4715181291103363,0.6737643480300903,0.42000001668930054,-0.7872105240821838,3.000000238418579,-0.5244705080986023,-3.000000238418579,-0.10823823511600494,-0.11646366119384766,-0.12453045696020126,-0.1321486383676529,-1.0054340362548828,-1.0040910243988037,-1.0030678510665894,-1.0022538900375366
0.2833333333333333,0.09892521053552628,0.10436636954545975,0.0,0.9267775416374207,0.0,0.0,-0.37561070919036865,-0.3274206817150116,-0.06938320398330688,0.0,0.0,0.0,-2.7928109169006348,-0.3524533808231354,0.6511982083320618,0.4200000464916229,1.0,3.3916960546775954e-06,-2.2911076484888326e-06,1.246154823775214e-07,0.0002667727239895612,0.0002678937162272632,-0.00010437588207423687,-0.0017413016175851226,0.004206320736557245,-0.0001287805789615959,-0.38925701379776,0.6513009071350098,0.5062766075134277,0.7874581813812256,0.3996316194534302,-5.446735382080078,0.4715181291103363,0.6737643480300903,0.42000001668930054,-0.7372017502784729,3.000001907348633,-0.574499249458313,-3.000002384185791,-0.12564273178577423,-0.13368523120880127,-0.14161276817321777,-0.14912059903144836,-1.0044933557510376,-1.0033968687057495,-1.0025579929351807,-1.0018891096115112
0.3,0.09192193299531937,0.10150443762540817,0.0,0.9273259043693542,0.0,0.0,-0.37425488233566284,-0.45953434705734253,-0.212079718708992,0.0,0.0,0.0,1.061958909034729,-0.3524533808231354,0.6511982679367065,0.4200000464916229,1.0,3.6807443848374533e-06,-2.3190671072370606e-06,2.0111151854962372e-07,0.0002647915098350495,0.0002662579936441034,-0.00010421290062367916,-0.0017169113270938396,0.004169086460024118,-0.0001290939108002931,-0.3741694688796997,0.6571073532104492,0.41861021518707275,1.1460754871368408,0.21818283200263977,-5.08732795715332,0.4715181291103363,0.6737643480300903,0.42000001668930054,-0.68719482421875,3.0000014305114746,-0.6245260834693909,-3.000000238418579,-0.14287084341049194,-0.1507721245288849,-0.15859496593475342,-0.16602186858654022,-1.0053178071975708,-1.0040409564971924,-1.0030614137649536,-1.0022727251052856
0.31666666666666665,0.08271298557519913,0.09624791890382767,0.0,0.9224099516868591,0.0,0.0,-0.3862122595310211,-0.6013256311416626,-0.35754260420799255,0.0,0.0,0.0,-2.4565274715423584,-0.3524533808231354,0.6511982083320618,0.4200000464916229,1.0,3.3042770155589096e-06,-2.2214912860363256e-06,2.5357604727105354e-07,0.00026660808362066746,0.00026745101786218584,-0.00010424456559121609,-0.0017353392904624343,0.004204455763101578,-0.0001282765151700005,-0.37547895312309265,0.658867597579956,0.42377084493637085,0.03218049928545952,0.032218366861343384,-0.19414927065372467,0.4715181291103363,0.6737643480300903,0.42000001668930054,-0.6372966766357422,2.999985933303833,-0.6750333905220032,-3.0000014305114746,-0.15026752650737762,-0.15824979543685913,-0.16466282308101654,-0.1702043116092682,-0.4874753952026367,-0.4577406346797943,-0.35306456685066223,-0.22677043080329895
0.3333333333333333,0.07198107242584229,0.08865082263946533,0.0,0.9237854480743408,0.0,0.0,-0.3829105496406555,-0.710922122001648,-0.49848902225494385,0.0,0.0,0.0,1.353432297706604,-0.35140785574913025,0.6535468697547913,0.4199998378753662,0.9995448589324951,3.042535354325082e-05,-7.871358320699073e-06,-0.030166830867528915,0.14374540746212006,0.2969171404838562,-0.000565999245736748,-0.030137762427330017,0.007165826391428709,-8.466598510742188,-0.37288856506347656,0.6623489856719971,0.42047935724258423,0.27440494298934937,0.3623489737510681,-0.1752920150756836,0.4715181291103363,0.6737643480300903,0.42000001668930054,-0.5872911810874939,3.0000009536743164,-0.7250630855560303,-2.9998507499694824,-0.16005562245845795,-0.1666465550661087,-0.17062164843082428,-0.1734136939048767,-0.5751720070838928,-0.46970292925834656,-0.31160277128219604,-0.13597813248634338
0.35,0.06421369314193726,0.07823511213064194,0.0,0.9194495677947998,0.0,0.0,-0.39320799708366394,-0.3848651349544525,-0.6733018755912781,0.0,0.0,0.0,-2.2141530513763428,-0.3483791649341583,0.6593274474143982,0.4199983775615692,0.9938890337944031,7.022354839136824e-05,-2.3851185687817633e-05,-0.11038313806056976,0.2494276762008667,0.42286038398742676,0.0007468496914952993,-0.15483486652374268,0.12813255190849304,-11.71042251586914,-0.36758390069007874,0.6685395240783691,0.4215431213378906,0.5168728828430176,0.4790772497653961,-0.02753308415412903,0.4715181291103363,0.6737643480300903,0.42000001668930054,-0.5372861623764038,2.9999492168426514,-0.7750871777534485,-2.9996349811553955,-0.16944344341754913,-0.17375454306602478,-0.17470593750476837,-0.17418499290943146,-0.5316248536109924,-0.3791850507259369,-0.19218476116657257,0.00943120289593935
0.36666666666666664,0.054088275879621506,0.06620842218399048,0.0,0.9029402136802673,0.0,0.0,-0.4297662377357483,-0.6890817284584045,-0.7469556331634521,0.0,0.0,0.0,-5.813243389129639,-0.33950740098953247,0.6714119911193848,0.4203367233276367,0.98714679479599,-0.00839807279407978,0.0012697373749688268,-0.15958979725837708,0.7380828261375427,0.9515460729598999,0.06644266843795776,-3.2166168689727783,0.9825260043144226,-4.251348495483398,-0.354753702878952,0.6792447566986084,0.4205799102783203,0.960040807723999,0.8352408409118652,0.10953306406736374,0.4715181291103363,0.6737643480300903,0.42000001668930054,-0.4872376620769501,2.999999523162842,-0.825095534324646,-2.999966859817505,-0.18035368621349335,-0.18152640759944916,-0.17888157069683075,-0.17454159259796143,-0.6187041401863098,-0.42548784613609314,-0.20990139245986938,0.01971004344522953
0.3833333333333333,0.04688728600740433,0.05114257335662842,0.0,0.8715434074401855,0.0,0.0,-0.4903184175491333,-0.38918039202690125,-0.9498942494392395,0.0,0.0,0.0,-8.941474914550781,-0.3176843225955963,0.6970912218093872,0.4212777018547058,0.97914057970047,-0.024070076644420624,-0.005776815582066774,-0.20167051255702972,1.9158854484558105,2.1267282962799072,0.07353564351797104,-5.3073883056640625,5.291839599609375,-8.475058555603027,-0.325832724571228,0.7014939188957214,0.4226008653640747,2.6372385025024414,1.8729197978973389,0.15407539904117584,0.4715181291103363,0.6737643480300903,0.42000001668930054,-0.4372052848339081,3.000002861022949,-0.8751106262207031,-2.9998319149017334,-0.1895352005958557,-0.18722794950008392,-0.18080931901931763,-0.17247021198272705,-0.5767781138420105,-0.34016159176826477,-0.0935332179069519,0.16230538487434387
0.4,0.041876766830682755,0.04120154306292534,0.0,0.8228381872177124,0.0,0.0,-0.5682756900787354,-0.2517034411430359,-0.47034284472465515,0.0,0.0,0.0,-11.791534423828125,-0.25102856755256653,0.736001193523407,0.4249911606311798,0.9642670154571533,0.03904500603675842,-0.01793498732149601,-0.2614246904850006,5.532602310180664,2.7886264324188232,0.05067243054509163,43.010093688964844,-26.730327606201172,-5.6010942459106445,-0.2559834420681,0.7397894859313965,0.4259459972381592,5.383566856384277,2.772569179534912,0.3264212906360626,0.4715181291103363,0.6737643480300903,0.42000001668930054,-0.39409807324409485,1.5416953563690186,-0.8381825089454651,2.999818801879883,-0.2048669457435608,-0.19869360327720642,-0.18688376247882843,-0.1733577996492386,-0.8519156575202942,-0.7226607799530029,-0.4220826327800751,-0.14251147210597992
0.4166666666666667,0.040087051689624786,0.034357912838459015,0.0,0.7827925682067871,0.0,0.0,-0.6222826838493347,-0.04587346315383911,-0.3737124800682068,0.0,0.0,0.0,-6.87418794631958,-0.16096241772174835,0.7815926671028137,0.43260398507118225,0.9335570931434631,0.0887652114033699,-0.049226656556129456,-0.3437563478946686,5.886180877685547,2.2788844108581543,0.4596329629421234,12.69493293762207,-15.81460189819336,5.0124030113220215,-0.16492363810539246,0.7871840596199036,0.43298524618148804,5.625643730163574,2.581106185913086,0.5400480628013611,0.4715181291103363,0.6737643480300903,0.42000001668930054,-0.3763076364994049,1.0162746906280518,-0.864682137966156,-3.0000040531158447,-0.21520981192588806,-0.20903673768043518,-0.19350850582122803,-0.17663924396038055,-0.5246361494064331,-0.5205044150352478,-0.3461436331272125,-0.196430042386055
0.43333333333333335,0.03654865175485611,0.024437695741653442,0.0,0.7623435258865356,0.0,0.0,-0.6471725702285767,-0.20706403255462646,-0.7962987422943115,0.0,0.0,0.0,-2.720860719680786,-0.06352363526821136,0.8174418807029724,0.4432189166545868,0.885699450969696,0.09459498524665833,-0.05265437066555023,-0.4514596164226532,6.308072090148926,1.1910566091537476,0.5073071718215942,8.500608444213867,-23.831480026245117,12.796564102172852,-0.06703770160675049,0.8245774507522583,0.44250649213790894,6.1448073387146,1.885157585144043,0.7768735885620117,0.4715181291103363,0.6737643480300903,0.42000001668930054,-0.35971343517303467,0.9227440357208252,-0.9147061109542847,-3.000007152557373,-0.2221158742904663,-0.21521010994911194,-0.1969543993473053,-0.17779125273227692,-0.21123945713043213,-0.16842509806156158,-0.0438263900578022,0.05990782007575035
0.45,0.036385428160429,0.01724349334836006,0.0,0.7337236404418945,0.0,0.0,-0.6794480085372925,0.0032965701539069414,-0.36823904514312744,0.0,0.0,0.0,-5.750272750854492,0.041017692536115646,0.8335568904876709,0.45250362157821655,0.8249930143356323,0.1059555634856224,-0.06790324300527573,-0.5509527325630188,6.368169784545898,-0.39980441331863403,0.6665615439414978,13.871094703674316,-11.801984786987305,27.797788619995117,0.03773752972483635,0.8432263731956482,0.45256102085113525,6.478331565856934,0.5674773454666138,0.6475111842155457,0.4715181291103363,0.6737643480300903,0.42000001668930054,-0.34603095054626465,0.6753455996513367,-0.9647301435470581,-3.0000052452087402,-0.23172315955162048,-0.22237901389598846,-0.2010006159543991,-0.17914651334285736,-0.5777870416641235,-0.41361621022224426,-0.23474861681461334,-0.07593131810426712
0.4666666666666667,0.03846697509288788,0.013632039539515972,0.0,0.7202778458595276,0.0,0.0,-0.6936857104301453,0.17533276975154877,-0.15329870581626892,0.0,0.0,0.0,-1.2370924949645996,0.14174605906009674,0.8341260552406311,0.46000605821609497,0.7661500573158264,0.09750402718782425,-0.07327850908041,-0.6309812068939209,5.703657627105713,-1.5208662748336792,0.3530637323856354,-2.4710841178894043,-10.852211952209473,28.034984588623047,0.14076393842697144,0.8436436653137207,0.4607485234737396,6.059131622314453,-0.5227776169776917,0.5188007354736328,0.4715181291103363,0.6737643480300903,0.42000001668930054,-0.3367380201816559,0.3603799641132355,-1.0147535800933838,-3.0000016689300537,-0.23999539017677307,-0.2287478744983673,-0.20485833287239075,-0.18085366487503052,-0.008837935514748096,-0.43011340498924255,-0.2916162610054016,-0.17802058160305023
0.48333333333333334,0.03928551822900772,0.007648619823157787,0.0,0.6987868547439575,0.0,0.0,-0.7153299450874329,0.00047965437988750637,-0.40262460708618164,0.0,0.0,0.0,-4.480484962463379,0.23454393446445465,0.8156626224517822,0.4622577726840973,0.6890611052513123,0.08114419132471085,-0.08633332699537277,-0.7149523496627808,4.7036919593811035,-2.3506226539611816,0.06127670407295227,-11.930357933044434,15.713543891906738,13.90575885772705,0.2331882119178772,0.8271957635879517,0.46425661444664,5.34492826461792,-1.490722894668579,0.11564308404922485,0.4715181291103363,0.6737643480300903,0.42000001668930054,-0.33110296726226807,0.19789305329322815,-1.0647757053375244,-2.998413562774658,-0.23983833193778992,-0.23384499549865723,-0.20789434015750885,-0.1822163313627243,-0.08115512132644653,-0.28222689032554626,-0.1539195030927658,-0.05009547621011734
0.5,0.041216202080249786,0.005091847851872444,0.0,0.6906298995018005,0.0,0.0,-0.7232083678245544,0.14340351521968842,-0.11471042782068253,0.0,0.0,0.0,-0.3151358366012573,0.3123962879180908,0.7844851016998291,0.456947386264801,0.6057711839675903,-0.010240668430924416,-0.1341819018125534,-0.7841757535934448,3.797224283218384,-2.1490681171417236,-0.34435608983039856,-9.278962135314941,2.297355890274048,19.09425163269043,0.31047019362449646,0.7975188493728638,0.4632420837879181,4.278895378112793,-2.032266616821289,-0.2594720721244812,0.4715181291103363,0.6737643480300903,0.42000001668930054,-0.32565775513648987,0.5011734366416931,-1.114797830581665,-2.999999761581421,-0.23985500633716583,-0.23902004957199097,-0.2113441377878189,-0.18435804545879364,0.045628853142261505,-0.13673833012580872,-0.1015453115105629,-0.0856645330786705
0.5166666666666666,0.04575323686003685,0.0018434036755934358,0.0,0.6731228828430176,0.0,0.0,-0.7395306825637817,0.3250150978565216,-0.21220746636390686,0.0,0.0,0.0,-3.837378978729248,0.37479257583618164,0.7522874474525452,0.4456993639469147,0.547954261302948,-0.04864472150802612,-0.12555982172489166,-0.8255994319915771,3.132683515548706,-2.006633996963501,-0.7080317735671997,-3.199338912963867,8.141143798828125,5.023185729980469,0.37394148111343384,0.7666686177253723,0.45315316319465637,3.5053813457489014,-1.921572208404541,-0.8569420576095581,0.4715181291103363,0.6737643480300903,0.42000001668930054,-0.3128525912761688,0.8463393449783325,-1.1648199558258057,-2.999164342880249,-0.23520871996879578,-0.23736612498760223,-0.21059569716453552,-0.18466585874557495,0.3958130478858948,0.24287889897823334,0.13219182193279266,0.016842646524310112
0.5333333333333333,0.05250774696469307,0.0014198287390172482,0.0,0.6689266562461853,0.0,0.0,-0.7433284521102905,0.4401516020298004,0.04258174076676369,0.0,0.0,0.0,0.2658459544181824,0.42422088980674744,0.7215343713760376,0.4296058416366577,0.4932294189929962,-0.08326156437397003,-0.10495531558990479,-0.8595211505889893,2.3352298736572266,-2.2076659202575684,-0.8057816624641418,2.367300271987915,9.980676651000977,2.643785238265991,0.42389196157455444,0.7348468899726868,0.43726998567581177,2.5938303470611572,-1.8911969661712646,-1.0649182796478271,0.4715181291103363,0.6737643480300903,0.42000001668930054,-0.29404062032699585,1.2538344860076904,-1.2148420810699463,-2.9993600845336914,-0.22928237915039062,-0.2333315908908844,-0.2089284509420395,-0.18538588285446167,0.37568846344947815,0.28595665097236633,0.10725755989551544,-0.0699595957994461
0.55,0.061117056757211685,-0.0012386742746457458,0.0,0.6546371579170227,0.0,0.0,-0.755943238735199,0.5540826916694641,-0.22066229581832886,0.0,0.0,0.0,-3.1805732250213623,0.4553903341293335,0.7029467821121216,0.4222222566604614,0.4905068874359131,-0.05157727003097534,-0.03047557733952999,-0.8693755865097046,1.1361268758773804,-1.5752356052398682,0.41155189275741577,-13.188698768615723,-13.281669616699219,14.956339836120605,0.45476263761520386,0.7138961553573608,0.43005698919296265,1.2074100971221924,-0.7940383553504944,0.052161410450935364,0.4715181291103363,0.6737643480300903,0.42000001668930054,-0.27923890948295593,0.3558090329170227,-1.1770673990249634,2.998467206954956,-0.2208445519208908,-0.22647637128829956,-0.20581436157226562,-0.1858087182044983,0.518321692943573,0.4464260935783386,0.2077624499797821,-0.014754465781152248
0.5666666666666667,0.06728401780128479,-0.001366748590953648,0.0,0.6531372666358948,0.0,0.0,-0.7572395205497742,0.29725366830825806,0.016486139968037605,0.0,0.0,0.0,0.6626154780387878,0.47318437695503235,0.6872320771217346,0.42222875356674194,0.5009028315544128,-0.048521991819143295,-0.021673103794455528,-0.8638704419136047,0.9666236639022827,-0.8820189833641052,-0.0010302425362169743,1.2659295797348022,0.22062665224075317,-1.485581874847412,0.4704599380493164,0.6969069242477417,0.4281653165817261,0.7331751585006714,-1.0479235649108887,-0.3841648995876312,0.4715181291103363,0.6737643480300903,0.42000001668930054,-0.2918643057346344,-1.3345592021942139,-1.1988708972930908,-3.000000238418579,-0.21396656334400177,-0.22001729905605316,-0.20307357609272003,-0.1865447461605072,0.48869746923446655,0.46421027183532715,0.2200356125831604,-0.007611085660755634
0.5833333333333334,0.07425357401371002,0.0018128727097064257,0.0,0.6407887935638428,0.0,0.0,-0.7677172422409058,0.42881718277931213,0.2346116155385971,0.0,0.0,0.0,-2.863321542739868,0.48155462741851807,0.6773102283477783,0.42104119062423706,0.5243289470672607,-0.0227341391146183,-0.014541410841047764,-0.8510880470275879,0.12817637622356415,-0.34839221835136414,0.011393235996365547,-0.743681013584137,0.27789321541786194,9.605257034301758,0.47834211587905884,0.6878108382225037,0.42584168910980225,0.17458181083202362,-0.1329372376203537,0.16672180593013763,0.4715181291103363,0.6737643480300903,0.42000001668930054,-0.3000885844230652,0.23358170688152313,-1.2488065958023071,-2.997701406478882,-0.20524008572101593,-0.21212206780910492,-0.19973698258399963,-0.18732298910617828,0.6260451674461365,0.5553573369979858,0.2581973969936371,-0.006030859425663948
0.6,0.08276386559009552,0.0005313195288181305,0.0,0.6408569812774658,0.0,0.0,-0.7676602602005005,0.4962611198425293,-0.10736479610204697,0.0,0.0,0.0,0.9176514148712158,0.48207494616508484,0.6736566424369812,0.4204183518886566,0.5554555654525757,-0.008512009866535664,-0.005563258193433285,-0.8314839601516724,-0.11039545387029648,-0.08616633713245392,-0.03484175726771355,1.0838768482208252,-0.8018593192100525,3.5362720489501953,0.4772273302078247,0.6853041648864746,0.4257059097290039,-0.296782910823822,-0.12347312271595001,-0.03519812226295471,0.4715181291103363,0.6737643480300903,0.42000001668930054,-0.3360186517238617,-2.9999778270721436,-1.2131097316741943,2.999469041824341,-0.19242288172245026,-0.2004515528678894,-0.19305419921875,-0.18512195348739624,0.6859241724014282,0.6536738276481628,0.3881247341632843,0.14691784977912903
0.6166666666666667,0.09389461576938629,0.003087479854002595,0.0,0.6633878350257874,0.0,0.0,-0.7482756972312927,0.6920660138130188,0.15474987030029297,0.0,0.0,0.0,4.346340656280518,0.48003530502319336,0.6724168062210083,0.41999995708465576,0.5680592656135559,-1.1431771781644784e-05,-6.578959528269479e-07,-0.8229876160621643,-0.1058737188577652,-0.05986279994249344,-0.00037627737037837505,0.0037612090818583965,-0.012418333441019058,1.5333000421524048,0.47382956743240356,0.6839502453804016,0.427522748708725,-0.07644812017679214,0.07866733521223068,0.1731797605752945,0.4715181291103363,0.6737643480300903,0.42000001668930054,-0.38608649373054504,-2.9999992847442627,-1.233911156654358,-2.9987082481384277,-0.18440833687782288,-0.19243644177913666,-0.18880189955234528,-0.18426474928855896,0.5662652254104614,0.5413954257965088,0.30326417088508606,0.09006459265947342
0.6333333333333333,0.10396096855401993,0.0023084364365786314,0.0,0.6715552806854248,0.0,0.0,-0.7409544587135315,0.5673269629478455,-0.1118139773607254,0.0,0.0,0.0,0.27258095145225525,0.4791179597377777,0.6719294190406799,0.42000001668930054,0.5773153305053711,-2.3514285203418694e-06,-8.904991659619554e-07,-0.8165212273597717,-0.03680714964866638,-0.017446601763367653,-6.726500578224659e-05,0.0019334701355546713,-0.0016245575388893485,1.383156657218933,0.47339457273483276,0.6860178709030151,0.43128350377082825,-0.025391487404704094,0.10750041902065277,0.26569458842277527,0.4715181291103363,0.6737643480300903,0.42000001668930054,-0.4361211061477661,-3.000000476837158,-1.2838774919509888,-2.9996001720428467,-0.17537231743335724,-0.18335789442062378,-0.18295368552207947,-0.18121500313282013,0.5174725651741028,0.5455005764961243,0.39157307147979736,0.26207855343818665
0.65,0.11452346295118332,-0.002136032562702894,0.0,0.657792866230011,0.0,0.0,-0.7531988620758057,0.6690971851348877,-0.3373614251613617,0.0,0.0,0.0,-3.181004047393799,0.47903093695640564,0.6718887090682983,0.4200000464916229,0.5786852240562439,1.0341991583118215e-05,-5.368980055209249e-06,-0.8155509829521179,0.0010107967536896467,5.273001443129033e-05,-0.00039077759720385075,-0.008484534919261932,0.00710253044962883,-0.002596137346699834,0.47547921538352966,0.688224196434021,0.437345027923584,0.25846028327941895,0.11679117381572723,0.579159140586853,0.4715181291103363,0.6737643480300903,0.42000001668930054,-0.48613399267196655,-3.0000009536743164,-1.3338960409164429,-3.0000007152557373,-0.16901895403862,-0.17595648765563965,-0.17720799148082733,-0.17671045660972595,0.2993663549423218,0.3896539509296417,0.33520570397377014,0.3048330247402191
0.6666666666666666,0.12878431379795074,-0.0016012301202863455,0.0,0.6208523511886597,0.0,0.0,-0.7839275002479553,0.8142976760864258,0.0342802032828331,0.0,0.0,0.0,-6.606033802032471,0.4790319800376892,0.6718888282775879,0.4200000464916229,0.5786843299865723,3.6325863561614824e-07,-2.6889417767961277e-06,-0.8155515193939209,9.91363194771111e-05,-0.0002607284113764763,-8.778064511716366e-05,0.006221894174814224,-0.0014917936641722918,-0.0006792291533201933,0.48589402437210083,0.6858407258987427,0.4545164108276367,1.1545170545578003,-0.2562672793865204,1.558404803276062,0.4715181291103363,0.6737643480300903,0.42000001668930054,-0.5361465811729431,-2.9999921321868896,-1.3839143514633179,-3.0000009536743164,-0.17213468253612518,-0.176193505525589,-0.176761195063591,-0.17532022297382355,-0.1514880359172821,0.005203399807214737,0.049859676510095596,0.11189502477645874
0.6833333333333333,0.14394594728946686,0.0016605611890554428,0.0,0.5980185270309448,0.0,0.0,-0.8014822602272034,0.9593684077262878,0.19796249270439148,0.0,0.0,0.0,-2.3821873664855957,0.4790319502353668,0.6718888878822327,0.4200000464916229,0.5786842703819275,2.888676533530088e-07,-2.766872285064892e-06,-0.8155516982078552,9.676513582235202e-05,-0.00026845347019843757,-8.782907389104366e-05,0.006433223374187946,-0.0015686454717069864,-0.0006855188985355198,0.5053887367248535,0.6864380240440369,0.4818296730518341,1.2037994861602783,0.27391940355300903,1.703718900680542,0.4715181291103363,0.6737643480300903,0.42000001668930054,-0.5575675368309021,0.17278225719928741,-1.4339326620101929,-2.9999985694885254,-0.17454692721366882,-0.17689484357833862,-0.17740584909915924,-0.17569902539253235,-0.021265504881739616,0.011543174274265766,-0.04196213558316231,-0.08532564342021942
0.7,0.15617375075817108,0.0061295232735574245,0.0,0.601282000541687,0.0,0.0,-0.7990369200706482,0.6497166752815247,0.3063471019268036,0.0,0.0,0.0,1.4029767513275146,0.4790319800376892,0.6718888878822327,0.4200000464916229,0.578684389591217,3.5006775078727514e-07,-2.995931254190509e-06,-0.8155515193939209,9.677634807303548e-05,-0.00026855102623812854,-8.775666356086731e-05,0.006437021307647228,-0.0015661685029044747,-0.000685666804201901,0.524198055267334,0.693175733089447,0.5036262273788452,0.9555191993713379,0.5018534660339355,0.972989559173584,0.4715181291103363,0.6737643480300903,0.42000001668930054,-0.5340258479118347,2.434725046157837,-1.408825397491455,2.999999761581421,-0.17312407493591309,-0.17520558834075928,-0.17665155231952667,-0.17575791478157043,0.15316422283649445,0.1596764326095581,0.10494968295097351,0.05338062345981598
0.7166666666666667,0.16305126249790192,0.005401921458542347,0.0,0.6001101732254028,0.0,0.0,-0.7999173402786255,0.40528151392936707,-0.06864991784095764,0.0,0.0,0.0,-0.8996421098709106,0.4790319502353668,0.6718888878822327,0.4200000464916229,0.578684389591217,3.5934667153014743e-07,-3.0510091164615005e-06,-0.8155515789985657,9.632122964831069e-05,-0.00026834613527171314,-8.772686123847961e-05,0.006434217561036348,-0.0015722280368208885,-0.0006843394949100912,0.5337570309638977,0.7028318643569946,0.5146975517272949,0.11392518877983093,0.44271767139434814,0.43375638127326965,0.4715181291103363,0.6737643480300903,0.42000001668930054,-0.5123133063316345,0.33604109287261963,-1.3587727546691895,3.0,-0.1663253903388977,-0.16884934902191162,-0.17157568037509918,-0.17195472121238708,0.16110673546791077,0.19278307259082794,0.17853540182113647,0.15445509552955627
0.7333333333333333,0.1671898365020752,0.009878955781459808,0.0,0.6122706532478333,0.0,0.0,-0.7906482219696045,0.18616242706775665,0.27012062072753906,0.0,0.0,0.0,2.6034185886383057,0.4790319502353668,0.6718888282775879,0.4200000464916229,0.5786839723587036,3.372134642631863e-07,-2.995329850818962e-06,-0.8155518174171448,9.778682579053566e-05,-0.0002675881842151284,-8.794968016445637e-05,0.006407716777175665,-0.0015484215691685677,-0.0006860048160888255,0.5315029621124268,0.7093424797058105,0.5181472897529602,-0.25840696692466736,0.4909853935241699,-0.004769995808601379,0.4715181291103363,0.6737643480300903,0.42000001668930054,-0.49978938698768616,1.0934303998947144,-1.3776267766952515,-3.0,-0.16844354569911957,-0.1694421023130417,-0.1713421493768692,-0.1712178885936737,0.01752537675201893,0.07036229223012924,0.09244338423013687,0.09674597531557083
0.75,0.1681734174489975,0.009572470560669899,0.0,0.6099158525466919,0.0,0.0,-0.7924661636352539,0.013833833858370781,-0.10982415825128555,0.0,0.0,0.0,-1.2842882871627808,0.4790319502353668,0.6718888282775879,0.4200000464916229,0.5786841511726379,3.7597774849018606e-07,-3.2154680411622394e-06,-0.8155517578125,0.00010248698526993394,-0.0002643347252160311,-8.907984010875225e-05,0.0062988572753965855,-0.001479747355915606,-0.0006920030573382974,0.5212510228157043,0.7161625623703003,0.5117944478988647,-0.958214521408081,0.3476632237434387,-0.5477085113525391,0.4715181291103363,0.6737643480300903,0.42000001668930054,-0.5116471648216248,-2.219747304916382,-1.3392456769943237,2.999999761581421,-0.1671140491962433,-0.16743506491184235,-0.169038787484169,-0.16893181204795837,0.09342319518327713,0.13271182775497437,0.15441042184829712,0.1549462378025055
0.7666666666666666,0.1719549149274826,0.014966927468776703,0.0,0.6201670169830322,0.0,0.0,-0.7844697833061218,0.13748854398727417,0.3709530234336853,0.0,0.0,0.0,2.247764825820923,0.4790319502353668,0.6718888878822327,0.4200000464916229,0.5786844491958618,4.076748325587687e-07,-3.168818466292578e-06,-0.8155515193939209,0.0001000908887363039,-0.0002657621225807816,-8.855131454765797e-05,0.00634761294350028,-0.001515455194748938,-0.0006889630458317697,0.5082675218582153,0.7207973599433899,0.5032868981361389,-0.5505938529968262,0.4714399576187134,-0.4563881754875183,0.4715181291103363,0.6737643480300903,0.42000001668930054,-0.5376932621002197,-0.9908697605133057,-1.3584668636322021,-2.9999985694885254,-0.17279548943042755,-0.171274796128273,-0.17125260829925537,-0.1699344962835312,-0.17527031898498535,-0.12226332724094391,-0.0673137754201889,-0.026571080088615417
0.7833333333333333,0.17532280087471008,0.016563666984438896,0.0,0.6167654991149902,0.0,0.0,-0.7871469259262085,0.23585306107997894,0.028507575392723083,0.0,0.0,0.0,-1.4420615434646606,0.4790319502353668,0.6718888282775879,0.4200000464916229,0.5786842107772827,5.039453867539123e-07,-2.827960770446225e-06,-0.8155516982078552,0.00010186422150582075,-0.00026416784385219216,-8.894712664186954e-05,0.006298893131315708,-0.001485672197304666,-0.0006901493761688471,0.500745415687561,0.7265304327011108,0.49311894178390503,-0.3838026225566864,0.19566944241523743,-0.5931702852249146,0.4715181291103363,0.6737643480300903,0.42000001668930054,-0.5808077454566956,-3.0000011920928955,-1.4084851741790771,-3.000000238418579,-0.1734967827796936,-0.1713075339794159,-0.17037786543369293,-0.16825005412101746,-0.05995490401983261,1.0943040251731873e-08,0.08336634188890457,0.1626908928155899
0.8,0.18136277794837952,0.014909472316503525,0.0,0.5926797389984131,0.0,0.0,-0.805438220500946,0.40912237763404846,-0.1636527180671692,0.0,0.0,0.0,-4.521732330322266,0.4790319502353668,0.6718888878822327,0.4200000464916229,0.5786844491958618,3.6554826010615216e-07,-2.884641617129091e-06,-0.8155515193939209,9.655985195422545e-05,-0.00026830798014998436,-8.772476576268673e-05,0.006431297864764929,-0.0015685638645663857,-0.0006849386263638735,0.5005287528038025,0.7272238731384277,0.4884767532348633,0.37881800532341003,-0.02101605385541916,0.17801333963871002,0.4715181291103363,0.6737643480300903,0.42000001668930054,-0.6308184862136841,-2.9999425411224365,-1.4585034847259521,-2.99999737739563,-0.17812202870845795,-0.1745554506778717,-0.171798437833786,-0.1678919494152069,-0.31713253259658813,-0.24033527076244354,-0.13323262333869934,-0.02659480646252632
0.8166666666666667,0.18995286524295807,0.015480474568903446,0.0,0.5835281014442444,0.0,0.0,-0.8120929598808289,0.5406222343444824,0.08471503853797913,0.0,0.0,0.0,-0.33244428038597107,0.4790319502353668,0.6718888878822327,0.4200000464916229,0.578684389591217,3.4814775062841363e-07,-2.9348568659770535e-06,-0.8155514597892761,9.557828161632642e-05,-0.00026835454627871513,-8.750986307859421e-05,0.00643882667645812,-0.0015795616200193763,-0.000682579935528338,0.5085195302963257,0.7314068078994751,0.49544671177864075,0.556861400604248,0.4718483090400696,0.6274857521057129,0.4715181291103363,0.6737643480300903,0.42000001668930054,-0.6485878229141235,0.5719538331031799,-1.5085217952728271,-3.000000476837158,-0.18342123925685883,-0.17917117476463318,-0.17519153654575348,-0.17003047466278076,-0.22662919759750366,-0.23036882281303406,-0.2005673199892044,-0.16633416712284088
0.8333333333333334,0.1952533721923828,0.011791466735303402,0.0,0.5988476276397705,0.0,0.0,-0.8008629679679871,0.24744479358196259,-0.2680108845233917,0.0,0.0,0.0,2.9370408058166504,0.4790319502353668,0.6718888878822327,0.4200000464916229,0.578684389591217,3.5002580034415587e-07,-2.9860520953661762e-06,-0.8155515193939209,9.59017124841921e-05,-0.00026833463925868273,-8.758832700550556e-05,0.006436615251004696,-0.0015757580986246467,-0.0006832762737758458,0.5182835459709167,0.7381746768951416,0.502282440662384,0.5133294463157654,0.2639809846878052,0.22664014995098114,0.4715181291103363,0.6737643480300903,0.42000001668930054,-0.6536169052124023,-1.03396475315094,-1.4697688817977905,3.000000238418579,-0.18460728228092194,-0.18031665682792664,-0.17576864361763,-0.1699848771095276,-0.14851906895637512,-0.1088193729519844,-0.041580989956855774,0.0248713381588459
0.85,0.19687731564044952,0.004262425005435944,0.0,0.6144505143165588,0.0,0.0,-0.7889553904533386,0.04458533227443695,-0.5290902256965637,0.0,0.0,0.0,2.2363641262054443,0.4790319800376892,0.6718888878822327,0.4200000464916229,0.5786842107772827,3.295918133972009e-07,-2.8458778160711518e-06,-0.8155516982078552,9.646464604884386e-05,-0.0002686476509552449,-8.76744743436575e-05,0.006441314704716206,-0.001569943968206644,-0.0006848403718322515,0.5262064337730408,0.7402527332305908,0.5038184523582458,0.4167727828025818,0.03224792331457138,0.08312264084815979,0.4715181291103363,0.6737643480300903,0.42000001668930054,-0.6791414618492126,-1.9310357570648193,-1.4865370988845825,-3.000000476837158,-0.18784554302692413,-0.1824757307767868,-0.17641805112361908,-0.16915510594844818,-0.174611896276474,-0.10193540900945663,-0.005356216337531805,0.08912143111228943
0.8666666666666667,0.2007940113544464,-0.0012078557629138231,0.0,0.6109575629234314,0.0,0.0,-0.7916633486747742,0.3127474784851074,-0.2389179766178131,0.0,0.0,0.0,-1.5329866409301758,0.4790319800376892,0.6718888878822327,0.4200000464916229,0.578684389591217,3.661588436898455e-07,-3.1250704068952473e-06,-0.8155515789985657,0.00010086310066981241,-0.00026605738094076514,-8.874805644154549e-05,0.0063512083142995834,-0.0015081322053447366,-0.0006911247619427741,0.5343145132064819,0.7388688325881958,0.5037328004837036,0.5748051404953003,-0.1649348884820938,0.053853243589401245,0.4715181291103363,0.6737643480300903,0.42000001668930054,-0.709020733833313,-1.653527021408081,-1.5365554094314575,-3.0,-0.19401267170906067,-0.18689486384391785,-0.1787087619304657,-0.16935181617736816,-0.39774420857429504,-0.2871454954147339,-0.15372879803180695,-0.020611701533198357
