vladlanda/robotic-transformer/data/env_000_episode_0205.csv
sim_time_s,robot_box_x,robot_box_y,robot_box_z,robot_box_quat_w,robot_box_quat_x,robot_box_quat_y,robot_box_quat_z,robot_box_linvel_x,robot_box_linvel_y,robot_box_linvel_z,robot_box_angvel_x,robot_box_angvel_y,robot_box_angvel_z,cube_world_x,cube_world_y,cube_world_z,cube_quat_w,cube_quat_x,cube_quat_y,cube_quat_z,cube_linvel_x,cube_linvel_y,cube_linvel_z,cube_angvel_x,cube_angvel_y,cube_angvel_z,endpoint_world_x,endpoint_world_y,endpoint_world_z,endpoint_linvel_x,endpoint_linvel_y,endpoint_linvel_z,target_cube_world_x,target_cube_world_y,target_cube_world_z,gripper_actual_pos_rad_gp_leftgearjoint,gripper_actual_vel_rad_s_gp_leftgearjoint,gripper_actual_pos_rad_gp_rotatingjoint,gripper_actual_vel_rad_s_gp_rotatingjoint,motor_angle_rad_joint1,motor_angle_rad_joint2,motor_angle_rad_joint3,motor_angle_rad_joint4,motor_speed_rad_s_joint1,motor_speed_rad_s_joint2,motor_speed_rad_s_joint3,motor_speed_rad_s_joint4
0.0,0.0,0.0,0.0,1.0,0.0,0.0,0.0,0.0,0.0,0.0,0.0,0.0,0.0,-0.38680434226989746,0.6235141754150391,0.41999998688697815,1.0,0.0,0.0,0.0,0.0,0.0,0.0,0.0,0.0,0.0,3.42540442943573e-06,-0.005000244826078415,1.313499927520752,0.0,0.0,0.0,0.39130154252052307,0.77797532081604,0.42000001668930054,-1.5707999467849731,0.0,0.0,0.0,0.0,0.0,0.0,0.0,0.0,0.0,0.0,0.0
0.016666666666666666,0.0028778850100934505,0.0021806680597364902,0.0,0.9998081922531128,0.0,0.0,0.019586581736803055,0.24087215960025787,0.18240931630134583,0.0,0.0,0.0,3.1418697834014893,-0.386804461479187,0.6235138773918152,0.41999998688697815,1.0,3.279964630564791e-06,-8.339746386809566e-07,8.465587342243452e-08,-1.9833529222523794e-05,0.00017983045836444944,-6.132945418357849e-05,0.0009432713268324733,-0.004689474124461412,-0.00031981561915017664,-0.007110234349966049,0.003379564033821225,1.3159373998641968,-0.8143353462219238,0.9868683815002441,0.18095196783542633,0.39130154252052307,0.77797532081604,0.42000001668930054,-1.5301095247268677,3.0000011920928955,-0.04584788903594017,-2.9999992847442627,0.0008691533003002405,0.0007963840034790337,0.0007110277656465769,0.0006108740926720202,0.11094217747449875,0.09756709635257721,0.08334315568208694,0.06823883205652237
0.03333333333333333,0.008960960432887077,0.006801837123930454,0.0,0.9997960329055786,0.0,0.0,0.020196832716464996,0.4070192873477936,0.3153056204319,0.0,0.0,0.0,-0.8691297769546509,-0.38680458068847656,0.6235138177871704,0.4200000464916229,1.0,3.3908354453160428e-06,-2.1324485715012997e-06,-3.710144014235084e-08,0.00026357831666246057,0.00026937946677207947,-0.00010509486310184002,-0.0017707672668620944,0.004130808170884848,-0.000135478752781637,-0.027543824166059494,0.02585330605506897,1.3166494369506836,-1.5912940502166748,1.606964111328125,-0.07872477173805237,0.39130154252052307,0.77797532081604,0.42000001668930054,-1.4800904989242554,3.000000476837158,-0.09588773548603058,-3.0000014305114746,0.00299018993973732,0.002652834402397275,0.0022774366661906242,0.001860921853221953,0.16422860324382782,0.1397748738527298,0.11383628100156784,0.08632074296474457
0.05,0.017231766134500504,0.013697881251573563,0.0,0.9996412992477417,0.0,0.0,0.0267817173153162,0.5477319955825806,0.4534357786178589,0.0,0.0,0.0,1.577750325202942,-0.38680461049079895,0.6235138773918152,0.4200000464916229,1.0,3.7651125239790417e-06,-2.211879063906963e-06,5.622505128144439e-09,0.000265308452071622,0.0002669153327587992,-0.00010440615005791187,-0.001724260626360774,0.004177352879196405,-0.00012949221127200872,-0.0591413788497448,0.05391833931207657,1.3116908073425293,-2.1558263301849365,1.7471981048583984,-0.47179749608039856,0.39130154252052307,0.77797532081604,0.42000001668930054,-1.4300721883773804,3.000000476837158,-0.14592640101909637,-3.000000476837158,0.0055121080949902534,0.004729305859655142,0.003874436719343066,0.0029432682786136866,0.1759677529335022,0.13976263999938965,0.10169867426156998,0.06165483221411705
0.06666666666666667,0.0280290599912405,0.022758958861231804,0.0,0.9998635053634644,0.0,0.0,0.01652294211089611,0.7039489150047302,0.5800377130508423,0.0,0.0,0.0,-2.1242568492889404,-0.38680461049079895,0.6235138177871704,0.4200000464916229,0.9999999403953552,3.4066883927152958e-06,-2.285532218593289e-06,4.300976286231162e-07,0.0002670241810847074,0.00026791772688739,-0.00010438147000968456,-0.00174069800414145,0.00421178387477994,-0.00012850729399360716,-0.09694414585828781,0.0878409743309021,1.2996232509613037,-2.3973913192749023,2.2092185020446777,-0.9529102444648743,0.39130154252052307,0.77797532081604,0.42000001668930054,-1.3800500631332397,2.9999992847442627,-0.17664772272109985,-0.843692421913147,0.007974977605044842,0.006510533858090639,0.004936119541525841,0.0032453900203108788,0.15296964347362518,0.10217303037643433,0.04937015101313591,-0.005512496456503868
0.08333333333333333,0.04207652434706688,0.03390774503350258,0.0,0.9999717473983765,0.0,0.0,-0.007520293351262808,0.9051934480667114,0.7093148827552795,0.0,0.0,0.0,-3.28338360786438,-0.38680461049079895,0.6235138177871704,0.4200000464916229,1.0,3.6972253383282805e-06,-2.188838152505923e-06,-2.632317830375541e-07,0.00026389729464426637,0.00026586424792185426,-0.00010433932766318321,-0.0017081560799852014,0.004150177352130413,-0.0001299097202718258,-0.13757836818695068,0.12589502334594727,1.2813355922698975,-2.4496092796325684,2.3745243549346924,-1.239896535873413,0.39130154252052307,0.77797532081604,0.42000001668930054,-1.3300360441207886,3.0000016689300537,-0.22432224452495575,-2.999999523162842,0.00972927175462246,0.00733118737116456,0.004784328863024712,0.0020805266685783863,0.0851556584239006,0.020820481702685356,-0.04557858034968376,-0.11398793756961823
0.1,0.05018608272075653,0.042467378079891205,0.0,0.9999306201934814,0.0,0.0,-0.011778650805354118,0.34296715259552,0.433084636926651,0.0,0.0,0.0,0.5916762948036194,-0.38680461049079895,0.6235138177871704,0.4200000464916229,0.9999999403953552,3.620277084337431e-06,-2.2651142899121623e-06,1.7461523782458244e-07,0.0002667682128958404,0.0002674072457011789,-0.0001040794886648655,-0.0017386354738846421,0.004209177568554878,-0.00012775110371876508,-0.18084970116615295,0.16173407435417175,1.2574489116668701,-2.547647476196289,2.1829094886779785,-1.5422425270080566,0.39130154252052307,0.77797532081604,0.42000001668930054,-1.2800081968307495,2.9999947547912598,-0.19036458432674408,3.0000011920928955,0.004773371387273073,0.001691871089860797,-0.0015893860254436731,-0.005081073846668005,-0.4193817377090454,-0.46408286690711975,-0.5113363265991211,-0.561330258846283
0.11666666666666667,0.06144347041845322,0.05384708195924759,0.0,0.9995365142822266,0.0,0.0,-0.03044336847960949,0.8129201531410217,0.7839094400405884,0.0,0.0,0.0,-3.1921253204345703,-0.38680461049079895,0.6235138177871704,0.4200000464916229,1.0,3.798308171099052e-06,-2.262737325509079e-06,-1.5021218757738097e-07,0.0002637405996210873,0.000265660259174183,-0.00010428996756672859,-0.0017054072814062238,0.00414755754172802,-0.000129801788716577,-0.2190006971359253,0.20453141629695892,1.2288494110107422,-2.13034987449646,2.8377599716186523,-1.8765348196029663,0.39130154252052307,0.77797532081604,0.42000001668930054,-1.2300056219100952,2.9999990463256836,-0.22188803553581238,-3.000000238418579,0.0006813559448346496,-0.003703862661495805,-0.008294380269944668,-0.013102403841912746,-0.20143470168113708,-0.29437121748924255,-0.3864562213420868,-0.4777306020259857
0.13333333333333333,0.07221858203411102,0.06258070468902588,0.0,0.9973177909851074,0.0,0.0,-0.07319284230470657,0.5981477499008179,0.44636210799217224,0.0,0.0,0.0,-5.822253704071045,-0.38680461049079895,0.6235138773918152,0.4200000464916229,0.9999999403953552,3.55037650479062e-06,-2.229731535408064e-06,2.929058098288806e-07,0.0002670335816219449,0.0002677934826351702,-0.00010417238809168339,-0.0017440745141357183,0.004213663749396801,-0.0001280020660487935,-0.2564798593521118,0.25429534912109375,1.195865273475647,-2.246345043182373,3.1354429721832275,-2.190309762954712,0.39130154252052307,0.77797532081604,0.42000001668930054,-1.1799930334091187,2.999992847442627,-0.18798625469207764,3.0000007152557373,-0.0034146427642554045,-0.009435364045202732,-0.015620904043316841,-0.021981703117489815,-0.2731911540031433,-0.3670943081378937,-0.4577990770339966,-0.5452042818069458
0.15,0.07917727530002594,0.0720536932349205,0.0,0.9902328252792358,0.0,0.0,-0.13942354917526245,0.3442468047142029,0.6324109435081482,0.0,0.0,0.0,-8.880077362060547,-0.38680458068847656,0.6235138177871704,0.4200000464916229,1.0,3.332105279696407e-06,-2.1019018277002033e-06,1.3129569254033413e-07,0.0002673073613550514,0.00026859616627916694,-0.00010459683835506439,-0.0017497853841632605,0.004215648397803307,-0.00012928245996590704,-0.2925746440887451,0.3121338486671448,1.1556282043457031,-1.9109104871749878,3.8535678386688232,-2.623476982116699,0.39130154252052307,0.77797532081604,0.42000001668930054,-1.1299992799758911,3.0,-0.21952684223651886,-3.000000476837158,-0.010087397880852222,-0.017668455839157104,-0.025343917310237885,-0.03312281519174576,-0.4904063940048218,-0.5764271020889282,-0.6580290198326111,-0.7351540923118591
0.16666666666666666,0.09046905487775803,0.0792253166437149,0.0,0.9824223518371582,0.0,0.0,-0.1866716742515564,0.7694026827812195,0.41445136070251465,0.0,0.0,0.0,-4.527482032775879,-0.38680461049079895,0.6235138177871704,0.4200000464916229,1.0,3.737186489161104e-06,-2.233031182186096e-06,-1.876633604069866e-07,0.0002643294574227184,0.00026626838371157646,-0.00010445830412209034,-0.0017118845134973526,0.004157516174018383,-0.00013001053594052792,-0.3284768760204315,0.3718786835670471,1.103965163230896,-1.9375028610229492,3.840501308441162,-3.607635974884033,0.39130154252052307,0.77797532081604,0.42000001668930054,-1.0832545757293701,2.604907751083374,-0.2695564329624176,-3.0000007152557373,-0.01661415956914425,-0.02532419003546238,-0.03405725583434105,-0.04282480105757713,-0.5139654278755188,-0.5446219444274902,-0.5725597143173218,-0.5980910062789917
0.18333333333333332,0.097100630402565,0.08748523145914078,0.0,0.9700149297714233,0.0,0.0,-0.24304541945457458,0.37919381260871887,0.5166813731193542,0.0,0.0,0.0,-7.720815181732178,-0.38680461049079895,0.6235138773918152,0.4200000464916229,0.9999999403953552,3.660124548332533e-06,-2.302147322552628e-06,2.52845069326213e-07,0.0002669083187356591,0.0002676025324035436,-0.00010412652045488358,-0.0017412957968190312,0.004211513791233301,-0.0001278699201066047,-0.3594232201576233,0.43430542945861816,1.0344343185424805,-1.561240553855896,3.945265293121338,-4.545963287353516,0.39130154252052307,0.77797532081604,0.42000001668930054,-1.033433198928833,3.0000009536743164,-0.31958380341529846,-3.000000476837158,-0.031107638031244278,-0.039773646742105484,-0.04847588390111923,-0.057219333946704865,-0.7290760278701782,-0.7633560299873352,-0.7965659499168396,-0.8272132277488708
0.2,0.10204809904098511,0.09301542490720749,0.0,0.9604125022888184,0.0,0.0,-0.27858176827430725,0.2549188435077667,0.2581048011779785,0.0,0.0,0.0,-3.312565565109253,-0.38680461049079895,0.6235138177871704,0.4200000464916229,1.0,3.5906891753256787e-06,-2.300306277902564e-06,1.3872099202671961e-07,0.0002665471110958606,0.00026732077822089195,-0.00010423827916383743,-0.0017326769884675741,0.004203524440526962,-0.00012820553092751652,-0.3868170380592346,0.4914267659187317,0.952734112739563,-1.2799409627914429,3.359440803527832,-5.276921272277832,0.39130154252052307,0.77797532081604,0.42000001668930054,-0.9834240078926086,3.000000238418579,-0.36961209774017334,-3.0000007152557373,-0.044170379638671875,-0.05288496986031532,-0.061625637114048004,-0.07038351893424988,-0.836217999458313,-0.8171337842941284,-0.7979768514633179,-0.7782986760139465
0.21666666666666667,0.10284577310085297,0.1008053570985794,0.0,0.9461508393287659,0.0,0.0,-0.3237261176109314,-0.014261105097830296,0.4948999583721161,0.0,0.0,0.0,-6.460376739501953,-0.38680461049079895,0.6235138773918152,0.4200000464916229,1.0,3.6067892779101385e-06,-2.2609169718634803e-06,1.961327633637211e-08,0.00026447148411534727,0.0002655840653460473,-0.00010396447032690048,-0.0017088138265535235,0.0041642808355391026,-0.00012832574429921806,-0.4052109718322754,0.5442097187042236,0.8574560284614563,-0.753572404384613,3.016676902770996,-6.01300048828125,0.39130154252052307,0.77797532081604,0.42000001668930054,-0.9334133267402649,3.0000009536743164,-0.4196423292160034,-2.9999992847442627,-0.060331713408231735,-0.06909399479627609,-0.077847421169281,-0.08657245337963104,-0.9891371726989746,-0.9911718368530273,-0.992719829082489,-0.9881944060325623
0.23333333333333334,0.10822388529777527,0.10391049832105637,0.0,0.9365931749343872,0.0,0.0,-0.3504185676574707,0.3052067458629608,0.13140204548835754,0.0,0.0,0.0,-2.034189462661743,-0.38680458068847656,0.6235138177871704,0.4200000464916229,0.9999999403953552,3.742087073987932e-06,-2.227409822808113e-06,4.589062712057057e-07,0.00026475198683328927,0.00026671282830648124,-0.0001045342069119215,-0.0017188993515446782,0.0041658165864646435,-0.00013019447214901447,-0.4190364480018616,0.5849096775054932,0.7558447122573853,-0.45605602860450745,2.0046310424804688,-6.288414001464844,0.39130154252052307,0.77797532081604,0.42000001668930054,-0.8834026455879211,2.999999523162842,-0.4696738123893738,-2.999999523162842,-0.0749456137418747,-0.08353755623102188,-0.09205764532089233,-0.10051078349351883,-0.9912707805633545,-0.9925992488861084,-0.9937568306922913,-0.9924893379211426
0.25,0.10756828635931015,0.11101805418729782,0.0,0.9387333393096924,0.0,0.0,-0.3446442782878876,-0.028362086042761803,0.38329219818115234,0.0,0.0,0.0,1.6061545610427856,-0.38680461049079895,0.6235138177871704,0.4200000464916229,1.0,3.394239683984779e-06,-2.282012019350077e-06,1.3362385686832567e-07,0.0002667936496436596,0.0002679401950445026,-0.00010439474135637283,-0.0017418229253962636,0.00420664856210351,-0.00012884348689112812,-0.42507651448249817,0.6004799604415894,0.6548256874084473,-0.16788814961910248,0.2700551152229309,-5.869729042053223,0.39130154252052307,0.77797532081604,0.42000001668930054,-0.8333922624588013,2.9999992847442627,-0.5197045803070068,-3.0,-0.09240857511758804,-0.10072996467351913,-0.10907771438360214,-0.11741463840007782,-0.7028783559799194,-0.7580124735832214,-0.8107107877731323,-0.8583846092224121
0.26666666666666666,0.11182305961847305,0.11245005577802658,0.0,0.9359356760978699,0.0,0.0,-0.35217100381851196,0.2756316363811493,0.024184098467230797,0.0,0.0,0.0,-1.567869782447815,-0.38680461049079895,0.6235138773918152,0.4200000464916229,1.0,3.6832336718362058e-06,-2.31005606110557e-06,2.1009948625305697e-07,0.0002647906949277967,0.00026625851751305163,-0.00010421290062367916,-0.0017168435733765364,0.004168881103396416,-0.00012909741781186312,-0.42526862025260925,0.6105933785438538,0.5587354898452759,0.24443893134593964,0.6222053170204163,-5.475356101989746,0.39130154252052307,0.77797532081604,0.42000001668930054,-0.7833834290504456,3.000002384185791,-0.5697343349456787,-3.0000014305114746,-0.10475464910268784,-0.1138671487569809,-0.12297214567661285,-0.1320006102323532,-1.0171120166778564,-1.0129035711288452,-1.0096980333328247,-1.0071468353271484
0.2833333333333333,0.11182050406932831,0.11163666099309921,0.0,0.9390692710876465,0.0,0.0,-0.34372803568840027,-0.08635731041431427,-0.07639876753091812,0.0,0.0,0.0,1.922681450843811,-0.38680461049079895,0.6235138177871704,0.4200000464916229,1.0,3.3067506137740565e-06,-2.2124868337414227e-06,2.625712340886821e-07,0.0002666061627678573,0.0002674513962119818,-0.00010424340143799782,-0.0017352820141240954,0.004204321652650833,-0.00012828712351620197,-0.41736900806427,0.6199798583984375,0.47465842962265015,0.7505462169647217,0.49986034631729126,-4.719944953918457,0.39130154252052307,0.77797532081604,0.42000001668930054,-0.7333747148513794,3.0000011920928955,-0.6197619438171387,-2.9999992847442627,-0.12271212786436081,-0.13152097165584564,-0.14039868116378784,-0.14924895763397217,-1.0132089853286743,-1.0100059509277344,-1.0075613260269165,-1.0056027173995972
0.3,0.10842666029930115,0.10889925062656403,0.0,0.9366035461425781,0.0,0.0,-0.3503909707069397,-0.1883149892091751,-0.22241045534610748,0.0,0.0,0.0,-1.7098454236984253,-0.38680461049079895,0.6235138177871704,0.4200000464916229,1.0,3.6407882362254895e-06,-2.3779157345416024e-06,-4.194236282728525e-07,0.0002660918398760259,0.00026721289032138884,-0.00010421476326882839,-0.0017330169212073088,0.004194211680442095,-0.00012849405175074935,-0.40977421402931213,0.624871015548706,0.4285964369773865,-0.003141125664114952,0.05942845344543457,-0.257155179977417,0.39130154252052307,0.77797532081604,0.42000001668930054,-0.683369517326355,2.9997644424438477,-0.6701783537864685,-2.9984421730041504,-0.13763698935508728,-0.14609010517597198,-0.15447527170181274,-0.1626807600259781,-0.6326107978820801,-0.5999271869659424,-0.5436176657676697,-0.4632437527179718
0.31666666666666665,0.10365390032529831,0.1037188172340393,0.0,0.9397433996200562,0.0,0.0,-0.34188055992126465,-0.33159369230270386,-0.34872299432754517,0.0,0.0,0.0,1.9684978723526,-0.38680461049079895,0.6235138773918152,0.4200000464916229,1.0,3.6215142245055176e-06,-2.2889792035130085e-06,1.9687607277774077e-07,0.00026734027778729796,0.00026802680804394186,-0.00010420684702694416,-0.0017466372810304165,0.004219007212668657,-0.00012793985661119223,-0.40894198417663574,0.631892204284668,0.4250800609588623,0.23965781927108765,0.537931501865387,-0.20075547695159912,0.39130154252052307,0.77797532081604,0.42000001668930054,-0.6333628296852112,2.9999783039093018,-0.7202362418174744,-3.0000011920928955,-0.14913512766361237,-0.1562434285879135,-0.16287396848201752,-0.16892722249031067,-0.6984671950340271,-0.5867902636528015,-0.4503907263278961,-0.2906675636768341
0.3333333333333333,0.09645123034715652,0.09642121195793152,0.0,0.9373070597648621,0.0,0.0,-0.34850457310676575,-0.47678282856941223,-0.47557809948921204,0.0,0.0,0.0,-1.7761460542678833,-0.38317570090293884,0.6292489171028137,0.42000067234039307,0.9978458285331726,-1.664698629610939e-06,-5.2297818911029026e-05,-0.065601646900177,0.19612546265125275,0.3111935555934906,-2.4921377189457417e-05,0.0009556654840707779,0.00024145905626937747,-6.777246475219727,-0.40305548906326294,0.6383812427520752,0.4219644367694855,0.5366750955581665,0.4547952115535736,-0.17269819974899292,0.39130154252052307,0.77797532081604,0.42000001668930054,-0.5833577513694763,2.999979019165039,-0.7702906131744385,-2.9999797344207764,-0.16115343570709229,-0.16603586077690125,-0.17002040147781372,-0.17304374277591705,-0.710232138633728,-0.5594536662101746,-0.3850506544113159,-0.18973709642887115
0.35,0.08697839826345444,0.08701170235872269,0.0,0.9403519034385681,0.0,0.0,-0.34020328521728516,-0.6172876358032227,-0.621381402015686,0.0,0.0,0.0,1.885812759399414,-0.3761649429798126,0.6402356624603271,0.42000046372413635,0.9927130341529846,-3.9803708204999566e-05,2.34086637647124e-05,-0.12050183862447739,0.5161900520324707,0.7989851236343384,-0.001924038166180253,0.10693302005529404,-0.0343514159321785,-5.0288004875183105,-0.3933819532394409,0.64894700050354,0.41929715871810913,0.6273828148841858,0.789078414440155,-0.1218322217464447,0.39130154252052307,0.77797532081604,0.42000001668930054,-0.5333513617515564,2.9999852180480957,-0.8203272223472595,-2.999258041381836,-0.17283198237419128,-0.17502780258655548,-0.17594021558761597,-0.1755622774362564,-0.6179433465003967,-0.46935564279556274,-0.2965090572834015,-0.1028672531247139
0.36666666666666664,0.08069240301847458,0.07498405128717422,0.0,0.9377726912498474,0.0,0.0,-0.34724968671798706,-0.29234522581100464,-0.7659212946891785,0.0,0.0,0.0,-1.804609775543213,-0.36730486154556274,0.6536888480186462,0.4201154112815857,0.9881750345230103,-0.00286471052095294,0.0003879236173816025,-0.15330266952514648,0.6175986528396606,0.9069844484329224,0.04057597368955612,-1.9485479593276978,0.5617443919181824,-4.750814437866211,-0.3816022276878357,0.6609282493591309,0.42045581340789795,0.8808888792991638,0.780798077583313,0.09174846112728119,0.39130154252052307,0.77797532081604,0.42000001668930054,-0.48329252004623413,2.9999771118164062,-0.8703305125236511,-2.9999756813049316,-0.1826188564300537,-0.18203341960906982,-0.1797027885913849,-0.1756969541311264,-0.5142953395843506,-0.3420408070087433,-0.14193367958068848,0.08094623684883118
0.3833333333333333,0.07163861393928528,0.06142553314566612,0.0,0.924056351184845,0.0,0.0,-0.38225629925727844,-0.6309258937835693,-0.8392208814620972,0.0,0.0,0.0,-5.449081897735596,-0.35150229930877686,0.6749525666236877,0.4208604097366333,0.979986310005188,-0.014696327038109303,-0.0058505479246377945,-0.1984354704618454,1.274981141090393,1.601522445678711,0.10182900726795197,-4.486436367034912,1.0638656616210938,-7.801308631896973,-0.36242741346359253,0.6799544095993042,0.4221557378768921,1.4460746049880981,1.5201215744018555,0.11281293630599976,0.39130154252052307,0.77797532081604,0.42000001668930054,-0.43325701355934143,2.9957692623138428,-0.9203448295593262,-3.000007152557373,-0.19265709817409515,-0.18904320895671844,-0.18324913084506989,-0.1754404753446579,-0.5476436018943787,-0.3810710906982422,-0.19038161635398865,0.018910998478531837
0.4,0.06592871993780136,0.044972196221351624,0.0,0.896908164024353,0.0,0.0,-0.4422168731689453,-0.30735301971435547,-1.0321130752563477,0.0,0.0,0.0,-8.652955055236816,-0.3170066773891449,0.7053600549697876,0.42542022466659546,0.9672250151634216,0.023343831300735474,-0.04548933729529381,-0.2487196922302246,2.981733560562134,1.9742153882980347,0.37814879417419434,36.207462310791016,-17.41133689880371,11.731847763061523,-0.3273327350616455,0.7120609283447266,0.4257200360298157,2.8185818195343018,2.325883150100708,0.5493872165679932,0.39130154252052307,0.77797532081604,0.42000001668930054,-0.39410650730133057,1.3363686800003052,-0.8916285634040833,2.99267840385437,-0.20095789432525635,-0.19455216825008392,-0.1856151819229126,-0.17441265285015106,-0.5768175721168518,-0.3808287978172302,-0.16879421472549438,0.05210798606276512
0.4166666666666667,0.06218599155545235,0.033140845596790314,0.0,0.8537907004356384,0.0,0.0,-0.5206164121627808,-0.13136117160320282,-0.7402953505516052,0.0,0.0,0.0,-11.343156814575195,-0.2454686164855957,0.7483432292938232,0.4335592985153198,0.9442592263221741,0.09635818749666214,-0.08804753422737122,-0.3022204637527466,5.584887504577637,2.706639528274536,0.48910191655158997,6.9451727867126465,-11.40947437286377,15.776198387145996,-0.2550358176231384,0.7562990188598633,0.4335592985153198,5.366542816162109,3.1642415523529053,0.5751467347145081,0.39130154252052307,0.77797532081604,0.42000001668930054,-0.3771813213825226,0.7669413089752197,-0.8416136503219604,2.997969150543213,-0.21574066579341888,-0.20594453811645508,-0.1923237293958664,-0.1766868233680725,-0.5691934823989868,-0.524093508720398,-0.314151793718338,-0.1218990683555603
0.43333333333333335,0.06239888072013855,0.023226287215948105,0.0,0.8175590634346008,0.0,0.0,-0.5758447647094727,0.06698191910982132,-0.5354785919189453,0.0,0.0,0.0,-6.792473316192627,-0.1548576056957245,0.7930625677108765,0.44410234689712524,0.9038130640983582,0.12466496974229813,-0.11919481307268143,-0.39162877202033997,5.744250297546387,2.2194058895111084,0.8300229907035828,32.256195068359375,-4.231533050537109,12.065574645996094,-0.16384556889533997,0.8041970133781433,0.4439507722854614,5.6395368576049805,2.4539895057678223,0.6282312870025635,0.39130154252052307,0.77797532081604,0.42000001668930054,-0.36375319957733154,0.8675110340118408,-0.8678412437438965,-3.0000014305114746,-0.2260652780532837,-0.2149847000837326,-0.19805794954299927,-0.17957516014575958,-0.5594463348388672,-0.4794507920742035,-0.31229865550994873,-0.17720521986484528
0.45,0.05948054790496826,0.018695421516895294,0.0,0.8003606200218201,0.0,0.0,-0.5995188355445862,-0.142184779047966,-0.23154905438423157,0.0,0.0,0.0,-2.126126527786255,-0.06137553229928017,0.822515070438385,0.45432984828948975,0.8473251461982727,0.13097858428955078,-0.13031618297100067,-0.49789801239967346,5.8494672775268555,0.5471711754798889,0.7054136395454407,13.311938285827637,-10.4722261428833,29.15652847290039,-0.06840939074754715,0.8356592655181885,0.45398446917533875,5.901149749755859,1.5187019109725952,0.6636689901351929,0.39130154252052307,0.77797532081604,0.42000001668930054,-0.34978967905044556,0.7670055627822876,-0.9178652763366699,-3.000002145767212,-0.23885652422904968,-0.22534888982772827,-0.2050938606262207,-0.1839410960674286,-0.6268022656440735,-0.5135927200317383,-0.3660166263580322,-0.25271981954574585
0.4666666666666667,0.059752486646175385,0.01693394035100937,0.0,0.7771478891372681,0.0,0.0,-0.6293179988861084,0.07256055623292923,-0.05087951570749283,0.0,0.0,0.0,-5.428195953369141,0.03159939870238304,0.8370316028594971,0.46044573187828064,0.8015985488891602,0.1191200315952301,-0.13649651408195496,-0.5697533488273621,5.52488899230957,-0.5928107500076294,0.4775131046772003,4.728914260864258,-9.030797004699707,28.272876739501953,0.027364078909158707,0.8514472842216492,0.46089380979537964,5.7551798820495605,0.4188787341117859,0.3626244068145752,0.39130154252052307,0.77797532081604,0.42000001668930054,-0.3385217785835266,0.5371412634849548,-0.9678893685340881,-3.0000016689300537,-0.24002307653427124,-0.23391196131706238,-0.21138620376586914,-0.1883571594953537,-0.037710271775722504,-0.43857690691947937,-0.30622947216033936,-0.19230711460113525
0.48333333333333334,0.06304622441530228,0.017774876207113266,0.0,0.7657641172409058,0.0,0.0,-0.6431215405464172,0.23801986873149872,0.1107785776257515,0.0,0.0,0.0,-1.0489914417266846,0.1206054836511612,0.83940589427948,0.4631299376487732,0.7467029690742493,0.09723842144012451,-0.1427411288022995,-0.6423428058624268,4.917943477630615,-1.292459487915039,0.25007110834121704,-0.29019710421562195,-10.583821296691895,33.83677291870117,0.11855053901672363,0.8529208302497864,0.46442335844039917,5.381534576416016,-0.24905069172382355,0.17577028274536133,0.39130154252052307,0.77797532081604,0.42000001668930054,-0.33074721693992615,0.313458651304245,-1.017914056777954,-3.0000007152557373,-0.23981012403964996,-0.23926620185375214,-0.21542492508888245,-0.19136939942836761,-0.003991074860095978,-0.2515071630477905,-0.2065718024969101,-0.18089915812015533
0.5,0.06590428203344345,0.013979232870042324,0.0,0.7451832890510559,0.0,0.0,-0.6668596863746643,0.08895797282457352,-0.4047481417655945,0.0,0.0,0.0,-4.753570556640625,0.20055685937404633,0.8339558243751526,0.45979130268096924,0.6933723092079163,0.06741396337747574,-0.14834873378276825,-0.7019136548042297,4.15528678894043,-1.0967910289764404,-0.256343275308609,-3.4609782695770264,-5.5572333335876465,21.299772262573242,0.19915622472763062,0.8476418256759644,0.46207717061042786,4.533909797668457,-0.5121377110481262,-0.3079639971256256,0.39130154252052307,0.77797532081604,0.42000001668930054,-0.3259878158569336,0.25950250029563904,-1.0679361820220947,-3.0000007152557373,-0.2335738241672516,-0.2371903359889984,-0.2142307311296463,-0.1912175863981247,0.5170242786407471,0.31242528557777405,0.21639561653137207,0.1125582903623581
0.5166666666666666,0.0704420655965805,0.012316693551838398,0.0,0.7354175448417664,0.0,0.0,-0.6776142716407776,0.25594455003738403,-0.07922907918691635,0.0,0.0,0.0,-0.6174783110618591,0.2663843035697937,0.8203932046890259,0.4509223401546478,0.662746012210846,0.04721401259303093,-0.14039325714111328,-0.7340490818023682,3.2699007987976074,-1.5616302490234375,-0.6368380188941956,-4.829678535461426,-0.23113812506198883,18.462549209594727,0.26603835821151733,0.833019495010376,0.4536821246147156,3.6792850494384766,-1.012389063835144,-0.6668372750282288,0.39130154252052307,0.77797532081604,0.42000001668930054,-0.31862398982048035,0.5273936986923218,-1.1179583072662354,-3.0000007152557373,-0.22940628230571747,-0.23448865115642548,-0.2126011699438095,-0.19092215597629547,0.3187059462070465,0.2563518285751343,0.15555621683597565,0.04387911409139633
0.5333333333333333,0.07588021457195282,0.014351789839565754,0.0,0.7192506194114685,0.0,0.0,-0.6947507262229919,0.3632645606994629,0.19631017744541168,0.0,0.0,0.0,-3.6935582160949707,0.31908103823661804,0.8057551980018616,0.43379271030426025,0.6275765299797058,-0.0024854785297065973,-0.14587268233299255,-0.7647631764411926,2.3710460662841797,-1.214481234550476,-1.063217043876648,-6.212240219116211,4.586390495300293,30.660442352294922,0.3187851905822754,0.8182066679000854,0.4376322031021118,2.9024300575256348,-0.8853162527084351,-1.1147489547729492,0.39130154252052307,0.77797532081604,0.42000001668930054,-0.30743587017059326,0.7220304012298584,-1.167980432510376,-2.9998738765716553,-0.22528420388698578,-0.23112396895885468,-0.21146120131015778,-0.19208137691020966,0.2440270185470581,0.21816380321979523,0.05968272313475609,-0.10087383538484573
0.55,0.07922887057065964,0.014166377484798431,0.0,0.7155517935752869,0.0,0.0,-0.6985596418380737,0.09999917447566986,-0.07407591491937637,0.0,0.0,0.0,0.2695533335208893,0.35197800397872925,0.792978823184967,0.42553529143333435,0.6132041811943054,-0.006205290090292692,-0.10543373972177505,-0.7828319072723389,1.0514947175979614,-1.0976258516311646,0.03063630312681198,-4.947007656097412,3.001282215118408,22.11952018737793,0.3517419099807739,0.8040294647216797,0.428864061832428,1.3631019592285156,-0.7481945753097534,-0.043690793216228485,0.39130154252052307,0.77797532081604,0.42000001668930054,-0.2953796982765198,0.5851069688796997,-1.2180904150009155,-3.000002861022949,-0.22273921966552734,-0.22795650362968445,-0.21046100556850433,-0.19328813254833221,0.13049109280109406,0.19854286313056946,0.07283620536327362,-0.05359095335006714
0.5666666666666667,0.08278772234916687,0.017171796411275864,0.0,0.7019793391227722,0.0,0.0,-0.7121973037719727,0.2560611963272095,0.17793671786785126,0.0,0.0,0.0,-3.145169258117676,0.3697618246078491,0.7862342000007629,0.4231204390525818,0.6109735369682312,0.0010067002149298787,-0.05686624348163605,-0.7896052002906799,0.7978779077529907,-0.35568124055862427,-0.026525691151618958,0.6520853638648987,-2.3323373794555664,18.295663833618164,0.3686911463737488,0.7955948114395142,0.4253659248352051,0.7683557271957397,-0.2809775471687317,-0.17894700169563293,0.39130154252052307,0.77797532081604,0.42000001668930054,-0.285515695810318,0.5608938336372375,-1.2681138515472412,-2.9988315105438232,-0.22008925676345825,-0.22449074685573578,-0.20959021151065826,-0.19487281143665314,0.3530529737472534,0.36063873767852783,0.15925221145153046,-0.023143691942095757
0.5833333333333334,0.08850234001874924,0.01610470376908779,0.0,0.7007536888122559,0.0,0.0,-0.7134033441543579,0.36592763662338257,-0.09784797579050064,0.0,0.0,0.0,0.7230581045150757,0.38188889622688293,0.7829437255859375,0.4205579459667206,0.5712246298789978,0.007182668428868055,-0.01136909518390894,-0.820683479309082,0.5947117209434509,-0.19675585627555847,-0.11270280182361603,1.7502546310424805,5.81348180770874,-9.121313095092773,0.37707358598709106,0.7897903919219971,0.42238032817840576,0.3056594133377075,-0.2981609106063843,0.12302561104297638,0.39130154252052307,0.77797532081604,0.42000001668930054,-0.2927846610546112,-1.129968285560608,-1.3181060552597046,-2.9646999835968018,-0.21390296518802643,-0.21775288879871368,-0.20591548085212708,-0.19398675858974457,0.2789207994937897,0.34422311186790466,0.18865452706813812,0.04677579924464226
0.6,0.09189566224813461,0.01835644245147705,0.0,0.6896889805793762,0.0,0.0,-0.724105715751648,0.16264326870441437,0.1651841700077057,0.0,0.0,0.0,-2.727302312850952,0.3879615366458893,0.780748188495636,0.42000001668930054,0.5677676796913147,5.548646367969923e-05,-8.152384543791413e-05,-0.823188841342926,0.2402304708957672,-0.09665630012750626,-0.003712136996909976,0.06578447669744492,0.17207548022270203,2.223480701446533,0.38067299127578735,0.7875670194625854,0.42503494024276733,0.1388002634048462,-0.04610327258706093,0.18638157844543457,0.39130154252052307,0.77797532081604,0.42000001668930054,-0.3257240951061249,-2.649970769882202,-1.3680610656738281,-2.9985435009002686,-0.20982086658477783,-0.21269914507865906,-0.20344038307666779,-0.1938016265630722,0.3761120140552521,0.4010626971721649,0.22272565960884094,0.06617821753025055
0.6166666666666667,0.09608019888401031,0.017984189093112946,0.0,0.6908608675003052,0.0,0.0,-0.722987711429596,0.2639189064502716,-0.12834912538528442,0.0,0.0,0.0,1.0355982780456543,0.39030107855796814,0.7795213460922241,0.4200005531311035,0.574631929397583,2.8994740205234848e-05,-2.847612449841108e-06,-0.8184118866920471,0.031042547896504402,-0.06971769034862518,-0.0009070932283066213,-0.018017783761024475,0.036988064646720886,0.5410939455032349,0.38099971413612366,0.7861870527267456,0.4276883006095886,-0.0775645449757576,-0.10185936093330383,0.16529783606529236,0.39130154252052307,0.77797532081604,0.42000001668930054,-0.3750355541706085,-3.0000007152557373,-1.4180598258972168,-2.9999704360961914,-0.20361901819705963,-0.20592975616455078,-0.1993885338306427,-0.19218602776527405,0.29203760623931885,0.34513694047927856,0.20776797831058502,0.08151758462190628
0.6333333333333333,0.10209880024194717,0.01926496997475624,0.0,0.6816152930259705,0.0,0.0,-0.7317107319831848,0.3996262848377228,0.12045048922300339,0.0,0.0,0.0,-2.4079155921936035,0.3904186189174652,0.7792487144470215,0.41999995708465576,0.5753843188285828,-2.7946737191086868e-06,7.86796590546146e-06,-0.8178830742835999,-0.0004948187852278352,8.442302350886166e-05,-0.00022427098883781582,0.0035677000414580107,-0.00604447815567255,0.00031082710484042764,0.3807934522628784,0.7874353528022766,0.43112069368362427,0.04521575942635536,0.14225733280181885,0.23464205861091614,0.39130154252052307,0.77797532081604,0.42000001668930054,-0.4250293970108032,-2.999633550643921,-1.4680253267288208,-2.9994208812713623,-0.19800829887390137,-0.1999700665473938,-0.19585871696472168,-0.1907549649477005,0.4384317696094513,0.4334837794303894,0.281136155128479,0.15340924263000488
0.65,0.11013180762529373,0.017289452254772186,0.0,0.6841471791267395,0.0,0.0,-0.7293439507484436,0.5066916346549988,-0.1530470997095108,0.0,0.0,0.0,1.3312175273895264,0.3903392553329468,0.7792627215385437,0.42000705003738403,0.5769384503364563,6.758949166396633e-05,-1.8033540982287377e-05,-0.8167875409126282,-0.0686132088303566,0.012005871161818504,-0.008469481952488422,0.0558667927980423,0.10354612022638321,3.6117658615112305,0.37950804829597473,0.7887619733810425,0.43993884325027466,-0.18758606910705566,0.016231155022978783,0.8596680164337158,0.39130154252052307,0.77797532081604,0.42000001668930054,-0.47504276037216187,-2.9983534812927246,-1.5180437564849854,-2.9999940395355225,-0.19175536930561066,-0.19331103563308716,-0.19095414876937866,-0.18720409274101257,0.22210437059402466,0.28456950187683105,0.23274706304073334,0.2026282548904419
0.6666666666666666,0.12029192596673965,0.01799662783741951,0.0,0.6756942272186279,0.0,0.0,-0.7371820211410522,0.6288397312164307,0.10976997762918472,0.0,0.0,0.0,-2.2561800479888916,0.3898162245750427,0.7792553901672363,0.42000001668930054,0.5835347771644592,-7.473766459042963e-07,1.394983883074019e-06,-0.8120881915092468,-0.004251490347087383,-0.0016057636821642518,-4.143459955230355e-05,-0.0011642873287200928,-0.0018273770110681653,0.13878895342350006,0.3815922141075134,0.7906403541564941,0.4535190463066101,0.4704900085926056,0.1910545825958252,0.8870992660522461,0.39130154252052307,0.77797532081604,0.42000001668930054,-0.525055468082428,-2.9999990463256836,-1.5680620670318604,-3.000000476837158,-0.18909424543380737,-0.1897166222333908,-0.1879747062921524,-0.18441396951675415,0.23522724211215973,0.2621840238571167,0.21745255589485168,0.2038063257932663
0.6833333333333333,0.13221806287765503,0.01572132296860218,0.0,0.6464203596115112,0.0,0.0,-0.7629814147949219,0.7514894008636475,-0.19402502477169037,0.0,0.0,0.0,-5.545410633087158,0.38981589674949646,0.7792556285858154,0.4200000464916229,0.5835348963737488,4.883397082267038e-07,-2.8938602554262616e-06,-0.8120880126953125,0.00012564362259581685,-0.00027344413683749735,-9.191944263875484e-05,0.006377669516950846,-0.0011863620020449162,-0.0007197966333478689,0.391946941614151,0.7942217588424683,0.4745408892631531,0.7749079465866089,0.15092238783836365,1.7438663244247437,0.39130154252052307,0.77797532081604,0.42000001668930054,-0.5750680565834045,-2.9999570846557617,-1.6180791854858398,-2.9999992847442627,-0.18580879271030426,-0.18583251535892487,-0.18447574973106384,-0.18084725737571716,0.06608973443508148,0.12966415286064148,0.14364555478096008,0.17870159447193146
0.7,0.14181746542453766,0.01629943586885929,0.0,0.6307054758071899,0.0,0.0,-0.7760223150253296,0.5001608729362488,0.04264846444129944,0.0,0.0,0.0,-1.3873435258865356,0.38981589674949646,0.7792556285858154,0.4200000464916229,0.5835350155830383,4.1536944195286196e-07,-3.023626959475223e-06,-0.812087893486023,0.0001072354571078904,-0.00026841211365535855,-8.980417624115944e-05,0.006328806281089783,-0.001442163367755711,-0.0006774527719244361,0.4047229290008545,0.798236072063446,0.5060851573944092,0.7740103006362915,0.4239223897457123,2.0162854194641113,0.39130154252052307,0.77797532081604,0.42000001668930054,-0.5949654579162598,0.33682960271835327,-1.6680936813354492,-2.999999523162842,-0.18713469803333282,-0.18605978786945343,-0.18438629806041718,-0.18028634786605835,0.0378761813044548,0.05032910406589508,0.022909240797162056,2.9336661100387573e-08
0.7166666666666667,0.14703074097633362,0.018951689824461937,0.0,0.6392995119094849,0.0,0.0,-0.768957793712616,0.24491240084171295,0.21814826130867004,0.0,0.0,0.0,2.169656753540039,0.38981589674949646,0.7792556285858154,0.4200000464916229,0.5835351943969727,3.88672305007276e-07,-2.9655745947820833e-06,-0.812087893486023,0.00010773491521831602,-0.0002683867351152003,-8.98977741599083e-05,0.006325569935142994,-0.0014356221072375774,-0.0006784884026274085,0.4170677661895752,0.8035582304000854,0.5321430563926697,0.6295590996742249,0.25930505990982056,1.204419732093811,0.39130154252052307,0.77797532081604,0.42000001668930054,-0.5792578458786011,1.4359631538391113,-1.6288869380950928,2.9999990463256836,-0.1863623857498169,-0.18494132161140442,-0.18345461785793304,-0.17954473197460175,0.10477935522794724,0.12306012958288193,0.11561048030853271,0.10381551086902618
0.7333333333333333,0.1486159712076187,0.017880449071526527,0.0,0.6351617574691772,0.0,0.0,-0.7723791003227234,0.021172527223825455,-0.10466662049293518,0.0,0.0,0.0,-1.42719566822052,0.38981589674949646,0.7792556285858154,0.4200000464916229,0.5835351347923279,4.0096645648191043e-07,-2.9068341973470524e-06,-0.812087893486023,0.00010762221791082993,-0.00026844910462386906,-8.989754132926464e-05,0.00632745074108243,-0.0014380640350282192,-0.0006783819990232587,0.42222338914871216,0.806225597858429,0.5451983213424683,-0.03713073581457138,0.020378239452838898,0.5340757966041565,0.39130154252052307,0.77797532081604,0.42000001668930054,-0.5769457817077637,-0.9537745714187622,-1.5788304805755615,2.999999761581421,-0.1835186928510666,-0.18176406621932983,-0.1802978217601776,-0.1765643209218979,0.11341771483421326,0.15687349438667297,0.1807096302509308,0.18815787136554718
0.75,0.1520734429359436,0.02253195270895958,0.0,0.6440867185592651,0.0,0.0,-0.7649524807929993,0.17221002280712128,0.3046839237213135,0.0,0.0,0.0,2.1054039001464844,0.38981589674949646,0.7792556285858154,0.4200000464916229,0.5835352540016174,4.086818989890162e-07,-3.0295548185677035e-06,-0.8120877742767334,0.00010718328121583909,-0.00026846511173062027,-8.977111428976059e-05,0.00633049663156271,-0.0014424282126128674,-0.0006773521890863776,0.4250085949897766,0.8046510219573975,0.5523724555969238,0.36720898747444153,0.08262009173631668,0.3777642548084259,0.39130154252052307,0.77797532081604,0.42000001668930054,-0.5681710839271545,1.7602150440216064,-1.5932670831680298,-3.0000007152557373,-0.18713338673114777,-0.18370415270328522,-0.18086327612400055,-0.1761438250541687,-0.030015550553798676,0.011472727172076702,0.0470120906829834,0.06684797257184982
0.7666666666666666,0.15210482478141785,0.022492101415991783,0.0,0.6397086381912231,0.0,0.0,-0.7686175107955933,-0.021113809198141098,-0.036066047847270966,0.0,0.0,0.0,-1.6124825477600098,0.38981589674949646,0.7792556285858154,0.4200000464916229,0.5835351943969727,3.7806205455126474e-07,-2.9727073069807375e-06,-0.8120877742767334,0.00010792721150210127,-0.00026842858642339706,-8.99669248610735e-05,0.006325351074337959,-0.0014342527138069272,-0.0006790257757529616,0.4290964901447296,0.8049023747444153,0.5546058416366577,0.11553744971752167,-0.18398955464363098,0.014625493437051773,0.39130154252052307,0.77797532081604,0.42000001668930054,-0.5818015336990356,-2.9719958305358887,-1.554277777671814,3.0,-0.18467098474502563,-0.18103983998298645,-0.17800326645374298,-0.1733214259147644,0.024899983778595924,0.06513850390911102,0.10557875782251358,0.12798412144184113
0.7833333333333333,0.15403327345848083,0.02581605687737465,0.0,0.6463991403579712,0.0,0.0,-0.762999415397644,0.1494305282831192,0.2083277702331543,0.0,0.0,0.0,1.7521164417266846,0.38981589674949646,0.7792556285858154,0.4200000464916229,0.5835351943969727,4.2342190909039346e-07,-2.9159912173781777e-06,-0.812087893486023,0.00010586734424578026,-0.000268244300968945,-8.950475603342056e-05,0.0063323816284537315,-0.0014573481166735291,-0.0006740290555171669,0.4348638951778412,0.8016448020935059,0.555256724357605,0.5713862776756287,-0.09244206547737122,0.10952063649892807,0.39130154252052307,0.77797532081604,0.42000001668930054,-0.6009315252304077,0.39908671379089355,-1.5692678689956665,-2.999999761581421,-0.18593193590641022,-0.181500643491745,-0.1775251179933548,-0.17212647199630737,0.04568879306316376,0.05863719433546066,0.08981391042470932,0.11609796434640884
0.8,0.15389759838581085,0.025021959096193314,0.0,0.6414020657539368,0.0,0.0,-0.7672049403190613,-0.08373771607875824,-0.08241580426692963,0.0,0.0,0.0,-1.558131456375122,0.38981589674949646,0.7792556285858154,0.4200000464916229,0.5835351347923279,3.940044734918047e-07,-3.0383296234504087e-06,-0.812087893486023,0.00010735777323134243,-0.00026850710855796933,-8.98321159183979e-05,0.006330386269837618,-0.0014412838499993086,-0.0006778604001738131,0.44411104917526245,0.7991111278533936,0.5558779239654541,0.5258337259292603,-0.27939993143081665,0.08422137051820755,0.39130154252052307,0.77797532081604,0.42000001668930054,-0.6306015253067017,-2.999999761581421,-1.5303481817245483,2.9999985694885254,-0.1835661232471466,-0.17915286123752594,-0.17484734952449799,-0.16916914284229279,0.054894085973501205,0.07523724436759949,0.11553022265434265,0.15065735578536987
0.8166666666666667,0.1550123393535614,0.028274672105908394,0.0,0.6481937170028687,0.0,0.0,-0.7614754438400269,0.10276904702186584,0.19578664004802704,0.0,0.0,0.0,1.9031178951263428,0.38981589674949646,0.7792556285858154,0.4200000464916229,0.5835350751876831,4.304001492982934e-07,-2.9839495709893527e-06,-0.812087893486023,0.00010610448953229934,-0.00026818178594112396,-8.955621160566807e-05,0.0063295308500528336,-0.0014542164281010628,-0.0006744712009094656,0.45433488488197327,0.7937056422233582,0.5606582164764404,0.7390432953834534,-0.2202809453010559,0.5062296986579895,0.39130154252052307,0.77797532081604,0.42000001668930054,-0.6535277366638184,0.006711628753691912,-1.5458838939666748,-3.000000238418579,-0.18550585210323334,-0.18037539720535278,-0.17499324679374695,-0.16830846667289734,0.014169324189424515,0.01815052516758442,0.050328612327575684,0.08585888892412186
0.8333333333333334,0.1543797105550766,0.027524856850504875,0.0,0.6435345411300659,0.0,0.0,-0.7654170989990234,-0.08254925906658173,-0.057015325874090195,0.0,0.0,0.0,-1.6159251928329468,0.38981589674949646,0.7792556285858154,0.4200000464916229,0.5835351943969727,3.8566011539842293e-07,-2.922502744695521e-06,-0.8120877742767334,0.00010754411778179929,-0.0002683663333300501,-8.985260501503944e-05,0.006326165981590748,-0.0014376313192769885,-0.000678019889164716,0.46580421924591064,0.7905830144882202,0.5677448511123657,0.5880273580551147,-0.26474618911743164,0.45353665947914124,0.39130154252052307,0.77797532081604,0.42000001668930054,-0.6687930822372437,-1.678844690322876,-1.5613172054290771,0.8293469548225403,-0.1832863986492157,-0.17839466035366058,-0.1727873533964157,-0.16580288112163544,0.044545773416757584,0.05196963995695114,0.08332189917564392,0.11585785448551178
0.85,0.1553470343351364,0.03048720397055149,0.0,0.6502687335014343,0.0,0.0,-0.7597042322158813,0.09721622616052628,0.19354815781116486,0.0,0.0,0.0,1.793703317642212,0.38981589674949646,0.7792556285858154,0.4200000464916229,0.5835353136062622,3.8971990079517127e-07,-2.8605518309632316e-06,-0.8120876550674438,0.00010730684152804315,-0.00026843423256650567,-8.979905396699905e-05,0.0063291327096521854,-0.001440826221369207,-0.0006775934598408639,0.47523632645606995,0.78611159324646,0.576769232749939,0.5846355557441711,-0.15741929411888123,0.6601563692092896,0.39130154252052307,0.77797532081604,0.42000001668930054,-0.666763186454773,1.6330013275146484,-1.596386432647705,-2.999999761581421,-0.1841534972190857,-0.17899729311466217,-0.17274779081344604,-0.16510480642318726,0.06432129442691803,0.04714185744524002,0.054603468626737595,0.06723274290561676
0.8666666666666667,0.15464307367801666,0.029854262247681618,0.0,0.6456801891326904,0.0,0.0,-0.7636079788208008,-0.08200189471244812,-0.06548372656106949,0.0,0.0,0.0,-1.5571844577789307,0.38981589674949646,0.7792556285858154,0.4200000464916229,0.5835353136062622,4.152579435867665e-07,-2.9832822292519268e-06,-0.8120877742767334,0.00010718798148445785,-0.0002684928185772151,-8.979346603155136e-05,0.0063308728858828545,-0.0014432936441153288,-0.0006774644134566188,0.4818791151046753,0.7855978012084961,0.5878710746765137,0.19767674803733826,-0.018668638542294502,0.7752702832221985,0.39130154252052307,0.77797532081604,0.42000001668930054,-0.6585715413093567,-0.4734089970588684,-1.5573945045471191,2.999999761581421,-0.18123725056648254,-0.1768052726984024,-0.1709098368883133,-0.1635315716266632,0.10214295238256454,0.06994431465864182,0.05466678366065025,0.04113980010151863
