vladlanda/robotic-transformer/data/env_000_episode_0259.csv
sim_time_s,robot_box_x,robot_box_y,robot_box_z,robot_box_quat_w,robot_box_quat_x,robot_box_quat_y,robot_box_quat_z,robot_box_linvel_x,robot_box_linvel_y,robot_box_linvel_z,robot_box_angvel_x,robot_box_angvel_y,robot_box_angvel_z,cube_world_x,cube_world_y,cube_world_z,cube_quat_w,cube_quat_x,cube_quat_y,cube_quat_z,cube_linvel_x,cube_linvel_y,cube_linvel_z,cube_angvel_x,cube_angvel_y,cube_angvel_z,endpoint_world_x,endpoint_world_y,endpoint_world_z,endpoint_linvel_x,endpoint_linvel_y,endpoint_linvel_z,target_cube_world_x,target_cube_world_y,target_cube_world_z,gripper_actual_pos_rad_gp_leftgearjoint,gripper_actual_vel_rad_s_gp_leftgearjoint,gripper_actual_pos_rad_gp_rotatingjoint,gripper_actual_vel_rad_s_gp_rotatingjoint,motor_angle_rad_joint1,motor_angle_rad_joint2,motor_angle_rad_joint3,motor_angle_rad_joint4,motor_speed_rad_s_joint1,motor_speed_rad_s_joint2,motor_speed_rad_s_joint3,motor_speed_rad_s_joint4
0.0,0.0,0.0,0.0,1.0,0.0,0.0,0.0,0.0,0.0,0.0,0.0,0.0,0.0,-0.3581177890300751,0.773053765296936,0.41999998688697815,1.0,0.0,0.0,0.0,0.0,0.0,0.0,0.0,0.0,0.0,3.42540442943573e-06,-0.005000244826078415,1.313499927520752,0.0,0.0,0.0,0.39019474387168884,0.7712013721466064,0.42000001668930054,-1.5707999467849731,0.0,0.0,0.0,0.0,0.0,0.0,0.0,0.0,0.0,0.0,0.0
0.016666666666666666,0.002906185807660222,0.0020934375934302807,0.0,0.9999069571495056,0.0,0.0,0.01363902073353529,0.2416452020406723,0.179927259683609,0.0,0.0,0.0,2.8006179332733154,-0.3581179082393646,0.7730534672737122,0.41999998688697815,1.0,3.279964630564791e-06,-8.339746386809566e-07,8.465587342243452e-08,-1.9833529222523794e-05,0.00017983045836444944,-6.132945418357849e-05,0.0009432713268324733,-0.004689474124461412,-0.00031981561915017664,-0.007085695862770081,0.0035314466804265976,1.3159466981887817,-0.8118822574615479,0.9920627474784851,0.18089018762111664,0.39019474387168884,0.7712013721466064,0.42000001668930054,-1.5301096439361572,2.9999988079071045,-0.045856501907110214,-3.000000476837158,0.0008793931338004768,0.0008055439684540033,0.0007198639796115458,0.0006195802707225084,0.11092082411050797,0.09756173193454742,0.08333416283130646,0.06822075694799423
0.03333333333333333,0.008797085843980312,0.0066347066313028336,0.0,0.999921977519989,0.0,0.0,0.012493298389017582,0.40164345502853394,0.3099537789821625,0.0,0.0,0.0,-1.054343581199646,-0.3581180274486542,0.7730534076690674,0.4200000464916229,1.0,3.3907890610862523e-06,-2.132393774445518e-06,-3.709030593768148e-08,0.0002635782875586301,0.00026937786606140435,-0.00010509765706956387,-0.0017707186052575707,0.004130848217755556,-0.00013548022252507508,-0.024758949875831604,0.026836177334189415,1.3168485164642334,-1.2864446640014648,1.6557600498199463,-0.04778492450714111,0.39019474387168884,0.7712013721466064,0.42000001668930054,-1.4800902605056763,3.0000011920928955,-0.09589632600545883,-3.0000009536743164,0.002652387134730816,0.0022224693093448877,0.0017549722688272595,0.001246149535290897,0.12996375560760498,0.09554432332515717,0.059630218893289566,0.022164754569530487
0.05,0.018203938379883766,0.013672909699380398,0.0,0.9998689889907837,0.0,0.0,-0.016185209155082703,0.6295742988586426,0.4684065580368042,0.0,0.0,0.0,-4.251609802246094,-0.35811805725097656,0.7730534672737122,0.4200000464916229,1.0,3.7651539059879724e-06,-2.2118510969448835e-06,5.617565523863277e-09,0.0002653085975907743,0.0002669144596438855,-0.00010440382175147533,-0.0017242616740986705,0.004177405033260584,-0.00012949334632139653,-0.04832466319203377,0.05922172591090202,1.313698172569275,-1.5566926002502441,2.1638476848602295,-0.3294087052345276,0.39019474387168884,0.7712013721466064,0.42000001668930054,-1.4300719499588013,2.9999990463256836,-0.1459350287914276,-3.0000009536743164,0.004865359049290419,0.00376563286408782,0.002593940356746316,0.0013458773028105497,0.14670318365097046,0.09740719199180603,0.04620623588562012,-0.0069340853951871395
0.06666666666666667,0.030543802306056023,0.023116419091820717,0.0,0.9996441602706909,0.0,0.0,-0.026674939319491386,0.771983802318573,0.6132078766822815,0.0,0.0,0.0,-0.16808219254016876,-0.35811805725097656,0.7730534076690674,0.4200000464916229,0.9999999403953552,3.4067420529027004e-06,-2.2855354018247453e-06,4.300922284983244e-07,0.0002670245012268424,0.00026791662094183266,-0.00010437797755002975,-0.0017406758852303028,0.004211791325360537,-0.00012850333587266505,-0.07810437679290771,0.09468762576580048,1.3061836957931519,-1.8812000751495361,2.2381577491760254,-0.5685155987739563,0.39019474387168884,0.7712013721466064,0.42000001668930054,-1.3800468444824219,3.000000476837158,-0.1339775025844574,2.999999523162842,0.006427126470953226,0.004469313193112612,0.0023982457350939512,0.00021155213471502066,0.06824996322393417,0.010296856984496117,-0.04974711686372757,-0.11193836480379105
0.08333333333333333,0.03656438738107681,0.036563269793987274,0.0,0.9986663460731506,0.0,0.0,-0.05162902921438217,0.22640785574913025,0.882554292678833,0.0,0.0,0.0,-3.942998170852661,-0.35811805725097656,0.7730534076690674,0.4200000464916229,1.0,3.697293777804589e-06,-2.1888927221880294e-06,-2.6323124302507495e-07,0.00026389575214125216,0.0002658644807524979,-0.00010434049181640148,-0.0017081999685615301,0.0041502113454043865,-0.00012991497351322323,-0.10415329784154892,0.13553163409233093,1.2944612503051758,-1.2760623693466187,2.680931568145752,-0.7610764503479004,0.39019474387168884,0.7712013721466064,0.42000001668930054,-1.3300487995147705,3.000000476837158,-0.16588100790977478,-3.000000238418579,0.0012482786551117897,-0.0014936149818822742,-0.0044020083732903,-0.007483228575438261,-0.4395608603954315,-0.49827468395233154,-0.5596722364425659,-0.6240145564079285
0.1,0.04669523611664772,0.051429107785224915,0.0,0.9945837259292603,0.0,0.0,-0.10393817722797394,0.7363464832305908,0.9043573141098022,0.0,0.0,0.0,-7.087945938110352,-0.35811805725097656,0.7730534076690674,0.4200000464916229,0.9999999403953552,3.6203691706759855e-06,-2.2651593098999e-06,1.7462396328937757e-07,0.0002667671360541135,0.000267408526269719,-0.00010407832451164722,-0.0017386116087436676,0.004209146834909916,-0.00012775430514011532,-0.12652623653411865,0.1815834641456604,1.2826138734817505,-1.411543846130371,2.9018821716308594,-0.742756724357605,0.39019474387168884,0.7712013721466064,0.42000001668930054,-1.280045747756958,3.0,-0.21589121222496033,-3.0000011920928955,-0.0011227603536099195,-0.005444651935249567,-0.009930480271577835,-0.014586768113076687,-0.07921048998832703,-0.17806603014469147,-0.2757682502269745,-0.37226542830467224
0.11666666666666667,0.05484094098210335,0.06621851027011871,0.0,0.9906437993049622,0.0,0.0,-0.13647301495075226,0.5097499489784241,0.8882373571395874,0.0,0.0,0.0,-2.6824352741241455,-0.35811805725097656,0.7730534076690674,0.4200000464916229,1.0,3.7983475067449035e-06,-2.262775296912878e-06,-1.5019621457668109e-07,0.0002637402212712914,0.00026565929874777794,-0.00010429113171994686,-0.0017053772462531924,0.004147558938711882,-0.00012979762686882168,-0.15561558306217194,0.22796350717544556,1.268516182899475,-1.7617623805999756,2.9921207427978516,-0.8502373099327087,0.39019474387168884,0.7712013721466064,0.42000001668930054,-1.2300294637680054,2.999986171722412,-0.1819818913936615,3.000000476837158,-0.004939326550811529,-0.010729641653597355,-0.016656499356031418,-0.02272656187415123,-0.13720262050628662,-0.24266624450683594,-0.34457433223724365,-0.4427763521671295
0.13333333333333333,0.061234861612319946,0.07850249111652374,0.0,0.9838621616363525,0.0,0.0,-0.17892806231975555,0.33342936635017395,0.6676872372627258,0.0,0.0,0.0,-6.005011558532715,-0.35811805725097656,0.7730534672737122,0.4200000464916229,0.9999999403953552,3.550464725776692e-06,-2.2297590476227924e-06,2.9291828695932054e-07,0.00026703329058364034,0.00026779319159686565,-0.00010417005978524685,-0.0017440806841477752,0.0042136311531066895,-0.00012799835531041026,-0.18111741542816162,0.28117942810058594,1.2532646656036377,-1.2699863910675049,3.502556324005127,-1.0102958679199219,0.39019474387168884,0.7712013721466064,0.42000001668930054,-1.1830850839614868,2.6254544258117676,-0.21356913447380066,-3.0,-0.007907395251095295,-0.01557097677141428,-0.023297296836972237,-0.031090395525097847,-0.24513310194015503,-0.35328930616378784,-0.4569740295410156,-0.5560544729232788
0.15,0.06376340985298157,0.09121610969305038,0.0,0.9791156053543091,0.0,0.0,-0.20330417156219482,0.07086008787155151,0.7977796196937561,0.0,0.0,0.0,-1.613297939300537,-0.35811805725097656,0.7730534076690674,0.4200000464916229,0.9999999403953552,3.3380260902049486e-06,-2.242854861833621e-06,-2.8023800169307833e-08,0.00026674504624679685,0.0002675813448149711,-0.00010427623055875301,-0.0017367452383041382,0.004206857644021511,-0.00012831660569645464,-0.2106393724679947,0.3399234116077423,1.229673147201538,-1.9238148927688599,3.749678373336792,-1.7853422164916992,0.39019474387168884,0.7712013721466064,0.42000001668930054,-1.1571245193481445,0.6421674489974976,-0.17967665195465088,3.0000007152557373,-0.01321523729711771,-0.022252751514315605,-0.03126801922917366,-0.040263980627059937,-0.37366512417793274,-0.429843008518219,-0.48120468854904175,-0.5277843475341797
0.16666666666666666,0.06937576085329056,0.10539936274290085,0.0,0.9711310267448425,0.0,0.0,-0.23854660987854004,0.34230029582977295,0.8885106444358826,0.0,0.0,0.0,-5.195666313171387,-0.35811805725097656,0.7730534672737122,0.4200000464916229,0.9999999403953552,3.6477324556472013e-06,-2.3072666408552323e-06,3.5276432441833094e-08,0.0002672694972716272,0.0002680137986317277,-0.00010418682359158993,-0.0017472155159339309,0.004217604175209999,-0.0001279844727832824,-0.2421269714832306,0.40617823600769043,1.1970270872116089,-1.7703256607055664,4.227890968322754,-2.2051470279693604,0.39019474387168884,0.7712013721466064,0.42000001668930054,-1.115323781967163,3.0,-0.21128709614276886,-2.9999983310699463,-0.018382713198661804,-0.028338074684143066,-0.03819262236356735,-0.04795018956065178,-0.46600621938705444,-0.49207618832588196,-0.5151479244232178,-0.5353794097900391
0.18333333333333332,0.07172439247369766,0.11728939414024353,0.0,0.9637587666511536,0.0,0.0,-0.26677536964416504,0.1089489758014679,0.6389471888542175,0.0,0.0,0.0,-2.607682943344116,-0.35811805725097656,0.7730534076690674,0.4200000464916229,0.9999999403953552,3.290510676379199e-06,-2.1939399630355183e-06,-2.7923860557166336e-07,0.00026677988353185356,0.0002677598095033318,-0.00010434072464704514,-0.0017390806460753083,0.004207015968859196,-0.00012845972378272563,-0.27579712867736816,0.47525525093078613,1.1506824493408203,-1.9472644329071045,4.298241138458252,-3.2556214332580566,0.39019474387168884,0.7712013721466064,0.42000001668930054,-1.078108310699463,1.5596379041671753,-0.2613168954849243,-2.999999523162842,-0.028985869139432907,-0.03865773230791092,-0.04820724204182625,-0.05764715000987053,-0.648148238658905,-0.615683913230896,-0.5822324752807617,-0.548373818397522
0.2,0.07596641778945923,0.1301930695772171,0.0,0.9510555267333984,0.0,0.0,-0.3090199828147888,0.2889103889465332,0.7893083691596985,0.0,0.0,0.0,-6.157073020935059,-0.35811805725097656,0.7730534076690674,0.4200000464916229,1.0,3.280785904280492e-06,-2.2192850792635e-06,1.5945126108363183e-07,0.0002662787737790495,0.00026740043540485203,-0.00010425224900245667,-0.0017357869073748589,0.004197799134999514,-0.00012864739983342588,-0.3060554563999176,0.5488153696060181,1.088813304901123,-1.5684648752212524,4.519733905792236,-4.087547779083252,0.39019474387168884,0.7712013721466064,0.42000001668930054,-1.0314170122146606,2.9999494552612305,-0.31134510040283203,-2.9999983310699463,-0.04253525286912918,-0.051151297986507416,-0.059669531881809235,-0.06811747699975967,-0.8793758749961853,-0.8050456047058105,-0.7328831553459167,-0.6637531518936157
0.21666666666666667,0.07837347686290741,0.14030955731868744,0.0,0.9431735277175903,0.0,0.0,-0.33230069279670715,0.08320692926645279,0.5168531537055969,0.0,0.0,0.0,-1.887647032737732,-0.35811805725097656,0.7730534672737122,0.4200000464916229,1.0,3.6131561955699e-06,-2.2701929083268624e-06,2.2099250429619133e-07,0.00026712566614151,0.00026781755150295794,-0.00010414118878543377,-0.0017445905832573771,0.004215225111693144,-0.0001278650452150032,-0.33292660117149353,0.6193277835845947,1.0104539394378662,-1.3055344820022583,4.145951271057129,-5.204207420349121,0.39019474387168884,0.7712013721466064,0.42000001668930054,-0.9814101457595825,3.000002145767212,-0.3613712787628174,-3.0000007152557373,-0.05837031453847885,-0.06606538593769073,-0.07279705256223679,-0.07954764366149902,-0.9530850648880005,-0.9236034154891968,-0.8034067749977112,-0.6894519329071045
0.23333333333333334,0.08162891864776611,0.15076205134391785,0.0,0.9300781488418579,0.0,0.0,-0.3673616945743561,0.26135626435279846,0.6641294360160828,0.0,0.0,0.0,-5.373583793640137,-0.35811805725097656,0.7730534076690674,0.4200000464916229,1.0,3.3819057989603607e-06,-2.2909978270035936e-06,2.727781520661665e-07,0.00026691341190598905,0.0002678005548659712,-0.00010433373972773552,-0.0017396059120073915,0.004209697246551514,-0.0001284381578443572,-0.3534514009952545,0.6834548711776733,0.9159644842147827,-0.9644885063171387,3.5731313228607178,-6.023029327392578,0.39019474387168884,0.7712013721466064,0.42000001668930054,-0.9314013123512268,2.999997854232788,-0.41139912605285645,-3.0,-0.0745123103260994,-0.08219514787197113,-0.08855625987052917,-0.09326109290122986,-0.9827041029930115,-0.9815462827682495,-0.9798984527587891,-0.86744225025177
0.25,0.08333221822977066,0.15866079926490784,0.0,0.9231858849525452,0.0,0.0,-0.38435372710227966,0.039184924215078354,0.390362948179245,0.0,0.0,0.0,-1.1572068929672241,-0.3581180274486542,0.7730534076690674,0.4200000464916229,0.9999999403953552,3.7065931337565416e-06,-2.2230362901609624e-06,-2.2552902123607055e-07,0.00026424863608554006,0.0002665686479303986,-0.00010457867756485939,-0.0017169653438031673,0.004155508242547512,-0.000130626474856399,-0.3690488338470459,0.7320210933685303,0.8095922470092773,-0.6313511729240417,2.430196762084961,-6.67261266708374,0.39019474387168884,0.7712013721466064,0.42000001668930054,-0.8813912868499756,2.9999992847442627,-0.4614293575286865,-2.9999990463256836,-0.09098736941814423,-0.09860273450613022,-0.10491875559091568,-0.10945311188697815,-0.9853804707527161,-0.9763539433479309,-0.9696056246757507,-0.9656125903129578
0.26666666666666666,0.08076035976409912,0.16799792647361755,0.0,0.9113984704017639,0.0,0.0,-0.4115249812602997,-0.23099830746650696,0.6169111728668213,0.0,0.0,0.0,-4.324023246765137,-0.35811805725097656,0.7730534076690674,0.4200000464916229,0.9999999403953552,3.719682354130782e-06,-2.40352301261737e-06,-1.831047029554611e-07,0.00026623340090736747,0.00026729138335213065,-0.00010425737127661705,-0.0017326533561572433,0.004196588881313801,-0.00012851436622440815,-0.37663131952285767,0.764116644859314,0.6930574178695679,-0.1843867003917694,1.4111738204956055,-7.141016006469727,0.39019474387168884,0.7712013721466064,0.42000001668930054,-0.8313811421394348,2.999999523162842,-0.5114604830741882,-3.0,-0.10733884572982788,-0.11493903398513794,-0.12125778198242188,-0.1258108764886856,-0.9934574365615845,-0.9940062165260315,-0.9914135336875916,-0.9899444580078125
0.2833333333333333,0.08198629319667816,0.17243416607379913,0.0,0.9067663550376892,0.0,0.0,-0.4216335415840149,0.06646621227264404,0.19640664756298065,0.0,0.0,0.0,-0.16233588755130768,-0.35811805725097656,0.7730534672737122,0.4200000464916229,0.9999999403953552,3.5841080716636498e-06,-2.315531901331269e-06,7.401592228006848e-08,0.0002652209368534386,0.0002645519271027297,-0.00010317238047719002,-0.0017021773383021355,0.0041851806454360485,-0.00012499751755967736,-0.3804924190044403,0.7786883115768433,0.575107216835022,0.04097379744052887,0.19723565876483917,-7.035244941711426,0.39019474387168884,0.7712013721466064,0.42000001668930054,-0.7813723087310791,2.999993085861206,-0.5614909529685974,-2.9999992847442627,-0.12179737538099289,-0.12945479154586792,-0.1356029063463211,-0.1400100141763687,-0.9936658143997192,-0.993753969669342,-0.9891515970230103,-0.985549807548523
0.3,0.07945037633180618,0.17428696155548096,0.0,0.9143938422203064,0.0,0.0,-0.4048258066177368,-0.23100413382053375,0.08169033378362656,0.0,0.0,0.0,3.1411499977111816,-0.35811805725097656,0.7730534076690674,0.4200000464916229,1.0,3.7242741655063583e-06,-2.2719839307683287e-06,9.633081532456345e-08,0.0002631251991260797,0.0002652581315487623,-0.00010438100434839725,-0.0016961225774139166,0.0041347686201334,-0.00013027382374275476,-0.37938231229782104,0.7767481803894043,0.4665466845035553,0.2293134480714798,-0.4916776120662689,-5.925189018249512,0.39019474387168884,0.7712013721466064,0.42000001668930054,-0.7313635349273682,3.00000262260437,-0.6115195751190186,-3.000002384185791,-0.13968586921691895,-0.14706850051879883,-0.15301337838172913,-0.15726222097873688,-1.0229238271713257,-1.0173678398132324,-1.013118028640747,-1.009705662727356
0.31666666666666665,0.07285957783460617,0.17437367141246796,0.0,0.9147951006889343,0.0,0.0,-0.4039182662963867,-0.4524367153644562,-0.030469970777630806,0.0,0.0,0.0,-0.8157782554626465,-0.3588637411594391,0.7710403800010681,0.421418160200119,0.9993881583213806,0.03162016347050667,-0.0035054415930062532,-0.01453070156276226,0.017067929729819298,0.008679947815835476,-0.011283967643976212,0.010731592774391174,0.5736175179481506,0.7284356355667114,-0.3748801648616791,0.7747831344604492,0.4301987886428833,0.08778628706932068,-0.08775410056114197,-0.09497381746768951,0.39019474387168884,0.7712013721466064,0.42000001668930054,-0.681424081325531,2.9759271144866943,-0.6620333194732666,-2.8602097034454346,-0.1487484574317932,-0.15676933526992798,-0.16313901543617249,-0.16753464937210083,-0.22767943143844604,-0.27952027320861816,-0.310934841632843,-0.3173286020755768
0.3333333333333333,0.06486593931913376,0.1715204268693924,0.0,0.9207823872566223,0.0,0.0,-0.390076607465744,-0.49573490023612976,-0.23058786988258362,0.0,0.0,0.0,2.6206371784210205,-0.3586302697658539,0.7716853618621826,0.42036357522010803,0.9998782277107239,0.00890196394175291,-0.00010443112114444375,-0.012810532003641129,0.007505374029278755,0.05357406288385391,-0.07298436760902405,-3.8439536094665527,0.1031118631362915,0.13324101269245148,-0.3746892213821411,0.7777388095855713,0.42814648151397705,0.14656497538089752,0.14872679114341736,-0.22929686307907104,0.39019474387168884,0.7712013721466064,0.42000001668930054,-0.6314170360565186,2.9999887943267822,-0.7120672464370728,-3.0000009536743164,-0.15279442071914673,-0.16099224984645844,-0.16725343465805054,-0.17121459543704987,-0.27644583582878113,-0.24986587464809418,-0.21090373396873474,-0.15885920822620392
0.35,0.0550907701253891,0.1660061627626419,0.0,0.9199460744857788,0.0,0.0,-0.39204490184783936,-0.6269062757492065,-0.37151432037353516,0.0,0.0,0.0,-1.2027690410614014,-0.35696643590927124,0.7744818329811096,0.4200000464916229,0.9996806979179382,3.322112149817258e-07,5.737837227570708e-07,-0.0252694021910429,0.13206586241722107,0.19183093309402466,-3.375578671693802e-06,0.00018888888007495552,-2.8101472707930952e-05,-1.9603842496871948,-0.3702464699745178,0.7810955047607422,0.42493441700935364,0.4290578067302704,0.35261833667755127,-0.16958126425743103,0.39019474387168884,0.7712013721466064,0.42000001668930054,-0.5814117789268494,2.9999847412109375,-0.7621124386787415,-2.9999988079071045,-0.15850724279880524,-0.16589368879795074,-0.171182319521904,-0.17402032017707825,-0.36279332637786865,-0.29961419105529785,-0.23049618303775787,-0.1569695621728897
0.36666666666666664,0.04321955516934395,0.1581767499446869,0.0,0.9249815940856934,0.0,0.0,-0.3800118565559387,-0.7550725340843201,-0.5089108943939209,0.0,0.0,0.0,2.4785776138305664,-0.3493800759315491,0.7821478843688965,0.4200007915496826,0.9944767951965332,-1.0727638255048078e-05,-5.8523804909782484e-05,-0.1049560084939003,0.5014833211898804,0.4630871117115021,-0.0005042659468017519,0.015736296772956848,0.007105808239430189,-11.478253364562988,-0.3611225485801697,0.7874760627746582,0.4221544861793518,0.7073260545730591,0.4776976704597473,-0.14074739813804626,0.39019474387168884,0.7712013721466064,0.42000001668930054,-0.5314068794250488,2.9996726512908936,-0.8121445775032043,-2.9999349117279053,-0.16592444479465485,-0.17149853706359863,-0.17488723993301392,-0.1757938712835312,-0.45203980803489685,-0.31951236724853516,-0.18225525319576263,-0.044655002653598785
0.3833333333333333,0.034727759659290314,0.1475827991962433,0.0,0.9237703084945679,0.0,0.0,-0.38294708728790283,-0.45471543073654175,-0.6744829416275024,0.0,0.0,0.0,-1.3093030452728271,-0.34131184220314026,0.7895824313163757,0.4199998378753662,0.9808705449104309,2.3525366486865096e-05,-7.821866347512696e-06,-0.19466084241867065,0.5135067105293274,0.4778149127960205,-0.0003309908788651228,-0.013849236071109772,0.014238189905881882,-12.059484481811523,-0.34785300493240356,0.7946488857269287,0.4208175241947174,0.8843501806259155,0.4435844421386719,0.055239565670490265,0.39019474387168884,0.7712013721466064,0.42000001668930054,-0.4813806712627411,2.999824285507202,-0.8621752262115479,-2.9654171466827393,-0.17338533699512482,-0.17640851438045502,-0.17713050544261932,-0.17534507811069489,-0.45600196719169617,-0.2853616774082184,-0.10753629356622696,0.07140490412712097
0.4,0.02353992499411106,0.13552238047122955,0.0,0.9104647040367126,0.0,0.0,-0.4135867655277252,-0.7501958012580872,-0.7489852905273438,0.0,0.0,0.0,-4.942841053009033,-0.32712191343307495,0.8016900420188904,0.42077332735061646,0.9710890054702759,-0.01866254396736622,0.005222999025136232,-0.23792961239814758,1.0355198383331299,0.8286613821983337,0.1045096293091774,-4.470864772796631,2.7252612113952637,13.566106796264648,-0.328799307346344,0.8058433532714844,0.42230311036109924,1.476252794265747,0.9583134651184082,0.12507876753807068,0.39019474387168884,0.7712013721466064,0.42000001668930054,-0.43133750557899475,2.9997527599334717,-0.9121853113174438,-3.000007152557373,-0.18274614214897156,-0.18247391283512115,-0.1797516942024231,-0.17449529469013214,-0.5268844366073608,-0.3272439241409302,-0.11733002960681915,0.0951567068696022
0.4166666666666667,0.015396366827189922,0.1205429807305336,0.0,0.8834242820739746,0.0,0.0,-0.4685739576816559,-0.44288328289985657,-0.9445776343345642,0.0,0.0,0.0,-8.133500099182129,-0.2943788766860962,0.8233802914619446,0.4252251982688904,0.9413039088249207,-0.041712842881679535,-0.026614239439368248,-0.3339138925075531,1.9862655401229858,1.9285874366760254,0.5075090527534485,-8.015527725219727,-7.515811443328857,-17.8841552734375,-0.2962465286254883,0.8260207176208496,0.4262477159500122,2.6235790252685547,1.448127031326294,0.40779954195022583,0.39019474387168884,0.7712013721466064,0.42000001668930054,-0.39132148027420044,1.747164011001587,-0.9622076749801636,-2.9972898960113525,-0.19054476916790009,-0.1870124489068985,-0.1808486133813858,-0.1721046417951584,-0.4771577715873718,-0.2743249535560608,-0.06347371637821198,0.14681792259216309
0.43333333333333335,0.009752772748470306,0.10951274633407593,0.0,0.8398241996765137,0.0,0.0,-0.5428584218025208,-0.2526853084564209,-0.6681807041168213,0.0,0.0,0.0,-10.975296974182129,-0.22607144713401794,0.8524585962295532,0.4319026470184326,0.9181102514266968,0.010021612979471684,-0.06764767318964005,-0.39038029313087463,5.398128032684326,1.749619960784912,0.47910311818122864,2.8612401485443115,-7.5966925621032715,13.642046928405762,-0.22773143649101257,0.8554519414901733,0.4329531788825989,5.17586612701416,2.218593120574951,0.4539789855480194,0.39019474387168884,0.7712013721466064,0.42000001668930054,-0.37155845761299133,0.9244393110275269,-0.9283732175827026,2.999507188796997,-0.20386405289173126,-0.196651428937912,-0.18570315837860107,-0.17252331972122192,-0.5460977554321289,-0.46704256534576416,-0.23773311078548431,-0.033038850873708725
0.45,0.008106047287583351,0.10098354518413544,0.0,0.8045002222061157,0.0,0.0,-0.5939522981643677,-0.04422660544514656,-0.45287570357322693,0.0,0.0,0.0,-6.24796724319458,-0.13938894867897034,0.8879303932189941,0.44193556904792786,0.8799096345901489,0.04427667707204819,-0.0914166048169136,-0.4641568958759308,5.549566745758057,1.4767110347747803,0.7169575691223145,5.682620048522949,-11.541775703430176,7.5094122886657715,-0.14054186642169952,0.8916444778442383,0.442946195602417,5.379861831665039,1.9462015628814697,0.6994904279708862,0.39019474387168884,0.7712013721466064,0.42000001668930054,-0.355790376663208,1.008240818977356,-0.954057514667511,-3.000002145767212,-0.21231944859027863,-0.204035222530365,-0.19018465280532837,-0.17459166049957275,-0.4528712034225464,-0.3956701159477234,-0.2592776417732239,-0.15510566532611847
0.4666666666666667,0.004333240911364555,0.09498050808906555,0.0,0.7887482643127441,0.0,0.0,-0.6147163510322571,-0.21480223536491394,-0.31506526470184326,0.0,0.0,0.0,-1.8174535036087036,-0.049339257180690765,0.9090002179145813,0.4544913172721863,0.809406042098999,0.06118767336010933,-0.08997103571891785,-0.577081561088562,5.315673351287842,0.02909073233604431,0.6508476734161377,-7.909122943878174,-15.77081298828125,16.455318450927734,-0.05139683559536934,0.9131999015808105,0.4542168378829956,5.47947883605957,0.8044263124465942,0.7990058064460754,0.39019474387168884,0.7712013721466064,0.42000001668930054,-0.33688777685165405,1.1123206615447998,-1.00408136844635,-3.000004768371582,-0.22204411029815674,-0.21163184940814972,-0.1947958916425705,-0.17681999504566193,-0.5345281362533569,-0.3976345658302307,-0.22597017884254456,-0.0855012908577919
0.48333333333333334,0.003775893012061715,0.08575966209173203,0.0,0.7666265964508057,0.0,0.0,-0.6420931816101074,0.018018485978245735,-0.5678839087486267,0.0,0.0,0.0,-4.916126251220703,0.03836517781019211,0.9116865992546082,0.46166181564331055,0.742656946182251,0.0467633493244648,-0.11307858675718307,-0.6583971977233887,4.763611316680908,-1.1242132186889648,0.31298112869262695,-4.073354721069336,-1.7758082151412964,25.339183807373047,0.03566744923591614,0.91754150390625,0.462980717420578,5.266201972961426,-0.31792280077934265,0.5159248113632202,0.39019474387168884,0.7712013721466064,0.42000001668930054,-0.3193737268447876,0.8181421160697937,-1.0541034936904907,-2.9999983310699463,-0.2294001430273056,-0.2163279950618744,-0.19648468494415283,-0.1759302169084549,-0.5395162105560303,-0.3264230191707611,-0.10774287581443787,0.08565310388803482
0.5,0.0017135636880993843,0.0817350447177887,0.0,0.7569361925125122,0.0,0.0,-0.6534887552261353,-0.1636667251586914,-0.18977534770965576,0.0,0.0,0.0,-0.5358251929283142,0.11865352094173431,0.8982909917831421,0.4678315222263336,0.6800926327705383,0.030856957659125328,-0.09407778829336166,-0.7264097332954407,4.227889060974121,-1.7336610555648804,0.2792588174343109,-8.774688720703125,-3.4551522731781006,18.782678604125977,0.11647021770477295,0.9044183492660522,0.4693748354911804,4.749405384063721,-1.0726673603057861,0.36934763193130493,0.39019474387168884,0.7712013721466064,0.42000001668930054,-0.3074650764465332,0.5751583576202393,-1.1041256189346313,-3.000000476837158,-0.2399921864271164,-0.2237555980682373,-0.20043572783470154,-0.17695055902004242,-0.014978786930441856,-0.4048491418361664,-0.26047253608703613,-0.1440322995185852
0.5166666666666666,0.0019146703416481614,0.0731780156493187,0.0,0.7396740913391113,0.0,0.0,-0.6729652285575867,0.02905881032347679,-0.5672270655632019,0.0,0.0,0.0,-3.9471583366394043,0.1907050460577011,0.8776707053184509,0.4667224884033203,0.6228802800178528,-0.005801637656986713,-0.09637993574142456,-0.7763358354568481,3.6150104999542236,-1.887880802154541,-0.08781002461910248,-1.6500812768936157,7.432840347290039,13.415538787841797,0.18871290981769562,0.8852675557136536,0.4699634909629822,4.152425765991211,-1.4355404376983643,-0.1607186645269394,0.39019474387168884,0.7712013721466064,0.42000001668930054,-0.29639264941215515,0.6756817698478699,-1.154147744178772,-2.9998836517333984,-0.23506300151348114,-0.22500739991664886,-0.2006031721830368,-0.17632174491882324,0.29708489775657654,0.0016141713131219149,0.04780388996005058,0.07809844613075256
0.5333333333333333,0.004401382524520159,0.06934056431055069,0.0,0.7341393232345581,0.0,0.0,-0.6789988875389099,0.16692990064620972,-0.19687622785568237,0.0,0.0,0.0,-0.02348356507718563,0.251446932554245,0.8491271734237671,0.46094369888305664,0.5675811171531677,-0.036875706166028976,-0.08200357109308243,-0.8183931112289429,3.0325217247009277,-2.224837064743042,-0.4699659049510956,-8.149958610534668,3.539067268371582,11.831854820251465,0.2501250207424164,0.856708288192749,0.4647347033023834,3.509484052658081,-1.8494644165039062,-0.4457218050956726,0.39019474387168884,0.7712013721466064,0.42000001668930054,-0.2835672199726105,0.7517797946929932,-1.2041698694229126,-3.0000016689300537,-0.23362992703914642,-0.22691243886947632,-0.2017466276884079,-0.17706289887428284,0.23741813004016876,0.03903326019644737,0.013737513683736324,-0.025349825620651245
0.55,0.009009476751089096,0.06823701411485672,0.0,0.7203683853149414,0.0,0.0,-0.6935916543006897,0.32295599579811096,0.011322254315018654,0.0,0.0,0.0,-3.2620038986206055,0.30269142985343933,0.8227537274360657,0.4474380910396576,0.5286081433296204,-0.06737794727087021,-0.07272136956453323,-0.8430570960044861,2.6977686882019043,-1.583753228187561,-0.8743273019790649,-5.993256568908691,5.8676886558532715,-3.1046972274780273,0.30175596475601196,0.8297901153564453,0.45178282260894775,2.7510805130004883,-1.5593023300170898,-0.9583119750022888,0.39019474387168884,0.7712013721466064,0.42000001668930054,-0.2700490951538086,0.8046671152114868,-1.2541919946670532,-3.000001907348633,-0.22693653404712677,-0.22398434579372406,-0.20073725283145905,-0.17800332605838776,0.48417750000953674,0.26305562257766724,0.09357062727212906,-0.07306061685085297
0.5666666666666667,0.016689389944076538,0.06315340101718903,0.0,0.7182307839393616,0.0,0.0,-0.6958049535751343,0.4393119215965271,-0.31579285860061646,0.0,0.0,0.0,0.5631020069122314,0.3433547914028168,0.7982111573219299,0.4300791621208191,0.4709772765636444,-0.100609689950943,-0.05979287251830101,-0.8743470907211304,1.9265638589859009,-1.7082914113998413,-1.02354097366333,-3.1762232780456543,1.9888856410980225,3.5961995124816895,0.34191399812698364,0.8045892715454102,0.4347061812877655,2.0412721633911133,-1.4682748317718506,-1.058427333831787,0.39019474387168884,0.7712013721466064,0.42000001668930054,-0.25154098868370056,1.2576524019241333,-1.3042103052139282,-3.0000007152557373,-0.2153768092393875,-0.21600840985774994,-0.19639399647712708,-0.1772143393754959,0.627751886844635,0.4552905261516571,0.23131844401359558,0.009601965546607971
0.5833333333333334,0.026231158524751663,0.06211421638727188,0.0,0.7064504027366638,0.0,0.0,-0.7077625393867493,0.6197531223297119,-0.06323147565126419,0.0,0.0,0.0,-2.8131134510040283,0.3673799932003021,0.7860332727432251,0.42383307218551636,0.48227736353874207,-0.08977431803941727,-0.052390098571777344,-0.8698300719261169,0.9554437398910522,-0.5977575778961182,0.2030991017818451,-8.014467239379883,-6.479194641113281,10.946369171142578,0.36623960733413696,0.7918612957000732,0.42810630798339844,1.0205579996109009,-0.22572284936904907,0.19818562269210815,0.39019474387168884,0.7712013721466064,0.42000001668930054,-0.23233391344547272,0.8369891047477722,-1.2659800052642822,2.9951436519622803,-0.2052159607410431,-0.20896516740322113,-0.19377893209457397,-0.17880405485630035,0.7519524097442627,0.5392126441001892,0.22666777670383453,-0.06204119697213173
0.6,0.03334546834230423,0.059573907405138016,0.0,0.7069305777549744,0.0,0.0,-0.7072829604148865,0.34783467650413513,-0.25923293828964233,0.0,0.0,0.0,0.9518067240715027,0.3807201087474823,0.775261402130127,0.4240323007106781,0.49664515256881714,-0.09230628609657288,-0.05815616622567177,-0.8610696792602539,0.4774736762046814,-0.8747088313102722,-0.05616277456283569,1.6369041204452515,0.7608007788658142,1.7143367528915405,0.3778519034385681,0.7819890975952148,0.428499311208725,0.47045719623565674,-0.6223952770233154,0.10166747868061066,0.39019474387168884,0.7712013721466064,0.42000001668930054,-0.2614403963088989,-2.9871714115142822,-1.2864432334899902,-2.97037410736084,-0.19619855284690857,-0.20196452736854553,-0.19095362722873688,-0.17989712953567505,0.4623695909976959,0.3908967673778534,0.16986528038978577,-0.03875987231731415
0.6166666666666667,0.0406981036067009,0.05866866931319237,0.0,0.697571337223053,0.0,0.0,-0.716515302658081,0.4835120141506195,-0.00027347891591489315,0.0,0.0,0.0,-2.439892530441284,0.3846609890460968,0.7670235633850098,0.42293331027030945,0.5238395929336548,-0.06749479472637177,-0.04148349538445473,-0.8481248021125793,0.23781263828277588,-0.1197856143116951,0.027613114565610886,-3.733034133911133,0.4208090603351593,4.459475040435791,0.3830372393131256,0.7788358926773071,0.4302470088005066,0.23148201406002045,0.020972944796085358,0.12122663110494614,0.39019474387168884,0.7712013721466064,0.42000001668930054,-0.29208698868751526,-0.902410626411438,-1.3364042043685913,-2.9978034496307373,-0.18740199506282806,-0.19490690529346466,-0.18816231191158295,-0.18100233376026154,0.6378105878829956,0.5118781328201294,0.23112858831882477,-0.022449173033237457
0.6333333333333333,0.05046272277832031,0.05688570812344551,0.0,0.7001094818115234,0.0,0.0,-0.7140355110168457,0.6183146238327026,-0.10273119807243347,0.0,0.0,0.0,1.2957826852798462,0.3864327073097229,0.7663553953170776,0.4222116768360138,0.5452755689620972,-0.04873066022992134,-0.03225761279463768,-0.8362171649932861,0.03511342406272888,-0.02932952158153057,-0.0669453963637352,3.626451015472412,-1.7154730558395386,0.46102792024612427,0.3829406499862671,0.7776218056678772,0.4298875629901886,-0.21003232896327972,-0.10829156637191772,-0.058246269822120667,0.39019474387168884,0.7712013721466064,0.42000001668930054,-0.3334014415740967,-2.9999914169311523,-1.3093799352645874,2.9997191429138184,-0.17639392614364624,-0.18555577099323273,-0.18312609195709229,-0.17988282442092896,0.5126723647117615,0.46511077880859375,0.2540628910064697,0.0609455481171608
0.65,0.05741288512945175,0.05777600035071373,0.0,0.6921193599700928,0.0,0.0,-0.7217831015586853,0.35323086380958557,0.1066945493221283,0.0,0.0,0.0,-2.2202718257904053,0.38662850856781006,0.7654286026954651,0.4202617108821869,0.5476592183113098,-0.004719271324574947,-0.0031163247767835855,-0.8366823792457581,0.006163325160741806,-0.0665978342294693,-0.13276362419128418,6.55776309967041,-2.8749566078186035,0.18682172894477844,0.3821641206741333,0.7781164646148682,0.4317064583301544,-0.025028560310602188,0.0959823876619339,0.19391967356204987,0.39019474387168884,0.7712013721466064,0.42000001668930054,-0.38342103362083435,-3.0,-1.3285200595855713,-2.9993367195129395,-0.1672322154045105,-0.1775190681219101,-0.17876340448856354,-0.1788027435541153,0.5697414875030518,0.5047324895858765,0.29255178570747375,0.10323446244001389
0.6666666666666666,0.06474659591913223,0.05557519569993019,0.0,0.695639967918396,0.0,0.0,-0.7183905839920044,0.46600329875946045,-0.16728384792804718,0.0,0.0,0.0,1.4549047946929932,0.3865393102169037,0.7652227878570557,0.41999930143356323,0.5476840138435364,-2.384634171903599e-05,-2.163174212910235e-05,-0.8366851806640625,-0.0014185042819008231,-0.0015221269568428397,-0.00042279018089175224,0.03697195649147034,-0.017564667388796806,-0.00028041930636391044,0.3814008831977844,0.7788286209106445,0.43462273478507996,-0.0801611840724945,-0.005266023799777031,0.1698741912841797,0.39019474387168884,0.7712013721466064,0.42000001668930054,-0.4334336519241333,-2.9999847412109375,-1.378538966178894,-2.999943971633911,-0.15889917314052582,-0.16965414583683014,-0.1737409234046936,-0.1763399839401245,0.3315291702747345,0.3478009104728699,0.22627322375774384,0.11512807756662369
0.6833333333333333,0.07415201514959335,0.05674945190548897,0.0,0.6881880760192871,0.0,0.0,-0.7255323529243469,0.5893588066101074,0.08693601936101913,0.0,0.0,0.0,-2.1270835399627686,0.38653865456581116,0.7652214169502258,0.41999998688697815,0.5476855635643005,-2.8762697183992714e-06,-4.011983946838882e-06,-0.8366842269897461,-2.134329406544566e-05,-0.0003253864124417305,-8.804071694612503e-05,0.008538094349205494,-0.003413207596167922,-0.0007682404248043895,0.3815211057662964,0.7798539400100708,0.4381403923034668,0.06768547743558884,0.0706619992852211,0.2611112594604492,0.39019474387168884,0.7712013721466064,0.42000001668930054,-0.4834149479866028,-2.997302532196045,-1.428525686264038,-3.0000007152557373,-0.15562334656715393,-0.16558411717414856,-0.17084932327270508,-0.17435204982757568,0.24895618855953217,0.30135396122932434,0.253328800201416,0.22743697464466095
0.7,0.08557501435279846,0.05393636226654053,0.0,0.6602096557617188,0.0,0.0,-0.7510813474655151,0.7222477793693542,-0.21392060816287994,0.0,0.0,0.0,-5.364018440246582,0.38653868436813354,0.7652214765548706,0.41999998688697815,0.5476853847503662,-2.980562385346275e-06,-3.809929467024631e-06,-0.8366842269897461,-3.0398834496736526e-05,-0.0003282575053162873,-9.16426070034504e-05,0.008596127852797508,-0.0035018795169889927,-0.0007590731838718057,0.38694483041763306,0.7831524610519409,0.4493876099586487,0.5555882453918457,0.20651757717132568,1.2132076025009155,0.39019474387168884,0.7712013721466064,0.42000001668930054,-0.5334274172782898,-2.999962091445923,-1.4785441160202026,-2.9999985694885254,-0.15256665647029877,-0.1614035964012146,-0.16701523959636688,-0.17052008211612701,-0.0151788629591465,0.0945158526301384,0.1250479519367218,0.1716572791337967
0.7166666666666667,0.0995744913816452,0.05495724827051163,0.0,0.6454558968544006,0.0,0.0,-0.7637975215911865,0.8557054400444031,0.07381165027618408,0.0,0.0,0.0,-1.2803901433944702,0.38653868436813354,0.7652214765548706,0.41999998688697815,0.5476855039596558,-2.980819999720552e-06,-3.928078967874171e-06,-0.8366842269897461,-3.522893530316651e-05,-0.0003283733385615051,-9.352830238640308e-05,0.00858073029667139,-0.0035259032156318426,-0.000751068233512342,0.3974364399909973,0.7897745370864868,0.47612136602401733,0.7790846824645996,0.6304360628128052,1.9457855224609375,0.39019474387168884,0.7712013721466064,0.42000001668930054,-0.5747354030609131,-2.0094316005706787,-1.5285624265670776,-3.000000476837158,-0.15610511600971222,-0.163031667470932,-0.16790622472763062,-0.17049291729927063,-0.11226224899291992,-0.049849290400743484,-0.045389045029878616,-0.028817500919103622
0.7333333333333333,0.11050952225923538,0.05794249475002289,0.0,0.6549972891807556,0.0,0.0,-0.7556312680244446,0.5835738182067871,0.23834320902824402,0.0,0.0,0.0,2.387794256210327,0.38653868436813354,0.7652214765548706,0.41999998688697815,0.5476856827735901,-3.3206060834345408e-06,-3.927639681933215e-06,-0.8366841077804565,-3.452409873716533e-05,-0.0003278849180787802,-9.284960106015205e-05,0.008578461594879627,-0.0035203949082642794,-0.0007503608358092606,0.41279006004333496,0.7984210252761841,0.5012174844741821,0.9621524214744568,0.4433637261390686,1.143031120300293,0.39019474387168884,0.7712013721466064,0.42000001668930054,-0.5807158350944519,1.030574083328247,-1.5785807371139526,-3.000000238418579,-0.1575569063425064,-0.16332995891571045,-0.1678772121667862,-0.17000463604927063,-0.0656311884522438,0.010779811069369316,0.043598491698503494,0.0789334699511528
0.75,0.11690706759691238,0.056770678609609604,0.0,0.6524817943572998,0.0,0.0,-0.7578043937683105,0.337169349193573,-0.11976724863052368,0.0,0.0,0.0,-1.3782819509506226,0.38653868436813354,0.7652214169502258,0.41999998688697815,0.5476855635643005,-3.3065889510908164e-06,-3.970915258832974e-06,-0.8366842865943909,-3.519147867336869e-05,-0.00032788736280053854,-9.3026552349329e-05,0.008578374050557613,-0.0035273649264127016,-0.0007489947020076215,0.42330247163772583,0.8049598336219788,0.5138314962387085,0.2873067855834961,0.21974113583564758,0.5431668162345886,0.39019474387168884,0.7712013721466064,0.42000001668930054,-0.587822675704956,-1.644031047821045,-1.53963041305542,3.000000238418579,-0.15641692280769348,-0.1610666662454605,-0.16513003408908844,-0.16681665182113647,-0.04831337556242943,0.05445427447557449,0.1204429343342781,0.175183966755867
0.7666666666666666,0.11961238086223602,0.06021134555339813,0.0,0.6609883904457092,0.0,0.0,-0.7503961324691772,0.11420999467372894,0.20994195342063904,0.0,0.0,0.0,2.1006298065185547,0.38653868436813354,0.7652214765548706,0.41999998688697815,0.547685444355011,-3.3253932087973226e-06,-3.8372290873667225e-06,-0.8366842865943909,-3.40141705237329e-05,-0.0003279917291365564,-9.269011206924915e-05,0.0085831880569458,-0.003520834958180785,-0.0007516049081459641,0.42842578887939453,0.8070909380912781,0.5221202373504639,0.41359782218933105,0.20684775710105896,0.4567756652832031,0.39019474387168884,0.7712013721466064,0.42000001668930054,-0.5883331298828125,1.3259423971176147,-1.5549390316009521,-2.999999523162842,-0.16168338060379028,-0.1638968139886856,-0.1660998910665512,-0.16624027490615845,-0.18874794244766235,-0.08548469096422195,-0.008072574622929096,0.05266983062028885
0.7833333333333333,0.11915145069360733,0.059612173587083817,0.0,0.6564505100250244,0.0,0.0,-0.7543690800666809,-0.10165344923734665,-0.057683803141117096,0.0,0.0,0.0,-1.535915732383728,0.38653868436813354,0.7652214765548706,0.41999998688697815,0.547685444355011,-3.316145694043371e-06,-3.867670784529764e-06,-0.8366842269897461,-3.364047734066844e-05,-0.00032797479070723057,-9.256904013454914e-05,0.008583340793848038,-0.0035186614841222763,-0.0007522798259742558,0.4299148917198181,0.8095481991767883,0.52403724193573,-0.24649390578269958,0.04844556748867035,-0.05529724806547165,0.39019474387168884,0.7712013721466064,0.42000001668930054,-0.5953814387321472,-1.8875590562820435,-1.5160586833953857,3.0,-0.16396759450435638,-0.16457733511924744,-0.16552843153476715,-0.1647254377603531,-0.21261733770370483,-0.09943988174200058,-0.005259000230580568,0.06640385836362839
0.8,0.1201273575425148,0.060431208461523056,0.0,0.6636645793914795,0.0,0.0,-0.7480303049087524,0.11688181757926941,0.07704169303178787,0.0,0.0,0.0,2.036433696746826,0.38653868436813354,0.7652214169502258,0.41999998688697815,0.5476855039596558,-3.3241533401451306e-06,-3.888828814524459e-06,-0.8366842865943909,-3.347135498188436e-05,-0.00032799411565065384,-9.251618757843971e-05,0.008584361523389816,-0.0035183343570679426,-0.0007525713881477714,0.4279173016548157,0.8087924718856812,0.5251985788345337,0.012909822165966034,-0.04983505979180336,0.23209914565086365,0.39019474387168884,0.7712013721466064,0.42000001668930054,-0.602924644947052,0.7586964964866638,-1.5318900346755981,-2.999999761581421,-0.1703592985868454,-0.16851356625556946,-0.16720469295978546,-0.16448989510536194,-0.3913778066635132,-0.24550510942935944,-0.10310894250869751,0.022744810208678246
0.8166666666666667,0.1216169148683548,0.05830609053373337,0.0,0.659614086151123,0.0,0.0,-0.7516044974327087,0.1354392021894455,-0.19734613597393036,0.0,0.0,0.0,-1.4896124601364136,0.38653868436813354,0.7652214169502258,0.41999998688697815,0.5476853847503662,-3.336699137435062e-06,-3.940924671042012e-06,-0.8366842865943909,-3.363023279234767e-05,-0.000328060588799417,-9.255576878786087e-05,0.008586564101278782,-0.0035204363521188498,-0.0007524286629632115,0.4276048541069031,0.8073834180831909,0.5263240337371826,-0.037327732890844345,-0.19467604160308838,0.06558797508478165,0.39019474387168884,0.7712013721466064,0.42000001668930054,-0.6227637529373169,-2.811464548110962,-1.4969420433044434,3.0000007152557373,-0.17520876228809357,-0.17132790386676788,-0.16788922250270844,-0.1632155478000641,-0.259478360414505,-0.14291824400424957,-0.015214907005429268,0.10514098405838013
0.8333333333333334,0.12599065899848938,0.05831368267536163,0.0,0.6357889175415039,0.0,0.0,-0.7718629837036133,0.3128918409347534,0.06439697742462158,0.0,0.0,0.0,-4.618864059448242,0.38653868436813354,0.7652214765548706,0.41999998688697815,0.5476853251457214,-3.3354920105921337e-06,-3.813301873378805e-06,-0.8366844058036804,-3.401434514671564e-05,-0.00032801233464851975,-9.269267320632935e-05,0.00858380924910307,-0.003521195612847805,-0.0007517042686231434,0.4322243332862854,0.8060091733932495,0.5301591157913208,0.5707097053527832,-0.01825535297393799,0.5233534574508667,0.39019474387168884,0.7712013721466064,0.42000001668930054,-0.6565428376197815,-1.3402440547943115,-1.5131969451904297,-2.9999985694885254,-0.17946520447731018,-0.17432458698749542,-0.1692657470703125,-0.16294199228286743,-0.20280733704566956,-0.1557178944349289,-0.08080601692199707,1.846812665462494e-06
0.85,0.13273853063583374,0.06135667487978935,0.0,0.6263806223869324,0.0,0.0,-0.7795173525810242,0.4391614496707916,0.2605753540992737,0.0,0.0,0.0,-0.4585183560848236,0.38653868436813354,0.7652214169502258,0.41999998688697815,0.547685444355011,-3.290503400421585e-06,-3.879822088492801e-06,-0.8366842269897461,-3.523094346746802e-05,-0.0003278607618995011,-9.302538819611073e-05,0.008577756583690643,-0.0035271907690912485,-0.0007491123396903276,0.43832147121429443,0.8088813424110413,0.5400292873382568,0.16169551014900208,0.33231180906295776,0.6661014556884766,0.39019474387168884,0.7712013721466064,0.42000001668930054,-0.6503905057907104,1.8010424375534058,-1.5632152557373047,-3.0000007152557373,-0.18156234920024872,-0.17632853984832764,-0.17074668407440186,-0.16382741928100586,-0.06715277582406998,-0.09366609901189804,-0.09814424812793732,-0.10102751106023788
0.8666666666666667,0.13640239834785461,0.05958593264222145,0.0,0.6410226821899414,0.0,0.0,-0.7675219178199768,0.22102874517440796,-0.15032704174518585,0.0,0.0,0.0,2.9358444213867188,0.38653868436813354,0.7652214169502258,0.41999998688697815,0.5476853847503662,-3.3359131066390546e-06,-3.931800165446475e-06,-0.8366843461990356,-3.370153717696667e-05,-0.00032803916838020086,-9.258114732801914e-05,0.008585688658058643,-0.0035203909501433372,-0.0007522620726376772,0.4371036887168884,0.8152076601982117,0.548423707485199,-0.330573171377182,0.27444303035736084,0.3578822612762451,0.39019474387168884,0.7712013721466064,0.42000001668930054,-0.634738028049469,0.2044748067855835,-1.524304986000061,3.000000476837158,-0.17739851772785187,-0.17324049770832062,-0.16841250658035278,-0.16223588585853577,0.1370605230331421,0.10501143336296082,0.08495653420686722,0.05835791677236557
0.8833333333333333,0.1374506652355194,0.06139175221323967,0.0,0.6415408849716187,0.0,0.0,-0.7670888304710388,0.004652445670217276,0.1552286148071289,0.0,0.0,0.0,-0.7364109754562378,0.38653868436813354,0.7652214169502258,0.41999998688697815,0.5476856231689453,-3.33318939738092e-06,-3.808703468166641e-06,-0.8366841077804565,-3.3882446587085724e-05,-0.00032798416214063764,-9.263679385185242e-05,0.008583476766943932,-0.0035201525315642357,-0.0007521102670580149,0.4288102388381958,0.818243145942688,0.5493384599685669,-0.5343912839889526,0.2113714963197708,-0.10975058376789093,0.39019474387168884,0.7712013721466064,0.42000001668930054,-0.631910502910614,0.1391056925058365,-1.4742485284805298,3.000000476837158,-0.17898859083652496,-0.1747010052204132,-0.16962090134620667,-0.1633736938238144,0.041617751121520996,0.01243471261113882,-0.006423163693398237,-0.03148750960826874
0.9,0.13858290016651154,0.0605897381901741,0.0,0.6524662971496582,0.0,0.0,-0.7578177452087402,0.09923191368579865,-0.07243742793798447,0.0,0.0,0.0,2.4079971313476562,0.38653868436813354,0.7652214169502258,0.41999998688697815,0.5476855635643005,-3.3415365123801166e-06,-3.875724814861314e-06,-0.8366842269897461,-3.387179458513856e-05,-0.0003280470264144242,-9.264284744858742e-05,0.008585436269640923,-0.003521119011566043,-0.000751933257561177,0.41832077503204346,0.8209489583969116,0.5477017164230347,-0.7525026202201843,0.13918088376522064,-0.04691038653254509,0.39019474387168884,0.7712013721466064,0.42000001668930054,-0.6295080780982971,0.14529487490653992,-1.4368247985839844,1.58218252658844,-0.17862246930599213,-0.174571692943573,-0.1695995330810547,-0.16358929872512817,-0.04580753296613693,-0.04533642530441284,-0.03956864774227142,-0.04289257898926735
