vladlanda/robotic-transformer/data/env_000_episode_0195.csv
sim_time_s,robot_box_x,robot_box_y,robot_box_z,robot_box_quat_w,robot_box_quat_x,robot_box_quat_y,robot_box_quat_z,robot_box_linvel_x,robot_box_linvel_y,robot_box_linvel_z,robot_box_angvel_x,robot_box_angvel_y,robot_box_angvel_z,cube_world_x,cube_world_y,cube_world_z,cube_quat_w,cube_quat_x,cube_quat_y,cube_quat_z,cube_linvel_x,cube_linvel_y,cube_linvel_z,cube_angvel_x,cube_angvel_y,cube_angvel_z,endpoint_world_x,endpoint_world_y,endpoint_world_z,endpoint_linvel_x,endpoint_linvel_y,endpoint_linvel_z,target_cube_world_x,target_cube_world_y,target_cube_world_z,gripper_actual_pos_rad_gp_leftgearjoint,gripper_actual_vel_rad_s_gp_leftgearjoint,gripper_actual_pos_rad_gp_rotatingjoint,gripper_actual_vel_rad_s_gp_rotatingjoint,motor_angle_rad_joint1,motor_angle_rad_joint2,motor_angle_rad_joint3,motor_angle_rad_joint4,motor_speed_rad_s_joint1,motor_speed_rad_s_joint2,motor_speed_rad_s_joint3,motor_speed_rad_s_joint4
0.0,0.0,0.0,0.0,1.0,0.0,0.0,0.0,0.0,0.0,0.0,0.0,0.0,0.0,-0.3703054189682007,0.710283637046814,0.41999998688697815,1.0,0.0,0.0,0.0,0.0,0.0,0.0,0.0,0.0,0.0,3.42540442943573e-06,-0.005000244826078415,1.313499927520752,0.0,0.0,0.0,0.3735586702823639,0.6433749794960022,0.42000001668930054,-1.5707999467849731,0.0,0.0,0.0,0.0,0.0,0.0,0.0,0.0,0.0,0.0,0.0
0.016666666666666666,0.0028806226328015327,0.002177512040361762,0.0,0.9998144507408142,0.0,0.0,0.01926189288496971,0.24095185101032257,0.18229469656944275,0.0,0.0,0.0,3.1418073177337646,-0.37030553817749023,0.7102833390235901,0.41999998688697815,1.0,3.279964630564791e-06,-8.339746386809566e-07,8.465587342243452e-08,-1.9833529222523794e-05,0.00017983045836444944,-6.132945418357849e-05,0.0009432713268324733,-0.004689474124461412,-0.00031981561915017664,-0.007109224796295166,0.0033879487309604883,1.3159382343292236,-0.814052402973175,0.9871838092803955,0.180960014462471,0.3735586702823639,0.6433749794960022,0.42000001668930054,-1.5301094055175781,3.00000262260437,-0.04584870487451553,-3.0000011920928955,0.0008700742619112134,0.000796726846601814,0.0007112959283404052,0.0006111498805694282,0.11094817519187927,0.09758611768484116,0.08336303383111954,0.0682576447725296
0.03333333333333333,0.008964267559349537,0.006797032430768013,0.0,0.9998025298118591,0.0,0.0,0.019871922209858894,0.4070548117160797,0.3152024745941162,0.0,0.0,0.0,-0.8690869212150574,-0.3703056573867798,0.7102832794189453,0.4200000464916229,1.0,3.3908354453160428e-06,-2.1324485715012997e-06,-3.710144014235084e-08,0.00026357831666246057,0.00026937946677207947,-0.00010509486310184002,-0.0017707672668620944,0.004130808170884848,-0.000135478752781637,-0.027539754286408424,0.026248984038829803,1.3165920972824097,-1.5904297828674316,1.617214322090149,-0.08567455410957336,0.3735586702823639,0.6433749794960022,0.42000001668930054,-1.4800902605056763,3.0000009536743164,-0.09588854759931564,-3.0000014305114746,0.002990415319800377,0.0026526947040110826,0.00227724714204669,0.0018607357051223516,0.16417182981967926,0.13972947001457214,0.1137918159365654,0.08627569675445557
0.05,0.01847665384411812,0.013903118669986725,0.0,0.999974250793457,0.0,0.0,-0.007173566147685051,0.6362760066986084,0.4724165201187134,0.0,0.0,0.0,-4.0731401443481445,-0.3703056871891022,0.7102833390235901,0.4200000464916229,1.0,3.7651125239790417e-06,-2.211879063906963e-06,5.622505128144439e-09,0.000265308452071622,0.0002669153327587992,-0.00010440615005791187,-0.001724260626360774,0.004177352879196405,-0.00012949221127200872,-0.05707523226737976,0.057450998574495316,1.3119373321533203,-1.9431620836257935,2.053802728652954,-0.4550509750843048,0.3735586702823639,0.6433749794960022,0.42000001668930054,-1.4300719499588013,2.999999761581421,-0.14591844379901886,-3.000000476837158,0.006001849193125963,0.00515882158651948,0.004243471194058657,0.0032514871563762426,0.20581039786338806,0.16517162322998047,0.12260746210813522,0.07804446667432785
0.06666666666666667,0.030801288783550262,0.023395195603370667,0.0,0.9998751878738403,0.0,0.0,-0.015797406435012817,0.7727417945861816,0.6163161396980286,0.0,0.0,0.0,-0.035810068249702454,-0.3703056871891022,0.7102832794189453,0.4200000464916229,0.9999999403953552,3.4066883927152958e-06,-2.285532218593289e-06,4.300976286231162e-07,0.0002670241810847074,0.00026791772688739,-0.00010438147000968456,-0.00174069800414145,0.00421178387477994,-0.00012850729399360716,-0.0923246294260025,0.09082964062690735,1.3019793033599854,-2.1467442512512207,2.1111230850219727,-0.7289639115333557,0.3735586702823639,0.6433749794960022,0.42000001668930054,-1.3800444602966309,2.9999985694885254,-0.1171083152294159,3.0,0.008475806564092636,0.006834966130554676,0.005081041716039181,0.0032093056943267584,0.12225957214832306,0.06337961554527283,0.002323345746845007,-0.06095905229449272
0.08333333333333333,0.036917489022016525,0.03648004308342934,0.0,0.9992100596427917,0.0,0.0,-0.03974039480090141,0.2249949723482132,0.8771734237670898,0.0,0.0,0.0,-3.806713819503784,-0.3703056871891022,0.7102832794189453,0.4200000464916229,1.0,3.6972253383282805e-06,-2.188838152505923e-06,-2.632317830375541e-07,0.00026389729464426637,0.00026586424792185426,-0.00010433932766318321,-0.0017081560799852014,0.004150177352130413,-0.0001299097202718258,-0.12274031341075897,0.1299857199192047,1.288196325302124,-1.5421631336212158,2.5912606716156006,-0.8535972833633423,0.3735586702823639,0.6433749794960022,0.42000001668930054,-1.330041527748108,3.000002861022949,-0.14911161363124847,-3.0000011920928955,0.004306470975279808,0.0018154375720769167,-0.0008423677645623684,-0.003675248473882675,-0.3897867202758789,-0.4529597759246826,-0.518966555595398,-0.5880355834960938
0.1,0.04668394476175308,0.05148082971572876,0.0,0.9958328604698181,0.0,0.0,-0.09119714051485062,0.7357869148254395,0.9049952030181885,0.0,0.0,0.0,-6.965115547180176,-0.3703056871891022,0.7102832794189453,0.4200000464916229,0.9999999403953552,3.620277084337431e-06,-2.2651142899121623e-06,1.7461523782458244e-07,0.0002667682128958404,0.0002674072457011789,-0.0001040794886648655,-0.0017386354738846421,0.004209177568554878,-0.00012775110371876508,-0.1506682187318802,0.1752813756465912,1.2733290195465088,-1.7971980571746826,2.8672118186950684,-0.9788752794265747,0.3735586702823639,0.6433749794960022,0.42000001668930054,-1.280026912689209,2.9999988079071045,-0.14795055985450745,2.652899980545044,0.0022018225863575935,-0.001838444615714252,-0.006051480770111084,-0.010445166379213333,-0.026933947578072548,-0.12729482352733612,-0.2266695499420166,-0.32500797510147095
0.11666666666666667,0.05524285510182381,0.06356027722358704,0.0,0.9924200177192688,0.0,0.0,-0.12289214134216309,0.5371187329292297,0.6856192350387573,0.0,0.0,0.0,-2.5798234939575195,-0.3703056871891022,0.7102832794189453,0.4200000464916229,1.0,3.798308171099052e-06,-2.262737325509079e-06,-1.5021218757738097e-07,0.0002637405996210873,0.000265660259174183,-0.00010428996756672859,-0.0017054072814062238,0.00414755754172802,-0.000129801788716577,-0.18388664722442627,0.22038337588310242,1.2554349899291992,-1.9363758563995361,2.9141077995300293,-1.0831782817840576,0.3735586702823639,0.6433749794960022,0.42000001668930054,-1.2300373315811157,3.000000476837158,-0.18175140023231506,-2.999999761581421,-0.0003607773396652192,-0.0060127610340714455,-0.011811090633273125,-0.01776348240673542,-0.07418478280305862,-0.18979041278362274,-0.3021131157875061,-0.410992830991745
0.13333333333333333,0.0615648478269577,0.07277416437864304,0.0,0.9864107966423035,0.0,0.0,-0.16429761052131653,0.3285980820655823,0.48073846101760864,0.0,0.0,0.0,-5.806243896484375,-0.3703056871891022,0.7102833390235901,0.4200000464916229,0.9999999403953552,3.55037650479062e-06,-2.229731535408064e-06,2.929058098288806e-07,0.0002670335816219449,0.0002677934826351702,-0.00010417238809168339,-0.0017440745141357183,0.004213663749396801,-0.0001280020660487935,-0.21455010771751404,0.2746051251888275,1.233430027961731,-1.689866304397583,3.640774726867676,-1.5243141651153564,0.3735586702823639,0.6433749794960022,0.42000001668930054,-1.1800248622894287,2.9999914169311523,-0.14804893732070923,2.999999523162842,-0.0030723430681973696,-0.010527723468840122,-0.01806630566716194,-0.025694090873003006,-0.20887503027915955,-0.3099650740623474,-0.4069630801677704,-0.4997764229774475
0.15,0.06400122493505478,0.08293406665325165,0.0,0.9745703339576721,0.0,0.0,-0.22408196330070496,0.0724828913807869,0.6684783101081848,0.0,0.0,0.0,-8.242868423461914,-0.3703056573867798,0.7102832794189453,0.4200000464916229,1.0,3.3320845886919415e-06,-2.1018886400270276e-06,1.313070612241063e-07,0.00026730558602139354,0.0002685959043446928,-0.00010459567420184612,-0.0017497815424576402,0.004215646535158157,-0.00012928525393363088,-0.2457984983921051,0.33591511845588684,1.2030820846557617,-1.799455165863037,3.9178266525268555,-2.137937307357788,0.3735586702823639,0.6433749794960022,0.42000001668930054,-1.149330973625183,0.8453696966171265,-0.17986354231834412,-2.999999523162842,-0.008221606723964214,-0.017119552940130234,-0.026020845398306847,-0.03493046760559082,-0.3872123062610626,-0.4543837308883667,-0.5169309377670288,-0.574874222278595
0.16666666666666666,0.07029853016138077,0.09025833010673523,0.0,0.9643832445144653,0.0,0.0,-0.2645089626312256,0.42957794666290283,0.34627610445022583,0.0,0.0,0.0,-3.693091869354248,-0.3703056871891022,0.7102832794189453,0.4200000464916229,1.0,3.7371814869402442e-06,-2.2329975308821304e-06,-1.8765943821108522e-07,0.0002643296611495316,0.0002662689657881856,-0.00010446016676723957,-0.0017119699623435736,0.004157591611146927,-0.00013001523620914668,-0.2816202640533447,0.4002193808555603,1.159595251083374,-2.0213279724121094,4.168513298034668,-3.0628433227539062,0.3735586702823639,0.6433749794960022,0.42000001668930054,-1.1065338850021362,3.0,-0.22988563776016235,-2.999999761581421,-0.01381750125437975,-0.023480739444494247,-0.03308085724711418,-0.04262489452958107,-0.46282288432121277,-0.4745691120624542,-0.4839291572570801,-0.49109405279159546
0.18333333333333332,0.0712333470582962,0.10026771575212479,0.0,0.948820948600769,0.0,0.0,-0.3158145248889923,0.030208948999643326,0.5986812710762024,0.0,0.0,0.0,-7.142574310302734,-0.3703056871891022,0.7102833390235901,0.4200000464916229,0.9999999403953552,3.6601361443899805e-06,-2.3021373181109084e-06,2.5284839466621634e-07,0.00026690843515098095,0.00026760276523418725,-0.00010412652045488358,-0.0017413680907338858,0.004211578983813524,-0.00012787070591002703,-0.3122585117816925,0.4691721796989441,1.099937915802002,-1.5145010948181152,4.329440593719482,-3.833066463470459,0.3735586702823639,0.6433749794960022,0.42000001668930054,-1.0565308332443237,2.9999845027923584,-0.27991077303886414,-2.9999990463256836,-0.027610786259174347,-0.037165187299251556,-0.04662739858031273,-0.05601544678211212,-0.6528757810592651,-0.7032023072242737,-0.7503535151481628,-0.7933052778244019
0.2,0.07758808135986328,0.10560079663991928,0.0,0.9376406073570251,0.0,0.0,-0.34760624170303345,0.38453489542007446,0.24266985058784485,0.0,0.0,0.0,-2.738293409347534,-0.3703056871891022,0.7102832794189453,0.4200000464916229,1.0,3.5907003166357754e-06,-2.30029900194495e-06,1.38729205900745e-07,0.0002665481297299266,0.0002673238341230899,-0.00010424177162349224,-0.0017326157540082932,0.004203508608043194,-0.00012821020209230483,-0.3391755521297455,0.5370165705680847,1.0283870697021484,-1.2959046363830566,4.086747169494629,-4.775496482849121,0.3735586702823639,0.6433749794960022,0.42000001668930054,-1.0066090822219849,2.9727680683135986,-0.3299362063407898,-3.0,-0.03672778606414795,-0.046711962670087814,-0.056570351123809814,-0.06631099432706833,-0.7703231573104858,-0.7440710663795471,-0.7184131741523743,-0.6931333541870117
0.21666666666666667,0.07850204408168793,0.11415931582450867,0.0,0.921022355556488,0.0,0.0,-0.3895096778869629,0.04391581192612648,0.5083737969398499,0.0,0.0,0.0,-6.1092529296875,-0.3703056871891022,0.7102833390235901,0.4200000464916229,1.0,3.6067965538677527e-06,-2.26086558541283e-06,1.9618761726292178e-08,0.00026447168784216046,0.0002655836578924209,-0.00010396330617368221,-0.0017087386222556233,0.004164193756878376,-0.00012832140782848,-0.3571968972682953,0.5993183851242065,0.9394574165344238,-0.7546535134315491,3.5896239280700684,-5.639533996582031,0.3735586702823639,0.6433749794960022,0.42000001668930054,-0.9565999507904053,2.999997854232788,-0.37996408343315125,-3.0000011920928955,-0.052401795983314514,-0.06244012713432312,-0.07230272889137268,-0.0820472314953804,-0.7500326633453369,-0.7834092378616333,-0.8114998936653137,-0.8391403555870056
0.23333333333333334,0.07805700600147247,0.11852347105741501,0.0,0.9113845229148865,0.0,0.0,-0.4115558862686157,-0.06654877960681915,0.1302870213985443,0.0,0.0,0.0,-1.7886611223220825,-0.3703056573867798,0.7102832794189453,0.4200000464916229,0.9999999403953552,3.742101398529485e-06,-2.227345248684287e-06,4.589114155351126e-07,0.0002647513756528497,0.0002667136723175645,-0.00010453537106513977,-0.0017189161153510213,0.0041657742112874985,-0.00013019364268984646,-0.37172502279281616,0.6497788429260254,0.8421769142150879,-0.5968123078346252,2.658254623413086,-6.054100036621094,0.3735586702823639,0.6433749794960022,0.42000001668930054,-0.9065892696380615,2.99999737739563,-0.4299943149089813,-2.9999988079071045,-0.06529740244150162,-0.07532164454460144,-0.08511730283498764,-0.09481443464756012,-0.7936447858810425,-0.7719771265983582,-0.7485747933387756,-0.7270532846450806
0.25,0.07423409074544907,0.1252698004245758,0.0,0.9119164943695068,0.0,0.0,-0.41037577390670776,-0.28663530945777893,0.503677248954773,0.0,0.0,0.0,1.0761247873306274,-0.3703056871891022,0.7102832794189453,0.4200000464916229,1.0,3.39423263540084e-06,-2.2818808247393463e-06,1.3363670348098822e-07,0.0002667944645509124,0.00026794031145982444,-0.00010439474135637283,-0.001741691492497921,0.00420658104121685,-0.0001288425555685535,-0.38408362865448,0.6837270259857178,0.7406085729598999,-0.704035758972168,1.4384870529174805,-6.107267379760742,0.3735586702823639,0.6433749794960022,0.42000001668930054,-0.8565785884857178,2.999962568283081,-0.4800253212451935,-3.000002145767212,-0.08185199648141861,-0.0917733684182167,-0.10129305720329285,-0.11042283475399017,-0.9912464618682861,-0.99366295337677,-0.9953530430793762,-0.9924851059913635
0.26666666666666666,0.0734269917011261,0.12810347974300385,0.0,0.906986653804779,0.0,0.0,-0.4211593270301819,-0.03909078612923622,0.13825640082359314,0.0,0.0,0.0,-1.972633719444275,-0.3703056871891022,0.7102833390235901,0.4200000464916229,1.0,3.683239356178092e-06,-2.309933051947155e-06,2.1011992146213743e-07,0.0002647916553542018,0.00026625811005942523,-0.00010421057231724262,-0.001716860686428845,0.004168972373008728,-0.00012909462384413928,-0.3919657766819,0.704587996006012,0.6339477300643921,-0.1936064064502716,0.7334272861480713,-6.523608207702637,0.3735586702823639,0.6433749794960022,0.42000001668930054,-0.8065693974494934,2.9999990463256836,-0.5300556421279907,-2.999999761581421,-0.09710174053907394,-0.10714219510555267,-0.11671259999275208,-0.1257466822862625,-0.9962796568870544,-0.9964848160743713,-0.9966484308242798,-0.9967922568321228
0.2833333333333333,0.07048880308866501,0.1286298632621765,0.0,0.9098300337791443,0.0,0.0,-0.4149811267852783,-0.2485487461090088,0.007787407375872135,0.0,0.0,0.0,1.6694804430007935,-0.3703056871891022,0.7102832794189453,0.4200000464916229,1.0,3.306690359750064e-06,-2.2123749658931047e-06,2.6260173058290093e-07,0.0002666071231942624,0.00026745113427750766,-0.00010424456559121609,-0.001735334168188274,0.004204478580504656,-0.0001282861630897969,-0.3927463889122009,0.7110378742218018,0.5321173667907715,0.1785084456205368,0.005269996821880341,-5.676081657409668,0.3735586702823639,0.6433749794960022,0.42000001668930054,-0.7565606236457825,3.0000007152557373,-0.5800849795341492,-3.0000016689300537,-0.1148538812994957,-0.12464076280593872,-0.13402268290519714,-0.14291013777256012,-1.0160853862762451,-1.0121607780456543,-1.0091732740402222,-1.0067857503890991
0.3,0.06428829580545425,0.12717384099960327,0.0,0.9060794115066528,0.0,0.0,-0.42310768365859985,-0.3692348301410675,-0.15870411694049835,0.0,0.0,0.0,-1.898688793182373,-0.3703056871891022,0.7102832794189453,0.4200000464916229,1.0,3.6410058328328887e-06,-2.377771352257696e-06,-4.1935263084269536e-07,0.0002661160542629659,0.00026725951465778053,-0.00010423478670418262,-0.0017336473101750016,0.004194711335003376,-0.00012854898523073643,-0.3838343024253845,0.7102957963943481,0.44139060378074646,0.8271406888961792,-0.09230083227157593,-5.1537675857543945,0.3735586702823639,0.6433749794960022,0.42000001668930054,-0.7065527439117432,2.9999947547912598,-0.6301121115684509,-2.999998092651367,-0.1322348713874817,-0.14186254143714905,-0.1511431634426117,-0.1599608063697815,-0.9002847671508789,-0.9261079430580139,-0.9512902498245239,-0.9743740558624268
0.31666666666666665,0.05668364465236664,0.12281082570552826,0.0,0.9091827869415283,0.0,0.0,-0.41639724373817444,-0.5019975304603577,-0.3049996495246887,0.0,0.0,0.0,1.6941642761230469,-0.3703213930130005,0.7102334499359131,0.42006707191467285,0.9999991059303284,0.0012580796610563993,-0.00040303991409018636,-1.6839996419548697e-07,-0.0021223349031060934,-0.006781718693673611,0.00807907897979021,0.32899028062820435,-0.09518187493085861,0.0006529617239721119,-0.3783053755760193,0.7115530967712402,0.4152301549911499,0.2926552891731262,0.35083019733428955,-0.02064364403486252,0.3735586702823639,0.6433749794960022,0.42000001668930054,-0.6567652821540833,2.9485583305358887,-0.6804407835006714,-2.788733959197998,-0.13869550824165344,-0.1492396742105484,-0.1592738777399063,-0.16861633956432343,-0.019255924969911575,-0.1239626333117485,-0.2034132480621338,-0.25016093254089355
0.3333333333333333,0.04683105647563934,0.11601392924785614,0.0,0.9053850769996643,0.0,0.0,-0.4245913624763489,-0.6345003247261047,-0.4483003318309784,0.0,0.0,0.0,-2.0056793689727783,-0.3694239556789398,0.7121618390083313,0.41999998688697815,0.9996427297592163,3.720026370501728e-06,1.9949384295614436e-06,-0.026727475225925446,0.15203486382961273,0.3205884099006653,-0.00010651144111761823,-0.006065312772989273,0.005036392714828253,-9.21575927734375,-0.37512320280075073,0.7174527645111084,0.4243452548980713,0.36375439167022705,0.39008015394210815,-0.13723711669445038,0.3735586702823639,0.6433749794960022,0.42000001668930054,-0.6067545413970947,2.9999897480010986,-0.7304918169975281,-2.9999990463256836,-0.13953788578510284,-0.15120448172092438,-0.1619269996881485,-0.17142608761787415,-0.2255340814590454,-0.24041122198104858,-0.23577053844928741,-0.2076958566904068
0.35,0.03482251241803169,0.10692276805639267,0.0,0.9083616137504578,0.0,0.0,-0.4181855320930481,-0.7599135637283325,-0.5848058462142944,0.0,0.0,0.0,1.7685952186584473,-0.36451706290245056,0.7200552821159363,0.4200007915496826,0.9925779700279236,2.7157650492881658e-06,-7.397239824058488e-05,-0.12160931527614594,0.3008628189563751,0.4871614873409271,-0.0002115780080202967,-0.012341146357357502,0.022133618593215942,-12.567713737487793,-0.3683911859989166,0.725183367729187,0.4220256209373474,0.49297651648521423,0.5467251539230347,-0.11956324428319931,0.3735586702823639,0.6433749794960022,0.42000001668930054,-0.5567495226860046,2.9992830753326416,-0.7805246710777283,-2.9994912147521973,-0.1456594467163086,-0.15662133693695068,-0.16633278131484985,-0.17448262870311737,-0.42527154088020325,-0.34708237648010254,-0.2519743740558624,-0.13930191099643707
0.36666666666666664,0.02065460756421089,0.09552601724863052,0.0,0.90468430519104,0.0,0.0,-0.42608246207237244,-0.8913226127624512,-0.7242864370346069,0.0,0.0,0.0,-1.9999274015426636,-0.35802221298217773,0.7294056415557861,0.420003205537796,0.9788417220115662,2.8467942684073932e-05,9.64538412517868e-05,-0.20461876690387726,0.5069716572761536,0.6626338958740234,-0.0028826482594013214,-0.04027101770043373,-0.1361992359161377,-3.724891424179077,-0.35848289728164673,0.7330225110054016,0.4206249713897705,0.7265501618385315,0.4959598183631897,-0.07073887437582016,0.3735586702823639,0.6433749794960022,0.42000001668930054,-0.5067446827888489,2.9999940395355225,-0.8305707573890686,-2.99999737739563,-0.15367169678211212,-0.16283421218395233,-0.17043794691562653,-0.17618241906166077,-0.4883633553981781,-0.3589198589324951,-0.2117919623851776,-0.0485200360417366
0.3833333333333333,0.009292884729802608,0.08134648203849792,0.0,0.8882298469543457,0.0,0.0,-0.4593993127346039,-0.6066280007362366,-0.9033066630363464,0.0,0.0,0.0,-5.315639495849609,-0.34608644247055054,0.7431964874267578,0.4201039969921112,0.972297191619873,0.0010346460621804,-0.0015334357740357518,-0.23374080657958984,0.9684137105941772,1.0423427820205688,0.028592988848686218,-1.5852208137512207,-1.6774556636810303,-4.758600234985352,-0.34426355361938477,0.7438364028930664,0.4207231104373932,1.0528454780578613,0.8603475093841553,0.07362963259220123,0.3735586702823639,0.6433749794960022,0.42000001668930054,-0.4567391276359558,2.999997138977051,-0.8806241154670715,-2.999929189682007,-0.1614847034215927,-0.16822880506515503,-0.17305776476860046,-0.1757119596004486,-0.4221276640892029,-0.26802584528923035,-0.09159737080335617,0.10417941212654114
0.4,-0.0002781848015729338,0.06453225016593933,0.0,0.8566704988479614,0.0,0.0,-0.5158639550209045,-0.5422652959823608,-1.0583866834640503,0.0,0.0,0.0,-8.620144844055176,-0.3167133033275604,0.7660302519798279,0.42247942090034485,0.958736002445221,-0.008552785962820053,-0.02523043006658554,-0.2830466628074646,2.7926015853881836,1.7043877840042114,0.18703141808509827,32.23622512817383,-17.375431060791016,7.044628620147705,-0.31472957134246826,0.7652747631072998,0.4236752986907959,2.651864528656006,1.7417559623718262,0.4154425859451294,0.3735586702823639,0.6433749794960022,0.42000001668930054,-0.40893006324768066,2.170358657836914,-0.9306554794311523,-3.0,-0.17042025923728943,-0.1739584356546402,-0.17524994909763336,-0.17411161959171295,-0.5969249606132507,-0.37259167432785034,-0.1323101669549942,0.11808862537145615
0.4166666666666667,-0.007642857730388641,0.053290050476789474,0.0,0.8072397112846375,0.0,0.0,-0.5902237296104431,-0.3885968327522278,-0.5428145527839661,0.0,0.0,0.0,-11.513326644897461,-0.2461206316947937,0.7989360094070435,0.42841410636901855,0.9358165264129639,0.05452703684568405,-0.06794088333845139,-0.3415527045726776,5.86885404586792,1.6968704462051392,0.4999084770679474,14.94742202758789,-14.372831344604492,23.3075008392334,-0.24423938989639282,0.7979415655136108,0.42997241020202637,5.438017845153809,2.324519634246826,0.5149670243263245,0.3735586702823639,0.6433749794960022,0.42000001668930054,-0.38311001658439636,1.1663496494293213,-0.8933954238891602,2.9973161220550537,-0.1862630546092987,-0.18687093257904053,-0.18271487951278687,-0.17634007334709167,-0.9235859513282776,-0.8871231079101562,-0.559055745601654,-0.255079060792923
0.43333333333333335,-0.011812979355454445,0.0452292375266552,0.0,0.7678930759429932,0.0,0.0,-0.640578031539917,-0.1809590756893158,-0.42297497391700745,0.0,0.0,0.0,-6.471511363983154,-0.15686170756816864,0.8325116038322449,0.4389891028404236,0.9023483991622925,0.08733497560024261,-0.08765552192926407,-0.41286352276802063,5.631211757659912,1.3411389589309692,0.7290266752243042,6.7683610916137695,-10.329054832458496,6.2537689208984375,-0.154872864484787,0.8319807648658752,0.4403432011604309,5.446417808532715,1.7301890850067139,0.7394475936889648,0.3735586702823639,0.6433749794960022,0.42000001668930054,-0.3645387589931488,1.1924296617507935,-0.9196410179138184,-3.0000014305114746,-0.19783048331737518,-0.1991182118654251,-0.19170770049095154,-0.1811591237783432,-0.6561442017555237,-0.6687575578689575,-0.5043256282806396,-0.2951076030731201
0.45,-0.01805218867957592,0.03270416334271431,0.0,0.748781681060791,0.0,0.0,-0.6628167033195496,-0.3101601004600525,-0.6476163268089294,0.0,0.0,0.0,-2.2930617332458496,-0.06384319067001343,0.8525134921073914,0.45174941420555115,0.8453329801559448,0.10044947266578674,-0.0845598578453064,-0.5178528428077698,5.7296319007873535,0.025626301765441895,0.7114323973655701,0.08344598859548569,-1.7459717988967896,2.970729112625122,-0.06370445340871811,0.8520411252975464,0.45188286900520325,5.656632423400879,0.4813009202480316,0.7820407748222351,0.3735586702823639,0.6433749794960022,0.42000001668930054,-0.3418366312980652,1.4354218244552612,-0.969664990901947,-3.000002384185791,-0.20698846876621246,-0.20712226629257202,-0.1963718682527542,-0.18196918070316315,-0.8943253755569458,-0.6814019083976746,-0.38100382685661316,-0.06853242963552475
0.4666666666666667,-0.025058535858988762,0.02188071794807911,0.0,0.7216336727142334,0.0,0.0,-0.6922751069068909,-0.4531158208847046,-0.6964185237884521,0.0,0.0,0.0,-5.730588436126709,0.028701387345790863,0.8490378260612488,0.4606678783893585,0.8034856915473938,0.08337555825710297,-0.07481393218040466,-0.5846896767616272,5.454464912414551,-1.497314453125,0.35879257321357727,-8.190269470214844,-15.193269729614258,21.460474014282227,0.029370706528425217,0.8490424156188965,0.4612811207771301,5.6163225173950195,-0.7536388039588928,0.5464194416999817,0.3735586702823639,0.6433749794960022,0.42000001668930054,-0.3222983479499817,0.8759162425994873,-1.0196882486343384,-3.000004768371582,-0.2225961536169052,-0.21860288083553314,-0.20228804647922516,-0.18232126533985138,-0.8711586594581604,-0.5896530151367188,-0.25478777289390564,0.07252895087003708
0.48333333333333334,-0.029546476900577545,0.013928459025919437,0.0,0.7076221108436584,0.0,0.0,-0.7065910696983337,-0.22835448384284973,-0.42017972469329834,0.0,0.0,0.0,-1.1819456815719604,0.11611354351043701,0.8297100067138672,0.4657585024833679,0.7331467270851135,0.04461855813860893,-0.07303212583065033,-0.674663782119751,4.604445457458496,-2.1403372287750244,0.13266140222549438,-12.148504257202148,-10.395620346069336,16.737947463989258,0.11529649794101715,0.8302165865898132,0.46706724166870117,4.9087677001953125,-1.4370331764221191,0.28781628608703613,0.3735586702823639,0.6433749794960022,0.42000001668930054,-0.30698180198669434,0.7382287383079529,-1.069710373878479,-3.000002145767212,-0.2345101535320282,-0.22794578969478607,-0.20678913593292236,-0.18228679895401,-0.5371072888374329,-0.4054662585258484,-0.1839084029197693,0.01390357781201601
0.5,-0.03077397309243679,0.0027426322922110558,0.0,0.6854381561279297,0.0,0.0,-0.7281308174133301,-0.04719245433807373,-0.7020048499107361,0.0,0.0,0.0,-4.566314220428467,0.18988767266273499,0.8030758500099182,0.46465668082237244,0.70130455493927,0.018802348524332047,-0.060478925704956055,-0.7100426554679871,3.790647268295288,-2.3210854530334473,-0.19246220588684082,-6.84952974319458,-0.45809808373451233,12.470527648925781,0.18934175372123718,0.8034090399742126,0.46674150228500366,4.117131233215332,-1.915470004081726,-0.1478552669286728,0.3735586702823639,0.6433749794960022,0.42000001668930054,-0.2944088578224182,0.7555487155914307,-1.1197324991226196,-3.000001907348633,-0.23897680640220642,-0.23057615756988525,-0.20685172080993652,-0.180223286151886,-0.24228021502494812,-0.10820334404706955,0.02582740969955921,0.1254783421754837
0.5166666666666666,-0.029279721900820732,-0.0037928393576294184,0.0,0.6761285066604614,0.0,0.0,-0.7367836833000183,0.1247287392616272,-0.3138241469860077,0.0,0.0,0.0,-0.5293786525726318,0.2500151991844177,0.7676529288291931,0.4583280682563782,0.6640060544013977,-0.03675878420472145,-0.05292190611362457,-0.7449455857276917,2.984055995941162,-2.7681925296783447,-0.460812509059906,-4.779910564422607,-5.331318378448486,19.618122100830078,0.24993836879730225,0.768843412399292,0.46172472834587097,3.3157787322998047,-2.1536614894866943,-0.4116968512535095,0.3735586702823639,0.6433749794960022,0.42000001668930054,-0.2773978114128113,0.8132503628730774,-1.1697546243667603,-3.00000262260437,-0.2398863434791565,-0.233839213848114,-0.20829656720161438,-0.1805190145969391,0.015726376324892044,-0.058185141533613205,-0.01652688719332218,-0.013178406283259392
0.5333333333333333,-0.025655094534158707,-0.006414190866053104,0.0,0.6586628556251526,0.0,0.0,-0.7524381875991821,0.2930110692977905,-0.08737362921237946,0.0,0.0,0.0,-3.705476760864258,0.29836970567703247,0.7336021661758423,0.44554027915000916,0.6406944990158081,-0.07272516191005707,-0.029926534742116928,-0.7637577056884766,2.244065999984741,-2.542295217514038,-0.9588960409164429,-5.4363694190979,-0.8979321718215942,20.7143611907959,0.29840198159217834,0.7343063354492188,0.44933193922042847,2.5986900329589844,-2.0279409885406494,-0.8634462356567383,0.3735586702823639,0.6433749794960022,0.42000001668930054,-0.26409977674484253,0.5652567744255066,-1.2197767496109009,-3.0000011920928955,-0.23699599504470825,-0.2327134609222412,-0.2079375684261322,-0.18142060935497284,0.2651430666446686,0.1581428349018097,0.058142658323049545,-0.0690513476729393
0.55,-0.024237262085080147,-0.013352375477552414,0.0,0.6538298726081848,0.0,0.0,-0.7566415667533875,-0.028171740472316742,-0.6314927339553833,0.0,0.0,0.0,0.16184310615062714,0.33512747287750244,0.7013683319091797,0.42778506875038147,0.6092265248298645,-0.1290893405675888,-0.024797966703772545,-0.7820255160331726,1.6089028120040894,-2.0374302864074707,-1.0690853595733643,-1.6943223476409912,2.027848243713379,7.625448703765869,0.33477193117141724,0.7017937898635864,0.43286222219467163,1.8461743593215942,-1.8577494621276855,-1.0428593158721924,0.3735586702823639,0.6433749794960022,0.42000001668930054,-0.2525167167186737,0.7967646718025208,-1.2388274669647217,0.4271647036075592,-0.2264735847711563,-0.22446760535240173,-0.2026204764842987,-0.1794254034757614,0.8504974842071533,0.702221155166626,0.47492069005966187,0.22562222182750702
0.5666666666666667,-0.019822057336568832,-0.017498701810836792,0.0,0.6386670470237732,0.0,0.0,-0.769483208656311,0.23983871936798096,-0.21093764901161194,0.0,0.0,0.0,-3.0607523918151855,0.3569813668727875,0.6792852282524109,0.4238727390766144,0.6091163754463196,-0.07215510308742523,0.0034830181393772364,-0.7897838950157166,0.6641137003898621,-1.4396166801452637,0.08386193960905075,3.261996269226074,5.9143967628479,21.960124969482422,0.3556338846683502,0.6782949566841125,0.42741620540618896,1.1549829244613647,-1.0836563110351562,-0.11114782094955444,0.3735586702823639,0.6433749794960022,0.42000001668930054,-0.23602929711341858,0.8299553990364075,-1.1906611919403076,2.9996373653411865,-0.21778948605060577,-0.21754522621631622,-0.19924676418304443,-0.17992228269577026,0.6352084279060364,0.49293988943099976,0.22641004621982574,-0.04948466271162033
0.5833333333333334,-0.014422976411879063,-0.01810567080974579,0.0,0.6387447118759155,0.0,0.0,-0.7694187164306641,0.3625468313694,0.03662503883242607,0.0,0.0,0.0,0.8637480735778809,0.37155482172966003,0.6662358045578003,0.4239705204963684,0.5637810826301575,-0.07202618569135666,0.022951213642954826,-0.8224574327468872,0.7963072061538696,-0.607319712638855,-0.09930399060249329,0.21056921780109406,-4.662519931793213,-12.171719551086426,0.36773115396499634,0.663063645362854,0.42789214849472046,0.442749947309494,-0.781967282295227,0.07776644080877304,0.3735586702823639,0.6433749794960022,0.42000001668930054,-0.21909312903881073,1.0827174186706543,-1.2120003700256348,-3.000666379928589,-0.20757754147052765,-0.20960819721221924,-0.19587506353855133,-0.18117687106132507,0.6116938591003418,0.484028697013855,0.20617826282978058,-0.07314818352460861
0.6,-0.007054496090859175,-0.022428279742598534,0.0,0.6272591352462769,0.0,0.0,-0.7788106203079224,0.44383931159973145,-0.2911115884780884,0.0,0.0,0.0,-2.6530380249023438,0.3771421015262604,0.658086895942688,0.4230932295322418,0.5865843296051025,-0.05287763476371765,0.032710954546928406,-0.8074977993965149,0.18706369400024414,-0.5850131511688232,-0.17823287844657898,0.6065524816513062,-7.557545185089111,17.942859649658203,0.3736322522163391,0.654353678226471,0.4263758957386017,0.1259351670742035,-0.371624231338501,-0.08855080604553223,0.3735586702823639,0.6433749794960022,0.42000001668930054,-0.21043837070465088,-0.18125878274440765,-1.1740307807922363,2.9928970336914062,-0.1941293627023697,-0.19869937002658844,-0.19007784128189087,-0.18041673302650452,0.7311913967132568,0.6126474142074585,0.3330672085285187,0.056291189044713974
0.6166666666666667,-0.0022161868400871754,-0.022802377119660378,0.0,0.6288138031959534,0.0,0.0,-0.7775558829307556,0.22432702779769897,-0.016496820375323296,0.0,0.0,0.0,1.0854873657226562,0.37801846861839294,0.6495815515518188,0.42083853483200073,0.6164366006851196,-0.012024796567857265,0.014897650107741356,-0.7871717810630798,-0.008010294288396835,-0.5013660192489624,-0.2005324363708496,-2.964473009109497,-10.927042961120605,1.450697660446167,0.3746744394302368,0.6473749876022339,0.42732763290405273,0.030507702380418777,-0.2949252128601074,0.11531303822994232,0.3735586702823639,0.6433749794960022,0.42000001668930054,-0.2515869438648224,-2.9999969005584717,-1.1955981254577637,-2.9997355937957764,-0.1869857758283615,-0.19236573576927185,-0.187270388007164,-0.18114539980888367,0.47467365860939026,0.42102983593940735,0.20857562124729156,1.8035763105217484e-07
0.6333333333333333,0.003917013760656118,-0.019786037504673004,0.0,0.6268220543861389,0.0,0.0,-0.7791624665260315,0.35591816902160645,0.20746444165706635,0.0,0.0,0.0,-0.9769930243492126,0.3783361315727234,0.6440495252609253,0.42001256346702576,0.617561936378479,-0.00018961548630613834,0.0002463760902173817,-0.7865221500396729,0.0805274248123169,-0.2356468290090561,0.007060428615659475,0.07459476590156555,0.356134295463562,-0.6864005923271179,0.37490150332450867,0.6462252736091614,0.429279088973999,0.058780234307050705,0.11291301250457764,0.13648004829883575,0.3735586702823639,0.6433749794960022,0.42000001668930054,-0.2910170257091522,-1.8130004405975342,-1.2455593347549438,-2.99888277053833,-0.1799364686012268,-0.1862863153219223,-0.1846209019422531,-0.18176694214344025,0.5419086217880249,0.45875978469848633,0.23844635486602783,0.032347094267606735
0.65,0.011280287988483906,-0.021567413583397865,0.0,0.6383448839187622,0.0,0.0,-0.7697504758834839,0.4304882287979126,-0.1266823709011078,0.0,0.0,0.0,2.5986056327819824,0.3776121735572815,0.6423474550247192,0.4200597107410431,0.6350516080856323,0.0007682637660764158,-0.0013052315916866064,-0.7724682688713074,-0.1327102780342102,-0.02056737057864666,0.005220496561378241,-0.10813558101654053,-0.27819642424583435,0.3030100166797638,0.3744494915008545,0.6484003067016602,0.43212786316871643,-0.15547391772270203,0.11582547426223755,0.19836318492889404,0.3735586702823639,0.6433749794960022,0.42000001668930054,-0.33917927742004395,-2.9999992847442627,-1.2955478429794312,-2.999460220336914,-0.16818660497665405,-0.17600058019161224,-0.1779509037733078,-0.1784883290529251,0.5936132669448853,0.548755407333374,0.379456490278244,0.21777202188968658
0.6666666666666666,0.020383307710289955,-0.023856205865740776,0.0,0.6367525458335876,0.0,0.0,-0.7710682153701782,0.5783364772796631,-0.21146753430366516,0.0,0.0,0.0,-1.247625708580017,0.37632712721824646,0.6421296000480652,0.42000043392181396,0.636425256729126,-5.132207206770545e-06,1.1413006177463103e-05,-0.7713383436203003,-0.05497955530881882,-0.009010796435177326,-0.0008267943048849702,-0.00978434644639492,-0.039613813161849976,0.1521548479795456,0.3741198778152466,0.649837076663971,0.4361337125301361,0.0024393796920776367,0.08600075542926788,0.2735765874385834,0.3735586702823639,0.6433749794960022,0.42000001668930054,-0.3891620337963104,-3.0002946853637695,-1.3455164432525635,-2.999640703201294,-0.16098074615001678,-0.16874395310878754,-0.17248284816741943,-0.17465989291667938,0.3849867582321167,0.41644230484962463,0.3499578833580017,0.2930698096752167
0.6833333333333333,0.03133394569158554,-0.029617439955472946,0.0,0.6189724206924438,0.0,0.0,-0.7854127287864685,0.6895189881324768,-0.42944931983947754,0.0,0.0,0.0,-3.491178035736084,0.37618181109428406,0.6421060562133789,0.4200000464916229,0.6365973353385925,1.7204338291776367e-05,-9.283830877393484e-06,-0.7711963057518005,0.0017934757051989436,6.859574205009267e-05,-0.0006939693121239543,-0.007855989038944244,0.010003430768847466,-0.005056963302195072,0.37567073106765747,0.6509826183319092,0.44524359703063965,0.2296539843082428,0.03754957392811775,0.9224439263343811,0.3735586702823639,0.6433749794960022,0.42000001668930054,-0.4391748309135437,-2.999969005584717,-1.395534873008728,-2.9999990463256836,-0.15745051205158234,-0.16414952278137207,-0.1682286113500595,-0.17057344317436218,0.1242869421839714,0.20869554579257965,0.22094041109085083,0.2438935786485672
0.7,0.045510515570640564,-0.03105371817946434,0.0,0.6141509413719177,0.0,0.0,-0.7891885638237,0.8275660276412964,-0.11108745634555817,0.0,0.0,0.0,0.3542584776878357,0.3761838376522064,0.6421065330505371,0.42000001668930054,0.6365958452224731,-2.2424262624554103e-06,-4.826637905352982e-06,-0.7711975574493408,0.00010759924771264195,-0.0003704848058987409,-0.00010456843301653862,0.007989618927240372,-0.0019995830953121185,-0.00034540920751169324,0.38112586736679077,0.6537506580352783,0.46876055002212524,0.550820529460907,0.3750044107437134,1.8493216037750244,0.3735586702823639,0.6433749794960022,0.42000001668930054,-0.48918765783309937,-2.9999988079071045,-1.445553183555603,-3.0,-0.1602996587753296,-0.1650501787662506,-0.1682041883468628,-0.16947677731513977,9.313225746154785e-08,0.05481697618961334,0.06507815420627594,0.09245157986879349
0.7166666666666667,0.055958185344934464,-0.03158477321267128,0.0,0.6337162852287292,0.0,0.0,-0.7735655307769775,0.5616035461425781,0.040825460106134415,0.0,0.0,0.0,3.827634334564209,0.3761838376522064,0.6421065330505371,0.42000001668930054,0.6365958452224731,-2.024726427407586e-06,-4.637645815819269e-06,-0.7711976170539856,0.00011818107304861769,-0.0003693666949402541,-0.00010059820488095284,0.008003538474440575,-0.0018446260364726186,-0.00036733431625179946,0.39394718408584595,0.6582684516906738,0.49619707465171814,0.8843249082565308,0.1703779399394989,1.5234508514404297,0.3735586702823639,0.6433749794960022,0.42000001668930054,-0.5391958355903625,-2.9999985694885254,-1.495571494102478,-3.0000007152557373,-0.15953676402568817,-0.1630764901638031,-0.1655387133359909,-0.16580665111541748,0.05253066122531891,0.14728853106498718,0.22057317197322845,0.31182512640953064
0.7333333333333333,0.06509888172149658,-0.035605207085609436,0.0,0.6401029229164124,0.0,0.0,-0.7682892084121704,0.5158148407936096,-0.19005413353443146,0.0,0.0,0.0,-0.03868285194039345,0.3761838376522064,0.6421065330505371,0.42000001668930054,0.6365954875946045,-1.9682593119796365e-06,-4.458013791008852e-06,-0.7711978554725647,0.00011879567318828776,-0.0003702646936289966,-0.0001006114762276411,0.008027680218219757,-0.0018411974888294935,-0.000368696782970801,0.4082580804824829,0.659888744354248,0.5160446763038635,0.730536699295044,-0.09837384521961212,0.9815446734428406,0.3735586702823639,0.6433749794960022,0.42000001668930054,-0.5892041921615601,-2.9999961853027344,-1.545589804649353,-3.000000238418579,-0.15589077770709991,-0.1581651270389557,-0.1596849113702774,-0.15882466733455658,0.012283277697861195,0.13320079445838928,0.23292158544063568,0.3324342668056488
0.75,0.07520130276679993,-0.0402836799621582,0.0,0.6235888004302979,0.0,0.0,-0.7817525267601013,0.6302595734596252,-0.4095642566680908,0.0,0.0,0.0,-3.3898558616638184,0.3761838376522064,0.6421065330505371,0.42000001668930054,0.6365954279899597,-1.9870774394803448e-06,-4.429080490808701e-06,-0.7711979746818542,0.00011951165652135387,-0.0003701395762618631,-0.0001003702636808157,0.008025877177715302,-0.0018302581738680601,-0.00037019955925643444,0.4232347011566162,0.6572809219360352,0.5316905379295349,1.0557637214660645,-0.24576765298843384,1.038393259048462,0.3735586702823639,0.6433749794960022,0.42000001668930054,-0.6392053365707397,-2.999995231628418,-1.5956077575683594,-3.0,-0.15717679262161255,-0.1573282778263092,-0.157003253698349,-0.15435844659805298,-0.06178109720349312,0.06174468994140625,0.17249414324760437,0.27698078751564026
0.7666666666666666,0.08818218857049942,-0.041591331362724304,0.0,0.6202223300933838,0.0,0.0,-0.7844260931015015,0.7702957391738892,-0.07571829110383987,0.0,0.0,0.0,0.41356149315834045,0.3761838376522064,0.6421065330505371,0.42000001668930054,0.6365953087806702,-1.955697371158749e-06,-4.586657723848475e-06,-0.771198034286499,0.00011934658687096089,-0.00037009589141234756,-0.00010041054338216782,0.00802428089082241,-0.0018317501526325941,-0.00036981338053010404,0.4378319978713989,0.655565083026886,0.5515804290771484,0.8283089399337769,0.12682759761810303,1.3263887166976929,0.3735586702823639,0.6433749794960022,0.42000001668930054,-0.6568013429641724,0.5931426882743835,-1.6456222534179688,-2.999999761581421,-0.16103649139404297,-0.1591479629278183,-0.1570335477590561,-0.15284095704555511,-0.025549747049808502,0.020390134304761887,0.05697526037693024,0.08114015311002731
0.7833333333333333,0.09775176644325256,-0.04163125529885292,0.0,0.6399504542350769,0.0,0.0,-0.768416166305542,0.5146557092666626,0.0855991318821907,0.0,0.0,0.0,3.8599352836608887,0.3761838376522064,0.6421065330505371,0.42000001668930054,0.6365958452224731,-2.0302973098296206e-06,-4.6155746531439945e-06,-0.771197497844696,0.00011747108510462567,-0.00036895813536830246,-0.00010072393342852592,0.00799147691577673,-0.0018513669492676854,-0.00036584105691872537,0.45009154081344604,0.6575229167938232,0.5698192119598389,0.6129461526870728,0.11407146602869034,0.9285652041435242,0.3735586702823639,0.6433749794960022,0.42000001668930054,-0.6383151412010193,1.5282105207443237,-1.606480598449707,2.9999992847442627,-0.15956208109855652,-0.15731383860111237,-0.15494820475578308,-0.15072916448116302,0.11392225325107574,0.12552182376384735,0.13128943741321564,0.12104568630456924
0.8,0.10279830545186996,-0.045164722949266434,0.0,0.6463329195976257,0.0,0.0,-0.7630555033683777,0.2628591060638428,-0.2235957682132721,0.0,0.0,0.0,-0.03638649359345436,0.3761838376522064,0.6421065330505371,0.42000001668930054,0.6365955471992493,-1.9279978005215526e-06,-4.621786047209753e-06,-0.7711978554725647,0.00011862893006764352,-0.00037021838943473995,-0.00010064756497740746,0.008025969378650188,-0.001842644764110446,-0.0003683104587253183,0.45467156171798706,0.6606641411781311,0.5805759429931641,-0.09224166721105576,0.10490018129348755,0.4878190755844116,0.3735586702823639,0.6433749794960022,0.42000001668930054,-0.6367497444152832,-1.111133098602295,-1.5564241409301758,3.000000238418579,-0.15461936593055725,-0.15270645916461945,-0.15073929727077484,-0.14718274772167206,0.1569754034280777,0.16307778656482697,0.1628786325454712,0.14179885387420654
0.8166666666666667,0.10497492551803589,-0.04400011897087097,0.0,0.6624569892883301,0.0,0.0,-0.7490999698638916,0.09487460553646088,0.10577943921089172,0.0,0.0,0.0,3.3215577602386475,0.3761838376522064,0.6421065330505371,0.42000001668930054,0.6365954875946045,-1.9102437818219187e-06,-4.633267053577583e-06,-0.7711978554725647,0.00011685088247759268,-0.0003696868079714477,-0.00010102824307978153,0.00800900999456644,-0.001860535703599453,-0.00036435716901905835,0.45300644636154175,0.6602171659469604,0.5850770473480225,-0.029749691486358643,-0.02690887823700905,0.0899912565946579,0.3735586702823639,0.6433749794960022,0.42000001668930054,-0.6279476881027222,1.8988783359527588,-1.50639808177948,2.999999761581421,-0.15529608726501465,-0.15262927114963531,-0.15001589059829712,-0.14620441198349,0.028813548386096954,0.05668796971440315,0.08197838068008423,0.08715119957923889
0.8333333333333334,0.10422255098819733,-0.04632424935698509,0.0,0.6650046110153198,0.0,0.0,-0.7468392848968506,-0.09610629081726074,-0.11667250096797943,0.0,0.0,0.0,-0.4602642357349396,0.3761838376522064,0.6421065330505371,0.42000001668930054,0.6365954279899597,-1.9520164187269984e-06,-4.4598000386031345e-06,-0.7711978554725647,0.00011869941954500973,-0.00037022592732682824,-0.00010062335059046745,0.00802635308355093,-0.0018414788646623492,-0.0003684402909129858,0.4478258490562439,0.6616011261940002,0.5843565464019775,-0.6535617709159851,0.11182940006256104,-0.05240260809659958,0.3735586702823639,0.6433749794960022,0.42000001668930054,-0.6156893372535706,-0.25257134437561035,-1.4563416242599487,3.0,-0.1532263159751892,-0.15058961510658264,-0.14801602065563202,-0.14454136788845062,-0.010332371108233929,0.0022034847643226385,0.012783815152943134,0.0038206635508686304
0.85,0.1037510558962822,-0.0446820929646492,0.0,0.677475094795227,0.0,0.0,-0.7355457544326782,0.01522725448012352,0.1270216554403305,0.0,0.0,0.0,2.661501884460449,0.3761838376522064,0.6421065330505371,0.42000001668930054,0.6365953683853149,-1.9248111584602157e-06,-4.461980552150635e-06,-0.7711979150772095,0.00011817031190730631,-0.00037002330645918846,-0.00010074255988001823,0.00801991019397974,-0.0018468685448169708,-0.00036726819234900177,0.4404035210609436,0.6625869274139404,0.5837259292602539,-0.20810489356517792,0.1046953946352005,0.01634705811738968,0.3735586702823639,0.6433749794960022,0.42000001668930054,-0.595723032951355,2.4016408920288086,-1.4063347578048706,3.0,-0.154252827167511,-0.15137043595314026,-0.14846444129943848,-0.14486534893512726,0.02734305150806904,0.01816033385694027,0.021760694682598114,0.021194277331233025
0.8666666666666667,0.10185355693101883,-0.04637927934527397,0.0,0.6763893365859985,0.0,0.0,-0.7365442514419556,-0.14725103974342346,-0.11750767379999161,0.0,0.0,0.0,-1.0795856714248657,0.3761838376522064,0.6421064734458923,0.42000001668930054,0.6365954279899597,-1.948264298334834e-06,-4.447580522537464e-06,-0.7711979746818542,0.0001186779627460055,-0.0003703451657202095,-0.00010067201219499111,0.00802885927259922,-0.0018424970330670476,-0.00036841799737885594,0.437021940946579,0.6644884347915649,0.5841652154922485,-0.2713490426540375,0.04312751442193985,0.16251002252101898,0.3735586702823639,0.6433749794960022,0.42000001668930054,-0.5949795246124268,-1.9370546340942383,-1.356282114982605,2.999999523162842,-0.1531062126159668,-0.1506262719631195,-0.14788725972175598,-0.14448106288909912,-0.04485727474093437,-0.05141286924481392,-0.045507702976465225,-0.042106710374355316
0.8833333333333333,0.10182538628578186,-0.04439697787165642,0.0,0.6851959228515625,0.0,0.0,-0.7283587455749512,0.04946126043796539,0.15224145352840424,0.0,0.0,0.0,2.137840747833252,0.3761838376522064,0.6421065330505371,0.42000001668930054,0.6365956664085388,-2.1166831629670924e-06,-4.362086656328756e-06,-0.7711976766586304,0.00011654793343041092,-0.00036955345422029495,-0.00010119681246578693,0.008001898415386677,-0.0018662193324416876,-0.000363854254828766,0.43629711866378784,0.6637247800827026,0.5856012105941772,0.2183847874403,-0.04844113066792488,0.06859415769577026,0.3735586702823639,0.6433749794960022,0.42000001668930054,-0.5991997122764587,1.1657909154891968,-1.3751826286315918,-2.999999761581421,-0.15516294538974762,-0.15247394144535065,-0.14925961196422577,-0.14535005390644073,-0.041795387864112854,-0.03988473489880562,-0.017593488097190857,0.011728186160326004
