vladlanda/robotic-transformer/data/env_000_episode_0296.csv
sim_time_s,robot_box_x,robot_box_y,robot_box_z,robot_box_quat_w,robot_box_quat_x,robot_box_quat_y,robot_box_quat_z,robot_box_linvel_x,robot_box_linvel_y,robot_box_linvel_z,robot_box_angvel_x,robot_box_angvel_y,robot_box_angvel_z,cube_world_x,cube_world_y,cube_world_z,cube_quat_w,cube_quat_x,cube_quat_y,cube_quat_z,cube_linvel_x,cube_linvel_y,cube_linvel_z,cube_angvel_x,cube_angvel_y,cube_angvel_z,endpoint_world_x,endpoint_world_y,endpoint_world_z,endpoint_linvel_x,endpoint_linvel_y,endpoint_linvel_z,target_cube_world_x,target_cube_world_y,target_cube_world_z,gripper_actual_pos_rad_gp_leftgearjoint,gripper_actual_vel_rad_s_gp_leftgearjoint,gripper_actual_pos_rad_gp_rotatingjoint,gripper_actual_vel_rad_s_gp_rotatingjoint,motor_angle_rad_joint1,motor_angle_rad_joint2,motor_angle_rad_joint3,motor_angle_rad_joint4,motor_speed_rad_s_joint1,motor_speed_rad_s_joint2,motor_speed_rad_s_joint3,motor_speed_rad_s_joint4
0.0,0.0,0.0,0.0,1.0,0.0,0.0,0.0,0.0,0.0,0.0,0.0,0.0,0.0,-0.4792670011520386,0.6775286197662354,0.41999998688697815,1.0,0.0,0.0,0.0,0.0,0.0,0.0,0.0,0.0,0.0,3.42540442943573e-06,-0.005000244826078415,1.313499927520752,0.0,0.0,0.0,0.40336844325065613,0.7291706204414368,0.42000001668930054,-1.5707999467849731,0.0,0.0,0.0,0.0,0.0,0.0,0.0,0.0,0.0,0.0,0.0
0.016666666666666666,0.0028778850100934505,0.0021806680597364902,0.0,0.9998081922531128,0.0,0.0,0.019586581736803055,0.24087215960025787,0.18240931630134583,0.0,0.0,0.0,3.1418697834014893,-0.4792671203613281,0.6775283217430115,0.41999998688697815,1.0,3.2799832752061775e-06,-8.339598593920527e-07,8.465660528145236e-08,-1.9833856640616432e-05,0.00017983021098189056,-6.132945418357849e-05,0.0009432561928406358,-0.004689492750912905,-0.0003198107879143208,-0.007110234349966049,0.003379564033821225,1.3159373998641968,-0.8143353462219238,0.9868683815002441,0.18095196783542633,0.40336844325065613,0.7291706204414368,0.42000001668930054,-1.5301095247268677,3.0000011920928955,-0.04584788903594017,-2.9999992847442627,0.0008691533003002405,0.0007963840034790337,0.0007110277656465769,0.0006108740926720202,0.11094217747449875,0.09756709635257721,0.08334315568208694,0.06823883205652237
0.03333333333333333,0.008963856846094131,0.006817430257797241,0.0,0.9997933506965637,0.0,0.0,0.020329397171735764,0.4072192907333374,0.31543925404548645,0.0,0.0,0.0,-0.8736149668693542,-0.4792672395706177,0.6775282621383667,0.4200000464916229,1.0,3.3908236218849197e-06,-2.1324740373529494e-06,-3.7087911408661967e-08,0.0002635786950122565,0.00026937879738397896,-0.00010509719140827656,-0.0017707741353660822,0.004130927845835686,-0.00013548358401749283,-0.02755034901201725,0.02591300755739212,1.3166401386260986,-1.5914673805236816,1.6098734140396118,-0.07988230884075165,0.40336844325065613,0.7291706204414368,0.42000001668930054,-1.4800904989242554,3.0000009536743164,-0.09588771313428879,-3.0000007152557373,0.0029905925039201975,0.002653287723660469,0.0022779342252761126,0.0018614563159644604,0.16428516805171967,0.13982875645160675,0.11388678848743439,0.08636755496263504
0.05,0.017763681709766388,0.013790879398584366,0.0,0.9993710517883301,0.0,0.0,0.03546087071299553,0.5940449237823486,0.46529272198677063,0.0,0.0,0.0,2.6439247131347656,-0.47926726937294006,0.6775283217430115,0.4200000464916229,1.0,3.7651166167051997e-06,-2.2119024833955336e-06,5.637348365894468e-09,0.0002653102274052799,0.00026691530365496874,-0.0001044049859046936,-0.0017243424663320184,0.004177475813776255,-0.00012949523807037622,-0.059691671282052994,0.05372614413499832,1.3117002248764038,-2.1879959106445312,1.7611968517303467,-0.47458505630493164,0.40336844325065613,0.7291706204414368,0.42000001668930054,-1.4300721883773804,3.000001907348633,-0.1459263563156128,-2.999999523162842,0.005712942220270634,0.004920770414173603,0.004056446719914675,0.003115537576377392,0.19276383519172668,0.15586291253566742,0.11708682030439377,0.07634191960096359
0.06666666666666667,0.02908283844590187,0.02308763936161995,0.0,0.9994447231292725,0.0,0.0,0.03332023695111275,0.720615565776825,0.5953777432441711,0.0,0.0,0.0,-1.215162754058838,-0.47926726937294006,0.6775282621383667,0.4200000464916229,0.9999999403953552,3.4067338674503844e-06,-2.2856738723930903e-06,4.301002434203838e-07,0.0002670263347681612,0.0002679180761333555,-0.00010437914170324802,-0.001740648876875639,0.004211838357150555,-0.00012851078645326197,-0.09852470457553864,0.08762013167142868,1.299039363861084,-2.4728593826293945,2.1951141357421875,-1.0149173736572266,0.40336844325065613,0.7291706204414368,0.42000001668930054,-1.3800538778305054,3.000002145767212,-0.19596368074417114,-3.0,0.008363557979464531,0.0069010453298687935,0.005327617283910513,0.003636467270553112,0.1580573469400406,0.1085129976272583,0.05693959817290306,0.0032717192079871893
0.08333333333333333,0.04243087023496628,0.034753769636154175,0.0,0.9989334344863892,0.0,0.0,0.04617307335138321,0.8733803033828735,0.741966187953949,0.0,0.0,0.0,2.5289299488067627,-0.47926726937294006,0.6775282621383667,0.4200000464916229,1.0,3.6972542147850618e-06,-2.189012548114988e-06,-2.632233417898533e-07,0.0002638970036059618,0.00026586418971419334,-0.00010433932766318321,-0.0017081733094528317,0.004150197375565767,-0.0001299117284361273,-0.14319568872451782,0.12236098200082779,1.2782320976257324,-2.797366142272949,2.052183151245117,-1.4414732456207275,0.40336844325065613,0.7291706204414368,0.42000001668930054,-1.3300355672836304,3.00000262260437,-0.24598123133182526,-3.0000007152557373,0.009950526058673859,0.007656540255993605,0.005213459488004446,0.002612264594063163,0.09003061056137085,0.03249383717775345,-0.027060260996222496,-0.08859742432832718
0.1,0.05024709179997444,0.049553677439689636,0.0,0.9990683794021606,0.0,0.0,0.043155379593372345,0.33752506971359253,0.943267822265625,0.0,0.0,0.0,-1.310054898262024,-0.47926726937294006,0.6775282621383667,0.4200000464916229,0.9999999403953552,3.620308916651993e-06,-2.2652425286651123e-06,1.7463578672050062e-07,0.00026676832931116223,0.0002674081770237535,-0.0001040799543261528,-0.0017385705141350627,0.004209125880151987,-0.0001277521369047463,-0.18603909015655518,0.1624167263507843,1.2501425743103027,-2.410621166229248,2.577784538269043,-1.8346142768859863,0.40336844325065613,0.7291706204414368,0.42000001668930054,-1.2800053358078003,2.999994993209839,-0.21195225417613983,3.000002384185791,0.005343558732420206,0.002334658056497574,-0.0008722441270947456,-0.004288726486265659,-0.3951359987258911,-0.44686466455459595,-0.5009859800338745,-0.5576777458190918
0.11666666666666667,0.05429167300462723,0.06502482295036316,0.0,0.9999292492866516,0.0,0.0,0.011896418407559395,0.25727012753486633,0.9221640825271606,0.0,0.0,0.0,-4.508076190948486,-0.47926726937294006,0.6775282621383667,0.4200000464916229,1.0,3.798331817961298e-06,-2.2628737497143447e-06,-1.5019459453924355e-07,0.0002637395809870213,0.00026566043379716575,-0.00010428996756672859,-0.0017054103082045913,0.0041475603356957436,-0.0001298010174650699,-0.22495999932289124,0.20669473707675934,1.2225737571716309,-2.3333098888397217,2.6283745765686035,-1.5597779750823975,0.40336844325065613,0.7291706204414368,0.42000001668930054,-1.2300139665603638,3.000002861022949,-0.24334287643432617,-3.000000238418579,-7.657294190721586e-05,-0.004441386088728905,-0.00900321640074253,-0.013774647377431393,-0.23872458934783936,-0.3409566581249237,-0.4413098990917206,-0.5397455096244812
0.13333333333333333,0.0569692999124527,0.08255299925804138,0.0,0.9999991059303284,0.0,0.0,0.001321619376540184,0.12115693092346191,1.0940229892730713,0.0,0.0,0.0,-0.24822621047496796,-0.47926726937294006,0.6775283217430115,0.4200000464916229,0.9999999403953552,3.5504490369930863e-06,-2.2298452222457854e-06,2.929317872713e-07,0.0002670326502993703,0.00026779386098496616,-0.00010417005978524685,-0.0017441416857764125,0.004213591571897268,-0.00012799994146917015,-0.26730355620384216,0.24881917238235474,1.195575475692749,-2.507448196411133,2.6753320693969727,-1.6934714317321777,0.40336844325065613,0.7291706204414368,0.42000001668930054,-1.179993748664856,3.0,-0.2457701414823532,2.251178741455078,-0.0027467329055070877,-0.009144253097474575,-0.015669209882616997,-0.022331496700644493,-0.16383904218673706,-0.28971585631370544,-0.41062113642692566,-0.5263529419898987
0.15,0.06148466840386391,0.09778659790754318,0.0,0.9997233152389526,0.0,0.0,-0.02352125570178032,0.3316982686519623,0.8485417366027832,0.0,0.0,0.0,-3.8838577270507812,-0.47926726937294006,0.6775282621383667,0.4200000464916229,0.9999999403953552,3.338018132126308e-06,-2.242906248284271e-06,-2.799748166637528e-08,0.0002667450753506273,0.00026758169406093657,-0.00010427739471197128,-0.0017367200925946236,0.004206815734505653,-0.0001283115561818704,-0.30689728260040283,0.29745739698410034,1.166407585144043,-2.26552677154541,3.1155028343200684,-1.864163875579834,0.40336844325065613,0.7291706204414368,0.42000001668930054,-1.1319777965545654,2.7421231269836426,-0.2813226282596588,-3.000000476837158,-0.004364493768662214,-0.013023152947425842,-0.021708812564611435,-0.03042791411280632,-0.13280199468135834,-0.2597671449184418,-0.3808521330356598,-0.49589213728904724
0.16666666666666666,0.06389937549829483,0.11009390652179718,0.0,0.9970847368240356,0.0,0.0,-0.07630250602960587,0.07580772042274475,0.6897366642951965,0.0,0.0,0.0,-7.181313991546631,-0.47926726937294006,0.6775283217430115,0.4200000464916229,0.9999999403953552,3.6477504181675613e-06,-2.3073262127581984e-06,3.529927994350146e-08,0.0002672697592061013,0.00026801438070833683,-0.00010418915189802647,-0.0017472587060183287,0.004217675421386957,-0.0001279834541492164,-0.34274768829345703,0.3563174605369568,1.1282143592834473,-1.9863147735595703,3.8314571380615234,-2.618638277053833,0.40336844325065613,0.7291706204414368,0.42000001668930054,-1.094852328300476,1.7630729675292969,-0.24710649251937866,2.999999523162842,-0.010114496573805809,-0.020388836041092873,-0.03060101717710495,-0.040758758783340454,-0.46870267391204834,-0.5400572419166565,-0.6067603826522827,-0.6690258979797363
0.18333333333333332,0.06429238617420197,0.12376845628023148,0.0,0.9938176870346069,0.0,0.0,-0.111024409532547,0.005903271026909351,0.7958797812461853,0.0,0.0,0.0,-3.0068953037261963,-0.47926726937294006,0.6775282621383667,0.4200000464916229,0.9999999403953552,3.290481799922418e-06,-2.1939410999038955e-06,-2.792170334942057e-07,0.0002667806693352759,0.000267760653514415,-0.0001043418888002634,-0.0017390813445672393,0.004206993617117405,-0.00012845630408264697,-0.37938666343688965,0.415288507938385,1.077765941619873,-2.120208501815796,3.684691905975342,-3.3366637229919434,0.40336844325065613,0.7291706204414368,0.42000001668930054,-1.052504062652588,3.0000011920928955,-0.2782018482685089,-3.000000238418579,-0.020021850243210793,-0.030862029641866684,-0.04157700017094612,-0.05218419060111046,-0.5837472677230835,-0.6072975397109985,-0.6267568469047546,-0.6426235437393188
0.2,0.0632009208202362,0.13835975527763367,0.0,0.9875869154930115,0.0,0.0,-0.15707336366176605,-0.18322080373764038,0.938066840171814,0.0,0.0,0.0,-6.388119220733643,-0.47926726937294006,0.6775282621383667,0.4200000464916229,1.0,3.2807049592520343e-06,-2.2192427877598675e-06,1.5948727138948016e-07,0.00026627813349477947,0.0002674008428584784,-0.00010425341315567493,-0.001735740341246128,0.0041978247463703156,-0.00012865380267612636,-0.4148009121417999,0.4782806634902954,1.0150001049041748,-1.9177966117858887,3.911712169647217,-4.137419700622559,0.40336844325065613,0.7291706204414368,0.42000001668930054,-1.0038299560546875,2.8149101734161377,-0.32822921872138977,-3.0000014305114746,-0.031766824424266815,-0.04268663004040718,-0.053417764604091644,-0.06398734450340271,-0.8230243921279907,-0.8055874705314636,-0.7850878238677979,-0.7621289491653442
0.21666666666666667,0.06650517135858536,0.14912766218185425,0.0,0.9826694130897522,0.0,0.0,-0.18536685407161713,0.18862329423427582,0.6713323593139648,0.0,0.0,0.0,-2.2088840007781982,-0.47926726937294006,0.6775283217430115,0.4200000464916229,1.0,3.613112085076864e-06,-2.270147660965449e-06,2.2102811669810762e-07,0.00026712531689554453,0.00026781708584167063,-0.00010414118878543377,-0.0017444660188630223,0.004215197172015905,-0.00012786770821548998,-0.44885656237602234,0.5366541147232056,0.9406643509864807,-1.6687138080596924,3.436624050140381,-4.923439025878906,0.40336844325065613,0.7291706204414368,0.42000001668930054,-0.9539417028427124,3.0000009536743164,-0.37825796008110046,-2.999995231628418,-0.0420309379696846,-0.052514638751745224,-0.06277700513601303,-0.07285747677087784,-0.9567190408706665,-0.8608561158180237,-0.767440915107727,-0.6776432991027832
0.23333333333333334,0.06400080025196075,0.16312076151371002,0.0,0.9742392897605896,0.0,0.0,-0.22551679611206055,-0.1724540889263153,0.7933511734008789,0.0,0.0,0.0,-5.645322322845459,-0.47926726937294006,0.6775282621383667,0.4200000464916229,1.0,3.3818200790847186e-06,-2.2909732706466457e-06,2.7281285497338104e-07,0.0002669145178515464,0.000267800351139158,-0.00010433257557451725,-0.0017395960167050362,0.004209770355373621,-0.00012843783770222217,-0.4735960364341736,0.5893327593803406,0.8518123030662537,-1.2379391193389893,3.057276725769043,-5.498727798461914,0.40336844325065613,0.7291706204414368,0.42000001668930054,-0.9039310216903687,3.000000476837158,-0.42828822135925293,-3.0000014305114746,-0.05786242336034775,-0.068340964615345,-0.07866478711366653,-0.08876259624958038,-0.805600643157959,-0.8238801956176758,-0.847346305847168,-0.8717079758644104
0.25,0.0655229464173317,0.1720849573612213,0.0,0.9694617390632629,0.0,0.0,-0.2452426254749298,0.1234876811504364,0.4465634822845459,0.0,0.0,0.0,-1.2551008462905884,-0.4792672395706177,0.6775282621383667,0.4200000464916229,0.9999999403953552,3.7065428841742687e-06,-2.2230481135920854e-06,-2.255024185160437e-07,0.000264246977167204,0.0002665663487277925,-0.00010457751341164112,-0.0017169496277347207,0.0041555920615792274,-0.0001306297053815797,-0.4946926236152649,0.6300206184387207,0.7570451498031616,-0.9493731260299683,2.095968723297119,-5.90817928314209,0.40336844325065613,0.7291706204414368,0.42000001668930054,-0.8539203405380249,3.000000238418579,-0.47831931710243225,-3.000000476837158,-0.07231318950653076,-0.0827837809920311,-0.0929933711886406,-0.10255648195743561,-0.9902794361114502,-0.9916898012161255,-0.9836956858634949,-0.9055467247962952
0.26666666666666666,0.0622757151722908,0.17747530341148376,0.0,0.9609886407852173,0.0,0.0,-0.2765878438949585,-0.3047741651535034,0.2818000018596649,0.0,0.0,0.0,-4.7958784103393555,-0.47926726937294006,0.6775282621383667,0.4200000464916229,0.9999999403953552,3.719666437973501e-06,-2.403525968475151e-06,-1.8307196114619728e-07,0.00026623360463418067,0.00026729219825938344,-0.00010425853542983532,-0.0017326456727460027,0.004196504596620798,-0.00012850768689531833,-0.5037567615509033,0.6552965044975281,0.654448390007019,-0.042716920375823975,1.0240323543548584,-6.181441783905029,0.40336844325065613,0.7291706204414368,0.42000001668930054,-0.8039109110832214,3.0000011920928955,-0.5283503532409668,-2.999999523162842,-0.09004226326942444,-0.10021566599607468,-0.11020176112651825,-0.11959555745124817,-1.000780463218689,-1.0005849599838257,-1.000436544418335,-1.0003187656402588
0.2833333333333333,0.06282468140125275,0.17942452430725098,0.0,0.9574277997016907,0.0,0.0,-0.28867289423942566,0.14318478107452393,0.04745146259665489,0.0,0.0,0.0,-0.4442790150642395,-0.47926726937294006,0.6775283217430115,0.4200000464916229,0.9999999403953552,3.584083515306702e-06,-2.3155100734584266e-06,7.405373736446563e-08,0.0002652202092576772,0.00026455355691723526,-0.00010317121632397175,-0.001702261040918529,0.004185176454484463,-0.0001249932829523459,-0.5043146014213562,0.6683605909347534,0.5553829073905945,0.18558084964752197,0.5482574701309204,-5.765250205993652,0.40336844325065613,0.7291706204414368,0.42000001668930054,-0.7539021372795105,2.999997854232788,-0.5783801078796387,-2.9999983310699463,-0.10600742697715759,-0.11624378710985184,-0.12617340683937073,-0.1356097310781479,-0.9819249510765076,-0.9825426936149597,-0.9750449061393738,-0.9739015698432922
0.3,0.06028161197900772,0.1787739396095276,0.0,0.950412392616272,0.0,0.0,-0.31099238991737366,-0.25821563601493835,-0.07472411543130875,0.0,0.0,0.0,-3.891693592071533,-0.47926726937294006,0.6775282621383667,0.4200000464916229,1.0,3.7243050883262185e-06,-2.2719725620845566e-06,9.636089259856817e-08,0.0002631232200656086,0.0002652576076798141,-0.00010438100434839725,-0.0016960796201601624,0.004134746268391609,-0.00013027872773818672,-0.4945734739303589,0.6740976572036743,0.46265745162963867,1.009939432144165,0.1970953494310379,-5.237490653991699,0.40336844325065613,0.7291706204414368,0.42000001668930054,-0.703894317150116,3.0000011920928955,-0.6284078359603882,-3.000000238418579,-0.12417446076869965,-0.13405655324459076,-0.14371851086616516,-0.15294289588928223,-1.014210820198059,-1.0107512474060059,-1.0081123113632202,-1.0059993267059326
0.31666666666666665,0.053774066269397736,0.17612789571285248,0.0,0.9484147429466248,0.0,0.0,-0.3170322775840759,-0.31231439113616943,-0.22789742052555084,0.0,0.0,0.0,0.19382961094379425,-0.4792672395706177,0.6775282621383667,0.4200000464916229,0.9999999403953552,3.355581384312245e-06,-1.9149194940837333e-06,1.6241011735473876e-07,0.0002383509126957506,0.00026419656933285296,-0.00010382891196059063,-0.001796080032363534,0.0036149017978459597,-5.160426371730864e-05,-0.48593366146087646,0.6761332750320435,0.4284589886665344,0.1077180728316307,-0.09717044979333878,-0.17138636112213135,0.40336844325065613,0.7291706204414368,0.42000001668930054,-0.6539355516433716,3.0000405311584473,-0.6788312196731567,-3.0024962425231934,-0.1339176595211029,-0.14424139261245728,-0.15416577458381653,-0.16340743005275726,-0.0831545889377594,-0.15530312061309814,-0.204875648021698,-0.2257259041070938
0.3333333333333333,0.04714994132518768,0.17061415314674377,0.0,0.9489783048629761,0.0,0.0,-0.3153413236141205,-0.43660709261894226,-0.3730221688747406,0.0,0.0,0.0,0.23401391506195068,-0.47926726937294006,0.6775283217430115,0.4200000464916229,0.9999999403953552,3.7652616811101325e-06,-2.243713197458419e-06,2.000832743931369e-08,0.0002649413072504103,0.0002669225796125829,-0.00010440475307404995,-0.0017264261841773987,0.00416965177282691,-0.00012995381257496774,-0.4866331219673157,0.6795018315315247,0.42605215311050415,0.011807725764811039,0.32983773946762085,-0.16953817009925842,0.40336844325065613,0.7291706204414368,0.42000001668930054,-0.6039295792579651,2.99998140335083,-0.728874683380127,-3.0,-0.1368422508239746,-0.14797596633434296,-0.15837214887142181,-0.1676737666130066,-0.25370123982429504,-0.2780987620353699,-0.286417692899704,-0.2756747305393219
0.35,0.038020793348550797,0.16277161240577698,0.0,0.9426632523536682,0.0,0.0,-0.3337453603744507,-0.5997174382209778,-0.5123826861381531,0.0,0.0,0.0,-3.224769115447998,-0.47812703251838684,0.6799623966217041,0.4200004041194916,0.9995169043540955,-6.015784947521752e-06,2.9817122140229912e-06,-0.0310767013579607,0.13747559487819672,0.26852867007255554,-0.00037381649599410594,0.010845626704394817,-0.007135861553251743,-6.847876071929932,-0.48419189453125,0.6837741732597351,0.4233095347881317,0.2904711365699768,0.3143391013145447,-0.15168960392475128,0.40336844325065613,0.7291706204414368,0.42000001668930054,-0.5539247393608093,2.9999797344207764,-0.7789269089698792,-2.999979019165039,-0.14261150360107422,-0.15346671640872955,-0.16328294575214386,-0.17168021202087402,-0.411022812128067,-0.35406869649887085,-0.2798503637313843,-0.18840435147285461
0.36666666666666664,0.026512527838349342,0.15268577635288239,0.0,0.9419122934341431,0.0,0.0,-0.3358590006828308,-0.7292375564575195,-0.6438381671905518,0.0,0.0,0.0,0.680869996547699,-0.47400519251823425,0.6898045539855957,0.42001181840896606,0.9959812760353088,0.00010114237375091761,2.6817491743713617e-05,-0.08956125378608704,0.32745522260665894,0.8942675590515137,0.002014010911807418,0.6469951272010803,-0.3738929331302643,-4.270899772644043,-0.47904032468795776,0.6937382221221924,0.4212515950202942,0.3561825156211853,0.8275333642959595,-0.07861481606960297,0.40336844325065613,0.7291706204414368,0.42000001668930054,-0.5039198398590088,3.0000007152557373,-0.8289604783058167,-2.9999711513519287,-0.15041595697402954,-0.15983401238918304,-0.16790704429149628,-0.17427624762058258,-0.46025675535202026,-0.35968977212905884,-0.24065621197223663,-0.10505678504705429
0.3833333333333333,0.01784304529428482,0.14003832638263702,0.0,0.9362635016441345,0.0,0.0,-0.3512985110282898,-0.4046301245689392,-0.8093523979187012,0.0,0.0,0.0,-2.8202943801879883,-0.4675447642803192,0.7056208848953247,0.4200020134449005,0.9925024509429932,-3.18330125992361e-06,1.538217293273192e-05,-0.12222454696893692,0.49424728751182556,1.0886993408203125,-0.0025152023881673813,-0.05114863067865372,-0.0401514396071434,-3.9387307167053223,-0.4702475070953369,0.7077571749687195,0.4208819270133972,0.6769112944602966,0.9434332847595215,0.08537746220827103,0.40336844325065613,0.7291706204414368,0.42000001668930054,-0.4538872241973877,2.9975855350494385,-0.8789886236190796,-2.978386640548706,-0.15853384137153625,-0.16568516194820404,-0.17113953828811646,-0.17459210753440857,-0.4546963572502136,-0.29936686158180237,-0.12215709686279297,0.07295580953359604
0.4,0.0069380225613713264,0.12569096684455872,0.0,0.9192009568214417,0.0,0.0,-0.39378872513771057,-0.7439047694206238,-0.8854932188987732,0.0,0.0,0.0,-6.426868915557861,-0.45265206694602966,0.7287607192993164,0.4213787615299225,0.9851852655410767,-0.011811504140496254,-0.011184982024133205,-0.17071989178657532,1.308131456375122,1.6402060985565186,0.07940872758626938,29.79693603515625,-12.903453826904297,3.851562738418579,-0.45432934165000916,0.7300404906272888,0.42266935110092163,1.2425377368927002,1.6855560541152954,0.22157783806324005,0.40336844325065613,0.7291706204414368,0.42000001668930054,-0.405090868473053,2.466311454772949,-0.9290049076080322,-3.0000014305114746,-0.16861358284950256,-0.17273513972759247,-0.1748274862766266,-0.17466741800308228,-0.6230291128158569,-0.43774357438087463,-0.23505482077598572,-0.020353401079773903
0.4166666666666667,-0.0006708946311846375,0.10844338685274124,0.0,0.8878541588783264,0.0,0.0,-0.4601249694824219,-0.421631395816803,-1.07524836063385,0.0,0.0,0.0,-9.527993202209473,-0.41646283864974976,0.7654250860214233,0.42667239904403687,0.9719859957695007,0.04918563738465309,-0.048474449664354324,-0.22466431558132172,3.551623821258545,2.232821464538574,0.6168710589408875,12.456679344177246,-11.33231258392334,26.684232711791992,-0.41775810718536377,0.7665260434150696,0.4279562830924988,3.100891351699829,2.743734836578369,0.5681903958320618,0.40336844325065613,0.7291706204414368,0.42000001668930054,-0.37937039136886597,1.0710723400115967,-0.8920174837112427,2.9976954460144043,-0.17950591444969177,-0.17994078993797302,-0.17811283469200134,-0.17391423881053925,-0.7967893481254578,-0.5260072946548462,-0.24609903991222382,0.034249477088451385
0.43333333333333335,-0.006121581420302391,0.09623976796865463,0.0,0.8398240208625793,0.0,0.0,-0.5428587794303894,-0.2347439080476761,-0.7649914622306824,0.0,0.0,0.0,-12.081450462341309,-0.3404957354068756,0.8157488107681274,0.4367033541202545,0.9478767514228821,0.12523865699768066,-0.08646456897258759,-0.2799442410469055,5.750002861022949,3.105764389038086,0.5872308015823364,7.814498424530029,-11.208179473876953,12.14293384552002,-0.3419092297554016,0.8170968890190125,0.43799838423728943,5.567546844482422,3.555997371673584,0.755548894405365,0.40336844325065613,0.7291706204414368,0.42000001668930054,-0.3623621463775635,0.9978066682815552,-0.8419821858406067,2.99841570854187,-0.19512848556041718,-0.1939512938261032,-0.18693964183330536,-0.17740030586719513,-0.5757023096084595,-0.6539958119392395,-0.4578864574432373,-0.2159242480993271
0.45,-0.013725768774747849,0.08780743926763535,0.0,0.7984419465065002,0.0,0.0,-0.6020717620849609,-0.44559425115585327,-0.4532237648963928,0.0,0.0,0.0,-7.296015739440918,-0.24367296695709229,0.8638958930969238,0.45015308260917664,0.9048989415168762,0.15632815659046173,-0.10592066496610641,-0.38144469261169434,6.2113356590271,2.068794012069702,0.8813085556030273,15.99870491027832,-3.2529640197753906,15.232759475708008,-0.2459925413131714,0.8669484853744507,0.45088517665863037,6.060183525085449,2.621429443359375,0.8067517876625061,0.40336844325065613,0.7291706204414368,0.42000001668930054,-0.3444945812225342,1.0919373035430908,-0.8682164549827576,-3.0000038146972656,-0.209520161151886,-0.2083314210176468,-0.1973637193441391,-0.18311159312725067,-0.7100083231925964,-0.753689706325531,-0.5834038853645325,-0.34481188654899597
0.4666666666666667,-0.016655972227454185,0.07390257716178894,0.0,0.7760989665985107,0.0,0.0,-0.6306111216545105,-0.19794991612434387,-0.8149752020835876,0.0,0.0,0.0,-3.113405704498291,-0.1376812607049942,0.895916223526001,0.4619253873825073,0.8543640971183777,0.16024455428123474,-0.12199732661247253,-0.4790617823600769,6.5538458824157715,0.8333078026771545,0.14965876936912537,-13.89035701751709,-8.561163902282715,22.221643447875977,-0.14042364060878754,0.9015973210334778,0.4622231721878052,6.644899368286133,1.284219741821289,0.862351655960083,0.40336844325065613,0.7291706204414368,0.42000001668930054,-0.32505106925964355,0.920503556728363,-0.918240487575531,-3.000000476837158,-0.2181137502193451,-0.21635091304779053,-0.20213182270526886,-0.18377649784088135,-0.7445620894432068,-0.5790712833404541,-0.3023906946182251,0.004586650524288416
0.48333333333333334,-0.02281489036977291,0.06567370146512985,0.0,0.745400607585907,0.0,0.0,-0.6666167378425598,-0.37305164337158203,-0.4753572940826416,0.0,0.0,0.0,-6.33961296081543,-0.02751777693629265,0.903764545917511,0.4730410873889923,0.7814530730247498,0.18228191137313843,-0.08254718780517578,-0.5910078287124634,6.419222354888916,-0.3404845595359802,0.9227644801139832,9.404024124145508,19.71268653869629,1.9919975996017456,-0.030021898448467255,0.9112094640731812,0.4716830253601074,6.867905616760254,0.04542243480682373,0.4076254963874817,0.40336844325065613,0.7291706204414368,0.42000001668930054,-0.31322312355041504,0.45777809619903564,-0.9682645201683044,-2.9983479976654053,-0.2325776070356369,-0.22892136871814728,-0.20951291918754578,-0.1858515739440918,-0.6194553375244141,-0.5953645706176758,-0.3410261571407318,-0.08575838059186935
0.5,-0.026265418156981468,0.060651469975709915,0.0,0.7287401556968689,0.0,0.0,-0.6847903728485107,-0.14623796939849854,-0.23104318976402283,0.0,0.0,0.0,-1.819358468055725,0.08042687177658081,0.8935124278068542,0.47654610872268677,0.6864219903945923,0.11984803527593613,-0.13861893117427826,-0.703737199306488,5.827588081359863,-1.73500657081604,0.16577520966529846,-8.453767776489258,0.7225753664970398,9.340574264526367,0.0765039473772049,0.9025416374206543,0.477459579706192,6.2553510665893555,-1.1345250606536865,0.18332608044147491,0.40336844325065613,0.7291706204414368,0.42000001668930054,-0.308158278465271,0.21372386813163757,-1.0182888507843018,-3.0000009536743164,-0.23996612429618835,-0.23876304924488068,-0.2153049260377884,-0.18784990906715393,-0.026706604287028313,-0.5540184378623962,-0.338583379983902,-0.15167559683322906
0.5166666666666666,-0.02577337808907032,0.052229419350624084,0.0,0.7030606269836426,0.0,0.0,-0.7111299633979797,0.023532656952738762,-0.5752871632575989,0.0,0.0,0.0,-5.212876796722412,0.17589469254016876,0.8675371408462524,0.47203031182289124,0.582878828048706,0.04255898296833038,-0.17838479578495026,-0.7915931940078735,5.237720012664795,-2.017681837081909,-0.716768741607666,-27.047832489013672,9.668743133544922,-16.246036529541016,0.1708160936832428,0.8805927038192749,0.47607046365737915,5.191400527954102,-1.7466017007827759,-0.17286649346351624,0.40336844325065613,0.7291706204414368,0.42000001668930054,-0.3027614951133728,0.4684717357158661,-1.0683109760284424,-2.999906301498413,-0.23722703754901886,-0.2397887259721756,-0.21729032695293427,-0.18794488906860352,0.11038543283939362,-0.003794122254475951,-0.05042305216193199,0.03715762495994568
0.5333333333333333,-0.02315877005457878,0.04750367999076843,0.0,0.6905259490013123,0.0,0.0,-0.7233076095581055,0.20881296694278717,-0.2662699222564697,0.0,0.0,0.0,-0.9394024610519409,0.2530035972595215,0.8319878578186035,0.4630340039730072,0.5274658203125,0.0016254449728876352,-0.1568310558795929,-0.8349737524986267,4.148550987243652,-2.7581586837768555,-0.4581068754196167,-0.991417407989502,9.802672386169434,-1.1089531183242798,0.2501848340034485,0.8461079001426697,0.4677639603614807,4.334164619445801,-2.2768726348876953,-0.7243188619613647,0.40336844325065613,0.7291706204414368,0.42000001668930054,-0.294892281293869,0.39333972334861755,-1.118333101272583,-2.998339891433716,-0.2391315996646881,-0.2398083508014679,-0.21937257051467896,-0.18877771496772766,0.041059207171201706,0.07056711614131927,0.0017359057674184442,0.005407098680734634
0.55,-0.017754945904016495,0.04584627225995064,0.0,0.670923113822937,0.0,0.0,-0.7415269017219543,0.37460198998451233,-0.03070984221994877,0.0,0.0,0.0,-4.086862564086914,0.3170609772205353,0.796771764755249,0.4465121626853943,0.4950503408908844,-0.03937108814716339,-0.1444823294878006,-0.8558620810508728,3.3793559074401855,-2.1763360500335693,-1.044008731842041,0.06021880730986595,6.677402496337891,-3.957496404647827,0.3154672384262085,0.8106061816215515,0.4517001509666443,3.4782774448394775,-2.120079517364502,-1.142514944076538,0.40336844325065613,0.7291706204414368,0.42000001668930054,-0.2854822278022766,0.7371066212654114,-1.1683552265167236,-3.000000476837158,-0.2365696281194687,-0.2371748834848404,-0.2187119424343109,-0.18935613334178925,0.24959182739257812,0.2460244745016098,0.09588576853275299,-0.03918445110321045
0.5666666666666667,-0.009915796108543873,0.047342441976070404,0.0,0.6650843024253845,0.0,0.0,-0.7467682361602783,0.4999709129333496,0.18017564713954926,0.0,0.0,0.0,0.018594997003674507,0.36604028940200806,0.762234091758728,0.42600688338279724,0.46475422382354736,-0.08312013745307922,-0.12178082019090652,-0.8730773329734802,2.352881908416748,-2.518275260925293,-1.0258426666259766,-8.802240371704102,9.755306243896484,6.927569389343262,0.36578619480133057,0.775231122970581,0.4314550757408142,2.508204221725464,-2.0790822505950928,-1.294677495956421,0.40336844325065613,0.7291706204414368,0.42000001668930054,-0.272224098443985,0.6149822473526001,-1.2183773517608643,-2.999613046646118,-0.23236306011676788,-0.23290325701236725,-0.2171037346124649,-0.19060267508029938,0.27142104506492615,0.27424120903015137,0.09997386485338211,-0.10815408825874329
0.5833333333333334,0.0006744178826920688,0.04393770545721054,0.0,0.6479315757751465,0.0,0.0,-0.7616985440254211,0.6079015135765076,-0.1909559667110443,0.0,0.0,0.0,-3.605907678604126,0.39799225330352783,0.746000349521637,0.4220736026763916,0.4652443528175354,-0.0409899465739727,-0.0008083001594059169,-0.8842322826385498,1.2214689254760742,-1.0649436712265015,0.1362316608428955,3.7838430404663086,6.62122917175293,8.590167999267578,0.3968082666397095,0.7553513050079346,0.42515426874160767,1.3645398616790771,-0.745697021484375,0.10969996452331543,0.40336844325065613,0.7291706204414368,0.42000001668930054,-0.26426616311073303,0.49041715264320374,-1.2549810409545898,-1.4190150499343872,-0.2190716415643692,-0.22140425443649292,-0.2101822942495346,-0.18878814578056335,0.7152660489082336,0.6346026659011841,0.3823451101779938,0.08158153295516968
0.6,0.007352882530540228,0.04461871460080147,0.0,0.6431921124458313,0.0,0.0,-0.765704870223999,0.3345223069190979,0.024080239236354828,0.0,0.0,0.0,0.1778622567653656,0.41626760363578796,0.732062816619873,0.421740859746933,0.4802126884460449,-0.031493134796619415,0.006255668587982655,-0.8765642046928406,0.8215653896331787,-0.894717812538147,0.01305946335196495,5.5067925453186035,2.0845601558685303,4.621510982513428,0.4141528606414795,0.7412550449371338,0.4248836636543274,0.8261669278144836,-0.7927559614181519,-0.06245110183954239,0.40336844325065613,0.7291706204414368,0.42000001668930054,-0.26448047161102295,-0.31491729617118835,-1.2243491411209106,2.9980692863464355,-0.20937852561473846,-0.2123255431652069,-0.20461797714233398,-0.18782322108745575,0.6655845642089844,0.6136462688446045,0.393947035074234,0.10370070487260818
0.6166666666666667,0.015344204381108284,0.04258335009217262,0.0,0.627737820148468,0.0,0.0,-0.778424859046936,0.47408369183540344,-0.19684885442256927,0.0,0.0,0.0,-3.2545008659362793,0.42392560839653015,0.7256174683570862,0.42289990186691284,0.5099742412567139,-0.048606764525175095,0.01904032751917839,-0.8586041927337646,0.23391523957252502,-0.2928655445575714,0.22200441360473633,2.735599994659424,8.905112266540527,7.573026657104492,0.42137017846107483,0.7343312501907349,0.4263880252838135,0.22180409729480743,-0.2261689156293869,0.1591705083847046,0.40336844325065613,0.7291706204414368,0.42000001668930054,-0.26739680767059326,-0.16717854142189026,-1.2449142932891846,-2.9960520267486572,-0.19865675270557404,-0.20245498418807983,-0.1982540786266327,-0.18621158599853516,0.5829017162322998,0.5487247705459595,0.36154717206954956,0.09388960897922516
0.6333333333333333,0.024530084803700447,0.044302232563495636,0.0,0.6251800060272217,0.0,0.0,-0.7804806232452393,0.5482215285301208,0.09345096349716187,0.0,0.0,0.0,0.5050212144851685,0.4239629805088043,0.7209025025367737,0.42395445704460144,0.5434505939483643,-0.06860143691301346,0.03082602098584175,-0.8360651731491089,-0.10769801586866379,-0.30098527669906616,0.05653670057654381,0.2755794823169708,0.9950770139694214,2.9286065101623535,0.42120176553726196,0.7296522259712219,0.4278341233730316,-0.09796306490898132,-0.14633378386497498,0.049662984907627106,0.40336844325065613,0.7291706204414368,0.42000001668930054,-0.2832085192203522,-1.5201854705810547,-1.2711272239685059,-0.3463345468044281,-0.1930120438337326,-0.19657957553863525,-0.19458185136318207,-0.1861879527568817,0.46105101704597473,0.43825897574424744,0.28500300645828247,0.05097436532378197
0.65,0.030490465462207794,0.04429061338305473,0.0,0.642217755317688,0.0,0.0,-0.7665222883224487,0.31264322996139526,0.011844964697957039,0.0,0.0,0.0,3.9716763496398926,0.4212438464164734,0.7172089219093323,0.4233405590057373,0.5583175420761108,-0.059325750917196274,0.014471206814050674,-0.8273769021034241,-0.30874958634376526,-0.06498946249485016,-0.032272715121507645,-3.962829113006592,-4.0696587562561035,1.975549578666687,0.4178226888179779,0.7285874485969543,0.4301337003707886,-0.3586121201515198,-0.04155123233795166,0.1603197157382965,0.40336844325065613,0.7291706204414368,0.42000001668930054,-0.3269651532173157,-2.9999911785125732,-1.3150594234466553,-2.999102830886841,-0.18493083119392395,-0.1887955665588379,-0.18906429409980774,-0.18424980342388153,0.3791201114654541,0.3875201940536499,0.286394864320755,0.10546978563070297
0.6666666666666666,0.03710554912686348,0.04170909523963928,0.0,0.648227870464325,0.0,0.0,-0.7614464163780212,0.41428640484809875,-0.1921726018190384,0.0,0.0,0.0,-0.10900674015283585,0.4166068136692047,0.7164168357849121,0.42150840163230896,0.570791482925415,-0.031881049275398254,-0.022368161007761955,-0.8201708793640137,-0.16679821908473969,-0.012890378944575787,-0.03673381358385086,1.8252416849136353,-0.6599011421203613,2.1000351905822754,0.4155527949333191,0.7295143604278564,0.4333733916282654,-0.06785202026367188,0.09210377931594849,0.2255583554506302,0.40336844325065613,0.7291706204414368,0.42000001668930054,-0.37702903151512146,-2.996804714202881,-1.3650151491165161,-2.9999947547912598,-0.17916059494018555,-0.18258827924728394,-0.18393385410308838,-0.18136803805828094,0.3166516423225403,0.36125829815864563,0.32973527908325195,0.2347218096256256
0.6833333333333333,0.045407965779304504,0.035978708416223526,0.0,0.6321883201599121,0.0,0.0,-0.774814784526825,0.5392675995826721,-0.41303208470344543,0.0,0.0,0.0,-3.377401351928711,0.41422033309936523,0.7158035635948181,0.42001765966415405,0.5805781483650208,0.0001435761369066313,-2.3755837901262566e-05,-0.8142045140266418,-0.09473861008882523,-0.07643704116344452,-0.0028608792927116156,-0.13050706684589386,0.05637114495038986,0.2657639980316162,0.4147132933139801,0.7311934232711792,0.4395914673805237,-0.019280118867754936,0.07867462933063507,0.6401338577270508,0.40336844325065613,0.7291706204414368,0.42000001668930054,-0.4270433783531189,-2.9999911785125732,-1.4150336980819702,-2.9999992847442627,-0.17583948373794556,-0.17812974750995636,-0.17933990061283112,-0.17755267024040222,0.13655780255794525,0.2226264625787735,0.26171377301216125,0.2530915439128876
0.7,0.0569327175617218,0.03427896276116371,0.0,0.5940280556678772,0.0,0.0,-0.8044443130493164,0.7166371941566467,-0.11887474358081818,0.0,0.0,0.0,-6.547360420227051,0.4134344756603241,0.7151692509651184,0.4200001060962677,0.5819621682167053,-1.1478853139124112e-06,6.376126293616835e-07,-0.8132158517837524,-0.03023037500679493,-0.02414027787744999,-9.317172225564718e-05,0.0006565636722370982,-0.003167103510349989,0.175193190574646,0.4211696982383728,0.7275692224502563,0.45774149894714355,0.9225225448608398,-0.3894503116607666,1.5700547695159912,0.40336844325065613,0.7291706204414368,0.42000001668930054,-0.47705650329589844,-2.999999761581421,-1.4650520086288452,-2.999999761581421,-0.17952407896518707,-0.17949022352695465,-0.17900244891643524,-0.17626282572746277,-0.1823282092809677,-0.06673073768615723,0.025220012292265892,0.08278387039899826
0.7166666666666667,0.07057212293148041,0.03487813100218773,0.0,0.5716851949691772,0.0,0.0,-0.8204730749130249,0.8569832444190979,0.10602983832359314,0.0,0.0,0.0,-2.2696661949157715,0.41341716051101685,0.7151575684547424,0.42000001668930054,0.5821309685707092,-2.0594034140231088e-06,-4.170311058260268e-06,-0.8130950331687927,1.650620106374845e-05,-0.00018212705617770553,-7.513631135225296e-05,0.0015731266466900706,-0.0033033560030162334,-0.0005578279378823936,0.43690603971481323,0.7259388566017151,0.4847959280014038,0.8832211494445801,0.14096465706825256,1.650871992111206,0.40336844325065613,0.7291706204414368,0.42000001668930054,-0.5007362961769104,-0.07662849873304367,-1.5150703191757202,-2.999999761581421,-0.18215878307819366,-0.1810954213142395,-0.179876908659935,-0.17691566050052643,-0.08457359671592712,-0.07537372410297394,-0.08029182255268097,-0.1129748672246933
0.7333333333333333,0.08088212460279465,0.03778281807899475,0.0,0.5757150650024414,0.0,0.0,-0.8176503777503967,0.528606116771698,0.2077993005514145,0.0,0.0,0.0,1.4936938285827637,0.41341716051101685,0.7151576280593872,0.41999998688697815,0.5821309685707092,-2.9868863293813774e-06,-4.498826456256211e-06,-0.813094973564148,1.8837723473552614e-05,-0.0003516369906719774,-9.896489791572094e-05,0.008623684756457806,-0.0031522319186478853,-0.0006351781776174903,0.4509100317955017,0.7308706045150757,0.5059241652488708,0.6776928901672363,0.40138623118400574,0.930514395236969,0.40336844325065613,0.7291706204414368,0.42000001668930054,-0.4828137457370758,2.027909517288208,-1.4806045293807983,3.000000476837158,-0.18113082647323608,-0.1803094893693924,-0.17946001887321472,-0.17724357545375824,0.15029281377792358,0.1245574951171875,0.09462462365627289,0.04448257014155388
0.75,0.08564679324626923,0.03525155782699585,0.0,0.5674801468849182,0.0,0.0,-0.823387086391449,0.3182048499584198,-0.17117227613925934,0.0,0.0,0.0,-1.9456855058670044,0.41341716051101685,0.7151576280593872,0.41999998688697815,0.5821309685707092,-2.9709585760429036e-06,-4.425927272677654e-06,-0.813094973564148,1.823918501031585e-05,-0.0003518958983477205,-9.929761290550232e-05,0.008626041002571583,-0.0031534500885754824,-0.0006344255525618792,0.45603758096694946,0.7384729385375977,0.5154915452003479,-0.11508825421333313,0.2913917005062103,0.3227492868900299,0.40336844325065613,0.7291706204414368,0.42000001668930054,-0.4680211842060089,-0.08041926473379135,-1.4305518865585327,3.000000238418579,-0.17357924580574036,-0.1738658994436264,-0.17413488030433655,-0.17330174148082733,0.1913587599992752,0.19168196618556976,0.18766577541828156,0.16186873614788055
0.7666666666666666,0.08843088895082474,0.03802214935421944,0.0,0.5733428001403809,0.0,0.0,-0.8193156123161316,0.10268506407737732,0.18054573237895966,0.0,0.0,0.0,1.6230031251907349,0.41341716051101685,0.7151576280593872,0.41999998688697815,0.5821309685707092,-2.9951588658150285e-06,-4.352224550530082e-06,-0.813094973564148,1.8592108972370625e-05,-0.000352009228663519,-9.920215234160423e-05,0.008630163967609406,-0.003152061253786087,-0.0006353274802677333,0.4533557593822479,0.7430562973022461,0.517589807510376,-0.13400042057037354,0.39489585161209106,-0.06885987520217896,0.40336844325065613,0.7291706204414368,0.42000001668930054,-0.4637701213359833,0.5356308221817017,-1.4480878114700317,-3.0,-0.17519362270832062,-0.17449457943439484,-0.17391380667686462,-0.17267878353595734,0.028781099244952202,0.05136098712682724,0.07009878009557724,0.06747891753911972
0.7833333333333333,0.09309720993041992,0.03639722988009453,0.0,0.5658384561538696,0.0,0.0,-0.8245161175727844,0.26599475741386414,0.01593956910073757,0.0,0.0,0.0,-1.801213026046753,0.41341716051101685,0.7151576280593872,0.41999998688697815,0.5821309685707092,-3.011470653291326e-06,-4.2834376472455915e-06,-0.813094973564148,1.8426711903885007e-05,-0.0003519775636959821,-9.925593622028828e-05,0.008628680370748043,-0.003153339261189103,-0.0006349665345624089,0.44805634021759033,0.7480490803718567,0.5091100931167603,-0.6296476125717163,0.15195715427398682,-0.7135632038116455,0.40336844325065613,0.7291706204414368,0.42000001668930054,-0.4843957722187042,-2.7168943881988525,-1.409505844116211,3.0,-0.17241270840168,-0.1717458814382553,-0.17122352123260498,-0.17033810913562775,-0.08854775875806808,-0.03565198928117752,0.012809816747903824,0.040196068584918976
0.8,0.10013255476951599,0.03807852044701576,0.0,0.5730814337730408,0.0,0.0,-0.8194984197616577,0.3723551630973816,-0.0005949810147285461,0.0,0.0,0.0,1.9302455186843872,0.41341716051101685,0.7151576280593872,0.41999998688697815,0.582131028175354,-3.016570872205193e-06,-4.3447353164083324e-06,-0.813094973564148,1.8694106984185055e-05,-0.00035206033498980105,-9.918538853526115e-05,0.00863176491111517,-0.003152458695694804,-0.0006356605445034802,0.43901801109313965,0.7497433423995972,0.49973684549331665,-0.4243723154067993,0.21221008896827698,-0.39221256971359253,0.40336844325065613,0.7291706204414368,0.42000001668930054,-0.5342184901237488,-3.0,-1.427463173866272,-2.9999992847442627,-0.17671501636505127,-0.17451006174087524,-0.17242534458637238,-0.17023058235645294,-0.007358819246292114,0.02998572587966919,0.08128973096609116,0.13226290047168732
0.8166666666666667,0.10755046457052231,0.035739414393901825,0.0,0.567516565322876,0.0,0.0,-0.8233619928359985,0.481332004070282,-0.19272303581237793,0.0,0.0,0.0,-1.7849780321121216,0.41341716051101685,0.7151576280593872,0.41999998688697815,0.5821308493614197,-3.000047854584409e-06,-4.432755304151215e-06,-0.8130950927734375,1.9815905034192838e-05,-0.0003521155449561775,-9.887642227113247e-05,0.008634818717837334,-0.0031428325455635786,-0.0006379368132911623,0.436997652053833,0.751144528388977,0.4909951686859131,0.17110303044319153,-0.0023712292313575745,-0.4550139307975769,0.40336844325065613,0.7291706204414368,0.42000001668930054,-0.5842307806015015,-2.9999842643737793,-1.477481484413147,-3.0,-0.17870615422725677,-0.1755777895450592,-0.17223376035690308,-0.16867618262767792,-0.13213875889778137,-0.06977879256010056,0.0161676574498415,0.11282195895910263
0.8333333333333334,0.11715362966060638,0.030231742188334465,0.0,0.5391697883605957,0.0,0.0,-0.842197060585022,0.6193754076957703,-0.390290230512619,0.0,0.0,0.0,-5.040104389190674,0.41341716051101685,0.7151576280593872,0.41999998688697815,0.5821311473846436,-2.878386567317648e-06,-4.306595201342134e-06,-0.8130947947502136,2.1967862267047167e-05,-0.00035295667476020753,-9.808805771172047e-05,0.008671209216117859,-0.0031335153616964817,-0.0006432358059100807,0.4421285092830658,0.7465553283691406,0.4890979528427124,0.5099936127662659,-0.4592333436012268,0.33647966384887695,0.40336844325065613,0.7291706204414368,0.42000001668930054,-0.6342414617538452,-2.999953508377075,-1.527499794960022,-2.9999985694885254,-0.1830601990222931,-0.17853184044361115,-0.17339909076690674,-0.16786737740039825,-0.2921879291534424,-0.2057591825723648,-0.09615522623062134,0.025697775185108185
0.85,0.12583209574222565,0.02631661482155323,0.0,0.5258114337921143,0.0,0.0,-0.8506011366844177,0.43748679757118225,-0.1907281130552292,0.0,0.0,0.0,-0.8868601322174072,0.41341716051101685,0.7151576280593872,0.41999998688697815,0.5821306705474854,-2.986412710015429e-06,-4.0955524127639364e-06,-0.8130951523780823,2.0845916878897697e-05,-0.00035249319626018405,-9.848573245108128e-05,0.008651810698211193,-0.0031381319276988506,-0.0006402347353287041,0.45070376992225647,0.7458503246307373,0.4982295036315918,0.458614706993103,0.25846973061561584,0.7142540812492371,0.40336844325065613,0.7291706204414368,0.42000001668930054,-0.6519502997398376,0.5777607560157776,-1.5775171518325806,-3.0,-0.1865280568599701,-0.18147513270378113,-0.17549635469913483,-0.16893522441387177,-0.08843062818050385,-0.10974438488483429,-0.11605880409479141,-0.11281676590442657
0.8666666666666667,0.13005945086479187,0.025650467723608017,0.0,0.5379317998886108,0.0,0.0,-0.8429883718490601,0.19279766082763672,0.013323171995580196,0.0,0.0,0.0,2.521207571029663,0.41341716051101685,0.7151575684547424,0.41999998688697815,0.5821307301521301,-2.8587928682100028e-06,-4.159200216236059e-06,-0.8130951523780823,1.961210000445135e-05,-0.00035233318340033293,-9.8800053820014e-05,0.008645722642540932,-0.0031465436331927776,-0.0006372751668095589,0.45958906412124634,0.7518888711929321,0.5052927136421204,0.502543568611145,0.41469448804855347,0.18546563386917114,0.40336844325065613,0.7291706204414368,0.42000001668930054,-0.6263872981071472,2.3158061504364014,-1.5385689735412598,2.999999761581421,-0.18770278990268707,-0.18301530182361603,-0.1771737039089203,-0.17059914767742157,-0.025960799306631088,-0.04906149581074715,-0.06118767708539963,-0.0658855065703392
0.8833333333333333,0.13001438975334167,0.02270166389644146,0.0,0.5355629324913025,0.0,0.0,-0.8444952964782715,-0.06356757134199142,-0.2425392121076584,0.0,0.0,0.0,-1.1898880004882812,0.41341716051101685,0.7151576280593872,0.41999998688697815,0.5821310877799988,-3.0207056624931283e-06,-4.30541831519804e-06,-0.813094973564148,2.330020106455777e-05,-0.0003529000096023083,-9.796512313187122e-05,0.008663296699523926,-0.0031208461150527,-0.0006462743622250855,0.46145790815353394,0.75490403175354,0.5045938491821289,-0.2290046662092209,0.033002011477947235,-0.09782931208610535,0.40336844325065613,0.7291706204414368,0.42000001668930054,-0.6158604025840759,-0.7920434474945068,-1.4885163307189941,3.0,-0.1888411045074463,-0.1841578483581543,-0.17818933725357056,-0.17141273617744446,-0.08342747390270233,-0.06942517310380936,-0.05104033648967743,-0.031001824885606766
0.9,0.12910835444927216,0.02382686361670494,0.0,0.5464224815368652,0.0,0.0,-0.8375096917152405,-0.09446326643228531,0.05731155723333359,0.0,0.0,0.0,2.271104574203491,0.41341716051101685,0.7151576280593872,0.41999998688697815,0.5821309089660645,-3.025760406671907e-06,-4.521426944847917e-06,-0.8130950331687927,2.1828955141245387e-05,-0.0003525229694787413,-9.834207594394684e-05,0.008650065399706364,-0.0031311060301959515,-0.0006428694468922913,0.46079355478286743,0.7552446722984314,0.5050275921821594,0.170052170753479,0.11765602976083755,0.1255519688129425,0.40336844325065613,0.7291706204414368,0.42000001668930054,-0.6357324719429016,-1.5129870176315308,-1.5049117803573608,-3.000000476837158,-0.19398505985736847,-0.18828228116035461,-0.18121084570884705,-0.17330433428287506,-0.1521049290895462,-0.12789694964885712,-0.09066027402877808,-0.04252398759126663
