vladlanda/robotic-transformer/data/env_000_episode_0027.csv
sim_time_s,robot_box_x,robot_box_y,robot_box_z,robot_box_quat_w,robot_box_quat_x,robot_box_quat_y,robot_box_quat_z,robot_box_linvel_x,robot_box_linvel_y,robot_box_linvel_z,robot_box_angvel_x,robot_box_angvel_y,robot_box_angvel_z,cube_world_x,cube_world_y,cube_world_z,cube_quat_w,cube_quat_x,cube_quat_y,cube_quat_z,cube_linvel_x,cube_linvel_y,cube_linvel_z,cube_angvel_x,cube_angvel_y,cube_angvel_z,endpoint_world_x,endpoint_world_y,endpoint_world_z,endpoint_linvel_x,endpoint_linvel_y,endpoint_linvel_z,target_cube_world_x,target_cube_world_y,target_cube_world_z,gripper_actual_pos_rad_gp_leftgearjoint,gripper_actual_vel_rad_s_gp_leftgearjoint,gripper_actual_pos_rad_gp_rotatingjoint,gripper_actual_vel_rad_s_gp_rotatingjoint,motor_angle_rad_joint1,motor_angle_rad_joint2,motor_angle_rad_joint3,motor_angle_rad_joint4,motor_speed_rad_s_joint1,motor_speed_rad_s_joint2,motor_speed_rad_s_joint3,motor_speed_rad_s_joint4
0.0,0.0,0.0,0.0,1.0,0.0,0.0,0.0,0.0,0.0,0.0,0.0,0.0,0.0,-0.4455362558364868,0.6821830868721008,0.41999998688697815,1.0,0.0,0.0,0.0,0.0,0.0,0.0,0.0,0.0,0.0,3.42540442943573e-06,-0.005000244826078415,1.313499927520752,0.0,0.0,0.0,0.394546777009964,0.6376947164535522,0.42000001668930054,-1.5707999467849731,0.0,0.0,0.0,0.0,0.0,0.0,0.0,0.0,0.0,0.0,0.0
0.016666666666666666,0.0028778850100934505,0.0021806680597364902,0.0,0.9998081922531128,0.0,0.0,0.019586581736803055,0.24087215960025787,0.18240931630134583,0.0,0.0,0.0,3.1418697834014893,-0.44553637504577637,0.682182788848877,0.41999998688697815,1.0,3.2799832752061775e-06,-8.339598593920527e-07,8.465660528145236e-08,-1.9833856640616432e-05,0.00017983021098189056,-6.132945418357849e-05,0.0009432561928406358,-0.004689492750912905,-0.0003198107879143208,-0.007110234349966049,0.003379564033821225,1.3159373998641968,-0.8143353462219238,0.9868683815002441,0.18095196783542633,0.394546777009964,0.6376947164535522,0.42000001668930054,-1.5301095247268677,3.0000011920928955,-0.04584788903594017,-2.9999992847442627,0.0008691533003002405,0.0007963840034790337,0.0007110277656465769,0.0006108740926720202,0.11094217747449875,0.09756709635257721,0.08334315568208694,0.06823883205652237
0.03333333333333333,0.008960966020822525,0.006801859010010958,0.0,0.9997960329055786,0.0,0.0,0.020196840167045593,0.4070199429988861,0.31530627608299255,0.0,0.0,0.0,-0.869129478931427,-0.4455364942550659,0.6821827292442322,0.4200000464916229,1.0,3.3908236218849197e-06,-2.1324740373529494e-06,-3.7087911408661967e-08,0.0002635786950122565,0.00026937879738397896,-0.00010509719140827656,-0.0017707741353660822,0.004130927845835686,-0.00013548358401749283,-0.027545247226953506,0.025908270850777626,1.316641092300415,-1.5913602113723755,1.6092827320098877,-0.07969404011964798,0.394546777009964,0.6376947164535522,0.42000001668930054,-1.4800903797149658,3.000001907348633,-0.09588770568370819,-3.0000007152557373,0.002990179229527712,0.0026528185699135065,0.0022774161770939827,0.001860897522419691,0.16422711312770844,0.13977283239364624,0.11383388191461563,0.08631806075572968
0.05,0.017744427546858788,0.013770438730716705,0.0,0.9993786811828613,0.0,0.0,0.035245101898908615,0.5937294960021973,0.46502619981765747,0.0,0.0,0.0,2.6492323875427246,-0.4455365240573883,0.682182788848877,0.4200000464916229,1.0,3.7651204820576822e-06,-2.2119561435829382e-06,5.640150124719412e-09,0.0002653099945746362,0.0002669153327587992,-0.0001044049859046936,-0.0017243726179003716,0.0041774604469537735,-0.0001294949179282412,-0.05966930091381073,0.053422436118125916,1.3117890357971191,-2.1874043941497803,1.7271549701690674,-0.463542103767395,0.394546777009964,0.6376947164535522,0.42000001668930054,-1.4300720691680908,3.0000009536743164,-0.1459263414144516,-3.0000007152557373,0.005707463249564171,0.004915575031191111,0.004051552154123783,0.0031109482515603304,0.19280558824539185,0.15590624511241913,0.11713145673274994,0.07638809829950333
0.06666666666666667,0.029058381915092468,0.023063188418745995,0.0,0.9994505047798157,0.0,0.0,0.033146556466817856,0.7202833890914917,0.5951663255691528,0.0,0.0,0.0,-1.2101306915283203,-0.4455365240573883,0.6821827292442322,0.4200000464916229,0.9999999403953552,3.406740233913297e-06,-2.2856668238091515e-06,4.3010706463064707e-07,0.0002670245012268424,0.00026791717391461134,-0.0001043803058564663,-0.0017406563274562359,0.00421176990494132,-0.00012850540224462748,-0.09811483323574066,0.08714796602725983,1.2994639873504639,-2.4434244632720947,2.2047297954559326,-0.9908967614173889,0.394546777009964,0.6376947164535522,0.42000001668930054,-1.3800537586212158,3.00000262260437,-0.19594599306583405,-2.999999523162842,0.008291643112897873,0.006810914259403944,0.005219231825321913,0.003510889830067754,0.1517755389213562,0.10092459619045258,0.048040419816970825,-0.006960467901080847
0.08333333333333333,0.03450349345803261,0.035684842616319656,0.0,0.9999992251396179,0.0,0.0,0.0012513574911281466,0.18942339718341827,0.8243236541748047,0.0,0.0,0.0,-4.93587064743042,-0.4455365240573883,0.6821827292442322,0.4200000464916229,0.9999999403953552,3.626007128332276e-06,-2.335401404707227e-06,3.0324841304718575e-07,0.0002661396865732968,0.00026684964541345835,-0.00010405061766505241,-0.0017283027991652489,0.004196319729089737,-0.00012790360779035836,-0.137484610080719,0.12811823189258575,1.277972936630249,-2.304292678833008,2.5926032066345215,-1.4844636917114258,0.394546777009964,0.6376947164535522,0.42000001668930054,-1.3300238847732544,2.9999945163726807,-0.1644660234451294,3.0000014305114746,0.005323151592165232,0.0032835460733622313,0.0010825737845152617,-0.001289825770072639,-0.2730914354324341,-0.3126380443572998,-0.35472849011421204,-0.3996601998806
0.1,0.04407862201333046,0.049654897302389145,0.0,0.9999142289161682,0.0,0.0,-0.013096953742206097,0.6749061346054077,0.8509494662284851,0.0,0.0,0.0,-0.7060070633888245,-0.4455365240573883,0.6821827292442322,0.4200000464916229,1.0,3.4220852285216097e-06,-2.308649982296629e-06,1.7965334109248943e-07,0.0002668154484126717,0.000268004194367677,-0.00010440708138048649,-0.0017430060543119907,0.004207085818052292,-0.00012891326332464814,-0.1782267540693283,0.16642987728118896,1.2547779083251953,-2.4271652698516846,2.3098134994506836,-1.3906890153884888,0.394546777009964,0.6376947164535522,0.42000001668930054,-1.2800230979919434,3.0000011920928955,-0.196133553981781,-3.000000476837158,0.005723536480218172,0.0022012596018612385,-0.0014787130057811737,-0.005328772123903036,0.05606033653020859,-0.04689162224531174,-0.1489821821451187,-0.25013041496276855
0.11666666666666667,0.05179188773036003,0.061346881091594696,0.0,0.999190092086792,0.0,0.0,-0.04023820161819458,0.46251386404037476,0.6578497886657715,0.0,0.0,0.0,-3.9193150997161865,-0.4455365240573883,0.682182788848877,0.4200000464916229,1.0,3.7114855331310537e-06,-2.332717940589646e-06,2.5745248422026634e-07,0.00026485795387998223,0.0002663535706233233,-0.00010423408821225166,-0.0017181923612952232,0.004170115105807781,-0.0001291551161557436,-0.2147398144006729,0.2119172215461731,1.2304610013961792,-1.983986258506775,3.1009016036987305,-1.4669610261917114,0.394546777009964,0.6376947164535522,0.42000001668930054,-1.2299978733062744,2.9999914169311523,-0.1623586267232895,2.999999761581421,0.004643386695533991,-0.0007684450829401612,-0.006310309283435345,-0.011993137188255787,-0.02342054806649685,-0.1579657346010208,-0.2894940972328186,-0.41778770089149475
0.13333333333333333,0.056676242500543594,0.07423090189695358,0.0,0.9957927465438843,0.0,0.0,-0.09163407981395721,0.2238670438528061,0.8241251707077026,0.0,0.0,0.0,-7.014682292938232,-0.4455365240573883,0.6821827292442322,0.4200000464916229,1.0,3.3357036954839714e-06,-2.2319193249131786e-06,3.113252375896991e-07,0.00026669810176827013,0.0002675947907846421,-0.00010428531095385551,-0.0017370772548019886,0.0042058308608829975,-0.0001284025056520477,-0.24875253438949585,0.26480573415756226,1.2048470973968506,-2.035867929458618,3.2806344032287598,-1.6686112880706787,0.394546777009964,0.6376947164535522,0.42000001668930054,-1.1881839036941528,2.063169479370117,-0.1940934956073761,-3.000000238418579,0.00294628762640059,-0.004632796160876751,-0.012276535853743553,-0.01999187469482422,-0.17811644077301025,-0.29472464323043823,-0.4072624444961548,-0.5155337452888489
0.15,0.058374930173158646,0.08538716286420822,0.0,0.9924822449684143,0.0,0.0,-0.12238866835832596,0.05450200289487839,0.5897732377052307,0.0,0.0,0.0,-2.624251127243042,-0.4455365240573883,0.6821827292442322,0.4200000464916229,1.0,3.518945050018374e-06,-2.283112280565547e-06,-3.6253939583730244e-07,0.00026618465199135244,0.00026735689607448876,-0.00010425783693790436,-0.0017348835244774818,0.004195805639028549,-0.00012861379946116358,-0.28840652108192444,0.3167981505393982,1.1706873178482056,-2.335573673248291,3.3352999687194824,-2.3925747871398926,0.394546777009964,0.6376947164535522,0.42000001668930054,-1.1416196823120117,2.9999992847442627,-0.17415207624435425,3.0,-0.0008853601175360382,-0.010112699121236801,-0.019326966255903244,-0.028533954173326492,-0.28768500685691833,-0.36691814661026,-0.4416651427745819,-0.5119822025299072
0.16666666666666666,0.05711349472403526,0.09703535586595535,0.0,0.9864060878753662,0.0,0.0,-0.16432608664035797,-0.16580794751644135,0.7418946027755737,0.0,0.0,0.0,-5.900182247161865,-0.4455365240573883,0.6821827292442322,0.4200000464916229,1.0,3.66662789019756e-06,-2.339195589229348e-06,-3.1499598662776407e-07,0.00026595781673677266,0.00026667400379665196,-0.00010403618216514587,-0.0017254058038815856,0.0041928826831281185,-0.00012778442760463804,-0.32512181997299194,0.3760514259338379,1.1281981468200684,-1.9676541090011597,3.805476188659668,-2.709613084793091,0.394546777009964,0.6376947164535522,0.42000001668930054,-1.0916297435760498,2.9999985694885254,-0.2057916224002838,-3.000000476837158,-0.007613921072334051,-0.018088258802890778,-0.02846848964691162,-0.03876132518053055,-0.503865122795105,-0.5677230358123779,-0.6270043849945068,-0.6817664504051208
0.18333333333333332,0.06023641675710678,0.1105894073843956,0.0,0.982079029083252,0.0,0.0,-0.18846945464611053,0.3059549033641815,0.8709085583686829,0.0,0.0,0.0,-1.9171521663665771,-0.4455365240573883,0.6821827292442322,0.4200000464916229,1.0,3.814332103502238e-06,-2.3995876290427987e-06,-2.702606138882402e-07,0.0002654899435583502,0.00026610950590111315,-0.00010390975512564182,-0.0017176909605041146,0.0041847554966807365,-0.00012753659393638372,-0.3609454035758972,0.4356269836425781,1.0762054920196533,-1.9993380308151245,3.634265899658203,-3.4992387294769287,0.394546777009964,0.6376947164535522,0.42000001668930054,-1.05231511592865,1.7892669439315796,-0.2558199465274811,-3.0000007152557373,-0.013688626699149609,-0.025027446448802948,-0.03619326278567314,-0.04719772934913635,-0.36897405982017517,-0.3995340168476105,-0.42611587047576904,-0.449139803647995
0.2,0.05998174473643303,0.12147838622331619,0.0,0.974075436592102,0.0,0.0,-0.22622349858283997,-0.06965869665145874,0.628208339214325,0.0,0.0,0.0,-5.294815540313721,-0.4455365240573883,0.6821827292442322,0.4200000464916229,1.0,3.600046738938545e-06,-2.2912495296623092e-06,-2.201834092829813e-07,0.00026572891511023045,0.00026644940953701735,-0.00010398216545581818,-0.00172265840228647,0.004188699182122946,-0.00012773076014127582,-0.3927046060562134,0.4976034164428711,1.0105398893356323,-1.6430354118347168,3.8355705738067627,-4.289493083953857,0.394546777009964,0.6376947164535522,0.42000001668930054,-1.0047317743301392,2.9999990463256836,-0.30584731698036194,-3.0,-0.026167387142777443,-0.03707345202565193,-0.04779140278697014,-0.058347731828689575,-0.8799177408218384,-0.8330696225166321,-0.7860596179962158,-0.7397279739379883
0.21666666666666667,0.06010323017835617,0.13322347402572632,0.0,0.9698354601860046,0.0,0.0,-0.2437605857849121,0.07670820504426956,0.7374394536018372,0.0,0.0,0.0,-1.1338648796081543,-0.4455365240573883,0.6821827292442322,0.4200000464916229,0.9999999403953552,3.6396800169313792e-06,-2.262049974888214e-06,2.2246886999255366e-07,0.00026687380159273744,0.0002675444702617824,-0.00010411953553557396,-0.001740359584800899,0.004211038816720247,-0.00012783762940671295,-0.4222787618637085,0.5528624057769775,0.9331381320953369,-1.5679020881652832,3.0853006839752197,-4.957776069641113,0.394546777009964,0.6376947164535522,0.42000001668930054,-0.9547252655029297,3.0,-0.3558765947818756,-3.000000476837158,-0.04236149415373802,-0.052821870893239975,-0.062452446669340134,-0.07161034643650055,-0.9932186007499695,-0.99397873878479,-0.9382292032241821,-0.8328393697738647
0.23333333333333334,0.0590750016272068,0.1423676759004593,0.0,0.9618582725524902,0.0,0.0,-0.2735482156276703,-0.11838147044181824,0.4787499010562897,0.0,0.0,0.0,-4.557058811187744,-0.4455364942550659,0.6821827292442322,0.4200000464916229,1.0,3.4207453154522227e-06,-2.3168672669271473e-06,2.9559359404629504e-07,0.0002668002271093428,0.00026803958462551236,-0.0001044226810336113,-0.0017436748603358865,0.004206745885312557,-0.00012899730063509196,-0.4452330470085144,0.6028527021408081,0.8438625335693359,-1.0903432369232178,2.815178871154785,-5.599699020385742,0.394546777009964,0.6376947164535522,0.42000001668930054,-0.9047145843505859,2.999998092651367,-0.4059073030948639,-2.999999523162842,-0.05880320817232132,-0.06921961158514023,-0.07879834622144699,-0.08783436566591263,-0.9885852336883545,-0.9907963871955872,-0.9925123453140259,-0.9840418696403503
0.25,0.05500856786966324,0.1479671746492386,0.0,0.9586476683616638,0.0,0.0,-0.2845955789089203,-0.28675076365470886,0.23519936203956604,0.0,0.0,0.0,-0.3728407621383667,-0.4455365240573883,0.6821827292442322,0.4200000464916229,0.9999999403953552,3.347649908391759e-06,-2.2592610093852272e-06,1.808287350968385e-07,0.0002668778761290014,0.0002679122262634337,-0.00010439427569508553,-0.0017405308317393064,0.004208267666399479,-0.0001287017366848886,-0.4638117551803589,0.6390395164489746,0.7485276460647583,-0.8856915235519409,1.7095048427581787,-5.843669414520264,0.394546777009964,0.6376947164535522,0.42000001668930054,-0.8547039031982422,2.9999935626983643,-0.4559389054775238,-3.0000007152557373,-0.07536837458610535,-0.08575043827295303,-0.09530539065599442,-0.10432125627994537,-0.9881308674812317,-0.9906274676322937,-0.9915197491645813,-0.9912022352218628
0.26666666666666666,0.051259104162454605,0.14949707686901093,0.0,0.9516941905021667,0.0,0.0,-0.30704745650291443,-0.1896846443414688,0.024956028908491135,0.0,0.0,0.0,-3.605130434036255,-0.4455365240573883,0.6821827292442322,0.4200000464916229,0.9999999403953552,3.5357800243218662e-06,-2.300360165463644e-06,-1.268776941287797e-07,0.0002660180034581572,0.0002671218535397202,-0.0001041970681399107,-0.0017316099256277084,0.004192830063402653,-0.00012849360064137727,-0.4733138978481293,0.6619537472724915,0.6459469795227051,-0.18456266820430756,0.9557750225067139,-6.24381160736084,0.394546777009964,0.6376947164535522,0.42000001668930054,-0.8046947121620178,2.9999964237213135,-0.5059697031974792,-2.999997615814209,-0.09259380400180817,-0.10281239449977875,-0.11224254965782166,-0.12115918099880219,-0.9946889877319336,-0.995485246181488,-0.9961112141609192,-0.9966229796409607
0.2833333333333333,0.04513468220829964,0.14861120283603668,0.0,0.95025235414505,0.0,0.0,-0.31148117780685425,-0.3717873990535736,-0.10858894884586334,0.0,0.0,0.0,0.3827340602874756,-0.4455365240573883,0.682182788848877,0.4200000464916229,1.0,3.5935388496000087e-06,-2.2627079943049466e-06,-5.6562196704135204e-08,0.0002670464455150068,0.00026775040896609426,-0.00010416749864816666,-0.001743161934427917,0.004214160609990358,-0.00012789397442247719,-0.47399991750717163,0.6726016998291016,0.5498555898666382,0.15875765681266785,0.510827898979187,-5.402839183807373,0.394546777009964,0.6376947164535522,0.42000001668930054,-0.7546859383583069,3.0000016689300537,-0.5559993386268616,-3.000000476837158,-0.10997969657182693,-0.12004348635673523,-0.12936867773532867,-0.13820305466651917,-1.0110552310943604,-1.008321762084961,-1.0062389373779297,-1.0045808553695679
0.3,0.037098478525877,0.14510329067707062,0.0,0.9445265531539917,0.0,0.0,-0.32843515276908875,-0.5380528569221497,-0.26150327920913696,0.0,0.0,0.0,-2.9277851581573486,-0.4455364942550659,0.6821827292442322,0.4200000464916229,0.9999999403953552,3.7250752029649448e-06,-2.2361496121448e-06,3.8286421499833523e-07,0.00026479942607693374,0.00026673139655031264,-0.00010454049333930016,-0.0017189221689477563,0.004166769329458475,-0.00013016645971219987,-0.46535441279411316,0.6802496910095215,0.45962047576904297,0.8959332704544067,0.3423615097999573,-5.284348487854004,0.394546777009964,0.6376947164535522,0.42000001668930054,-0.7046780586242676,3.0000016689300537,-0.6060270667076111,-3.000002384185791,-0.12739183008670807,-0.13727371394634247,-0.14645953476428986,-0.1551828533411026,-1.0069618225097656,-1.005260705947876,-1.0039602518081665,-1.0029194355010986
0.31666666666666665,0.026754779741168022,0.13911300897598267,0.0,0.9446260929107666,0.0,0.0,-0.32814866304397583,-0.6573486924171448,-0.39913925528526306,0.0,0.0,0.0,0.9641554951667786,-0.4454940855503082,0.682140052318573,0.41999995708465576,0.9999994039535522,8.367302939404908e-07,-4.66500387119595e-06,-0.0010713018709793687,0.006667214445769787,-0.00512254424393177,-9.59123281063512e-05,-0.0043123215436935425,0.0073509239591658115,-0.27106496691703796,-0.45737147331237793,0.6837486624717712,0.42611879110336304,-0.01603510230779648,-0.023429162800312042,-0.14175476133823395,0.394546777009964,0.6376947164535522,0.42000001668930054,-0.6547017097473145,2.9949305057525635,-0.6564754247665405,-2.9805283546447754,-0.13656829297542572,-0.14681708812713623,-0.15615098178386688,-0.1647462546825409,-0.32278022170066833,-0.3205634355545044,-0.2964381277561188,-0.24529705941677094
0.3333333333333333,0.014267953112721443,0.13080157339572906,0.0,0.9397495985031128,0.0,0.0,-0.34186357259750366,-0.796482503414154,-0.5395586490631104,0.0,0.0,0.0,-2.6391468048095703,-0.445494145154953,0.6821398138999939,0.4200000464916229,0.9999993443489075,3.0682547276228433e-06,-2.319743998668855e-06,-0.0010711478535085917,0.0002566700568422675,0.00022320542484521866,-8.396897464990616e-05,-0.0013667289167642593,0.004259721376001835,-6.517669680761173e-05,-0.4582382142543793,0.6858481168746948,0.4237549602985382,0.11768452823162079,0.13697583973407745,-0.18181881308555603,0.394546777009964,0.6376947164535522,0.42000001668930054,-0.6046956777572632,2.999990940093994,-0.7065248489379883,-2.9999887943267822,-0.143113374710083,-0.15272577106952667,-0.1610744744539261,-0.16826540231704712,-0.4497213065624237,-0.3765289783477783,-0.28591734170913696,-0.17447984218597412
0.35,-0.00018651789287105203,0.12018831819295883,0.0,0.940499484539032,0.0,0.0,-0.3397951126098633,-0.9207993745803833,-0.6767460107803345,0.0,0.0,0.0,1.2029728889465332,-0.4431133270263672,0.6860477328300476,0.4200019836425781,0.9992546439170837,1.000034808384953e-05,2.9893670216551982e-05,-0.0385998897254467,0.2781709134578705,0.42289185523986816,0.00015316878852900118,0.16575315594673157,-0.11854741722345352,-7.93560266494751,-0.4549224376678467,0.6909183263778687,0.4209650754928589,0.28095197677612305,0.456926554441452,-0.13265202939510345,0.394546777009964,0.6376947164535522,0.42000001668930054,-0.5546907186508179,2.9999992847442627,-0.7565562725067139,-2.9999759197235107,-0.1518203616142273,-0.1596260517835617,-0.16589665412902832,-0.1706993728876114,-0.5141429305076599,-0.39177557826042175,-0.25423258543014526,-0.09961628168821335
0.36666666666666664,-0.011218318715691566,0.10680684447288513,0.0,0.9361746311187744,0.0,0.0,-0.3515353798866272,-0.5775623321533203,-0.8500348329544067,0.0,0.0,0.0,-2.3827271461486816,-0.4390450417995453,0.6922768354415894,0.4200000464916229,0.9956111311912537,8.342339583577996e-07,2.1297692001098767e-06,-0.09358654916286469,0.23269209265708923,0.35727575421333313,-1.4291144907474518e-06,7.255782838910818e-05,-1.1564563465071842e-05,-6.17733097076416,-0.44891345500946045,0.6970822811126709,0.42092329263687134,0.4969349503517151,0.4181011915206909,0.08699338138103485,0.394546777009964,0.6376947164535522,0.42000001668930054,-0.504643976688385,2.9999845027923584,-0.8065712451934814,-2.9999754428863525,-0.16038894653320312,-0.16568532586097717,-0.1691603660583496,-0.17086894810199738,-0.4916744530200958,-0.320980966091156,-0.13390162587165833,0.06953080743551254
0.3833333333333333,-0.024941880255937576,0.09177375584840775,0.0,0.9205034971237183,0.0,0.0,-0.39073434472084045,-0.9151920080184937,-0.9268177151679993,0.0,0.0,0.0,-5.999334335327148,-0.4302261769771576,0.7030454277992249,0.42012715339660645,0.9772015810012817,-0.001199058722704649,-0.0012590329861268401,-0.21230629086494446,0.7174344062805176,0.8441624641418457,-0.021401939913630486,2.727952480316162,-2.88828444480896,-22.44227409362793,-0.4366414248943329,0.7087550163269043,0.42260581254959106,1.0212466716766357,1.0734789371490479,0.11750349402427673,0.394546777009964,0.6376947164535522,0.42000001668930054,-0.45459428429603577,2.9999992847442627,-0.8565812110900879,-2.999972105026245,-0.17076222598552704,-0.17278125882148743,-0.17271186411380768,-0.1706285923719406,-0.5956386923789978,-0.40092289447784424,-0.19050657749176025,0.034076422452926636
0.4,-0.035489559173583984,0.07381079345941544,0.0,0.8908554315567017,0.0,0.0,-0.45428693294525146,-0.6008992791175842,-1.1201540231704712,0.0,0.0,0.0,-9.169238090515137,-0.3996086120605469,0.7291016578674316,0.4225998520851135,0.9664394855499268,-0.019660910591483116,-0.015493354760110378,-0.25567179918289185,2.8629260063171387,1.6995090246200562,0.08020146936178207,30.50067138671875,-16.58774757385254,9.50912094116211,-0.4062769114971161,0.733460545539856,0.42456960678100586,2.786923408508301,1.9866341352462769,0.2752029597759247,0.394546777009964,0.6376947164535522,0.42000001668930054,-0.4060368835926056,2.3265185356140137,-0.8986815214157104,-2.116215467453003,-0.18038909137248993,-0.17869684100151062,-0.17467771470546722,-0.16845743358135223,-0.6935884356498718,-0.4197467267513275,-0.13630831241607666,0.15165939927101135
0.4166666666666667,-0.04410082846879959,0.060962945222854614,0.0,0.8439675569534302,0.0,0.0,-0.5363942384719849,-0.4680308401584625,-0.6481112837791443,0.0,0.0,0.0,-12.151824951171875,-0.32614436745643616,0.765999436378479,0.4262808859348297,0.947560727596283,0.03085268661379814,-0.059562426060438156,-0.3124564290046692,5.9176201820373535,2.8204081058502197,0.09835305064916611,30.79786491394043,-22.4068603515625,7.750551700592041,-0.3325791358947754,0.77203768491745,0.4277181029319763,5.635947227478027,2.6516170501708984,0.319358229637146,0.394546777009964,0.6376947164535522,0.42000001668930054,-0.3732084631919861,1.1550849676132202,-0.8580169677734375,2.998904228210449,-0.1963072121143341,-0.19223803281784058,-0.1821243166923523,-0.17004181444644928,-0.8647794723510742,-0.8699818849563599,-0.5258030891418457,-0.19875022768974304
0.43333333333333335,-0.04875427484512329,0.05108875408768654,0.0,0.7857662439346313,0.0,0.0,-0.6185235977172852,-0.2147139608860016,-0.5486336946487427,0.0,0.0,0.0,-12.041109085083008,-0.22508850693702698,0.8078810572624207,0.4319894313812256,0.9186935424804688,0.11027204245328903,-0.11107368022203445,-0.3626360595226288,6.889520168304443,1.824865460395813,0.4157460927963257,0.38794517517089844,-10.051814079284668,17.71013641357422,-0.23061542212963104,0.8158382177352905,0.4338071942329407,6.6122307777404785,2.4049854278564453,0.4108623266220093,0.394546777009964,0.6376947164535522,0.42000001668930054,-0.3626246452331543,0.24353963136672974,-0.8080050349235535,2.9984312057495117,-0.20792622864246368,-0.20436488091945648,-0.1904897540807724,-0.17407546937465668,-0.6628408432006836,-0.6621261835098267,-0.4722195863723755,-0.26165056228637695
0.45,-0.050568319857120514,0.044936083257198334,0.0,0.7391939163208008,0.0,0.0,-0.6734926104545593,-0.02886635810136795,-0.3195904493331909,0.0,0.0,0.0,-7.5037126541137695,-0.11493594944477081,0.8336608409881592,0.43634095788002014,0.8496633172035217,0.07104989141225815,-0.2553974688053131,-0.45584672689437866,6.638091564178467,0.7222071886062622,0.3783133924007416,-15.669113159179688,-17.566848754882812,-6.102958679199219,-0.12401017546653748,0.8453512787818909,0.44246625900268555,6.323456287384033,1.1059937477111816,0.5995765328407288,0.394546777009964,0.6376947164535522,0.42000001668930054,-0.35479146242141724,0.647196352481842,-0.8345916867256165,-2.9998953342437744,-0.22242134809494019,-0.21692445874214172,-0.19904321432113647,-0.17864766716957092,-0.8347306847572327,-0.6894003748893738,-0.4692472219467163,-0.2616409957408905
0.4666666666666667,-0.05424502491950989,0.03383819758892059,0.0,0.7132258415222168,0.0,0.0,-0.7009342908859253,-0.15213324129581451,-0.5684043169021606,0.0,0.0,0.0,-3.205531358718872,-0.011490274220705032,0.8418033123016357,0.4443691074848175,0.8079582452774048,0.03910709545016289,-0.23858502507209778,-0.5373556613922119,6.189723014831543,-1.1516882181167603,0.9194625616073608,6.405452728271484,2.9692111015319824,39.249061584472656,-0.01915307529270649,0.855830192565918,0.4511956572532654,6.334514617919922,-0.16912370920181274,0.507063627243042,0.394546777009964,0.6376947164535522,0.42000001668930054,-0.3415626883506775,0.785865843296051,-0.8846170902252197,-3.000002861022949,-0.23367901146411896,-0.22487547993659973,-0.20308828353881836,-0.17909112572669983,-1.0000009536743164,-0.7049375176429749,-0.38269034028053284,-0.09259361028671265
0.48333333333333334,-0.05798843502998352,0.028811950236558914,0.0,0.7045922875404358,0.0,0.0,-0.7096123695373535,-0.2439853399991989,-0.20717620849609375,0.0,0.0,0.0,-0.6871369481086731,0.0830095037817955,0.827673077583313,0.4509565830230713,0.7472374439239502,0.027433274313807487,-0.20580679178237915,-0.631290078163147,4.409449577331543,-1.9219368696212769,0.7189444899559021,-14.84389877319336,21.357559204101562,34.59007263183594,0.07754704356193542,0.8434430956840515,0.45849111676216125,5.531778812408447,-1.2438201904296875,0.25050774216651917,0.394546777009964,0.6376947164535522,0.42000001668930054,-0.3306342363357544,0.42798468470573425,-0.9346417188644409,-2.9933812618255615,-0.24004411697387695,-0.239075168967247,-0.21180425584316254,-0.18287204205989838,-0.031082509085536003,-0.7714087963104248,-0.48473799228668213,-0.2273261994123459
0.5,-0.060080889612436295,0.019504643976688385,0.0,0.6864556074142456,0.0,0.0,-0.7271717190742493,-0.1146189346909523,-0.5742042064666748,0.0,0.0,0.0,-3.817429542541504,0.16022035479545593,0.8029412627220154,0.45107585191726685,0.6680773496627808,-0.012865046039223671,-0.21109285950660706,-0.7134050726890564,3.7490766048431396,-2.5913920402526855,0.1924733966588974,-14.044922828674316,17.559507369995117,8.098333358764648,0.1551203429698944,0.8215005397796631,0.46038806438446045,4.362635612487793,-1.7247121334075928,-0.04265774041414261,0.394546777009964,0.6376947164535522,0.42000001668930054,-0.32562172412872314,0.08875223994255066,-0.9846655130386353,-2.9940361976623535,-0.23574237525463104,-0.24000421166419983,-0.21500366926193237,-0.18363626301288605,0.15548475086688995,-0.029036669060587883,-0.13763433694839478,-0.02161118946969509
0.5166666666666666,-0.05943801626563072,0.0157102532684803,0.0,0.681422233581543,0.0,0.0,-0.7318904995918274,0.06855063140392303,-0.16900581121444702,0.0,0.0,0.0,0.17187876999378204,0.22527197003364563,0.7686161398887634,0.4455312192440033,0.589020311832428,-0.08384563028812408,-0.21130885183811188,-0.7754826545715332,3.133082866668701,-2.3326120376586914,-0.08608150482177734,17.879562377929688,9.815595626831055,16.514375686645508,0.22136487066745758,0.7881871461868286,0.457106351852417,3.918710231781006,-2.2436561584472656,-0.509091854095459,0.394546777009964,0.6376947164535522,0.42000001668930054,-0.3240497410297394,0.17080804705619812,-1.0346882343292236,-2.9949092864990234,-0.23638975620269775,-0.23982302844524384,-0.2182827889919281,-0.18553321063518524,0.11495538055896759,0.05597642436623573,-0.05992700532078743,-0.05918589234352112
0.5333333333333333,-0.05622372403740883,0.008411393500864506,0.0,0.6669082045555115,0.0,0.0,-0.7451398968696594,0.21800024807453156,-0.4753051996231079,0.0,0.0,0.0,-3.2283477783203125,0.2805478870868683,0.7361246943473816,0.43560776114463806,0.5403338670730591,-0.04324997961521149,-0.12372608482837677,-0.8311801552772522,2.8595213890075684,-2.3399436473846436,-0.915183961391449,-9.161004066467285,5.416714191436768,-5.472734451293945,0.27820342779159546,0.7532231211662292,0.4444463849067688,2.990781784057617,-2.112751007080078,-0.8574709892272949,0.394546777009964,0.6376947164535522,0.42000001668930054,-0.31317242980003357,1.1002038717269897,-1.0847103595733643,-3.0000009536743164,-0.23047690093517303,-0.23492011427879333,-0.21607743203639984,-0.18477673828601837,0.362638920545578,0.3418048322200775,0.17884068191051483,0.04884248226881027
0.55,-0.05054057762026787,0.004880139138549566,0.0,0.6649008989334106,0.0,0.0,-0.7469315528869629,0.36666154861450195,-0.17198820412158966,0.0,0.0,0.0,0.5755885243415833,0.3216632604598999,0.7028539180755615,0.4229135513305664,0.5013736486434937,-0.0605989545583725,-0.03318227082490921,-0.8624679446220398,2.144773483276367,-2.0531466007232666,0.2012845277786255,-15.938570022583008,-9.175657272338867,14.850586891174316,0.3223531246185303,0.7181236147880554,0.4319136142730713,1.8978331089019775,-1.7321404218673706,-0.11575683951377869,0.394546777009964,0.6376947164535522,0.42000001668930054,-0.2946188747882843,0.8474776148796082,-1.1347324848175049,-3.0000007152557373,-0.2261711210012436,-0.2303856909275055,-0.21415852010250092,-0.18550069630146027,0.38273918628692627,0.3809111714363098,0.19489683210849762,-0.012353859841823578
0.5666666666666667,-0.044213954359292984,-0.00145049300044775,0.0,0.6522838473320007,0.0,0.0,-0.7579747438430786,0.4041476547718048,-0.44219377636909485,0.0,0.0,0.0,-2.788445472717285,0.35413631796836853,0.6845234632492065,0.4201023280620575,0.4939563274383545,-0.0011707128724083304,-0.002488163998350501,-0.8694823384284973,1.487273931503296,-1.9636565446853638,-0.008081797510385513,-0.07216239720582962,1.0795038938522339,23.944881439208984,0.35219258069992065,0.6933039426803589,0.4274837374687195,1.4758890867233276,-1.2904577255249023,-0.284557044506073,0.394546777009964,0.6376947164535522,0.42000001668930054,-0.27539128065109253,1.3927751779556274,-1.1057281494140625,2.999934434890747,-0.2165721356868744,-0.22122204303741455,-0.2086845487356186,-0.1843886822462082,0.5093117356300354,0.5128210186958313,0.309429407119751,0.04360382631421089
0.5833333333333334,-0.03967935964465141,-0.005093226209282875,0.0,0.6528694033622742,0.0,0.0,-0.7574704885482788,0.1775665134191513,-0.1753825545310974,0.0,0.0,0.0,0.9179497361183167,0.3738641142845154,0.664354145526886,0.42084312438964844,0.4890887439250946,-0.010174280032515526,0.018054265528917313,-0.8719877600669861,0.913590133190155,-1.6363660097122192,0.09499683976173401,1.4782112836837769,2.9504966735839844,6.784429550170898,0.37176722288131714,0.6727570295333862,0.4287629723548889,0.9982320070266724,-1.1408979892730713,0.04716208949685097,0.394546777009964,0.6376947164535522,0.42000001668930054,-0.2519655227661133,1.2016746997833252,-1.1287479400634766,-3.000006675720215,-0.20953334867954254,-0.21381860971450806,-0.20439590513706207,-0.1844993233680725,0.4508907198905945,0.4647062122821808,0.2699451744556427,-0.012789987027645111
0.6,-0.03506546467542648,-0.005905934143811464,0.0,0.6433529257774353,0.0,0.0,-0.7655697464942932,0.32433465123176575,0.0682108998298645,0.0,0.0,0.0,-2.3001978397369385,0.3867763578891754,0.6519404053688049,0.4203104078769684,0.4984252452850342,0.003946914803236723,-0.005588530097156763,-0.8669056296348572,0.5887980461120605,-0.9180037379264832,0.2517422139644623,11.114124298095703,-7.5757737159729,13.973477363586426,0.3841209411621094,0.6591078042984009,0.429059237241745,0.43557313084602356,-0.5811007022857666,-0.029596945270895958,0.394546777009964,0.6376947164535522,0.42000001668930054,-0.2450418770313263,0.008269814774394035,-1.0910626649856567,3.0000112056732178,-0.2002735733985901,-0.20509310066699982,-0.19944049417972565,-0.18473999202251434,0.5461134910583496,0.5093581080436707,0.2872557044029236,-0.023687638342380524
0.6166666666666667,-0.027929073199629784,-0.010022257454693317,0.0,0.6468280553817749,0.0,0.0,-0.7626358270645142,0.42003709077835083,-0.2645028829574585,0.0,0.0,0.0,1.411171793937683,0.39370661973953247,0.6434620022773743,0.420000821352005,0.5140101909637451,1.3108445955367642e-06,1.395182380292681e-06,-0.8577839732170105,0.357125461101532,-0.45495492219924927,-2.7965807021246292e-05,0.0009250540169887245,-0.0007717795670032501,1.8830053806304932,0.3891378939151764,0.6495699882507324,0.4265785813331604,0.06989489495754242,-0.5431228876113892,-0.3783358931541443,0.394546777009964,0.6376947164535522,0.42000001668930054,-0.27656733989715576,-3.0000007152557373,-1.1141536235809326,-3.0,-0.1880641132593155,-0.19376152753829956,-0.19191007316112518,-0.18252380192279816,0.6471436619758606,0.6215687990188599,0.42701709270477295,0.13582691550254822
0.6333333333333333,-0.01891227252781391,-0.009979852475225925,0.0,0.6388782262802124,0.0,0.0,-0.7693079113960266,0.5759100317955017,0.009487335570156574,0.0,0.0,0.0,-2.1141271591186523,0.3961038589477539,0.639178991317749,0.4200006425380707,0.5286643505096436,-4.927390909870155e-05,-9.290673915529624e-06,-0.8488309979438782,0.10942978411912918,-0.139700785279274,-0.001343584735877812,-0.045621514320373535,-0.06170723959803581,2.715402603149414,0.3907439708709717,0.647649884223938,0.427264928817749,0.19551816582679749,0.07902098447084427,0.1865869164466858,0.394546777009964,0.6376947164535522,0.42000001668930054,-0.3169359862804413,-1.9168331623077393,-1.164070963859558,-2.998548746109009,-0.17880059778690338,-0.1850532442331314,-0.18622693419456482,-0.18132922053337097,0.674049437046051,0.6052359938621521,0.40679097175598145,0.12938861548900604
0.65,-0.007922814227640629,-0.013364704325795174,0.0,0.6435664296150208,0.0,0.0,-0.7653902769088745,0.6890568137168884,-0.21797093749046326,0.0,0.0,0.0,1.6171399354934692,0.39684122800827026,0.6379430294036865,0.4200134873390198,0.5376377105712891,0.00019113739836029708,-0.00027647032402455807,-0.8431757688522339,-0.03600645437836647,-0.03406068682670593,0.0091863963752985,-0.21483930945396423,-0.42212000489234924,1.1046947240829468,0.39075174927711487,0.6483348608016968,0.4304921627044678,-0.1219213604927063,-0.02029288001358509,0.20465213060379028,0.394546777009964,0.6376947164535522,0.42000001668930054,-0.3654070496559143,-2.999664783477783,-1.2140612602233887,-2.9998083114624023,-0.16778136789798737,-0.17477574944496155,-0.17867380380630493,-0.17781949043273926,0.46253472566604614,0.4696024954319,0.365936279296875,0.18086504936218262
0.6666666666666666,0.00209177122451365,-0.014170042239129543,0.0,0.6674525141716003,0.0,0.0,-0.7446523904800415,0.5237679481506348,-0.017575370147824287,0.0,0.0,0.0,4.931215763092041,0.3962128162384033,0.6376323699951172,0.42000114917755127,0.5321018695831299,1.278185209230287e-05,2.275866972922813e-05,-0.8466802835464478,-0.07351484149694443,-0.025074724107980728,-0.0020842573139816523,-0.07878223806619644,0.015635568648576736,-2.907893657684326,0.3887040615081787,0.6473839282989502,0.4340948462486267,-0.1529713124036789,-0.04357849061489105,0.23411478102207184,0.394546777009964,0.6376947164535522,0.42000001668930054,-0.41541361808776855,-2.9999849796295166,-1.264037013053894,-2.999504804611206,-0.16185909509658813,-0.16832439601421356,-0.17325037717819214,-0.17464888095855713,0.35671886801719666,0.39516448974609375,0.35512107610702515,0.24896939098834991
0.6833333333333333,0.012054149061441422,-0.01758536323904991,0.0,0.6786736845970154,0.0,0.0,-0.7344399094581604,0.6265917420387268,-0.25065669417381287,0.0,0.0,0.0,0.7621127963066101,0.3947541117668152,0.6374076008796692,0.4200003445148468,0.5225140452384949,4.973043814970879e-06,4.446760613063816e-06,-0.852630615234375,-0.10867030918598175,-0.008394705131649971,-0.0006029825890436769,-0.026174813508987427,0.005916012916713953,-0.8891423940658569,0.3867533206939697,0.6480029821395874,0.43911468982696533,-0.15404997766017914,-0.01783592998981476,0.3310103416442871,0.394546777009964,0.6376947164535522,0.42000001668930054,-0.4654226303100586,-2.9999382495880127,-1.3140085935592651,-2.9999756813049316,-0.15706399083137512,-0.16228190064430237,-0.16697505116462708,-0.16907499730587006,0.21896347403526306,0.3281586468219757,0.3898809552192688,0.4025718867778778
0.7,0.023712145164608955,-0.02402089349925518,0.0,0.6673046350479126,0.0,0.0,-0.7447848916053772,0.7327561378479004,-0.4546908736228943,0.0,0.0,0.0,-2.737480640411377,0.39392411708831787,0.6373281478881836,0.41999998688697815,0.5182709693908691,-3.2556761198065942e-06,4.588315789533226e-07,-0.855216383934021,-0.02809511497616768,-0.0037809363566339016,-7.786066271364689e-05,-0.000862380547914654,-0.003058903617784381,-0.5085957646369934,0.3893205523490906,0.6485437154769897,0.4499591588973999,0.41264528036117554,0.03655746579170227,1.065933108329773,0.394546777009964,0.6376947164535522,0.42000001668930054,-0.5154352188110352,-2.9999942779541016,-1.3640269041061401,-3.000000238418579,-0.15577976405620575,-0.15892620384693146,-0.1621209979057312,-0.16340653598308563,0.011031008325517178,0.14362283051013947,0.25255724787712097,0.327179491519928
0.7166666666666667,0.03831546753644943,-0.02616572380065918,0.0,0.634103536605835,0.0,0.0,-0.7732481360435486,0.8664363026618958,-0.0948137640953064,0.0,0.0,0.0,-6.099423885345459,0.39392372965812683,0.6373284459114075,0.4199999272823334,0.5182712078094482,-1.628275072107499e-06,-6.0893316913279705e-06,-0.8552162051200867,2.5306457246188074e-05,-0.00040962296770885587,-6.725126877427101e-05,0.011567804962396622,-0.005457713734358549,-0.0012555420398712158,0.40432387590408325,0.6466975808143616,0.4740986227989197,1.4009382724761963,-0.14751987159252167,1.9284743070602417,0.394546777009964,0.6376947164535522,0.42000001668930054,-0.5654475688934326,-2.9999303817749023,-1.4140452146530151,-2.9999918937683105,-0.16134178638458252,-0.16155382990837097,-0.16207946836948395,-0.1612098515033722,-0.2998957633972168,-0.14468596875667572,0.005111373960971832,0.1324278861284256
0.7333333333333333,0.0542132742702961,-0.026055781170725822,0.0,0.6157323718070984,0.0,0.0,-0.7879553437232971,1.0194194316864014,0.07043339312076569,0.0,0.0,0.0,-1.7893708944320679,0.393923819065094,0.6373283863067627,0.41999995708465576,0.518271267414093,-1.9265387436462333e-06,-4.906814410787774e-06,-0.8552162051200867,1.569811865920201e-05,-0.0003531942202243954,-6.584357470273972e-05,0.00969249103218317,-0.003558153286576271,-0.0010423322673887014,0.4297310411930084,0.6486400365829468,0.5092353224754333,1.5581426620483398,0.34762176871299744,2.249685287475586,0.394546777009964,0.6376947164535522,0.42000001668930054,-0.585720956325531,0.2945631146430969,-1.4640635251998901,-3.000000238418579,-0.16457374393939972,-0.16347543895244598,-0.1626971960067749,-0.16082270443439484,-0.10325746238231659,-0.08714529126882553,-0.06900450587272644,-0.06623806804418564
0.75,0.06758305430412292,-0.02326226979494095,0.0,0.6225913166999817,0.0,0.0,-0.7825471758842468,0.718167245388031,0.20640647411346436,0.0,0.0,0.0,1.9532814025878906,0.393923819065094,0.6373283863067627,0.41999995708465576,0.518271267414093,-1.942923518072348e-06,-5.115191925142426e-06,-0.8552162647247314,1.5755329513922334e-05,-0.0003531592374201864,-6.550736725330353e-05,0.009702987037599087,-0.003581983270123601,-0.0010418423917144537,0.4526638090610504,0.654206395149231,0.540924072265625,1.143866777420044,0.3587836027145386,1.6083707809448242,0.394546777009964,0.6376947164535522,0.42000001668930054,-0.5594237446784973,2.634922504425049,-1.4254364967346191,3.000000476837158,-0.16466419398784637,-0.16351968050003052,-0.16260653734207153,-0.1608104109764099,0.0755666047334671,0.06716338545084,0.06523245573043823,0.051620468497276306
0.7666666666666666,0.0754612609744072,-0.026173070073127747,0.0,0.6171839833259583,0.0,0.0,-0.7868188619613647,0.47749099135398865,-0.16522201895713806,0.0,0.0,0.0,-1.6744005680084229,0.393923819065094,0.6373283863067627,0.41999995708465576,0.5182710886001587,-1.9053322830586694e-06,-5.1571496442193165e-06,-0.8552162647247314,1.6048117686295882e-05,-0.0003531857510097325,-6.550666876137257e-05,0.009703893214464188,-0.0035841187927871943,-0.001042503397911787,0.46565550565719604,0.6631096601486206,0.562088668346405,0.2912505269050598,0.4090100824832916,1.052591323852539,0.394546777009964,0.6376947164535522,0.42000001668930054,-0.5271125435829163,1.332308053970337,-1.3753838539123535,2.999999523162842,-0.1576085239648819,-0.1575278788805008,-0.15752540528774261,-0.15676110982894897,0.1308974325656891,0.13101595640182495,0.13476727902889252,0.12458044290542603
0.7833333333333333,0.08044451475143433,-0.024335503578186035,0.0,0.624310314655304,0.0,0.0,-0.7811764478683472,0.22936324775218964,0.145124614238739,0.0,0.0,0.0,1.9255033731460571,0.393923819065094,0.6373283863067627,0.41999995708465576,0.5182713270187378,-1.9343603980814805e-06,-5.183812845643843e-06,-0.8552162051200867,1.6445916116936132e-05,-0.00035313324769958854,-6.546685472130775e-05,0.009703430347144604,-0.003585720667615533,-0.0010432932758703828,0.46520018577575684,0.6687599420547485,0.575004518032074,-0.2514883577823639,0.38813039660453796,0.5360915064811707,0.394546777009964,0.6376947164535522,0.42000001668930054,-0.4900229275226593,2.9483954906463623,-1.3253731727600098,3.0,-0.1583218276500702,-0.15756115317344666,-0.15686722099781036,-0.15569673478603363,0.03587383031845093,0.06125631555914879,0.08847574889659882,0.10094185173511505
0.8,0.08165615797042847,-0.026348339393734932,0.0,0.6191464066505432,0.0,0.0,-0.7852755784988403,0.027928614988923073,-0.21068327128887177,0.0,0.0,0.0,-1.6901025772094727,0.393923819065094,0.6373283863067627,0.41999995708465576,0.5182712078094482,-1.9069624386247597e-06,-5.212037649471313e-06,-0.8552163243293762,1.625479490030557e-05,-0.00035317690344527364,-6.549479439854622e-05,0.009703963063657284,-0.0035850564017891884,-0.0010429261019453406,0.4551505446434021,0.6748482584953308,0.577979564666748,-0.9695067405700684,0.3477296233177185,0.011271681636571884,0.394546777009964,0.6376947164535522,0.42000001668930054,-0.47056227922439575,-0.3450111448764801,-1.2753205299377441,2.9999990463256836,-0.15696392953395844,-0.15594488382339478,-0.15494981408119202,-0.15368913114070892,0.10206598788499832,0.11560805141925812,0.13082066178321838,0.13384252786636353
0.8166666666666667,0.0804317444562912,-0.023536846041679382,0.0,0.6262496709823608,0.0,0.0,-0.7796225547790527,-0.15135064721107483,0.30692827701568604,0.0,0.0,0.0,1.9579161405563354,0.393923819065094,0.6373283863067627,0.41999995708465576,0.5182710289955139,-1.9319325019750977e-06,-5.0393932724546175e-06,-0.8552163243293762,1.6458330719615333e-05,-0.0003531649417709559,-6.548105739057064e-05,0.009704039432108402,-0.0035858636256307364,-0.0010433185379952192,0.43994206190109253,0.678880512714386,0.5757335424423218,-0.8205161094665527,0.24223166704177856,-0.2567852735519409,0.394546777009964,0.6376947164535522,0.42000001668930054,-0.4574427008628845,1.7293297052383423,-1.2956008911132812,-2.999999523162842,-0.1603408008813858,-0.158137246966362,-0.15600791573524475,-0.15389087796211243,-0.26539865136146545,-0.19001761078834534,-0.11790085583925247,-0.06144092231988907
0.8333333333333334,0.08099012076854706,-0.023118572309613228,0.0,0.6218529343605042,0.0,0.0,-0.7831340432167053,0.017159802839159966,-0.027780678123235703,0.0,0.0,0.0,-1.1326476335525513,0.393923819065094,0.6373283863067627,0.41999995708465576,0.518271267414093,-1.9360716123628663e-06,-5.063465778221143e-06,-0.8552162051200867,1.7737746020429768e-05,-0.00035301019670441747,-6.543705239892006e-05,0.00970026571303606,-0.0035851483698934317,-0.0010457185562700033,0.42309314012527466,0.6813069581985474,0.5650913715362549,-1.2328011989593506,0.05907732993364334,-0.8175775408744812,0.394546777009964,0.6376947164535522,0.42000001668930054,-0.4718245267868042,-2.999305486679077,-1.2574501037597656,3.0,-0.1625741720199585,-0.15956181287765503,-0.15661823749542236,-0.15385650098323822,-0.13736388087272644,-0.09180769324302673,-0.04287343844771385,7.450580596923828e-09
0.85,0.08275202661752701,-0.02616516314446926,0.0,0.6300442218780518,0.0,0.0,-0.7765592932701111,0.1550774872303009,-0.2466411143541336,0.0,0.0,0.0,2.149259567260742,0.393923819065094,0.6373283863067627,0.41999995708465576,0.5182713270187378,-1.931996848725248e-06,-5.101649094285676e-06,-0.8552162051200867,1.7725775251165032e-05,-0.0003531213151291013,-6.54458999633789e-05,0.009703678078949451,-0.003587815212085843,-0.0010460314806550741,0.409268319606781,0.6815623641014099,0.5527551770210266,-0.4826284646987915,-0.014653023332357407,-0.6033564805984497,0.394546777009964,0.6376947164535522,0.42000001668930054,-0.5066795945167542,-1.3022807836532593,-1.2780215740203857,-3.000000476837158,-0.1653042733669281,-0.1612996757030487,-0.1572032868862152,-0.15327376127243042,-0.16899722814559937,-0.10132895410060883,-0.019823860377073288,0.06766443699598312
0.8666666666666667,0.08696837723255157,-0.031857047230005264,0.0,0.6262845396995544,0.0,0.0,-0.7795945405960083,0.2927253246307373,-0.39847806096076965,0.0,0.0,0.0,-1.4696435928344727,0.393923819065094,0.6373283863067627,0.41999995708465576,0.5182712078094482,-1.9115580016659806e-06,-5.155233793630032e-06,-0.8552163243293762,1.597341542947106e-05,-0.0003531880211085081,-6.551621481776237e-05,0.009703682735562325,-0.0035837222822010517,-0.0010423710336908698,0.4064098596572876,0.6779106855392456,0.5392773151397705,0.1196366548538208,-0.3876379728317261,-0.8048995137214661,0.394546777009964,0.6376947164535522,0.42000001668930054,-0.5516988039016724,-2.9999983310699463,-1.3265857696533203,-2.8045997619628906,-0.1694333851337433,-0.16399283707141876,-0.15816059708595276,-0.15232056379318237,-0.24572862684726715,-0.14901261031627655,-0.0319378636777401,0.09884412586688995
0.8833333333333333,0.0937604308128357,-0.039969418197870255,0.0,0.6013383865356445,0.0,0.0,-0.7989944815635681,0.4464152455329895,-0.6022295355796814,0.0,0.0,0.0,-4.639466285705566,0.393923819065094,0.6373283863067627,0.41999995708465576,0.5182712078094482,-1.9205460830562515e-06,-5.158969543117564e-06,-0.8552162051200867,1.8080427253153175e-05,-0.00035310015664435923,-6.541446782648563e-05,0.009703920222818851,-0.00358951254747808,-0.0010466984240338206,0.4135877788066864,0.668390154838562,0.5298563241958618,0.7291051745414734,-0.6986867189407349,-0.18055322766304016,0.394546777009964,0.6376947164535522,0.42000001668930054,-0.601702094078064,-2.9999890327453613,-1.376603603363037,-2.999999523162842,-0.17492862045764923,-0.16782237589359283,-0.15997478365898132,-0.15186835825443268,-0.3225950300693512,-0.22860316932201385,-0.11373105645179749,0.017114996910095215
0.9,0.10307257622480392,-0.045956626534461975,0.0,0.5915566682815552,0.0,0.0,-0.8062633872032166,0.5936779379844666,-0.2707015573978424,0.0,0.0,0.0,-0.40016886591911316,0.393923819065094,0.6373283863067627,0.41999995708465576,0.518271267414093,-1.932264467541245e-06,-5.165183210920077e-06,-0.8552162051200867,1.8079739675158635e-05,-0.00035310263046994805,-6.541633047163486e-05,0.009704118594527245,-0.0035894017200917006,-0.001046698191203177,0.4264849126338959,0.6631069183349609,0.5330280065536499,0.8271875977516174,-0.01666935160756111,0.498542845249176,0.394546777009964,0.6376947164535522,0.42000001668930054,-0.620646059513092,0.44450438022613525,-1.426621913909912,-3.000000476837158,-0.17955519258975983,-0.1720087081193924,-0.16342313587665558,-0.15432818233966827,-0.17394323647022247,-0.21331274509429932,-0.23824870586395264,-0.2492056041955948
