vladlanda/robotic-transformer/data/env_000_episode_0009.csv
sim_time_s,robot_box_x,robot_box_y,robot_box_z,robot_box_quat_w,robot_box_quat_x,robot_box_quat_y,robot_box_quat_z,robot_box_linvel_x,robot_box_linvel_y,robot_box_linvel_z,robot_box_angvel_x,robot_box_angvel_y,robot_box_angvel_z,cube_world_x,cube_world_y,cube_world_z,cube_quat_w,cube_quat_x,cube_quat_y,cube_quat_z,cube_linvel_x,cube_linvel_y,cube_linvel_z,cube_angvel_x,cube_angvel_y,cube_angvel_z,endpoint_world_x,endpoint_world_y,endpoint_world_z,endpoint_linvel_x,endpoint_linvel_y,endpoint_linvel_z,target_cube_world_x,target_cube_world_y,target_cube_world_z,gripper_actual_pos_rad_gp_leftgearjoint,gripper_actual_vel_rad_s_gp_leftgearjoint,gripper_actual_pos_rad_gp_rotatingjoint,gripper_actual_vel_rad_s_gp_rotatingjoint,motor_angle_rad_joint1,motor_angle_rad_joint2,motor_angle_rad_joint3,motor_angle_rad_joint4,motor_speed_rad_s_joint1,motor_speed_rad_s_joint2,motor_speed_rad_s_joint3,motor_speed_rad_s_joint4
0.0,0.0,0.0,0.0,1.0,0.0,0.0,0.0,0.0,0.0,0.0,0.0,0.0,0.0,-0.4658224582672119,0.6816251873970032,0.41999998688697815,1.0,0.0,0.0,0.0,0.0,0.0,0.0,0.0,0.0,0.0,3.42540442943573e-06,-0.005000244826078415,1.313499927520752,0.0,0.0,0.0,0.36702027916908264,0.7574927806854248,0.42000001668930054,-1.5707999467849731,0.0,0.0,0.0,0.0,0.0,0.0,0.0,0.0,0.0,0.0,0.0
0.016666666666666666,0.0028778850100934505,0.0021806680597364902,0.0,0.9998081922531128,0.0,0.0,0.019586581736803055,0.24087215960025787,0.18240931630134583,0.0,0.0,0.0,3.1418697834014893,-0.46582257747650146,0.6816248893737793,0.41999998688697815,1.0,3.2799832752061775e-06,-8.339598593920527e-07,8.465660528145236e-08,-1.9833856640616432e-05,0.00017983021098189056,-6.132945418357849e-05,0.0009432561928406358,-0.004689492750912905,-0.0003198107879143208,-0.007110234349966049,0.003379564033821225,1.3159373998641968,-0.8143353462219238,0.9868683815002441,0.18095196783542633,0.36702027916908264,0.7574927806854248,0.42000001668930054,-1.5301095247268677,3.0000011920928955,-0.04584788903594017,-2.9999992847442627,0.0008691533003002405,0.0007963840034790337,0.0007110277656465769,0.0006108740926720202,0.11094217747449875,0.09756709635257721,0.08334315568208694,0.06823883205652237
0.03333333333333333,0.008959517814218998,0.006806210149079561,0.0,0.999795138835907,0.0,0.0,0.020239591598510742,0.4070678949356079,0.3153297007083893,0.0,0.0,0.0,-0.87030029296875,-0.465822696685791,0.6816248297691345,0.4200000464916229,1.0,3.3908236218849197e-06,-2.1324740373529494e-06,-3.7087911408661967e-08,0.0002635786950122565,0.00026937879738397896,-0.00010509719140827656,-0.0017707741353660822,0.004130927845835686,-0.00013548358401749283,-0.02754789963364601,0.025955047458410263,1.3166331052780151,-1.5914465188980103,1.6114706993103027,-0.08059634268283844,0.36702027916908264,0.7574927806854248,0.42000001668930054,-1.4800903797149658,3.0,-0.09588772058486938,-3.0000009536743164,0.0029894078616052866,0.0026521189138293266,0.00227678706869483,0.001860334537923336,0.16425344347953796,0.13979622721672058,0.11385425180196762,0.08633510023355484
0.05,0.017758501693606377,0.013777830637991428,0.0,0.9993734359741211,0.0,0.0,0.035393498837947845,0.5939961075782776,0.46518996357917786,0.0,0.0,0.0,2.6465301513671875,-0.4658227264881134,0.6816248893737793,0.4200000464916229,1.0,3.7651166167051997e-06,-2.2119024833955336e-06,5.637348365894468e-09,0.0002653102274052799,0.00026691530365496874,-0.0001044049859046936,-0.0017243424663320184,0.004177475813776255,-0.00012949523807037622,-0.05968719348311424,0.05380488187074661,1.3116791248321533,-2.18782901763916,1.7636412382125854,-0.47567346692085266,0.36702027916908264,0.7574927806854248,0.42000001668930054,-1.4300720691680908,2.9999985694885254,-0.145926371216774,-2.9999990463256836,0.0057115983217954636,0.004919426050037146,0.00405512098222971,0.003114237217232585,0.19275188446044922,0.15585078299045563,0.11707542091608047,0.07633139193058014
0.06666666666666667,0.02907673828303814,0.023072993382811546,0.0,0.9994462728500366,0.0,0.0,0.033273473381996155,0.7205488085746765,0.5952971577644348,0.0,0.0,0.0,-1.2127251625061035,-0.4658227264881134,0.6816248297691345,0.4200000464916229,0.9999999403953552,3.4067338674503844e-06,-2.2856738723930903e-06,4.301002434203838e-07,0.0002670263347681612,0.0002679180761333555,-0.00010437914170324802,-0.001740648876875639,0.004211838357150555,-0.00012851078645326197,-0.09850969910621643,0.08780224621295929,1.2989692687988281,-2.471815586090088,2.2045297622680664,-1.0196490287780762,0.36702027916908264,0.7574927806854248,0.42000001668930054,-1.3800537586212158,3.0000009536743164,-0.19596371054649353,-3.0000011920928955,0.008361694402992725,0.006899113301187754,0.005325658712536097,0.003634564345702529,0.15800845623016357,0.10845787823200226,0.05687957629561424,0.00320646190084517
0.08333333333333333,0.042597826570272446,0.0347307063639164,0.0,0.9989751577377319,0.0,0.0,0.045262351632118225,0.8673549294471741,0.7428958415985107,0.0,0.0,0.0,2.5548746585845947,-0.4658227264881134,0.6816248297691345,0.4200000464916229,0.9999999403953552,3.6260375964047853e-06,-2.335399813091499e-06,3.0323869282256055e-07,0.0002661397447809577,0.0002668508095666766,-0.00010405457578599453,-0.0017283371416851878,0.004196438007056713,-0.00012790974869858474,-0.14260157942771912,0.12299157679080963,1.2784430980682373,-2.741835594177246,2.078606367111206,-1.4124341011047363,0.36702027916908264,0.7574927806854248,0.42000001668930054,-1.3300354480743408,3.00000262260437,-0.24597841501235962,-2.999999523162842,0.009954189881682396,0.007634364068508148,0.005165161099284887,0.0025368202477693558,0.07965905964374542,0.02032378315925598,-0.041053030639886856,-0.10441233217716217
0.1,0.05031978338956833,0.049545399844646454,0.0,0.9990983605384827,0.0,0.0,0.04245557263493538,0.3322049081325531,0.9441174864768982,0.0,0.0,0.0,-1.284929633140564,-0.4658227264881134,0.6816248297691345,0.4200000464916229,1.0,3.4220713587274076e-06,-2.3086856799636735e-06,1.7965174947676132e-07,0.0002668143715709448,0.00026800335035659373,-0.00010440708138048649,-0.0017429604195058346,0.0042070322670042515,-0.00012891279766336083,-0.18458795547485352,0.16350942850112915,1.250981330871582,-2.364630699157715,2.6041100025177,-1.7924106121063232,0.36702027916908264,0.7574927806854248,0.42000001668930054,-1.2800049781799316,2.9999959468841553,-0.2119499146938324,3.0000016689300537,0.005179207306355238,0.002123304409906268,-0.0011312150163576007,-0.004596278537064791,-0.40531331300735474,-0.45782700181007385,-0.5127440094947815,-0.5702208280563354
0.11666666666666667,0.05436665564775467,0.06502313166856766,0.0,0.9999350905418396,0.0,0.0,0.011392589658498764,0.2526867389678955,0.9206597208976746,0.0,0.0,0.0,-4.481812000274658,-0.4658227264881134,0.6816248893737793,0.4200000464916229,1.0,3.7114145925443154e-06,-2.3327797862293664e-06,2.5745856646608445e-07,0.00026485841954126954,0.0002663533086888492,-0.0001042329240590334,-0.0017181563889607787,0.004170076455920935,-0.0001291552762268111,-0.22277680039405823,0.2083486020565033,1.2239998579025269,-2.2946629524230957,2.6712679862976074,-1.530179738998413,0.36702027916908264,0.7574927806854248,0.42000001668930054,-1.2300143241882324,3.0000016689300537,-0.2433408945798874,-3.0,-0.00035074149491265416,-0.004768492188304663,-0.00938367284834385,-0.014208880253136158,-0.24744771420955658,-0.34921517968177795,-0.4490918219089508,-0.5470225811004639
0.13333333333333333,0.05744536966085434,0.0825187936425209,0.0,0.9999997615814209,0.0,0.0,0.0007100328803062439,0.11312824487686157,1.0928181409835815,0.0,0.0,0.0,-0.2180020958185196,-0.4658227264881134,0.6816248297691345,0.4200000464916229,1.0,3.33562343257654e-06,-2.231935468444135e-06,3.113336504156905e-07,0.0002666971704456955,0.00026759487809613347,-0.00010428461246192455,-0.001737144310027361,0.004205835517495871,-0.00012839905684813857,-0.26461511850357056,0.2512921094894409,1.1972582340240479,-2.495537519454956,2.719916820526123,-1.684884786605835,0.36702027916908264,0.7574927806854248,0.42000001668930054,-1.1799941062927246,2.9999985694885254,-0.24355003237724304,2.494541645050049,-0.002954907016828656,-0.00939576793462038,-0.015964023768901825,-0.022669358178973198,-0.17322270572185516,-0.2968939244747162,-0.4155818521976471,-0.5290750861167908
0.15,0.0661051794886589,0.09733103960752487,0.0,0.9996967911720276,0.0,0.0,-0.024623161181807518,0.6592981815338135,0.8149770498275757,0.0,0.0,0.0,-3.9821152687072754,-0.4658227264881134,0.6816248297691345,0.4200000464916229,1.0,3.5188593301427318e-06,-2.2830813577456865e-06,-3.625297324560961e-07,0.00026618369156494737,0.0002673570706974715,-0.00010425481013953686,-0.001734902267344296,0.00419566361233592,-0.00012860818242188543,-0.3040969967842102,0.3004325032234192,1.168989658355713,-2.267737865447998,3.1276111602783203,-1.7943426370620728,0.36702027916908264,0.7574927806854248,0.42000001668930054,-1.1339986324310303,2.51949405670166,-0.27773818373680115,-3.000000238418579,-0.0022458923049271107,-0.011135077103972435,-0.020043721422553062,-0.0289763230830431,0.03257006034255028,-0.1063513308763504,-0.23901532590389252,-0.36518609523773193
0.16666666666666666,0.0724508985877037,0.1091967225074768,0.0,0.9969907402992249,0.0,0.0,-0.0775204449892044,0.23322464525699615,0.6907886862754822,0.0,0.0,0.0,-7.14048957824707,-0.4658227264881134,0.6816248297691345,0.4200000464916229,1.0,3.6665835523308488e-06,-2.3391182821796974e-06,-3.149922918055381e-07,0.000265958602540195,0.00026667420752346516,-0.00010403734631836414,-0.001725313370116055,0.0041927797719836235,-0.00012778645032085478,-0.33987125754356384,0.35970956087112427,1.1325666904449463,-1.968712568283081,3.8951568603515625,-2.493971109390259,0.36702027916908264,0.7574927806854248,0.42000001668930054,-1.093991994857788,2.266570568084717,-0.24354103207588196,2.9999990463256836,-0.007577050011605024,-0.018020646646618843,-0.02840697579085827,-0.03874179348349571,-0.5712732076644897,-0.6257150173187256,-0.6771190762519836,-0.7257531881332397
0.18333333333333332,0.07208827883005142,0.12421386688947678,0.0,0.993675947189331,0.0,0.0,-0.11228571832180023,0.02553955838084221,0.7966946363449097,0.0,0.0,0.0,-2.8104918003082275,-0.4658227264881134,0.6816248297691345,0.4200000464916229,1.0,3.8143025449244305e-06,-2.399538061581552e-06,-2.702604433579836e-07,0.00026549160247668624,0.0002661106991581619,-0.00010391208343207836,-0.0017177729168906808,0.004184826277196407,-0.0001275383838219568,-0.3752129077911377,0.4190932512283325,1.081923484802246,-2.1154768466949463,3.6972506046295166,-3.3312129974365234,0.36702027916908264,0.7574927806854248,0.42000001668930054,-1.0556154251098633,2.3000547885894775,-0.2746622860431671,-3.0000011920928955,-0.021173032000660896,-0.031900566071271896,-0.04251973703503609,-0.05305967107415199,-0.5943930149078369,-0.6494860649108887,-0.6980755925178528,-0.7411609888076782
0.2,0.07753127813339233,0.13548621535301208,0.0,0.9873591065406799,0.0,0.0,-0.1584993600845337,0.43325096368789673,0.6796314716339111,0.0,0.0,0.0,-6.240508556365967,-0.4658227264881134,0.6816248297691345,0.4200000464916229,1.0,3.6000003547087545e-06,-2.291237706231186e-06,-2.2017823653186497e-07,0.00026573086506687105,0.0002664501662366092,-0.00010398100130259991,-0.0017227214993909001,0.0041888258419930935,-0.00012773244816344231,-0.4101068377494812,0.48284676671028137,1.0189632177352905,-1.8205573558807373,3.9951493740081787,-4.277451038360596,0.36702027916908264,0.7574927806854248,0.42000001668930054,-1.007853627204895,3.000001907348633,-0.324689656496048,-2.9999988079071045,-0.03047410398721695,-0.041784171015024185,-0.05289942026138306,-0.06386629492044449,-0.7664061784744263,-0.7488771080970764,-0.729233980178833,-0.7086036801338196
0.21666666666666667,0.07901398837566376,0.1476408839225769,0.0,0.9830319881439209,0.0,0.0,-0.1834341585636139,0.04078089818358421,0.7577574849128723,0.0,0.0,0.0,-1.9179654121398926,-0.4658227264881134,0.6816248297691345,0.4200000464916229,0.9999999403953552,3.6396120322024217e-06,-2.2620149593421957e-06,2.2248472930641583e-07,0.0002668747620191425,0.0002675442665349692,-0.00010411837138235569,-0.0017403680831193924,0.004211135674268007,-0.00012783527199644595,-0.44206416606903076,0.5392130017280579,0.9402356147766113,-1.6985886096954346,3.274871349334717,-5.042840957641602,0.36702027916908264,0.7574927806854248,0.42000001668930054,-0.9578468203544617,2.9999983310699463,-0.37471798062324524,-3.0,-0.04563520476222038,-0.05697089061141014,-0.06807023286819458,-0.0789213627576828,-0.8977124691009521,-0.8915516138076782,-0.8834596872329712,-0.8741130232810974
0.23333333333333334,0.07809784263372421,0.15689750015735626,0.0,0.9754638075828552,0.0,0.0,-0.2201598733663559,-0.09954099357128143,0.47988876700401306,0.0,0.0,0.0,-5.3689446449279785,-0.465822696685791,0.6816248297691345,0.4200000464916229,1.0,3.420692110012169e-06,-2.3168713596533053e-06,2.955990510145057e-07,0.00026680133305490017,0.00026803885702975094,-0.0001044226810336113,-0.001743639470078051,0.004206772428005934,-0.0001289946085307747,-0.46842896938323975,0.5916422009468079,0.849259614944458,-1.2696166038513184,3.0031447410583496,-5.780381202697754,0.36702027916908264,0.7574927806854248,0.42000001668930054,-0.9078361392021179,3.000001907348633,-0.4247482120990753,-3.0,-0.06186123192310333,-0.07302650809288025,-0.08390603959560394,-0.09420879185199738,-0.9892839193344116,-0.9909501075744629,-0.9864106178283691,-0.9353926181793213
0.25,0.07986917346715927,0.16261912882328033,0.0,0.9715664386749268,0.0,0.0,-0.2367672175168991,0.16537821292877197,0.21663229167461395,0.0,0.0,0.0,-0.8838122487068176,-0.4658227264881134,0.6816248297691345,0.4200000464916229,0.9999999403953552,3.3476046610303456e-06,-2.259236225654604e-06,1.8083763109189022e-07,0.0002668767119757831,0.0002679122262634337,-0.00010439427569508553,-0.0017404244281351566,0.004208163358271122,-0.00012870550563093275,-0.48807111382484436,0.6305795311927795,0.74878990650177,-0.8396303653717041,1.9149281978607178,-6.248108863830566,0.36702027916908264,0.7574927806854248,0.42000001668930054,-0.8578254580497742,2.999999761581421,-0.4747796356678009,-3.0000007152557373,-0.07840961962938309,-0.08950554579496384,-0.10027587413787842,-0.11016512662172318,-0.9904593229293823,-0.9884807467460632,-0.9704170823097229,-0.9525237083435059
0.26666666666666666,0.07647718489170074,0.17027629911899567,0.0,0.9638336300849915,0.0,0.0,-0.26650470495224,-0.2915264368057251,0.44698432087898254,0.0,0.0,0.0,-4.448548316955566,-0.4658227264881134,0.6816248297691345,0.4200000464916229,0.9999999403953552,3.535753194228164e-06,-2.3003594833426178e-06,-1.2686646755355468e-07,0.0002660174504853785,0.00026712234830483794,-0.00010419590398669243,-0.001731633092276752,0.004192822612822056,-0.0001284947502426803,-0.49391233921051025,0.6526389122009277,0.6454253196716309,0.06897125393152237,0.9194617867469788,-5.948365211486816,0.36702027916908264,0.7574927806854248,0.42000001668930054,-0.807815670967102,2.999998092651367,-0.5248110890388489,-3.000002145767212,-0.09643544256687164,-0.10716937482357025,-0.11768337339162827,-0.12738199532032013,-0.8374981880187988,-0.86939936876297,-0.9010614156723022,-0.9305721521377563
0.2833333333333333,0.07735999673604965,0.17379030585289001,0.0,0.9607875347137451,0.0,0.0,-0.2772856056690216,0.07940351217985153,0.14370036125183105,0.0,0.0,0.0,-0.1924971491098404,-0.4658227264881134,0.6816248893737793,0.4200000464916229,1.0,3.5935188407165697e-06,-2.262744601466693e-06,-5.655506285506817e-08,0.00026704822084866464,0.000267749244812876,-0.00010416633449494839,-0.0017431654268875718,0.004214244429022074,-0.00012789323227480054,-0.4928569197654724,0.6666526794433594,0.5504328608512878,0.3413858413696289,0.6898468136787415,-5.509068489074707,0.36702027916908264,0.7574927806854248,0.42000001668930054,-0.7578068971633911,2.999990463256836,-0.5748408436775208,-2.999999761581421,-0.11009997874498367,-0.12114223092794418,-0.13201147317886353,-0.14185529947280884,-0.9942959547042847,-0.9962230324745178,-0.9978565573692322,-0.9992515444755554
0.3,0.07446986436843872,0.1743844747543335,0.0,0.9542654752731323,0.0,0.0,-0.2989605665206909,-0.17716199159622192,-0.02942883037030697,0.0,0.0,0.0,-3.5165629386901855,-0.465822696685791,0.6816248297691345,0.4200000464916229,0.9999999403953552,3.725037913682172e-06,-2.236182581327739e-06,3.828752426215942e-07,0.0002647983201313764,0.0002667314256541431,-0.00010453932918608189,-0.001718917046673596,0.004166685976088047,-0.00013016501907259226,-0.4799332618713379,0.6755733489990234,0.4603169560432434,1.1411148309707642,0.5159991383552551,-5.226070404052734,0.36702027916908264,0.7574927806854248,0.42000001668930054,-0.7077988386154175,2.999995470046997,-0.6248686909675598,-3.000002145767212,-0.1274179220199585,-0.1382768452167511,-0.14902664721012115,-0.15878768265247345,-0.8799508213996887,-0.903205156326294,-0.9244543313980103,-0.9437663555145264
0.31666666666666665,0.06972038745880127,0.1721685230731964,0.0,0.9532008171081543,0.0,0.0,-0.3023378252983093,-0.3211696147918701,-0.17219260334968567,0.0,0.0,0.0,0.49693918228149414,-0.4658227264881134,0.6816248297691345,0.4200000464916229,0.9999999403953552,3.557750233085244e-06,-2.2789749891671818e-06,2.283545939008036e-07,0.0002659836900420487,0.0002665854699444026,-0.00010398984886705875,-0.0017241021851077676,0.004193542525172234,-0.00012770354805979878,-0.4702998399734497,0.6819113492965698,0.42870795726776123,0.04671606421470642,-0.12679599225521088,-0.12652963399887085,0.36702027916908264,0.7574927806854248,0.42000001668930054,-0.6578724980354309,2.9849603176116943,-0.6753566861152649,-2.9076781272888184,-0.1353020817041397,-0.14693625271320343,-0.15818700194358826,-0.168166846036911,-0.14364689588546753,-0.1987174153327942,-0.23074007034301758,-0.23611804842948914
0.3333333333333333,0.0628947988152504,0.16766385734081268,0.0,0.952448308467865,0.0,0.0,-0.3047002851963043,-0.44876357913017273,-0.3104706108570099,0.0,0.0,0.0,-0.6765657067298889,-0.4658227264881134,0.6816248297691345,0.4200000464916229,1.0,3.7825971048732754e-06,-2.2365218228515005e-06,-9.632487518729249e-08,0.00026365372468717396,0.0002655528369359672,-0.00010426389053463936,-0.0017039472004398704,0.00414604926481843,-0.00012974384299013764,-0.47136104106903076,0.683214545249939,0.4263831377029419,0.041335392743349075,0.08468752354383469,-0.1920958310365677,0.36702027916908264,0.7574927806854248,0.42000001668930054,-0.6078663468360901,2.9999887943267822,-0.7254016399383545,-3.000000476837158,-0.13924722373485565,-0.15114600956439972,-0.1623285412788391,-0.1718960404396057,-0.30909857153892517,-0.290666401386261,-0.2566925585269928,-0.20891404151916504
0.35,0.05366571620106697,0.16084307432174683,0.0,0.9572321772575378,0.0,0.0,-0.2893209159374237,-0.6040613651275635,-0.453276127576828,0.0,0.0,0.0,2.755209445953369,-0.4650263786315918,0.6837679147720337,0.4200001060962677,0.9995388388633728,-7.588007065351121e-06,1.2617112588486634e-05,-0.030366716906428337,0.10946907103061676,0.25766465067863464,-0.00039229143294505775,0.02233193814754486,-0.0066011566668748856,-7.080130577087402,-0.46950763463974,0.6866663694381714,0.4231269359588623,0.153034508228302,0.28444764018058777,-0.17442166805267334,0.36702027916908264,0.7574927806854248,0.42000001668930054,-0.557861328125,2.9999871253967285,-0.7754438519477844,-3.0000016689300537,-0.1456419974565506,-0.15666767954826355,-0.1667146533727646,-0.17494943737983704,-0.4005071520805359,-0.32769742608070374,-0.23981602489948273,-0.14222154021263123
0.36666666666666664,0.04206317290663719,0.15163320302963257,0.0,0.9568976163864136,0.0,0.0,-0.29042547941207886,-0.7367233633995056,-0.5926886200904846,0.0,0.0,0.0,-1.0869077444076538,-0.46270501613616943,0.6885605454444885,0.4200001358985901,0.995887279510498,-5.055303518020082e-06,1.4348894183058292e-05,-0.09060059487819672,0.20555490255355835,0.37312841415405273,-0.0004530424193944782,0.015970511361956596,-0.014701161533594131,-9.627685546875,-0.4648560881614685,0.691718578338623,0.4207111895084381,0.42923954129219055,0.4003089666366577,-0.13646498322486877,0.36702027916908264,0.7574927806854248,0.42000001668930054,-0.5078564882278442,2.9999866485595703,-0.8254891037940979,-2.9999961853027344,-0.15320761501789093,-0.16249364614486694,-0.1704835444688797,-0.176457941532135,-0.46950140595436096,-0.33794716000556946,-0.18670429289340973,-0.02370794117450714
0.3833333333333333,0.030746474862098694,0.14005887508392334,0.0,0.9477847814559937,0.0,0.0,-0.31891074776649475,-0.6286972165107727,-0.7430772185325623,0.0,0.0,0.0,-4.408369541168213,-0.4559422433376312,0.6994050145149231,0.42032358050346375,0.991007387638092,-0.008011937141418457,0.0009536153520457447,-0.13356348872184753,0.6144495010375977,0.9434099197387695,0.0825229287147522,-4.055874824523926,1.0733102560043335,-4.381199836730957,-0.4565039873123169,0.7012689113616943,0.42078304290771484,0.6164318323135376,0.8142467737197876,0.10373445600271225,0.36702027916908264,0.7574927806854248,0.42000001668930054,-0.45780667662620544,2.999946355819702,-0.8754945397377014,-2.999983549118042,-0.16171446442604065,-0.16840128600597382,-0.17342045903205872,-0.17620059847831726,-0.47774121165275574,-0.312224805355072,-0.12364023178815842,0.07868928462266922
0.4,0.023006992414593697,0.12548652291297913,0.0,0.9285221099853516,0.0,0.0,-0.3712771534919739,-0.3774286210536957,-0.9325296878814697,0.0,0.0,0.0,-7.483494281768799,-0.43980804085731506,0.7220770120620728,0.42216166853904724,0.9841420650482178,-0.019719181582331657,-0.019409524276852608,-0.17521081864833832,1.432115912437439,1.6853396892547607,0.1441480666399002,-0.17465569078922272,-3.701505422592163,-1.9100435972213745,-0.44096407294273376,0.7230739593505859,0.42274412512779236,1.339728832244873,1.8246345520019531,0.12336491048336029,0.36702027916908264,0.7574927806854248,0.42000001668930054,-0.407977819442749,2.780961275100708,-0.9255110025405884,-2.999725580215454,-0.1696794480085373,-0.17347510159015656,-0.17519119381904602,-0.1744208037853241,-0.45754802227020264,-0.2784882187843323,-0.07634589821100235,0.13879342377185822
0.4166666666666667,0.018426738679409027,0.11097383499145508,0.0,0.8952987790107727,0.0,0.0,-0.44546616077423096,-0.23263834416866302,-0.8236194849014282,0.0,0.0,0.0,-10.531808853149414,-0.39392581582069397,0.7639696598052979,0.42497673630714417,0.9716848134994507,0.021080903708934784,-0.055335842072963715,-0.22874042391777039,4.140000820159912,2.9353456497192383,0.04700386896729469,27.936479568481445,-12.490432739257812,13.556526184082031,-0.3950725197792053,0.7649478912353516,0.4254834055900574,3.8407344818115234,3.225663661956787,0.3097035884857178,0.36702027916908264,0.7574927806854248,0.42000001668930054,-0.37881818413734436,1.0020287036895752,-0.8885160684585571,3.000638484954834,-0.1821409910917282,-0.18137983977794647,-0.17839807271957397,-0.1730017513036728,-0.8337047696113586,-0.5337677001953125,-0.23558126389980316,0.04753212258219719
0.43333333333333335,0.01563989371061325,0.10265602171421051,0.0,0.8443840742111206,0.0,0.0,-0.5357382893562317,-0.11647915840148926,-0.3843994140625,0.0,0.0,0.0,-13.187928199768066,-0.3056347370147705,0.820233941078186,0.4301213026046753,0.9499747157096863,0.09132727980613708,-0.09298945218324661,-0.2838313579559326,6.846778392791748,3.3370282649993896,0.3703737258911133,18.123620986938477,-16.022396087646484,14.917448997497559,-0.3066955804824829,0.8220687508583069,0.4308023452758789,6.496044158935547,3.7617268562316895,0.43140771985054016,0.36702027916908264,0.7574927806854248,0.42000001668930054,-0.36366304755210876,0.9492189288139343,-0.8384917378425598,2.9953410625457764,-0.19827716052532196,-0.19616033136844635,-0.18800419569015503,-0.17680151760578156,-0.9200071692466736,-0.9131984710693359,-0.6908811926841736,-0.3562504053115845
0.45,0.010151373222470284,0.09922154992818832,0.0,0.8000856041908264,0.0,0.0,-0.5998858213424683,-0.28790155053138733,-0.20425108075141907,0.0,0.0,0.0,-7.90089750289917,-0.1979174166917801,0.869110643863678,0.4386582374572754,0.9112414717674255,0.11400139331817627,-0.11595920473337173,-0.37841251492500305,6.630616188049316,2.0257034301757812,0.5981845855712891,14.84342098236084,-1.4710890054702759,13.639694213867188,-0.1993066817522049,0.8727530837059021,0.43918025493621826,6.577156066894531,2.556570529937744,0.5553341507911682,0.36702027916908264,0.7574927806854248,0.42000001668930054,-0.3456604480743408,1.1560841798782349,-0.8651617169380188,-3.0000035762786865,-0.2109849601984024,-0.20951201021671295,-0.20190845429897308,-0.18583400547504425,-0.5893823504447937,-0.65725177526474,-0.7222097516059875,-0.4930133819580078
0.4666666666666667,0.00401130598038435,0.0896090418100357,0.0,0.7753245234489441,0.0,0.0,-0.6315630674362183,-0.4401610195636749,-0.7007485628128052,0.0,0.0,0.0,-3.8138599395751953,-0.08657768368721008,0.9013776779174805,0.4477028250694275,0.8534837961196899,0.12063998728990555,-0.10991150885820389,-0.49490487575531006,6.4453229904174805,0.38922691345214844,0.21100139617919922,-14.435935974121094,-3.788174867630005,33.37321090698242,-0.08923379331827164,0.9056644439697266,0.447521835565567,6.8608078956604,1.3451414108276367,0.6778477430343628,0.36702027916908264,0.7574927806854248,0.42000001668930054,-0.3260253369808197,0.9211159944534302,-0.9151857495307922,-3.000004529953003,-0.21888485550880432,-0.21707981824874878,-0.20923960208892822,-0.18913845717906952,-0.4670138955116272,-0.3676210939884186,-0.28078776597976685,-0.024870580062270164
0.48333333333333334,0.00039734746678732336,0.0835866928100586,0.0,0.7477051615715027,0.0,0.0,-0.6640308499336243,-0.12587757408618927,-0.23637516796588898,0.0,0.0,0.0,-5.590158462524414,0.024960558861494064,0.9076321721076965,0.4528728425502777,0.7865651845932007,0.09016099572181702,-0.15953542292118073,-0.5896902680397034,6.242443084716797,-0.6688089370727539,0.26215386390686035,-26.085861206054688,-5.845404624938965,16.331775665283203,0.020760247483849525,0.9147456884384155,0.45548635721206665,6.737275123596191,-0.11636646836996078,0.4360114634037018,0.36702027916908264,0.7574927806854248,0.42000001668930054,-0.3141057789325714,0.43248048424720764,-0.9652097821235657,-2.9999709129333496,-0.2318834513425827,-0.22644150257110596,-0.2154529094696045,-0.19049976766109467,-0.8120725750923157,-0.5512540340423584,-0.327562540769577,-0.05140986293554306
0.5,1.5069334040163085e-05,0.0765046551823616,0.0,0.7358242869377136,0.0,0.0,-0.6771725416183472,0.022166891023516655,-0.42567023634910583,0.0,0.0,0.0,-0.901349663734436,0.12615151703357697,0.8945816159248352,0.45637109875679016,0.7027180194854736,0.051578134298324585,-0.15423481166362762,-0.6926316618919373,5.232144355773926,-1.9348828792572021,0.06704989820718765,-13.798126220703125,-4.8829345703125,14.84754467010498,0.12152478098869324,0.9042294025421143,0.45959195494651794,5.684536457061768,-1.2486917972564697,0.16023418307304382,0.36702027916908264,0.7574927806854248,0.42000001668930054,-0.3088371157646179,0.18068765103816986,-1.0152332782745361,-3.000002384185791,-0.2399737685918808,-0.2348925918340683,-0.22001349925994873,-0.19111165404319763,-0.026061074808239937,-0.6132684946060181,-0.3598998785018921,-0.14578044414520264
0.5166666666666666,0.0026077618822455406,0.07213951647281647,0.0,0.7174752950668335,0.0,0.0,-0.6965839862823486,0.20592635869979858,-0.20142284035682678,0.0,0.0,0.0,-4.0852251052856445,0.21095141768455505,0.8686651587486267,0.4500463902950287,0.6129143834114075,-0.04622304067015648,-0.2139812707901001,-0.7592175602912903,4.485758304595947,-2.039903163909912,-0.3563731014728546,1.1018013954162598,10.452404022216797,-8.918648719787598,0.20512089133262634,0.881515383720398,0.45780420303344727,4.583696365356445,-1.6534805297851562,-0.33658328652381897,0.36702027916908264,0.7574927806854248,0.42000001668930054,-0.30287477374076843,0.5048752427101135,-1.0652554035186768,-2.9981679916381836,-0.2397540956735611,-0.23997512459754944,-0.22488945722579956,-0.19377535581588745,0.046904366463422775,-0.007768112700432539,-0.2016744762659073,-0.1373460739850998
0.5333333333333333,0.0075764963403344154,0.07117224484682083,0.0,0.7121843695640564,0.0,0.0,-0.7019924521446228,0.3345812261104584,0.024641128256917,0.0,0.0,0.0,0.042585305869579315,0.2778155207633972,0.8380342721939087,0.4404263496398926,0.569750964641571,-0.0810142457485199,-0.19002126157283783,-0.7954321503639221,3.4856412410736084,-2.011152744293213,-0.6353015899658203,-5.05389928817749,5.737590312957764,-9.417591094970703,0.27377957105636597,0.8511553406715393,0.4488756060600281,3.635874032974243,-1.9992473125457764,-0.6965789794921875,0.36702027916908264,0.7574927806854248,0.42000001668930054,-0.29163551330566406,0.7669498920440674,-1.1152775287628174,-3.0000007152557373,-0.23871967196464539,-0.23926715552806854,-0.2270534485578537,-0.19581294059753418,0.12803706526756287,0.12016611546278,-0.042770206928253174,-0.09692046791315079
0.55,0.012849940918385983,0.0662447139620781,0.0,0.6965908408164978,0.0,0.0,-0.7174686193466187,0.29204562306404114,-0.28218361735343933,0.0,0.0,0.0,-3.2941675186157227,0.3298482298851013,0.8107641339302063,0.42523056268692017,0.5564929842948914,-0.1092480942606926,-0.0745186135172844,-0.8202605247497559,2.641566276550293,-1.550258994102478,-0.1441555768251419,17.497318267822266,-25.563493728637695,11.94368839263916,0.3279527425765991,0.8212611675262451,0.4344254732131958,2.4175970554351807,-1.70975661277771,-0.5926450490951538,0.36702027916908264,0.7574927806854248,0.42000001668930054,-0.2781658470630646,0.8204349875450134,-1.165299654006958,-3.0000174045562744,-0.2315632402896881,-0.23276770114898682,-0.22378233075141907,-0.1948937326669693,0.33334118127822876,0.3357628881931305,0.1836523860692978,0.03003736399114132
0.5666666666666667,0.019281676039099693,0.06561640650033951,0.0,0.6943607926368713,0.0,0.0,-0.7196270227432251,0.4198881983757019,-0.006652014330029488,0.0,0.0,0.0,0.5331563353538513,0.3635092079639435,0.7872359156608582,0.4210711717605591,0.543694019317627,-0.01640240103006363,0.011041808873414993,-0.8390505313873291,1.4326910972595215,-1.2348058223724365,0.13481232523918152,11.664385795593262,9.496004104614258,2.040194511413574,0.3610303997993469,0.793836772441864,0.4265669584274292,1.4635823965072632,-1.394651174545288,-0.16727185249328613,0.36702027916908264,0.7574927806854248,0.42000001668930054,-0.26079967617988586,1.091820240020752,-1.2153217792510986,-2.9982900619506836,-0.22745667397975922,-0.22831347584724426,-0.22147580981254578,-0.19549858570098877,0.39222151041030884,0.3767487108707428,0.22352251410484314,-0.0040630167350173
0.5833333333333334,0.023906024172902107,0.061166226863861084,0.0,0.6821280717849731,0.0,0.0,-0.7312327027320862,0.19438131153583527,-0.3003065586090088,0.0,0.0,0.0,-2.8132848739624023,0.3814556896686554,0.7705786228179932,0.4206719398498535,0.5532119274139404,-0.0016595317283645272,0.01257460005581379,-0.8329439163208008,0.6381577849388123,-1.4965074062347412,0.09061315655708313,0.420200377702713,7.685417652130127,14.968783378601074,0.3782162666320801,0.7765606641769409,0.4261913299560547,0.6318148970603943,-0.9168103337287903,-0.05704839155077934,0.36702027916908264,0.7574927806854248,0.42000001668930054,-0.2490771859884262,0.2182767391204834,-1.1816434860229492,3.000001907348633,-0.21806778013706207,-0.2195453643798828,-0.21543152630329132,-0.1938273161649704,0.5000895261764526,0.48596853017807007,0.35123321413993835,0.09091684222221375
0.6,0.029126957058906555,0.0605374351143837,0.0,0.6822372674942017,0.0,0.0,-0.731130838394165,0.33965378999710083,-0.02117905020713806,0.0,0.0,0.0,0.8289062976837158,0.3859899342060089,0.7553941011428833,0.42114192247390747,0.5555668473243713,-0.016942130401730537,0.021153146401047707,-0.8310299515724182,0.0840725526213646,-1.8417848348617554,-0.30289170145988464,-5.802462100982666,-11.684454917907715,30.130945205688477,0.3831285536289215,0.7622137069702148,0.4259631037712097,-0.03296663612127304,-0.6086887121200562,0.05108341574668884,0.36702027916908264,0.7574927806854248,0.42000001668930054,-0.24306611716747284,-0.23148103058338165,-1.2033787965774536,-3.0000178813934326,-0.21158473193645477,-0.21309134364128113,-0.21083812415599823,-0.1934637427330017,0.4783822298049927,0.45054030418395996,0.3266037106513977,0.053229186683893204
0.6166666666666667,0.03653090074658394,0.05751767009496689,0.0,0.6710513234138489,0.0,0.0,-0.7414109110832214,0.4617842733860016,-0.23724544048309326,0.0,0.0,0.0,-2.7000443935394287,0.3861600458621979,0.7510116100311279,0.4208270013332367,0.5910852551460266,-0.012495430186390877,0.01702514849603176,-0.8063324689865112,-0.1259189397096634,-0.23791509866714478,-0.0108896903693676,-0.2541101276874542,-0.4160517752170563,4.006386756896973,0.3814088702201843,0.7568947672843933,0.4248570203781128,-0.154401957988739,-0.12594175338745117,-0.033577270805835724,0.36702027916908264,0.7574927806854248,0.42000001668930054,-0.2578078508377075,-1.1873705387115479,-1.2002243995666504,2.8693864345550537,-0.19944079220294952,-0.20242005586624146,-0.2029779553413391,-0.190889373421669,0.7227525115013123,0.6413634419441223,0.4884036183357239,0.18210013210773468
0.6333333333333333,0.04599381238222122,0.057104043662548065,0.0,0.6723670959472656,0.0,0.0,-0.7402178645133972,0.5960712432861328,0.03447109833359718,0.0,0.0,0.0,1.1111692190170288,0.38415536284446716,0.7477014660835266,0.42000386118888855,0.6097511649131775,-2.1297946659615263e-06,-3.563552309060469e-05,-0.7925928235054016,-0.10410888493061066,-0.1579175591468811,-0.001183454878628254,-0.011087878607213497,0.045247212052345276,1.9933207035064697,0.3787166476249695,0.7552138566970825,0.4266590476036072,-0.17105253040790558,0.004689665511250496,0.16924753785133362,0.36702027916908264,0.7574927806854248,0.42000001668930054,-0.3037598729133606,-2.999999523162842,-1.2224934101104736,-2.9997448921203613,-0.18992388248443604,-0.19400131702423096,-0.19665426015853882,-0.18919344246387482,0.5570125579833984,0.4866403639316559,0.36585602164268494,0.09602681547403336
0.65,0.05319647863507271,0.059516727924346924,0.0,0.6938453316688538,0.0,0.0,-0.7201240062713623,0.36278975009918213,0.21030527353286743,0.0,0.0,0.0,4.428516864776611,0.3826722502708435,0.7460635900497437,0.42000070214271545,0.6136837601661682,-3.0467447231785627e-06,-3.70528687199112e-05,-0.7895517945289612,-0.14104507863521576,-0.048752088099718094,-0.00031247976585291326,0.024329500272870064,-0.01637590117752552,-2.4754838943481445,0.3763214945793152,0.7560886144638062,0.42941612005233765,-0.18323785066604614,0.14195187389850616,0.17812292277812958,0.36702027916908264,0.7574927806854248,0.42000001668930054,-0.3537929058074951,-3.000000238418579,-1.2724566459655762,-2.9985640048980713,-0.18142010271549225,-0.1864936202764511,-0.1907964050769806,-0.18734577298164368,0.48292115330696106,0.4327065050601959,0.35101473331451416,0.1339367777109146
0.6666666666666666,0.0606851801276207,0.058480117470026016,0.0,0.7025189399719238,0.0,0.0,-0.7116650342941284,0.46748271584510803,-0.0751853883266449,0.0,0.0,0.0,0.37652677297592163,0.3804847300052643,0.7458975911140442,0.42000067234039307,0.6027495861053467,7.884204933361616e-06,-1.199784946948057e-05,-0.7979303598403931,-0.16130517423152924,0.01451514009386301,-0.000353194831404835,0.004275158978998661,0.015043704770505428,-0.4252246916294098,0.3740926682949066,0.7605166435241699,0.4337483048439026,-0.15968076884746552,0.20403079688549042,0.3015744090080261,0.36702027916908264,0.7574927806854248,0.42000001668930054,-0.4038076102733612,-2.9999988079071045,-1.3224248886108398,-2.9995434284210205,-0.17094102501869202,-0.17686983942985535,-0.1823256015777588,-0.18202801048755646,0.4948914051055908,0.49420055747032166,0.48266035318374634,0.3593267500400543
0.6833333333333333,0.0696733146905899,0.054349079728126526,0.0,0.6898228526115417,0.0,0.0,-0.7239781618118286,0.5784071683883667,-0.32225456833839417,0.0,0.0,0.0,-2.973590135574341,0.37879258394241333,0.746057391166687,0.42000001668930054,0.6015455722808838,-1.5514498841184832e-07,4.388823526824126e-07,-0.7988384962081909,-0.07989031076431274,0.00688466802239418,-2.3669563233852386e-06,-9.668510756455362e-05,-0.00014827139966655523,-0.20611830055713654,0.3741125762462616,0.7642241716384888,0.44189584255218506,0.1445191204547882,0.19961711764335632,0.7971000671386719,0.36702027916908264,0.7574927806854248,0.42000001668930054,-0.4538213312625885,-2.999986171722412,-1.3724430799484253,-2.999999523162842,-0.1652616560459137,-0.17056837677955627,-0.17544060945510864,-0.17621667683124542,0.24550598859786987,0.3129696249961853,0.3842757046222687,0.3669752776622772
0.7,0.08210797607898712,0.05461792275309563,0.0,0.6556300520896912,0.0,0.0,-0.7550822496414185,0.7183626890182495,0.03427741304039955,0.0,0.0,0.0,-6.354835033416748,0.3784322738647461,0.7460879683494568,0.42000001668930054,0.6012359857559204,1.8165767414757283e-06,3.119604798484943e-06,-0.7990714907646179,0.001470082555897534,7.550668669864535e-05,-5.2341740229167044e-05,-0.002787567675113678,-0.0006895052501931787,0.006106909830123186,0.3841312527656555,0.7633457779884338,0.4620284140110016,1.1773624420166016,-0.1399463415145874,1.7196837663650513,0.36702027916908264,0.7574927806854248,0.42000001668930054,-0.5038339495658875,-2.9999969005584717,-1.4224613904953003,-3.0,-0.1691056489944458,-0.17186887562274933,-0.1741291731595993,-0.17368876934051514,-0.19268912076950073,-0.05509822815656662,0.09381603449583054,0.17332041263580322
0.7166666666666667,0.0956047847867012,0.05794064328074455,0.0,0.6352090835571289,0.0,0.0,-0.7723401784896851,0.8622368574142456,0.20107676088809967,0.0,0.0,0.0,-2.1484386920928955,0.37843194603919983,0.7460885047912598,0.41999995708465576,0.6012364029884338,-1.509791331955057e-06,-5.820792921440443e-06,-0.7990711331367493,0.00014227944484446198,-0.0004171504988335073,-8.541415445506573e-05,0.009884213097393513,-0.002366268541663885,-0.0007889005355536938,0.40380167961120605,0.7657113671302795,0.49183711409568787,1.2135636806488037,0.3589784801006317,1.8619558811187744,0.36702027916908264,0.7574927806854248,0.42000001668930054,-0.5264833569526672,0.038790423423051834,-1.4724797010421753,-3.0,-0.1720801740884781,-0.17338347434997559,-0.1740092784166336,-0.17295807600021362,-0.044661398977041245,-0.024573886767029762,0.00645424285903573,-0.014370440505445004
0.7333333333333333,0.10612276941537857,0.05932621657848358,0.0,0.6397895812988281,0.0,0.0,-0.7685501575469971,0.5497509837150574,0.07560265809297562,0.0,0.0,0.0,1.6251916885375977,0.37843194603919983,0.7460885047912598,0.41999995708465576,0.6012364029884338,-9.040325039677555e-07,-5.752832294092514e-06,-0.7990711331367493,0.00014956711675040424,-0.0004063814994879067,-8.25212337076664e-05,0.009686741977930069,-0.002314450917765498,-0.0007981122471392155,0.42292672395706177,0.7742214798927307,0.516490638256073,0.9880180358886719,0.585617184638977,1.163576602935791,0.36702027916908264,0.7574927806854248,0.42000001668930054,-0.5059785842895508,2.21480393409729,-1.4423041343688965,2.999999523162842,-0.16909778118133545,-0.1705280840396881,-0.17109821736812592,-0.17071352899074554,0.2591134309768677,0.24522258341312408,0.24007582664489746,0.19695742428302765
0.75,0.11253926903009415,0.056550875306129456,0.0,0.6328563690185547,0.0,0.0,-0.774269163608551,0.34045153856277466,-0.21830148994922638,0.0,0.0,0.0,-2.0248708724975586,0.37843191623687744,0.7460885047912598,0.41999995708465576,0.6012364625930786,-9.040991812980792e-07,-5.6279227464983705e-06,-0.799071192741394,0.00014805754472035915,-0.0004063179367221892,-8.251657709479332e-05,0.009681669995188713,-0.0023190141655504704,-0.0007941173971630633,0.43253880739212036,0.7820286154747009,0.5295312404632568,0.1457327902317047,0.34089794754981995,0.58113694190979,0.36702027916908264,0.7574927806854248,0.42000001668930054,-0.49014443159103394,-0.12575066089630127,-1.3922514915466309,3.0,-0.16534321010112762,-0.16669870913028717,-0.16711381077766418,-0.16715699434280396,0.1235237866640091,0.15709993243217468,0.1904727965593338,0.18995027244091034
0.7666666666666666,0.11528649926185608,0.05944705009460449,0.0,0.6381071209907532,0.0,0.0,-0.7699475884437561,0.10239563882350922,0.30945903062820435,0.0,0.0,0.0,1.7124991416931152,0.37843194603919983,0.7460885047912598,0.41999995708465576,0.6012364029884338,-9.523660082777496e-07,-5.4432816796179395e-06,-0.799071192741394,0.00014611771621275693,-0.00040539365727454424,-8.237711153924465e-05,0.009653903543949127,-0.0023163864389061928,-0.0007883694488555193,0.43133556842803955,0.7862487435340881,0.5350335836410522,-0.24346093833446503,0.27080845832824707,0.11841285228729248,0.36702027916908264,0.7574927806854248,0.42000001668930054,-0.4733758568763733,1.9455645084381104,-1.4105021953582764,-3.000000238418579,-0.16892625391483307,-0.1685207635164261,-0.16730903089046478,-0.1663401573896408,-0.26351332664489746,-0.15143784880638123,-0.0499294251203537,0.018036210909485817
0.7833333333333333,0.11498434096574783,0.05862586200237274,0.0,0.6324965953826904,0.0,0.0,-0.7745631337165833,-0.055299632251262665,-0.14766371250152588,0.0,0.0,0.0,-1.7709060907363892,0.37843191623687744,0.7460885047912598,0.41999995708465576,0.6012362241744995,-1.113743451242044e-06,-5.558646080316976e-06,-0.7990713119506836,0.00014510446635540575,-0.00040558792534284294,-8.241808973252773e-05,0.009656448848545551,-0.0023239210713654757,-0.0007860526675358415,0.42130088806152344,0.7887760996818542,0.5308066606521606,-0.9546804428100586,0.04294087365269661,-0.42410343885421753,0.36702027916908264,0.7574927806854248,0.42000001668930054,-0.4740472435951233,-1.7094537019729614,-1.37202787399292,3.0000007152557373,-0.17084459960460663,-0.16906720399856567,-0.16663937270641327,-0.16489017009735107,-0.06131790950894356,0.010147812776267529,0.07131145149469376,0.11058847606182098
0.8,0.11630592495203018,0.060598962008953094,0.0,0.638181209564209,0.0,0.0,-0.7698861956596375,0.07743807882070541,0.09167079627513885,0.0,0.0,0.0,1.477529525756836,0.37843194603919983,0.7460885047912598,0.41999995708465576,0.6012364029884338,-1.145406145042216e-06,-5.422323738457635e-06,-0.799071192741394,0.0001466925605200231,-0.00040594246820546687,-8.244323544204235e-05,0.009669492952525616,-0.0023183668963611126,-0.0007901823846623302,0.40836867690086365,0.7901554107666016,0.5239719152450562,-0.549692690372467,0.24595555663108826,-0.38831135630607605,0.36702027916908264,0.7574927806854248,0.42000001668930054,-0.4941464066505432,-0.7660073637962341,-1.39067542552948,-2.999999761581421,-0.17359291017055511,-0.17058759927749634,-0.167009636759758,-0.1643163561820984,0.04430915787816048,0.05638851225376129,0.07423512637615204,0.0949675589799881
0.8166666666666667,0.11893104761838913,0.05927778407931328,0.0,0.6317590475082397,0.0,0.0,-0.7751648426055908,0.19530150294303894,-0.12836423516273499,0.0,0.0,0.0,-1.8550102710723877,0.37843191623687744,0.7460885047912598,0.41999995708465576,0.6012362241744995,-1.1201451570741483e-06,-5.551567937800428e-06,-0.7990713119506836,0.0001450434938305989,-0.00040563891525380313,-8.242810145020485e-05,0.009657684713602066,-0.002324484521523118,-0.0007859499310143292,0.4012526273727417,0.7916051745414734,0.5145648717880249,-0.31015509366989136,-0.05731181055307388,-0.5648561716079712,0.36702027916908264,0.7574927806854248,0.42000001668930054,-0.5360706448554993,-3.000000238418579,-1.440680980682373,-3.0,-0.1735370010137558,-0.1700594127178192,-0.16583871841430664,-0.16233894228935242,-0.06125497817993164,-0.008138147182762623,0.05673854798078537,0.1352764219045639
0.8333333333333334,0.12408682703971863,0.05463371425867081,0.0,0.6050119996070862,0.0,0.0,-0.7962163686752319,0.3568030297756195,-0.33832788467407227,0.0,0.0,0.0,-4.986528396606445,0.37843194603919983,0.7460885047912598,0.41999995708465576,0.6012364029884338,-1.151694391410274e-06,-5.415193754743086e-06,-0.799071192741394,0.0001466930698370561,-0.00040594174060970545,-8.243974298238754e-05,0.00966945942491293,-0.002318374114111066,-0.0007901836070232093,0.4020459055900574,0.7878807783126831,0.5085709095001221,0.4230307936668396,-0.3410373330116272,-0.005746722221374512,0.36702027916908264,0.7574927806854248,0.42000001668930054,-0.586081326007843,-2.9999194145202637,-1.490699291229248,-2.999995470046997,-0.17636987566947937,-0.1717769205570221,-0.1662200391292572,-0.1611020416021347,-0.20397302508354187,-0.13392598927021027,-0.04993896558880806,0.05351093411445618
0.85,0.1325344443321228,0.053932446986436844,0.0,0.5922192335128784,0.0,0.0,-0.8057768940925598,0.5097379684448242,-0.03364591300487518,0.0,0.0,0.0,-0.7834703326225281,0.37843191623687744,0.7460885047912598,0.41999995708465576,0.6012362837791443,-9.409384915670671e-07,-5.4639813242829405e-06,-0.7990713119506836,0.00014798715710639954,-0.00040597227052785456,-8.246372453868389e-05,0.009672769345343113,-0.002316852333024144,-0.0007937693153508008,0.40794825553894043,0.7866719961166382,0.5127137303352356,0.36245423555374146,0.22077883780002594,0.42935484647750854,0.36702027916908264,0.7574927806854248,0.42000001668930054,-0.6056056022644043,0.379908949136734,-1.540717601776123,-3.0,-0.18164114654064178,-0.17621994018554688,-0.16970737278461456,-0.16338157653808594,-0.11746976524591446,-0.14911235868930817,-0.1723097860813141,-0.17668692767620087
0.8666666666666667,0.13755862414836884,0.04851159825921059,0.0,0.6049497127532959,0.0,0.0,-0.7962636947631836,0.23491959273815155,-0.37149176001548767,0.0,0.0,0.0,2.5346951484680176,0.37843194603919983,0.7460885047912598,0.41999995708465576,0.6012361645698547,-1.1235522379138274e-06,-5.604629677691264e-06,-0.7990712523460388,0.000148267179611139,-0.0004075450706295669,-8.252495899796486e-05,0.009719397872686386,-0.0023277313448488712,-0.0007958144997246563,0.41491633653640747,0.7910482883453369,0.5147576332092285,0.3641819953918457,0.16613346338272095,-0.17244789004325867,0.36702027916908264,0.7574927806854248,0.42000001668930054,-0.5970269441604614,0.6200423240661621,-1.5018713474273682,2.999999523162842,-0.18034300208091736,-0.175548255443573,-0.1695559024810791,-0.16345654428005219,-0.027364637702703476,-0.02500045858323574,-0.021083906292915344,-0.0049535976722836494
0.8833333333333333,0.13913285732269287,0.04706605151295662,0.0,0.6033398509025574,0.0,0.0,-0.7974841594696045,0.05264677107334137,-0.05738713964819908,0.0,0.0,0.0,-1.0613930225372314,0.37843191623687744,0.7460885047912598,0.41999995708465576,0.6012363433837891,-1.1447285714893951e-06,-5.744499048887519e-06,-0.799071192741394,0.00014527821622323245,-0.0004059867060277611,-8.247699588537216e-05,0.009667021222412586,-0.00232615671120584,-0.0007867133826948702,0.41855257749557495,0.789385199546814,0.5085852742195129,0.18984349071979523,-0.17833469808101654,-0.43602973222732544,0.36702027916908264,0.7574927806854248,0.42000001668930054,-0.6116814613342285,-2.126673460006714,-1.4528685808181763,2.8531954288482666,-0.18465350568294525,-0.179125115275383,-0.17241322994232178,-0.16544778645038605,-0.13211221992969513,-0.11978698521852493,-0.10433496534824371,-0.07564499229192734
