vladlanda/robotic-transformer/data/env_000_episode_0001.csv
sim_time_s,robot_box_x,robot_box_y,robot_box_z,robot_box_quat_w,robot_box_quat_x,robot_box_quat_y,robot_box_quat_z,robot_box_linvel_x,robot_box_linvel_y,robot_box_linvel_z,robot_box_angvel_x,robot_box_angvel_y,robot_box_angvel_z,cube_world_x,cube_world_y,cube_world_z,cube_quat_w,cube_quat_x,cube_quat_y,cube_quat_z,cube_linvel_x,cube_linvel_y,cube_linvel_z,cube_angvel_x,cube_angvel_y,cube_angvel_z,endpoint_world_x,endpoint_world_y,endpoint_world_z,endpoint_linvel_x,endpoint_linvel_y,endpoint_linvel_z,target_cube_world_x,target_cube_world_y,target_cube_world_z,gripper_actual_pos_rad_gp_leftgearjoint,gripper_actual_vel_rad_s_gp_leftgearjoint,gripper_actual_pos_rad_gp_rotatingjoint,gripper_actual_vel_rad_s_gp_rotatingjoint,motor_angle_rad_joint1,motor_angle_rad_joint2,motor_angle_rad_joint3,motor_angle_rad_joint4,motor_speed_rad_s_joint1,motor_speed_rad_s_joint2,motor_speed_rad_s_joint3,motor_speed_rad_s_joint4
0.0,0.0,0.0,0.0,1.0,0.0,0.0,0.0,0.0,0.0,0.0,0.0,0.0,0.0,-0.3891339600086212,0.7386857867240906,0.41999998688697815,1.0,0.0,0.0,0.0,0.0,0.0,0.0,0.0,0.0,0.0,3.42540442943573e-06,-0.005000244826078415,1.313499927520752,0.0,0.0,0.0,0.3807530701160431,0.7771645784378052,0.42000001668930054,-1.5707999467849731,0.0,0.0,0.0,0.0,0.0,0.0,0.0,0.0,0.0,0.0,0.0
0.016666666666666666,0.0028781595174223185,0.0021803504787385464,0.0,0.9998088479042053,0.0,0.0,0.019551696255803108,0.2408810555934906,0.18239708244800568,0.0,0.0,0.0,3.1418604850769043,-0.38913407921791077,0.7386854887008667,0.41999998688697815,1.0,3.279964630564791e-06,-8.339746386809566e-07,8.465587342243452e-08,-1.9833529222523794e-05,0.00017983045836444944,-6.132945418357849e-05,0.0009432713268324733,-0.004689474124461412,-0.00031981561915017664,-0.007109837606549263,0.0033804357517510653,1.3159372806549072,-0.8143051862716675,0.986902117729187,0.18095262348651886,0.3807530701160431,0.7771645784378052,0.42000001668930054,-1.5301095247268677,3.000002384185791,-0.04584799334406853,-3.000000476837158,0.0008697570883668959,0.0007963198004290462,0.0007109728176146746,0.0006108274683356285,0.11093174666166306,0.09757251292467117,0.08334796875715256,0.06824304908514023
0.03333333333333333,0.008961251005530357,0.006801483687013388,0.0,0.9997967481613159,0.0,0.0,0.020161813125014305,0.4070245623588562,0.3152954578399658,0.0,0.0,0.0,-0.8691322207450867,-0.3891341984272003,0.7386854290962219,0.4200000464916229,1.0,3.3908179375430336e-06,-2.132458348569344e-06,-3.7097745320124886e-08,0.00026357852038927376,0.00026937833172269166,-0.00010509369894862175,-0.0017707126680761576,0.004130884539335966,-0.0001354814594378695,-0.027554672211408615,0.026302028447389603,1.3165805339813232,-1.5911935567855835,1.6164652109146118,-0.08707567304372787,0.3807530701160431,0.7771645784378052,0.42000001668930054,-1.4800903797149658,3.0,-0.09588783234357834,-3.0,0.0029904076363891363,0.002652592258527875,0.0022771621588617563,0.0018606153316795826,0.16419821977615356,0.139754980802536,0.1138128787279129,0.08629396557807922
0.05,0.01847020536661148,0.013900186866521835,0.0,0.9999781847000122,0.0,0.0,-0.006605972070246935,0.6362819075584412,0.47228044271469116,0.0,0.0,0.0,-4.074406147003174,-0.3891342282295227,0.7386854887008667,0.4200000464916229,1.0,3.7651293496310245e-06,-2.2119379536889028e-06,5.6273887771851605e-09,0.0002653067058417946,0.00026691422681324184,-0.00010440615005791187,-0.0017243530601263046,0.00417736079543829,-0.00012949267693329602,-0.056771501898765564,0.058041222393512726,1.3118406534194946,-1.9122071266174316,2.1157045364379883,-0.4655481278896332,0.3807530701160431,0.7771645784378052,0.42000001668930054,-1.4300720691680908,3.0000033378601074,-0.14592650532722473,-3.0000011920928955,0.005959443747997284,0.005103126633912325,0.004174550995230675,0.0031693349592387676,0.2014206051826477,0.15966913104057312,0.11599074304103851,0.07031755149364471
0.06666666666666667,0.030782386660575867,0.023387368768453598,0.0,0.9998859167098999,0.0,0.0,-0.015106500126421452,0.7725741863250732,0.6160815954208374,0.0,0.0,0.0,-0.03926754742860794,-0.3891342282295227,0.7386854290962219,0.4200000464916229,0.9999999403953552,3.406754103707499e-06,-2.2856077066535363e-06,4.300980265270482e-07,0.0002670255198609084,0.0002679179306142032,-0.0001043803058564663,-0.001740670995786786,0.004211848136037588,-0.00012850687198806554,-0.09166555851697922,0.09235003590583801,1.3014832735061646,-2.142113208770752,2.1704559326171875,-0.7661498785018921,0.3807530701160431,0.7771645784378052,0.42000001668930054,-1.3800537586212158,3.0000016689300537,-0.19593030214309692,-3.0,0.008411363698542118,0.0067614344879984856,0.004998745862394571,0.0031187087297439575,0.12410398572683334,0.06657346338033676,0.0068757557310163975,-0.05504479631781578
0.08333333333333333,0.03818726912140846,0.03644812852144241,0.0,0.9992480874061584,0.0,0.0,-0.03877249360084534,0.22959865629673004,0.8770257830619812,0.0,0.0,0.0,-3.808631658554077,-0.3891342282295227,0.7386854290962219,0.4200000464916229,0.9999999403953552,3.6260603337723296e-06,-2.3353738924924983e-06,3.0322857469400333e-07,0.00026613770751282573,0.00026685066404752433,-0.00010405178181827068,-0.0017283547203987837,0.004196325317025185,-0.000127911422168836,-0.1231958195567131,0.1333802342414856,1.2862002849578857,-1.6406128406524658,2.7408571243286133,-1.0250778198242188,0.3807530701160431,0.7771645784378052,0.42000001668930054,-1.3300271034240723,2.9999964237213135,-0.16216027736663818,2.9999992847442627,0.00502238143235445,0.002523792674764991,-0.00013952339941170067,-0.0029753472190350294,-0.38793450593948364,-0.4441642165184021,-0.5033357739448547,-0.565709114074707
0.1,0.0471021831035614,0.05187394097447395,0.0,0.9958869814872742,0.0,0.0,-0.09060404449701309,0.7080577611923218,0.9210404753684998,0.0,0.0,0.0,-6.985435485839844,-0.3891342282295227,0.7386854290962219,0.4200000464916229,1.0,3.4220743145851884e-06,-2.30867885875341e-06,1.7964234189093986e-07,0.0002668164379429072,0.0002680036413948983,-0.00010440708138048649,-0.0017430284060537815,0.004207152873277664,-0.00012891023652628064,-0.14986364543437958,0.18052178621292114,1.2698981761932373,-1.5753495693206787,2.9365172386169434,-0.9724313020706177,0.3807530701160431,0.7771645784378052,0.42000001668930054,-1.2800365686416626,2.9999992847442627,-0.1939016580581665,-3.000000476837158,0.0013592274626716971,-0.0025390053633600473,-0.0066195884719491005,-0.010891224257647991,-0.08744935691356659,-0.19180859625339508,-0.2954375445842743,-0.39826545119285583
0.11666666666666667,0.05530755594372749,0.06597031652927399,0.0,0.9925421476364136,0.0,0.0,-0.12190178036689758,0.5127993822097778,0.8257951736450195,0.0,0.0,0.0,-2.555291175842285,-0.3891342282295227,0.7386854887008667,0.4200000464916229,1.0,3.711451881827088e-06,-2.3327925191551913e-06,2.574467430349614e-07,0.0002648566151037812,0.0002663534542080015,-0.00010423408821225166,-0.0017182299634441733,0.004170136991888285,-0.0001291574299102649,-0.1821104735136032,0.22692513465881348,1.252098560333252,-1.9683475494384766,2.993406057357788,-1.12403404712677,0.3807530701160431,0.7771645784378052,0.42000001668930054,-1.2300187349319458,2.9999890327453613,-0.16010653972625732,2.9999992847442627,-0.0017429969739168882,-0.007291839923709631,-0.01299537718296051,-0.018861563876271248,-0.09870649129152298,-0.2126312106847763,-0.3231135606765747,-0.42998015880584717
0.13333333333333333,0.061645470559597015,0.07748854160308838,0.0,0.9865935444831848,0.0,0.0,-0.1631966531276703,0.331076055765152,0.612655520439148,0.0,0.0,0.0,-5.848038673400879,-0.3891342282295227,0.7386854290962219,0.4200000464916229,1.0,3.335707106089103e-06,-2.2319818526739255e-06,3.1131835953601694e-07,0.00026669749058783054,0.00026759348111227155,-0.00010428577661514282,-0.0017370672430843115,0.004205907229334116,-0.00012840131239499897,-0.21138983964920044,0.28068143129348755,1.2325657606124878,-1.5145018100738525,3.550520896911621,-1.2562263011932373,0.3807530701160431,0.7771645784378052,0.42000001668930054,-1.1800332069396973,2.999999523162842,-0.19184385240077972,-3.0,-0.00421084463596344,-0.011761714704334736,-0.019394593313336372,-0.027114395052194595,-0.2136850208044052,-0.329698771238327,-0.4412217438220978,-0.5480887293815613
0.15,0.06411149352788925,0.08927583694458008,0.0,0.9828351736068726,0.0,0.0,-0.1844857782125473,0.06787919998168945,0.7416436672210693,0.0,0.0,0.0,-1.456812858581543,-0.3891342282295227,0.7386854290962219,0.4200000464916229,1.0,3.518956873449497e-06,-2.2831925434729783e-06,-3.625542035479157e-07,0.0002661838079802692,0.0002673559356480837,-0.00010425667278468609,-0.0017348496476188302,0.004195802379399538,-0.00012861037976108491,-0.2442162185907364,0.3380487263202667,1.2043333053588867,-2.058234214782715,3.595151901245117,-2.083219051361084,0.3807530701160431,0.7771645784378052,0.42000001668930054,-1.1498247385025024,0.7931850552558899,-0.15806029736995697,3.0000011920928955,-0.009174469858407974,-0.018232377246022224,-0.02728763222694397,-0.036344029009342194,-0.3629356324672699,-0.4275849163532257,-0.48741286993026733,-0.5424741506576538
0.16666666666666666,0.0705331414937973,0.10295671224594116,0.0,0.9757535457611084,0.0,0.0,-0.21887214481830597,0.35028430819511414,0.8424937725067139,0.0,0.0,0.0,-5.041293144226074,-0.3891342282295227,0.7386854290962219,0.4200000464916229,1.0,3.6666233427240513e-06,-2.3392092316498747e-06,-3.150152849684673e-07,0.0002659587189555168,0.00026667414931580424,-0.00010403618216514587,-0.0017253721598535776,0.0041928282007575035,-0.00012778467498719692,-0.27741292119026184,0.40196529030799866,1.1666449308395386,-1.869624376296997,4.052288055419922,-2.534012794494629,0.3807530701160431,0.7771645784378052,0.42000001668930054,-1.1070643663406372,3.0000011920928955,-0.18981629610061646,-2.9999990463256836,-0.013312584720551968,-0.023537658154964447,-0.033672358840703964,-0.04372163861989975,-0.48118138313293457,-0.5109000205993652,-0.5377399921417236,-0.5619125962257385
0.18333333333333332,0.0729469284415245,0.11362265050411224,0.0,0.97156822681427,0.0,0.0,-0.23675984144210815,0.10414304584264755,0.5736863017082214,0.0,0.0,0.0,-0.9738814234733582,-0.3891342282295227,0.7386854290962219,0.4200000464916229,1.0,3.814353021880379e-06,-2.3995974061108427e-06,-2.7029872740058636e-07,0.00026549032190814614,0.0002661117759998888,-0.00010391208343207836,-0.0017177986446768045,0.004184774123132229,-0.0001275356044061482,-0.31240761280059814,0.4660022258758545,1.1154067516326904,-1.972996473312378,3.9740118980407715,-3.539477586746216,0.3807530701160431,0.7771645784378052,0.42000001668930054,-1.0630685091018677,2.303086280822754,-0.23984438180923462,-2.9999985694885254,-0.0237449798732996,-0.03378690779209137,-0.04371212050318718,-0.053536124527454376,-0.6688473224639893,-0.6389886140823364,-0.6079197525978088,-0.5763041377067566
0.2,0.07735497504472733,0.12536145746707916,0.0,0.9638320207595825,0.0,0.0,-0.26651060581207275,0.28341081738471985,0.73096764087677,0.0,0.0,0.0,-4.560226917266846,-0.3891342282295227,0.7386854290962219,0.4200000464916229,1.0,3.6000251384393778e-06,-2.2912661279406166e-06,-2.202114615101891e-07,0.0002657297009136528,0.00026644894387573004,-0.00010398100130259991,-0.0017226373311132193,0.004188735969364643,-0.0001277304399991408,-0.34253865480422974,0.5331524610519409,1.0500397682189941,-1.5917315483093262,4.034140586853027,-4.246833801269531,0.3807530701160431,0.7771645784378052,0.42000001668930054,-1.013890027999878,3.000000476837158,-0.28986993432044983,-2.999999761581421,-0.037550803273916245,-0.0466332845389843,-0.05561485141515732,-0.06452631950378418,-0.9449367523193359,-0.8702089190483093,-0.7976037859916687,-0.7280416488647461
0.21666666666666667,0.07884681224822998,0.13885818421840668,0.0,0.9599486589431763,0.0,0.0,-0.280176043510437,0.02273346483707428,0.8525006175041199,0.0,0.0,0.0,-0.432775616645813,-0.3891342282295227,0.7386854290962219,0.4200000464916229,0.9999999403953552,3.639628175733378e-06,-2.2620024537900463e-06,2.2244368835799833e-07,0.00026687400531955063,0.00026754438295029104,-0.00010411953553557396,-0.0017404285026714206,0.004211097024381161,-0.00012783633428625762,-0.37029165029525757,0.5943132638931274,0.9717336893081665,-1.4846776723861694,3.4778599739074707,-5.0425310134887695,0.3807530701160431,0.7771645784378052,0.42000001668930054,-0.9638817310333252,2.9999988079071045,-0.33989694714546204,-3.000000476837158,-0.0511697381734848,-0.06051856279373169,-0.06974548101425171,-0.07878872752189636,-0.8463649749755859,-0.8436179757118225,-0.839704155921936,-0.8339282274246216
0.23333333333333334,0.08416455239057541,0.1483057290315628,0.0,0.9524481296539307,0.0,0.0,-0.30470073223114014,0.3572649657726288,0.4789358973503113,0.0,0.0,0.0,-3.834595203399658,-0.3891341984272003,0.7386854290962219,0.4200000464916229,1.0,3.4207625958515564e-06,-2.3168413463281468e-06,2.955432591988938e-07,0.0002668008382897824,0.0002680383331608027,-0.00010442384518682957,-0.0017436932539567351,0.004206873942166567,-0.00012899334251414984,-0.3925556540489197,0.6507008671760559,0.8808116316795349,-1.076594352722168,3.1461243629455566,-5.804838180541992,0.3807530701160431,0.7771645784378052,0.42000001668930054,-0.913872241973877,3.0000014305114746,-0.3899264633655548,-3.0000009536743164,-0.06507858633995056,-0.07400625199079514,-0.08281836658716202,-0.09145432710647583,-0.9866241216659546,-0.9290471076965332,-0.8690267205238342,-0.812005341053009
0.25,0.08393650501966476,0.16102078557014465,0.0,0.9499484896659851,0.0,0.0,-0.31240665912628174,-0.00046118395403027534,0.7435147762298584,0.0,0.0,0.0,0.03419994190335274,-0.3891342282295227,0.7386854290962219,0.4200000464916229,0.9999999403953552,3.3476451335445745e-06,-2.259213715660735e-06,1.8079042263252632e-07,0.00026687688659876585,0.00026791199343279004,-0.00010439311154186726,-0.0017404770478606224,0.004208194557577372,-0.0001287040940951556,-0.40787944197654724,0.6887552738189697,0.7809704542160034,-0.6553406715393066,1.8017020225524902,-6.011640548706055,0.3807530701160431,0.7771645784378052,0.42000001668930054,-0.863861620426178,2.999906301498413,-0.4399576187133789,-2.9999935626983643,-0.08177722245454788,-0.09060504287481308,-0.09937050938606262,-0.10798005759716034,-0.6883204579353333,-0.7448621392250061,-0.7974923849105835,-0.8446115255355835
0.26666666666666666,0.08892073482275009,0.168301060795784,0.0,0.9429389238357544,0.0,0.0,-0.33296576142311096,0.31029921770095825,0.36286360025405884,0.0,0.0,0.0,-3.277773857116699,-0.3891342282295227,0.7386854290962219,0.4200000464916229,0.9999999403953552,3.535712721713935e-06,-2.300341748195933e-06,-1.2691427286881662e-07,0.00026601803256198764,0.00026712071849033237,-0.00010419590398669243,-0.0017315904842689633,0.004192848224192858,-0.00012849242193624377,-0.41655850410461426,0.7168362140655518,0.6766371726989746,-0.21442894637584686,1.3442280292510986,-6.385143280029297,0.3807530701160431,0.7771645784378052,0.42000001668930054,-0.8138521909713745,2.9999983310699463,-0.48998919129371643,-3.0000007152557373,-0.09356457740068436,-0.10286805033683777,-0.11207735538482666,-0.12108281254768372,-0.9743552803993225,-0.945655345916748,-0.9179908633232117,-0.8913587331771851
0.2833333333333333,0.08942528814077377,0.17214111983776093,0.0,0.9420695900917053,0.0,0.0,-0.3354175090789795,-0.05983687937259674,0.17412060499191284,0.0,0.0,0.0,0.5922375321388245,-0.3891342282295227,0.7386854887008667,0.4200000464916229,1.0,3.5934726838604547e-06,-2.2626072677667253e-06,-5.6595279573912194e-08,0.00026704673655331135,0.00026774933212436736,-0.00010416633449494839,-0.0017431472660973668,0.0042141880840063095,-0.00012789324682671577,-0.4166789948940277,0.7315261363983154,0.5754460096359253,0.3250654637813568,0.4998944401741028,-5.68842077255249,0.3807530701160431,0.7771645784378052,0.42000001668930054,-0.7638434171676636,3.000001907348633,-0.5400192737579346,-2.999999523162842,-0.11112221330404282,-0.12020792067050934,-0.12925997376441956,-0.13814757764339447,-1.015241026878357,-1.0114666223526,-1.0085947513580322,-1.0063108205795288
0.3,0.08613888919353485,0.17259430885314941,0.0,0.9367516040802002,0.0,0.0,-0.349994957447052,-0.2014733850955963,-0.04130380228161812,0.0,0.0,0.0,-2.6681549549102783,-0.3891341984272003,0.7386854290962219,0.4200000464916229,0.9999999403953552,3.7250313198455842e-06,-2.2360607090377016e-06,3.828210992651293e-07,0.00026479887310415506,0.00026673005777411163,-0.00010453932918608189,-0.0017189555801451206,0.004166737664490938,-0.00013016702723689377,-0.4063013792037964,0.7375158071517944,0.48229900002479553,0.8966697454452515,0.2785860002040863,-5.497805118560791,0.3807530701160431,0.7771645784378052,0.42000001668930054,-0.7138350605964661,3.000002145767212,-0.5900479555130005,-3.0000014305114746,-0.12806880474090576,-0.1370777040719986,-0.146076500415802,-0.1549183577299118,-1.001655101776123,-1.0012503862380981,-1.0009416341781616,-1.0006946325302124
0.31666666666666665,0.0811118334531784,0.17025384306907654,0.0,0.9375573992729187,0.0,0.0,-0.3478306531906128,-0.3430634140968323,-0.1806926727294922,0.0,0.0,0.0,1.1404169797897339,-0.3891342282295227,0.7386854887008667,0.4200000464916229,0.9999999403953552,3.4898855574283516e-06,-2.090100906571024e-06,2.1838476982338761e-07,0.00024178482999559492,0.00025211117463186383,-9.924359619617462e-05,-0.0015740093076601624,0.003690191777423024,-1.1943066056119278e-05,-0.39897751808166504,0.741193950176239,0.4295567274093628,0.13286839425563812,-0.02522207796573639,-0.2693282961845398,0.3807530701160431,0.7771645784378052,0.42000001668930054,-0.6638302206993103,3.0,-0.6404538750648499,-3.000122308731079,-0.14225195348262787,-0.1514224261045456,-0.16024646162986755,-0.16855953633785248,-0.4650212824344635,-0.5201603770256042,-0.5243039727210999,-0.47684046626091003
0.3333333333333333,0.07365219295024872,0.16561445593833923,0.0,0.9330276250839233,0.0,0.0,-0.3598047196865082,-0.49802353978157043,-0.3192155361175537,0.0,0.0,0.0,-2.409590721130371,-0.38852009177207947,0.739791750907898,0.4200001358985901,0.9999428391456604,2.6443804017617367e-06,3.0160790629452094e-06,-0.01069305557757616,0.0785483866930008,0.1224699467420578,-0.0001349754020338878,-0.001756885671056807,-0.004302909132093191,-2.0256478786468506,-0.39747437834739685,0.7430766224861145,0.42653268575668335,0.21961265802383423,0.10177887976169586,-0.2036358118057251,0.3807530701160431,0.7771645784378052,0.42000001668930054,-0.613824725151062,2.9999935626983643,-0.6905525922775269,-2.999962091445923,-0.1502862423658371,-0.15956704318523407,-0.16768866777420044,-0.17449285089969635,-0.5322474241256714,-0.48794788122177124,-0.40085700154304504,-0.27240049839019775
0.35,0.06396012753248215,0.15866301953792572,0.0,0.9344337582588196,0.0,0.0,-0.3561370074748993,-0.6197265386581421,-0.4565790891647339,0.0,0.0,0.0,1.3931668996810913,-0.3860678970813751,0.743249773979187,0.4200001060962677,0.9992096424102783,-1.875039515653043e-06,2.8003087209071964e-06,-0.03975028172135353,0.17791159451007843,0.24532516300678253,-0.0001659656991250813,0.007928780280053616,-0.001843940350227058,-4.191246509552002,-0.39291346073150635,0.7457742691040039,0.4231169819831848,0.3431052267551422,0.2102258950471878,-0.18253029882907867,0.3807530701160431,0.7771645784378052,0.42000001668930054,-0.5638195872306824,2.9999663829803467,-0.7406051158905029,-2.9999945163726807,-0.16001370549201965,-0.16780827939510345,-0.17383824288845062,-0.17798838019371033,-0.5632356405258179,-0.45078232884407043,-0.3079182505607605,-0.13767798244953156
0.36666666666666664,0.052025727927684784,0.14949657022953033,0.0,0.9302392601966858,0.0,0.0,-0.36695361137390137,-0.7601809501647949,-0.588577389717102,0.0,0.0,0.0,-2.3229708671569824,-0.3823322057723999,0.7481018900871277,0.42000025510787964,0.9967322945594788,-8.506511221639812e-06,1.07521709651337e-05,-0.08077528327703476,0.29899391531944275,0.37194332480430603,-0.0005032271146774292,0.02462969347834587,-0.010983972810208797,-6.573190689086914,-0.38591426610946655,0.7496395707130432,0.4207499921321869,0.5150766968727112,0.3196520507335663,-0.11798986792564392,0.3807530701160431,0.7771645784378052,0.42000001668930054,-0.5138148069381714,2.99997615814209,-0.7906638979911804,-2.9999806880950928,-0.16916599869728088,-0.1748736947774887,-0.178354412317276,-0.1795501559972763,-0.4971708059310913,-0.3656569719314575,-0.2107115089893341,-0.035841915756464005
0.3833333333333333,0.04331771656870842,0.13740622997283936,0.0,0.9164212942123413,0.0,0.0,-0.40021494030952454,-0.5538676381111145,-0.7547205090522766,0.0,0.0,0.0,-5.395325660705566,-0.37533172965049744,0.7563307285308838,0.42000120878219604,0.986946702003479,-3.442219167482108e-05,1.0103770364366937e-05,-0.16104701161384583,0.5056848526000977,0.5903922915458679,-0.0012530033709481359,0.10573437064886093,-0.14140097796916962,-13.343711853027344,-0.37575221061706543,0.757816731929779,0.4200860857963562,0.7540729641914368,0.6524451971054077,0.014865707606077194,0.3807530701160431,0.7771645784378052,0.42000001668930054,-0.4638088643550873,2.999873161315918,-0.8407230973243713,-2.999960422515869,-0.1759823113679886,-0.17942243814468384,-0.18023893237113953,-0.17843753099441528,-0.4750078022480011,-0.31089967489242554,-0.12571680545806885,0.07578922808170319
0.4,0.03221498429775238,0.12338239699602127,0.0,0.887993335723877,0.0,0.0,-0.4598562717437744,-0.7546491622924805,-0.8643949031829834,0.0,0.0,0.0,-8.847177505493164,-0.3524622917175293,0.7758463025093079,0.4216979742050171,0.9770052433013916,-0.013234577141702175,-0.01657274179160595,-0.21215783059597015,2.2645461559295654,1.692372441291809,-0.024389585480093956,25.08304786682129,-16.166759490966797,0.8251239061355591,-0.35263490676879883,0.7763904333114624,0.42202919721603394,2.2559354305267334,1.7277805805206299,0.24947139620780945,0.3807530701160431,0.7771645784378052,0.42000001668930054,-0.41415494680404663,2.752455949783325,-0.8907372355461121,-3.0000011920928955,-0.18590648472309113,-0.18587704002857208,-0.18292631208896637,-0.17716366052627563,-0.6584770679473877,-0.41429761052131653,-0.15710636973381042,0.10581054538488388
0.4166666666666667,0.023029331117868423,0.10722875595092773,0.0,0.8429892659187317,0.0,0.0,-0.5379303693771362,-0.4664428234100342,-1.0438772439956665,0.0,0.0,0.0,-11.521504402160645,-0.2904506027698517,0.8124822974205017,0.4256715476512909,0.9603215456008911,0.03649720922112465,-0.05526139587163925,-0.2709181010723114,5.207284927368164,2.6751620769500732,0.16188037395477295,18.574899673461914,-12.985372543334961,4.6373610496521,-0.29053351283073425,0.8134298920631409,0.42616361379623413,4.838383674621582,2.6960701942443848,0.33981356024742126,0.3807530701160431,0.7771645784378052,0.42000001668930054,-0.3853592276573181,1.135000467300415,-0.8592491149902344,3.000006914138794,-0.19987505674362183,-0.1947312206029892,-0.18669277429580688,-0.1760251820087433,-0.8174092769622803,-0.5146584510803223,-0.22300702333450317,0.04840489849448204
0.43333333333333335,0.017417842522263527,0.09511944651603699,0.0,0.801937997341156,0.0,0.0,-0.5974072813987732,-0.27057206630706787,-0.7424792647361755,0.0,0.0,0.0,-6.9082231521606445,-0.20800632238388062,0.853349506855011,0.4331965446472168,0.9357994794845581,0.07991722971200943,-0.08911288529634476,-0.3315890431404114,5.223268985748291,2.015082597732544,0.5484253764152527,11.647088050842285,-11.211565971374512,1.6250041723251343,-0.20809954404830933,0.8557800650596619,0.43349939584732056,5.056658744812012,2.3306002616882324,0.577425479888916,0.3807530701160431,0.7771645784378052,0.42000001668930054,-0.368611603975296,0.9693620204925537,-0.8856908679008484,-3.0,-0.21351967751979828,-0.20739105343818665,-0.1943764090538025,-0.17928192019462585,-0.5113142728805542,-0.5949287414550781,-0.3745638132095337,-0.18323050439357758
0.45,0.0153096504509449,0.08552087843418121,0.0,0.7835354804992676,0.0,0.0,-0.6213470101356506,-0.06910651922225952,-0.5104492902755737,0.0,0.0,0.0,-2.4821293354034424,-0.12111032009124756,0.8859882950782776,0.44325384497642517,0.8879338502883911,0.08739811927080154,-0.10580954700708389,-0.4390209913253784,5.510373592376709,0.9531557559967041,0.6948246359825134,15.830642700195312,-6.606828212738037,16.0364933013916,-0.12160494923591614,0.888557493686676,0.44301679730415344,5.419029235839844,1.5805323123931885,0.718263566493988,0.3807530701160431,0.7771645784378052,0.42000001668930054,-0.34993720054626465,1.1661652326583862,-0.9357149004936218,-3.0000033378601074,-0.22298409044742584,-0.21718589961528778,-0.20051167905330658,-0.18226134777069092,-0.5514668822288513,-0.5307232141494751,-0.32718199491500854,-0.15334025025367737
0.4666666666666667,0.011831949464976788,0.08026659488677979,0.0,0.7585269212722778,0.0,0.0,-0.6516416668891907,-0.23548898100852966,-0.24766428768634796,0.0,0.0,0.0,-5.475707530975342,-0.029636509716510773,0.9010688066482544,0.4528360664844513,0.8249155879020691,0.09360159188508987,-0.11708405613899231,-0.5450177788734436,5.484185218811035,-0.052363909780979156,0.5122635364532471,-5.28959846496582,-5.299180507659912,6.785065174102783,-0.031392764300107956,0.9052166938781738,0.4524112343788147,5.575869560241699,0.49487024545669556,0.63466477394104,0.3807530701160431,0.7771645784378052,0.42000001668930054,-0.3292805552482605,1.1444610357284546,-0.9857389330863953,-3.0000030994415283,-0.232894167304039,-0.22605854272842407,-0.2060297429561615,-0.18478049337863922,-0.5491107106208801,-0.45641040802001953,-0.2648867070674896,-0.08846645802259445
0.48333333333333334,0.011629486456513405,0.07007583230733871,0.0,0.7446388006210327,0.0,0.0,-0.6674676537513733,-0.02471228316426277,-0.5553622245788574,0.0,0.0,0.0,-1.4121216535568237,0.06038694828748703,0.9040825366973877,0.46046173572540283,0.7760008573532104,0.0779108852148056,-0.10972218960523605,-0.616209089756012,5.237476348876953,-1.145137071609497,0.2877826392650604,-14.778860092163086,-17.54253387451172,18.24711799621582,0.059851355850696564,0.9081792831420898,0.460294246673584,5.420165538787842,-0.30275604128837585,0.5657075047492981,0.3807530701160431,0.7771645784378052,0.42000001668930054,-0.31526660919189453,0.5315794348716736,-1.0357615947723389,-3.0000052452087402,-0.2363629788160324,-0.22832313179969788,-0.20623239874839783,-0.1831991821527481,-0.36762651801109314,-0.22976908087730408,-0.08716893941164017,0.028332093730568886
0.5,0.012101260013878345,0.06510049104690552,0.0,0.7222921848297119,0.0,0.0,-0.6915880441665649,0.10528653860092163,-0.2432814985513687,0.0,0.0,0.0,-4.823207855224609,0.14350134134292603,0.8919153809547424,0.46363765001296997,0.705765962600708,0.05829672887921333,-0.1182890236377716,-0.6960629224777222,4.3661088943481445,-1.4672911167144775,0.01551442127674818,-11.78884220123291,8.258971214294434,6.235377788543701,0.14156028628349304,0.8972815871238708,0.46442025899887085,4.691815376281738,-0.9520424604415894,0.1523076593875885,0.3807530701160431,0.7771645784378052,0.42000001668930054,-0.30685359239578247,0.4795737564563751,-1.0857837200164795,-2.999889612197876,-0.24000465869903564,-0.23273363709449768,-0.20875544846057892,-0.18426935374736786,-0.026654334738850594,-0.1685016006231308,-0.10108748078346252,-0.056137531995773315
0.5166666666666666,0.015638258308172226,0.06302396953105927,0.0,0.7140610218048096,0.0,0.0,-0.7000834345817566,0.28248193860054016,-0.06499022245407104,0.0,0.0,0.0,-0.3605659008026123,0.21676687896251678,0.8730921149253845,0.45735299587249756,0.6286299824714661,-0.04935472086071968,-0.18644142150878906,-0.7534108757972717,4.073848724365234,-1.2899304628372192,-0.45633023977279663,-5.72593355178833,-0.2518845200538635,-10.64223575592041,0.2133222371339798,0.8782875537872314,0.46341580152511597,4.013201713562012,-1.371577262878418,-0.24407857656478882,0.3807530701160431,0.7771645784378052,0.42000001668930054,-0.292609304189682,1.2548749446868896,-1.1358058452606201,-2.99997878074646,-0.23903179168701172,-0.2338746190071106,-0.20956659317016602,-0.18505635857582092,0.13280700147151947,0.03537365794181824,0.011967239901423454,-0.028217554092407227
0.5333333333333333,0.018066685646772385,0.05666752904653549,0.0,0.6968718767166138,0.0,0.0,-0.7171956300735474,0.14280185103416443,-0.40710675716400146,0.0,0.0,0.0,-3.7140884399414062,0.2787516713142395,0.8507935404777527,0.4484114944934845,0.5868554711341858,-0.07262305915355682,-0.1664389818906784,-0.7890655398368835,3.0712878704071045,-1.877399206161499,-0.6152859926223755,-4.6859917640686035,16.115741729736328,4.7615275382995605,0.276486337184906,0.8566389083862305,0.45494234561920166,3.6011338233947754,-1.4659680128097534,-0.5864164233207703,0.3807530701160431,0.7771645784378052,0.42000001668930054,-0.2694395184516907,1.0696970224380493,-1.1858279705047607,-2.9973604679107666,-0.23266072571277618,-0.22940218448638916,-0.20666231215000153,-0.18392376601696014,0.29340508580207825,0.2263849675655365,0.12734933197498322,0.012238573282957077
0.55,0.02155945636332035,0.05528627336025238,0.0,0.6923848390579224,0.0,0.0,-0.7215283513069153,0.21823395788669586,-0.08375032991170883,0.0,0.0,0.0,0.15857498347759247,0.32804206013679504,0.8232149481773376,0.434547483921051,0.5288192629814148,-0.11645388603210449,-0.16886886954307556,-0.8235726952552795,2.542511224746704,-1.5977702140808105,-0.8807857036590576,1.0044151544570923,8.521273612976074,-10.78226089477539,0.3250688314437866,0.8292073011398315,0.4427660405635834,2.479861259460449,-1.6594406366348267,-0.9011493921279907,0.3807530701160431,0.7771645784378052,0.42000001668930054,-0.2564547657966614,0.6642439365386963,-1.2358500957489014,-2.9992868900299072,-0.2315538376569748,-0.22838044166564941,-0.20697394013404846,-0.18589618802070618,0.2394002079963684,0.20037291944026947,0.06068124249577522,-0.0896160900592804
0.5666666666666667,0.02705824002623558,0.05534347891807556,0.0,0.6788082718849182,0.0,0.0,-0.7343155145645142,0.3752654194831848,0.1265304982662201,0.0,0.0,0.0,-3.0469729900360107,0.36106711626052856,0.8054726123809814,0.42371752858161926,0.530394434928894,-0.08497010171413422,-0.04948852211236954,-0.8420289158821106,1.3441623449325562,-0.712939441204071,-0.08721471577882767,0.1529138684272766,-9.1640043258667,16.49962043762207,0.35864222049713135,0.8090475797653198,0.42952561378479004,1.4344799518585205,-0.8585315942764282,-0.36269453167915344,0.3807530701160431,0.7771645784378052,0.42000001668930054,-0.24470950663089752,0.7147571444511414,-1.285871982574463,-2.998680591583252,-0.22494535148143768,-0.22330349683761597,-0.20533129572868347,-0.18763026595115662,0.4600077271461487,0.3472401797771454,0.10804674029350281,-0.1187283918261528
0.5833333333333334,0.031618766486644745,0.05238332971930504,0.0,0.677595317363739,0.0,0.0,-0.7354349493980408,0.20963101089000702,-0.18966668844223022,0.0,0.0,0.0,0.6736634373664856,0.3790721893310547,0.7936777472496033,0.42131689190864563,0.5405539274215698,-0.024516336619853973,-0.0003256584459450096,-0.8409520387649536,0.4895305335521698,-0.8067448735237122,0.0034574996680021286,7.257009983062744,3.2182953357696533,8.32999038696289,0.3763958215713501,0.7954218983650208,0.4245228171348572,0.7450330257415771,-0.8178638219833374,-0.07657337188720703,0.3807530701160431,0.7771645784378052,0.42000001668930054,-0.2294134795665741,1.0766609907150269,-1.2857694625854492,2.535407066345215,-0.2150118499994278,-0.21501009166240692,-0.20102858543395996,-0.18711218237876892,0.43534260988235474,0.3938736319541931,0.19858616590499878,0.011475354433059692
0.6,0.03683970123529434,0.05327938497066498,0.0,0.6662552356719971,0.0,0.0,-0.7457237839698792,0.3450999855995178,0.07191288471221924,0.0,0.0,0.0,-2.6490111351013184,0.3857681155204773,0.7868987321853638,0.4208248257637024,0.5609758496284485,-0.01570713520050049,-0.011737530119717121,-0.8275998830795288,0.14865796267986298,-0.22427967190742493,0.07182840257883072,10.961836814880371,0.5097283720970154,6.984356880187988,0.3834608197212219,0.7886861562728882,0.42532044649124146,0.22832712531089783,-0.13176429271697998,0.09575006365776062,0.3807530701160431,0.7771645784378052,0.42000001668930054,-0.2141532599925995,0.856910228729248,-1.309805154800415,-3.0002968311309814,-0.20793317258358002,-0.20908533036708832,-0.19878911972045898,-0.18830184638500214,0.544137179851532,0.4375052750110626,0.18187060952186584,-0.05245520919561386
0.6166666666666667,0.043901436030864716,0.05102798715233803,0.0,0.6676626205444336,0.0,0.0,-0.7444639801979065,0.4529964029788971,-0.17121706902980804,0.0,0.0,0.0,1.1373200416564941,0.3875807225704193,0.7833369374275208,0.4200212359428406,0.587719738483429,0.00039371661841869354,0.0009195360471494496,-0.8090639114379883,-0.08542264252901077,-0.6602494120597839,-0.008911069482564926,-8.075417518615723,0.16011729836463928,13.684405326843262,0.38305509090423584,0.7841099500656128,0.42443299293518066,-0.1591925173997879,-0.31143510341644287,-0.15822064876556396,0.3807530701160431,0.7771645784378052,0.42000001668930054,-0.2516382932662964,-2.814443588256836,-1.2716302871704102,3.009613513946533,-0.19959627091884613,-0.20186243951320648,-0.19517181813716888,-0.18799985945224762,0.39174187183380127,0.3662204444408417,0.19168832898139954,0.03021056577563286
0.6333333333333333,0.048648033291101456,0.051600005477666855,0.0,0.6585544347763062,0.0,0.0,-0.7525330781936646,0.23124700784683228,0.07000431418418884,0.0,0.0,0.0,-2.3659913539886475,0.38455232977867126,0.7752522230148315,0.4200000464916229,0.634577751159668,-8.493034897583129e-07,2.956832986455993e-06,-0.7728589773178101,-0.17036555707454681,-0.47185182571411133,-2.7975765988230705e-06,-4.4603242713492364e-05,-0.00014120733249001205,6.927656173706055,0.3820136785507202,0.7825193405151367,0.4257774353027344,-0.02303476259112358,0.005272176116704941,0.17051732540130615,0.3807530701160431,0.7771645784378052,0.42000001668930054,-0.3016107380390167,-2.9994399547576904,-1.2913395166397095,-2.9989988803863525,-0.19347962737083435,-0.19628998637199402,-0.19240175187587738,-0.18773001432418823,0.47719806432724,0.41964173316955566,0.23776283860206604,0.07760723680257797
0.65,0.05383284389972687,0.04965010657906532,0.0,0.6614375710487366,0.0,0.0,-0.7500002384185791,0.3313042223453522,-0.18417763710021973,0.0,0.0,0.0,1.3123449087142944,0.38286393880844116,0.7694810032844543,0.41999998688697815,0.6610903739929199,-1.4385352187673561e-05,-1.9926446839235723e-05,-0.7503061294555664,-0.17073312401771545,-0.37901291251182556,-0.0002591836964711547,0.01687203161418438,0.001182354404591024,4.386427402496338,0.3809282183647156,0.7819067239761353,0.4284992218017578,-0.08443082123994827,-0.0617913194000721,0.16937753558158875,0.3807530701160431,0.7771645784378052,0.42000001668930054,-0.35162553191185,-2.999999761581421,-1.3413548469543457,-2.99992036819458,-0.1867964118719101,-0.19002923369407654,-0.18849512934684753,-0.18587026000022888,0.3043440878391266,0.307746022939682,0.20319578051567078,0.11358180642127991
0.6666666666666666,0.06094703823328018,0.05015942454338074,0.0,0.6533375978469849,0.0,0.0,-0.7570666670799255,0.4590483009815216,0.0711899995803833,0.0,0.0,0.0,-2.1773505210876465,0.38060539960861206,0.7643553018569946,0.4200000464916229,0.6833789348602295,-6.340535492199706e-07,2.216696657342254e-06,-0.7300637364387512,-0.11724929511547089,-0.2855340540409088,1.3969838619232178e-08,2.2007269251389516e-07,1.0281106597176404e-06,3.4419615268707275,0.3810877799987793,0.7825940847396851,0.43205446004867554,0.11777932196855545,0.06425928324460983,0.25727972388267517,0.3807530701160431,0.7771645784378052,0.42000001668930054,-0.4016158878803253,-2.9998891353607178,-1.3913542032241821,-2.999990940093994,-0.18256111443042755,-0.18569228053092957,-0.185481458902359,-0.18377140164375305,0.2923862934112549,0.2995639145374298,0.23863977193832397,0.20777182281017303
0.6833333333333333,0.07015164941549301,0.04707258939743042,0.0,0.6236254572868347,0.0,0.0,-0.7817232608795166,0.5955501794815063,-0.21497467160224915,0.0,0.0,0.0,-5.469417572021484,0.3791435956954956,0.7606707811355591,0.4200000464916229,0.7001105546951294,-6.13572638030746e-07,1.5259548717949656e-06,-0.7140344381332397,-0.09367910772562027,-0.21020370721817017,-1.1080177500844002e-05,-0.00021021369320806116,-0.0005265099462121725,2.325545072555542,0.38494977355003357,0.7847282886505127,0.4437083303928375,0.36214688420295715,0.06072138994932175,1.2521178722381592,0.3807530701160431,0.7771645784378052,0.42000001668930054,-0.4516294598579407,-2.999997854232788,-1.4413726329803467,-2.999999761581421,-0.17791098356246948,-0.18086272478103638,-0.18143315613269806,-0.18003389239311218,0.07046487182378769,0.12661808729171753,0.13144582509994507,0.15821076929569244
0.7,0.0820663794875145,0.04757801070809364,0.0,0.6079076528549194,0.0,0.0,-0.7940077185630798,0.732525646686554,0.061356332153081894,0.0,0.0,0.0,-1.333923101425171,0.3779565393924713,0.7580932974815369,0.4200000464916229,0.7107177972793579,-1.0789961635282452e-07,1.0511128039070172e-06,-0.703477144241333,-0.06367248296737671,-0.1359221637248993,-1.562491524964571e-05,-0.0007011685520410538,-0.00014408575952984393,1.6317001581192017,0.3917565941810608,0.7886584401130676,0.46901386976242065,0.4779142737388611,0.43993571400642395,1.7707173824310303,0.3807530701160431,0.7771645784378052,0.42000001668930054,-0.49716541171073914,-2.472978353500366,-1.4913909435272217,-3.000000238418579,-0.17915309965610504,-0.18124033510684967,-0.1816866546869278,-0.1798756867647171,0.008393406867980957,0.014411999844014645,-0.014859119430184364,-0.027063436806201935
0.7166666666666667,0.09074809402227402,0.05017651990056038,0.0,0.6173685789108276,0.0,0.0,-0.7866740226745605,0.44393956661224365,0.20005692541599274,0.0,0.0,0.0,2.3041765689849854,0.3772837519645691,0.7567335367202759,0.4200000762939453,0.7172418236732483,-2.2348172024067026e-06,3.9039580457256307e-08,-0.6968242526054382,-0.032350510358810425,-0.06257925927639008,-0.00011209561489522457,0.003330380190163851,-0.002116575138643384,0.9584874510765076,0.40263229608535767,0.7966350317001343,0.49089837074279785,0.6901593208312988,0.4936709702014923,0.9477834701538086,0.3807530701160431,0.7771645784378052,0.42000001668930054,-0.5125730037689209,0.38603049516677856,-1.5414092540740967,-3.0,-0.17771323025226593,-0.17976556718349457,-0.1806514859199524,-0.179057314991951,0.13904498517513275,0.14432962238788605,0.1249246895313263,0.11344946175813675
0.7333333333333333,0.09494572877883911,0.048470743000507355,0.0,0.6142891645431519,0.0,0.0,-0.7890809774398804,0.21002964675426483,-0.1683521270751953,0.0,0.0,0.0,-1.4288837909698486,0.37714821100234985,0.7564963698387146,0.4199998676776886,0.7189069986343384,-2.276806662848685e-05,8.557705768907908e-06,-0.6951062083244324,-0.0012331395410001278,-0.00029770570108667016,-0.0008279593894258142,-0.015848668292164803,-0.007275008596479893,0.03302498161792755,0.40918266773223877,0.8033214211463928,0.5005145072937012,0.10043869912624359,0.23745116591453552,0.3773159980773926,0.3807530701160431,0.7771645784378052,0.42000001668930054,-0.5347992181777954,-2.760843515396118,-1.502562165260315,2.9999985694885254,-0.17347502708435059,-0.1754978895187378,-0.17672932147979736,-0.17545263469219208,0.1750486046075821,0.20703373849391937,0.21586613357067108,0.21743719279766083
0.75,0.10121648013591766,0.052374619990587234,0.0,0.6234608292579651,0.0,0.0,-0.7818545699119568,0.32703056931495667,0.28513771295547485,0.0,0.0,0.0,2.226231813430786,0.37714606523513794,0.7564954161643982,0.42000001668930054,0.7189131379127502,9.75144189396815e-07,-4.513484327617334e-06,-0.6950998902320862,0.00027461550780571997,-0.00027888783370144665,-0.00010267924517393112,0.004363005980849266,0.002024439163506031,-2.234695421066135e-05,0.4104076623916626,0.8059984445571899,0.507192850112915,0.08638788014650345,0.30271124839782715,0.43900495767593384,0.3807530701160431,0.7771645784378052,0.42000001668930054,-0.5633583664894104,-0.8130768537521362,-1.5186747312545776,-3.000000238418579,-0.1768721044063568,-0.17727671563625336,-0.17728528380393982,-0.1750597208738327,-0.09094740450382233,-0.03308326378464699,0.009005483239889145,0.037707097828388214
0.7666666666666666,0.1038142740726471,0.05207160487771034,0.0,0.6344061493873596,0.0,0.0,-0.7729998826980591,0.10650181025266647,-0.053066179156303406,0.0,0.0,0.0,1.3698676824569702,0.37714606523513794,0.7564954161643982,0.42000001668930054,0.7189130783081055,1.0870118103412096e-06,-4.268632892490132e-06,-0.6950998902320862,0.00027293936000205576,-0.00025976618053391576,-0.00010249624028801918,0.00397211080417037,0.00208386592566967,-4.6884008042979985e-05,0.4108949899673462,0.8077976703643799,0.510176420211792,-0.06804762035608292,-0.1185372844338417,0.03451576828956604,0.3807530701160431,0.7771645784378052,0.42000001668930054,-0.6038005352020264,-3.000000476837158,-1.484643816947937,2.9999990463256836,-0.17643027007579803,-0.17574365437030792,-0.1748046576976776,-0.17182521522045135,-0.09854225814342499,0.01232790108770132,0.11775673925876617,0.20912222564220428
0.7833333333333333,0.10700058937072754,0.0490347184240818,0.0,0.6266899108886719,0.0,0.0,-0.779268741607666,0.23630951344966888,-0.24832876026630402,0.0,0.0,0.0,-2.0507266521453857,0.37714603543281555,0.7564954161643982,0.42000001668930054,0.7189130783081055,9.178416462418681e-07,-3.988931439380394e-06,-0.6950998902320862,0.0002721315249800682,-0.0002587602357380092,-0.00010236422531306744,0.003953313454985619,0.0020725512877106667,-4.728834392153658e-05,0.4122362732887268,0.8059629797935486,0.5122843980789185,0.2345479130744934,-0.12073618918657303,0.3400925099849701,0.3807530701160431,0.7771645784378052,0.42000001668930054,-0.6521567702293396,-2.7802722454071045,-1.5011396408081055,-2.999999523162842,-0.17888347804546356,-0.17634032666683197,-0.17351067066192627,-0.16881416738033295,-0.136058509349823,-0.029742088168859482,0.08395209908485413,0.19021251797676086
0.8,0.1136929914355278,0.04705224186182022,0.0,0.5967230796813965,0.0,0.0,-0.8024471998214722,0.40496233105659485,-0.1746997982263565,0.0,0.0,0.0,-5.451761722564697,0.37714606523513794,0.7564954161643982,0.42000001668930054,0.718913197517395,9.385184398524871e-07,-4.021233962703263e-06,-0.6950997710227966,0.00027212526765652,-0.00025862816255539656,-0.00010235165245831013,0.003950621001422405,0.0020733242854475975,-4.7448189434362575e-05,0.41932958364486694,0.8018258810043335,0.5213083028793335,0.7110969424247742,-0.23467501997947693,0.8427201509475708,0.3807530701160431,0.7771645784378052,0.42000001668930054,-0.6858413815498352,-1.3573975563049316,-1.5511579513549805,-3.000000238418579,-0.18444828689098358,-0.1796746551990509,-0.17446744441986084,-0.16754019260406494,-0.16144360601902008,-0.07448479533195496,0.028759747743606567,0.13008521497249603
0.8166666666666667,0.12189220637083054,0.0471322201192379,0.0,0.582130491733551,0.0,0.0,-0.8130953907966614,0.5520566701889038,0.05572870746254921,0.0,0.0,0.0,-1.085739016532898,0.37714603543281555,0.7564954161643982,0.42000001668930054,0.718913197517395,9.365020332552376e-07,-4.3067684600828215e-06,-0.6950997710227966,0.0002724836813285947,-0.0002597201382741332,-0.00010221521370112896,0.003973438870161772,0.002081019338220358,-4.6110813855193555e-05,0.4275406002998352,0.8019176721572876,0.5365163087844849,0.29304012656211853,0.20106938481330872,0.9686058163642883,0.3807530701160431,0.7771645784378052,0.42000001668930054,-0.6788262128829956,1.9100420475006104,-1.6011762619018555,-2.999999761581421,-0.1864469349384308,-0.18094579875469208,-0.1747623085975647,-0.16691316664218903,-0.021521491929888725,-0.02487153373658657,-0.015065881423652172,-0.00979990791529417
0.8333333333333334,0.12733547389507294,0.047236368060112,0.0,0.593278169631958,0.0,0.0,-0.8049975037574768,0.28424766659736633,0.08541250973939896,0.0,0.0,0.0,2.450618267059326,0.37714606523513794,0.7564954161643982,0.42000001668930054,0.718913197517395,9.453477787246811e-07,-3.899092462233966e-06,-0.6950998306274414,0.0002716096059884876,-0.00025820621522143483,-0.00010221381671726704,0.003943218849599361,0.0020663640461862087,-4.73221589345485e-05,0.42891860008239746,0.80748450756073,0.5496535897254944,-0.18535545468330383,0.3354337215423584,0.6450490355491638,0.3807530701160431,0.7771645784378052,0.42000001668930054,-0.6397479772567749,2.680147647857666,-1.562160849571228,2.999999761581421,-0.18359890580177307,-0.17875736951828003,-0.17303216457366943,-0.16571956872940063,0.11078993231058121,0.08467122167348862,0.06512757390737534,0.035461973398923874
0.85,0.12904740869998932,0.044591519981622696,0.0,0.5912549495697021,0.0,0.0,-0.8064846992492676,0.02861836738884449,-0.19838981330394745,0.0,0.0,0.0,-1.0588576793670654,0.37714603543281555,0.7564954161643982,0.42000001668930054,0.7189130783081055,9.344215072815132e-07,-4.000891294708708e-06,-0.6951000094413757,0.0002715938608162105,-0.000258266314631328,-0.00010224990546703339,0.003944369964301586,0.002064727246761322,-4.727054329123348e-05,0.419808030128479,0.8103529810905457,0.55504310131073,-0.9134209156036377,0.020550571382045746,0.17229905724525452,0.3807530701160431,0.7771645784378052,0.42000001668930054,-0.6268491148948669,-0.8392754793167114,-1.5121043920516968,3.000000238418579,-0.18145236372947693,-0.1768636852502823,-0.1713116466999054,-0.16436630487442017,0.06786709278821945,0.07598631083965302,0.08537974953651428,0.07987361401319504
0.8666666666666667,0.1282591074705124,0.04710374400019646,0.0,0.602338969707489,0.0,0.0,-0.7982404232025146,-0.12312863767147064,0.10368518531322479,0.0,0.0,0.0,2.3243184089660645,0.37714606523513794,0.7564954161643982,0.42000001668930054,0.7189130187034607,1.0567823665041942e-06,-3.934617780032568e-06,-0.6951000094413757,0.0002734994632191956,-0.00026053888723254204,-0.0001024405937641859,0.003987653646618128,0.0020958546083420515,-4.630460171028972e-05,0.4099574685096741,0.8102537393569946,0.5587289333343506,-0.21588876843452454,0.17935767769813538,0.2612786293029785,0.3807530701160431,0.7771645784378052,0.42000001668930054,-0.6145488619804382,2.0544562339782715,-1.494670033454895,-0.6098012328147888,-0.18491268157958984,-0.17933188378810883,-0.172797292470932,-0.16515259444713593,0.02564145065844059,0.022850094363093376,0.028941210359334946,0.02969282865524292
0.8833333333333333,0.12884166836738586,0.045033760368824005,0.0,0.6004023551940918,0.0,0.0,-0.7996980547904968,0.0538443922996521,-0.10972910374403,0.0,0.0,0.0,-1.0444248914718628,0.37714606523513794,0.7564954161643982,0.42000001668930054,0.7189131379127502,9.227067039319081e-07,-3.997709427494556e-06,-0.6950998902320862,0.00027272134320810437,-0.00026031635934486985,-0.00010215165093541145,0.0039857677184045315,0.0020858822390437126,-4.545935371425003e-05,0.4010886549949646,0.8108320236206055,0.5593756437301636,-0.8526310920715332,-0.14836615324020386,-0.010677255690097809,0.3807530701160431,0.7771645784378052,0.42000001668930054,-0.6182116270065308,-2.128319025039673,-1.4484633207321167,2.999999761581421,-0.18315619230270386,-0.17780445516109467,-0.17138062417507172,-0.1639365702867508,-0.013789541088044643,5.061156116425991e-08,0.016880176961421967,0.024246618151664734
