vladlanda/robotic-transformer/data/env_000_episode_0134.csv
sim_time_s,robot_box_x,robot_box_y,robot_box_z,robot_box_quat_w,robot_box_quat_x,robot_box_quat_y,robot_box_quat_z,robot_box_linvel_x,robot_box_linvel_y,robot_box_linvel_z,robot_box_angvel_x,robot_box_angvel_y,robot_box_angvel_z,cube_world_x,cube_world_y,cube_world_z,cube_quat_w,cube_quat_x,cube_quat_y,cube_quat_z,cube_linvel_x,cube_linvel_y,cube_linvel_z,cube_angvel_x,cube_angvel_y,cube_angvel_z,endpoint_world_x,endpoint_world_y,endpoint_world_z,endpoint_linvel_x,endpoint_linvel_y,endpoint_linvel_z,target_cube_world_x,target_cube_world_y,target_cube_world_z,gripper_actual_pos_rad_gp_leftgearjoint,gripper_actual_vel_rad_s_gp_leftgearjoint,gripper_actual_pos_rad_gp_rotatingjoint,gripper_actual_vel_rad_s_gp_rotatingjoint,motor_angle_rad_joint1,motor_angle_rad_joint2,motor_angle_rad_joint3,motor_angle_rad_joint4,motor_speed_rad_s_joint1,motor_speed_rad_s_joint2,motor_speed_rad_s_joint3,motor_speed_rad_s_joint4
0.0,0.0,0.0,0.0,1.0,0.0,0.0,0.0,0.0,0.0,0.0,0.0,0.0,0.0,-0.35409975051879883,0.7407231330871582,0.41999998688697815,1.0,0.0,0.0,0.0,0.0,0.0,0.0,0.0,0.0,0.0,3.42540442943573e-06,-0.005000244826078415,1.313499927520752,0.0,0.0,0.0,0.4358426332473755,0.7541404366493225,0.42000001668930054,-1.5707999467849731,0.0,0.0,0.0,0.0,0.0,0.0,0.0,0.0,0.0,0.0,0.0
0.016666666666666666,0.0018986198119819164,0.0013737994013354182,0.0,0.9999978542327881,0.0,0.0,-0.0020784849766641855,0.16280168294906616,0.11852198094129562,0.0,0.0,0.0,-0.3849742114543915,-0.3540998697280884,0.7407228350639343,0.41999998688697815,1.0,3.2799905511637917e-06,-8.339794135281409e-07,8.465515577427141e-08,-1.9833774786093272e-05,0.00017983047291636467,-6.132945418357849e-05,0.0009432245860807598,-0.004689525347203016,-0.00031981084612198174,-0.007052114233374596,0.004004941321909428,1.3155903816223145,-0.8021367788314819,1.037325382232666,0.15341560542583466,0.4358426332473755,0.7541404366493225,0.42000001668930054,-1.5301076173782349,3.0000040531158447,-0.045860759913921356,-3.0000011920928955,0.0005081877461634576,0.0004584989801514894,0.0003956710279453546,0.0003201872168574482,0.08431118726730347,0.07240838557481766,0.0596882700920105,0.04602380469441414
0.03333333333333333,0.007361979689449072,0.005369075108319521,0.0,0.9996871948242188,0.0,0.0,-0.02501048892736435,0.3956734240055084,0.2884657680988312,0.0,0.0,0.0,-3.550058603286743,-0.35409998893737793,0.7407227754592896,0.4200000464916229,1.0,3.3908531804627273e-06,-2.132488134520827e-06,-3.710428941872124e-08,0.0002635785494931042,0.0002693783608265221,-0.00010509602725505829,-0.0017707846127450466,0.004130862653255463,-0.00013547409616876394,-0.025180500000715256,0.028156057000160217,1.3161426782608032,-1.3383722305297852,1.7689108848571777,-0.07453183829784393,0.4358426332473755,0.7541404366493225,0.42000001668930054,-1.4800883531570435,3.0000014305114746,-0.09590057283639908,-3.0000007152557373,0.0024079440627247095,0.0020451827440410852,0.0016451660776510835,0.0012063265312463045,0.15609008073806763,0.12607687711715698,0.0946768969297409,0.061745356768369675
0.05,0.01581726223230362,0.011786244809627533,0.0,0.999573826789856,0.0,0.0,-0.02919236570596695,0.5430819392204285,0.4271046817302704,0.0,0.0,0.0,0.5060981512069702,-0.3541000187397003,0.7407228350639343,0.4200000464916229,1.0,3.7651284401363228e-06,-2.2118861124909017e-06,5.622759147172474e-09,0.00026530996547080576,0.00026691515813581645,-0.00010440382175147533,-0.00172425655182451,0.004177390597760677,-0.00012948956282343715,-0.05288846045732498,0.058947786688804626,1.3116428852081299,-1.8730289936065674,2.0159592628479004,-0.4425658583641052,0.4358426332473755,0.7541404366493225,0.42000001668930054,-1.4300700426101685,2.999998092651367,-0.1459392011165619,-3.0000007152557373,0.004811238497495651,0.0039143553003668785,0.0029470976442098618,0.0019077426986768842,0.15759800374507904,0.11779256910085678,0.07623674720525742,0.03272710740566254
0.06666666666666667,0.02679368108510971,0.020422708243131638,0.0,0.9988855719566345,0.0,0.0,-0.04719723388552666,0.7192519307136536,0.5594462156295776,0.0,0.0,0.0,-3.0046308040618896,-0.3541000187397003,0.7407227754592896,0.4200000464916229,0.9999999403953552,3.406727046240121e-06,-2.285541313540307e-06,4.300959517422598e-07,0.0002670243557076901,0.00026791688287630677,-0.00010437681339681149,-0.0017406673869118094,0.004211694002151489,-0.00012850009079556912,-0.08126606792211533,0.09751975536346436,1.3019582033157349,-1.542830467224121,2.5850279331207275,-0.7009034156799316,0.4358426332473755,0.7541404366493225,0.42000001668930054,-1.3800485134124756,3.000001907348633,-0.1857188194990158,-1.8374662399291992,0.0064516267739236355,0.004632189869880676,0.002704113721847534,0.0006653555319644511,0.07130878418684006,3.8300640881061554e-08,-0.075888492166996,-0.15251529216766357
0.08333333333333333,0.03897496685385704,0.03167938068509102,0.0,0.9956190586090088,0.0,0.0,-0.09350249916315079,0.7986080050468445,0.7139368653297424,0.0,0.0,0.0,-6.409006118774414,-0.3541000187397003,0.7407227754592896,0.4200000464916229,1.0,3.697249667311553e-06,-2.1888592982577393e-06,-2.632261555390869e-07,0.00026389709091745317,0.00026586506282910705,-0.00010433932766318321,-0.001708121271803975,0.004150144290179014,-0.00012991175753995776,-0.10592535883188248,0.1430833637714386,1.2889595031738281,-1.4228038787841797,2.861112594604492,-0.8354814648628235,0.4358426332473755,0.7541404366493225,0.42000001668930054,-1.3300307989120483,2.9999938011169434,-0.14676986634731293,3.0000007152557373,0.0057734292931854725,0.0027932815719395876,-0.0003698760992847383,-0.0036648311652243137,-0.05660739541053772,-0.13302963972091675,-0.21300223469734192,-0.2938888669013977
0.1,0.04627460986375809,0.0466650016605854,0.0,0.9925135374069214,0.0,0.0,-0.1221344843506813,0.40885138511657715,0.8216056823730469,0.0,0.0,0.0,-2.184056043624878,-0.3541000187397003,0.7407227754592896,0.4200000464916229,0.9999999403953552,3.6203455238137394e-06,-2.2651984181720763e-06,1.746214763898024e-07,0.0002667686785571277,0.0002674089337233454,-0.00010408065281808376,-0.001738688675686717,0.0042091673240065575,-0.0001277492119697854,-0.13422265648841858,0.18687529861927032,1.2735463380813599,-1.730937123298645,2.671935558319092,-0.8498169183731079,0.4358426332473755,0.7541404366493225,0.42000001668930054,-1.2800419330596924,3.000002145767212,-0.17855514585971832,-3.0,-0.0001978590153157711,-0.004117103759199381,-0.008277660235762596,-0.012596532702445984,-0.2659732699394226,-0.34691116213798523,-0.42882803082466125,-0.5101870894432068
0.11666666666666667,0.058795709162950516,0.06243816018104553,0.0,0.9868947863578796,0.0,0.0,-0.16136516630649567,0.7735111117362976,1.0194768905639648,0.0,0.0,0.0,-5.438843250274658,-0.3541000187397003,0.7407227754592896,0.4200000464916229,1.0,3.7983813854225446e-06,-2.262807811348466e-06,-1.5020366106455185e-07,0.0002637406578287482,0.0002656614233274013,-0.00010428880341351032,-0.001705422531813383,0.004147589672356844,-0.00012980026076547801,-0.1594780683517456,0.23716914653778076,1.2578860521316528,-1.3344358205795288,3.3988122940063477,-1.0405439138412476,0.4358426332473755,0.7541404366493225,0.42000001668930054,-1.2300193309783936,2.9999961853027344,-0.15256592631340027,3.000000238418579,-0.0014537940733134747,-0.0072359549812972546,-0.013236580416560173,-0.019352369010448456,-0.23581354320049286,-0.3319982886314392,-0.42734646797180176,-0.5209910869598389
0.13333333333333333,0.06928044557571411,0.07650250196456909,0.0,0.9813554286956787,0.0,0.0,-0.19220174849033356,0.5768961906433105,0.7749042510986328,0.0,0.0,0.0,-2.9442694187164307,-0.3541000187397003,0.7407228350639343,0.4200000464916229,0.9999999403953552,3.550472456481657e-06,-2.229846586487838e-06,2.9291268788256275e-07,0.00026703288313001394,0.00026779319159686565,-0.00010417005978524685,-0.001743955654092133,0.004213616251945496,-0.00012800547119695693,-0.18716645240783691,0.2915414869785309,1.2376115322113037,-1.800521969795227,3.321361541748047,-1.3862688541412354,0.4358426332473755,0.7541404366493225,0.42000001668930054,-1.1943604946136475,1.3905401229858398,-0.18433056771755219,-2.999999523162842,-0.005869559943675995,-0.013115908019244671,-0.020545370876789093,-0.028046824038028717,-0.29486069083213806,-0.37150028347969055,-0.4453728199005127,-0.5163741111755371
0.15,0.07639457285404205,0.08903886377811432,0.0,0.9718217849731445,0.0,0.0,-0.23571693897247314,0.36846330761909485,0.7441763877868652,0.0,0.0,0.0,-6.1793212890625,-0.35409998893737793,0.7407227754592896,0.4200000464916229,1.0,3.3321675800834782e-06,-2.1020184703957057e-06,1.3131945308941795e-07,0.0002673078852239996,0.0002685945655684918,-0.00010459404438734055,-0.001749762101098895,0.004215681925415993,-0.00012927922944072634,-0.21643972396850586,0.3528518080711365,1.2100365161895752,-1.608063817024231,4.049010276794434,-1.957275152206421,0.4358426332473755,0.7541404366493225,0.42000001668930054,-1.1482592821121216,3.0000014305114746,-0.2343388795852661,-3.0,-0.011610567569732666,-0.020011702552437782,-0.028532469645142555,-0.03706555813550949,-0.3959976136684418,-0.45175647735595703,-0.5035225749015808,-0.5518261790275574
0.16666666666666666,0.07964105159044266,0.10237905383110046,0.0,0.9658228754997253,0.0,0.0,-0.2592029273509979,0.10540550947189331,0.8696813583374023,0.0,0.0,0.0,-1.843899130821228,-0.3541000187397003,0.7407227754592896,0.4200000464916229,1.0,3.7372929000412114e-06,-2.233167606391362e-06,-1.8764364995149663e-07,0.0002643299230840057,0.0002662695769686252,-0.00010445946827530861,-0.001711905119009316,0.004157528281211853,-0.00013001346087548882,-0.24988684058189392,0.41771018505096436,1.1701006889343262,-1.9645814895629883,4.05874490737915,-2.805861473083496,0.4358426332473755,0.7541404366493225,0.42000001668930054,-1.1064670085906982,2.063563108444214,-0.2843681573867798,-3.000000476837158,-0.019421355798840523,-0.028430404141545296,-0.037481945008039474,-0.046482592821121216,-0.5324689745903015,-0.5504864454269409,-0.5640133619308472,-0.5741112232208252
0.18333333333333332,0.0872865617275238,0.11235447973012924,0.0,0.9553027749061584,0.0,0.0,-0.2956291437149048,0.4739617109298706,0.5197441577911377,0.0,0.0,0.0,-5.161445617675781,-0.3541000187397003,0.7407228350639343,0.4200000464916229,0.9999999403953552,3.6602802993002115e-06,-2.302333086845465e-06,2.528625770992221e-07,0.0002669082605279982,0.0002676033473107964,-0.0001041253563016653,-0.001741241430863738,0.0042114295065402985,-0.00012786751904059201,-0.2797124683856964,0.4885215759277344,1.1181879043579102,-1.5601423978805542,4.425943374633789,-3.478032350540161,0.4358426332473755,0.7541404366493225,0.42000001668930054,-1.0580840110778809,2.9999992847442627,-0.33439552783966064,-2.999999523162842,-0.02566312812268734,-0.035081297159194946,-0.04446885734796524,-0.0537518747150898,-0.5748879909515381,-0.5651876330375671,-0.5532393455505371,-0.54034024477005
0.2,0.08903825283050537,0.12543565034866333,0.0,0.9496411085128784,0.0,0.0,-0.3133397698402405,0.10364912450313568,0.7537646293640137,0.0,0.0,0.0,-1.1622847318649292,-0.3541000187397003,0.7407227754592896,0.4200000464916229,1.0,3.5908747122448403e-06,-2.3004936338111293e-06,1.387323891322012e-07,0.0002665479260031134,0.0002673218841664493,-0.00010424060747027397,-0.0017326287925243378,0.004203538876026869,-0.00012820123811252415,-0.3068082928657532,0.5559066534042358,1.049206256866455,-1.4376168251037598,4.026474475860596,-4.520155906677246,0.4358426332473755,0.7541404366493225,0.42000001668930054,-1.0080809593200684,2.999971628189087,-0.3844209909439087,-3.0,-0.04036428779363632,-0.04938335716724396,-0.05834876000881195,-0.06717150658369064,-0.5868262052536011,-0.6468068957328796,-0.6991561651229858,-0.7463157773017883
0.21666666666666667,0.09611338376998901,0.1330796331167221,0.0,0.9391996264457703,0.0,0.0,-0.34337157011032104,0.4393298923969269,0.38326793909072876,0.0,0.0,0.0,-4.443851470947266,-0.3541000187397003,0.7407228350639343,0.4200000464916229,1.0,3.607035296226968e-06,-2.261093186461949e-06,1.9622385494244554e-08,0.00026447136770002544,0.00026558415265753865,-0.00010396563448011875,-0.00170880276709795,0.0041642445139586926,-0.000128321917145513,-0.32850295305252075,0.6219016313552856,0.9668712615966797,-1.0582448244094849,3.799656867980957,-5.3582000732421875,0.4358426332473755,0.7541404366493225,0.42000001668930054,-0.9580740928649902,3.0000016689300537,-0.43444740772247314,-3.0000009536743164,-0.04899965226650238,-0.05868387594819069,-0.06822063773870468,-0.07756105810403824,-0.7439693212509155,-0.7334652543067932,-0.7204429507255554,-0.7073937654495239
0.23333333333333334,0.0974716991186142,0.14442260563373566,0.0,0.9347636699676514,0.0,0.0,-0.35527023673057556,0.08058589696884155,0.63521409034729,0.0,0.0,0.0,-0.5182843208312988,-0.35409998893737793,0.7407227754592896,0.4200000464916229,0.9999999403953552,3.742316494026454e-06,-2.2275962692219764e-06,4.58922073676149e-07,0.00026475160848349333,0.0002667133812792599,-0.0001045342069119215,-0.0017189296195283532,0.004165791906416416,-0.00013019153266213834,-0.3458218574523926,0.6718726754188538,0.8703166246414185,-0.8509060144424438,2.58248233795166,-6.0276899337768555,0.4358426332473755,0.7541404366493225,0.42000001668930054,-0.9080641865730286,3.0000014305114746,-0.48447659611701965,-2.9999988079071045,-0.06471501290798187,-0.07443926483392715,-0.08400178700685501,-0.09334248304367065,-0.6186217069625854,-0.6822213530540466,-0.7403283715248108,-0.7918862104415894
0.25,0.0981767326593399,0.15024347603321075,0.0,0.9250868558883667,0.0,0.0,-0.37975558638572693,-0.033941030502319336,0.27179357409477234,0.0,0.0,0.0,-4.010622501373291,-0.3541000187397003,0.7407227754592896,0.4200000464916229,1.0,3.394488658159389e-06,-2.2821902803116245e-06,1.3363684558953537e-07,0.0002667948720045388,0.00026794004952535033,-0.00010439474135637283,-0.0017417633207514882,0.004206601530313492,-0.00012883658928330988,-0.3580746054649353,0.7110113501548767,0.7652192115783691,-0.5034340620040894,1.9488544464111328,-6.475054740905762,0.4358426332473755,0.7541404366493225,0.42000001668930054,-0.8580535054206848,2.9999985694885254,-0.5345064401626587,-3.0,-0.07547589391469955,-0.08588378876447678,-0.09605824947357178,-0.10592951625585556,-0.7378790378570557,-0.7521186470985413,-0.7634187936782837,-0.7715814709663391
0.26666666666666666,0.0944010391831398,0.15954889357089996,0.0,0.9221248030662537,0.0,0.0,-0.3868925869464874,-0.273233026266098,0.5894402265548706,0.0,0.0,0.0,0.030511824414134026,-0.3541000187397003,0.7407228350639343,0.4200000464916229,1.0,3.683511295093922e-06,-2.310227955604205e-06,2.1010556849887507e-07,0.0002647910441737622,0.0002662584593053907,-0.00010421406477689743,-0.0017168647609651089,0.004168910905718803,-0.00012909440556541085,-0.36645615100860596,0.7336968779563904,0.6587159037590027,-0.3706057071685791,0.7898560762405396,-6.246000289916992,0.4358426332473755,0.7541404366493225,0.42000001668930054,-0.8080440163612366,2.9997119903564453,-0.5845361948013306,-2.9999794960021973,-0.09230218082666397,-0.10260455310344696,-0.1126125231385231,-0.1220773458480835,-0.9117072820663452,-0.9299355745315552,-0.9464983940124512,-0.9611744284629822
0.2833333333333333,0.09416016191244125,0.16401813924312592,0.0,0.9143348336219788,0.0,0.0,-0.4049590826034546,-0.0015021220315247774,0.24113993346691132,0.0,0.0,0.0,-2.9717464447021484,-0.3541000187397003,0.7407227754592896,0.4200000464916229,1.0,3.307033011878957e-06,-2.212638264609268e-06,2.625776573950134e-07,0.00026660776347853243,0.00026745034847408533,-0.00010424107313156128,-0.0017351560527458787,0.004204331897199154,-0.0001282802695641294,-0.37060946226119995,0.743144690990448,0.5509738922119141,0.06216892600059509,0.08601870387792587,-6.472681999206543,0.4358426332473755,0.7541404366493225,0.42000001668930054,-0.7580352425575256,2.9999988079071045,-0.634564995765686,-2.999999523162842,-0.10696830600500107,-0.11739060282707214,-0.1275230050086975,-0.13710057735443115,-1.0000078678131104,-1.0000044107437134,-1.0000008344650269,-1.0000008344650269
0.3,0.09049632400274277,0.16634008288383484,0.0,0.9145108461380005,0.0,0.0,-0.4045613408088684,-0.2942965030670166,0.11238214373588562,0.0,0.0,0.0,0.9167788624763489,-0.3541000187397003,0.7407227754592896,0.4200000464916229,1.0,3.6564827041729586e-06,-2.297088713021367e-06,-2.449634735057771e-07,0.0002653293195180595,0.0002659517340362072,-0.00010384945198893547,-0.001716389786452055,0.00418188888579607,-0.00012745719868689775,-0.3672369122505188,0.740975022315979,0.45264214277267456,0.44524967670440674,-0.3230493664741516,-5.362758159637451,0.4358426332473755,0.7541404366493225,0.42000001668930054,-0.7080274224281311,3.000001907348633,-0.6845917701721191,-3.000000476837158,-0.1249300092458725,-0.13506178557872772,-0.14497750997543335,-0.15438543260097504,-1.019492745399475,-1.0147756338119507,-1.011174201965332,-1.0082849264144897
0.31666666666666665,0.08414550125598907,0.1664016842842102,0.0,0.9167783260345459,0.0,0.0,-0.3993964195251465,-0.3710141181945801,-0.06068086624145508,0.0,0.0,0.0,0.5776585936546326,-0.3541467785835266,0.7402089238166809,0.42030781507492065,0.9999641180038452,0.005516141187399626,-0.0021319722291082144,-0.006062017288058996,0.017837058752775192,0.0051650977693498135,0.03902297466993332,1.2761287689208984,-0.7330122590065002,0.7060445547103882,-0.3622768819332123,0.7410035729408264,0.4213527739048004,0.13931474089622498,-0.02580346167087555,-0.17188027501106262,0.4358426332473755,0.7541404366493225,0.42000001668930054,-0.6581038236618042,3.0003278255462646,-0.7350600957870483,-2.895382881164551,-0.13189850747585297,-0.14303506910800934,-0.15375058352947235,-0.1636803150177002,-0.06617281585931778,-0.13479171693325043,-0.18429628014564514,-0.20913712680339813
0.3333333333333333,0.07640890032052994,0.16362418234348297,0.0,0.9202514886856079,0.0,0.0,-0.39132753014564514,-0.5066008567810059,-0.20863963663578033,0.0,0.0,0.0,1.3216357231140137,-0.3533709645271301,0.7420421838760376,0.42000046372413635,0.9995785355567932,8.7077514763223e-06,8.645026355225127e-06,-0.02902815490961075,0.1784626543521881,0.4080246686935425,-0.0001380657049594447,-0.0045845177955925465,0.0030096271075308323,-11.58922290802002,-0.36151590943336487,0.7479455471038818,0.42404982447624207,0.09836363792419434,0.5117968916893005,-0.166579470038414,0.4358426332473755,0.7541404366493225,0.42000001668930054,-0.6080914735794067,2.9999680519104004,-0.785110354423523,-3.0000057220458984,-0.13348527252674103,-0.14536142349243164,-0.15652583539485931,-0.16654764115810394,-0.20041175186634064,-0.21766473352909088,-0.22289858758449554,-0.21377864480018616
0.35,0.06640497595071793,0.15843281149864197,0.0,0.9155901074409485,0.0,0.0,-0.40211284160614014,-0.6460112929344177,-0.3527432978153229,0.0,0.0,0.0,-2.305807590484619,-0.3502216637134552,0.7487280964851379,0.41999906301498413,0.9936583638191223,9.880803554551676e-05,-2.75048387265997e-05,-0.11244143545627594,0.20525594055652618,0.4106672704219818,-0.001836468931287527,-0.08643545210361481,0.01801464706659317,-9.92004108428955,-0.35712307691574097,0.7548186779022217,0.4216596484184265,0.37118831276893616,0.4016121029853821,0.004577204585075378,0.4358426332473755,0.7541404366493225,0.42000001668930054,-0.5580646395683289,2.9999964237213135,-0.83513343334198,-2.9995388984680176,-0.1391473114490509,-0.15044307708740234,-0.16081732511520386,-0.1698308140039444,-0.41314035654067993,-0.33979982137680054,-0.25419509410858154,-0.15720084309577942
0.36666666666666664,0.054261937737464905,0.1507384479045868,0.0,0.9175277352333069,0.0,0.0,-0.3976718485355377,-0.7671034932136536,-0.502557635307312,0.0,0.0,0.0,1.5061863660812378,-0.343259334564209,0.7593311071395874,0.4204096794128418,0.9821260571479797,-0.00703800143674016,0.003929528407752514,-0.18805144727230072,0.6355130672454834,0.9075749516487122,0.050951339304447174,0.10427172482013702,2.0552432537078857,-5.1981353759765625,-0.3491743803024292,0.7654210925102234,0.4218246638774872,0.6057727336883545,0.8263329267501831,0.028757868334650993,0.4358426332473755,0.7541404366493225,0.42000001668930054,-0.5080358386039734,2.99985671043396,-0.8851485252380371,-3.00000262260437,-0.14757989346981049,-0.15701332688331604,-0.16527622938156128,-0.17196883261203766,-0.5148633718490601,-0.3824218213558197,-0.233964204788208,-0.0726197138428688
0.3833333333333333,0.04563869163393974,0.14012330770492554,0.0,0.913451611995697,0.0,0.0,-0.40694743394851685,-0.4347487688064575,-0.6854206323623657,0.0,0.0,0.0,-2.099626064300537,-0.3325309455394745,0.7744813561439514,0.4203837811946869,0.9797652959823608,-0.009490367025136948,0.0019645062275230885,-0.19991493225097656,0.673393189907074,0.9316064119338989,0.034811727702617645,-1.610129952430725,0.7190445065498352,4.924278259277344,-0.33609330654144287,0.7790869474411011,0.4229635000228882,1.010201096534729,0.9093834161758423,0.08117753267288208,0.4358426332473755,0.7541404366493225,0.42000001668930054,-0.4579739272594452,2.999948263168335,-0.935155987739563,-2.9999828338623047,-0.1561235636472702,-0.16292913258075714,-0.16824239492416382,-0.1717335432767868,-0.49273258447647095,-0.3151487708091736,-0.11793313175439835,0.09395556896924973
0.4,0.0348515622317791,0.12786723673343658,0.0,0.8965619802474976,0.0,0.0,-0.4429183006286621,-0.7261077165603638,-0.7599438428878784,0.0,0.0,0.0,-5.701167583465576,-0.3113359808921814,0.7950267791748047,0.42220422625541687,0.9597728848457336,-0.03388913348317146,-0.006032289005815983,-0.27865931391716003,1.7899384498596191,0.9776695370674133,-0.014642355032265186,30.718706130981445,-17.065872192382812,6.856881141662598,-0.3140743374824524,0.7980611324310303,0.4246501326560974,1.6942503452301025,1.4143863916397095,0.2542484402656555,0.4358426332473755,0.7541404366493225,0.42000001668930054,-0.40936875343322754,2.278055191040039,-0.9851721525192261,-3.0000016689300537,-0.16643619537353516,-0.1697792410850525,-0.17129836976528168,-0.17076531052589417,-0.6455028057098389,-0.42379480600357056,-0.18319754302501678,0.06958790868520737
0.4166666666666667,0.02687137760221958,0.11256100982427597,0.0,0.864727258682251,0.0,0.0,-0.5022417306900024,-0.4334167540073395,-0.9641017913818359,0.0,0.0,0.0,-8.859366416931152,-0.27095991373062134,0.8220873475074768,0.4268614649772644,0.9389697909355164,-0.02004566229879856,-0.0367414727807045,-0.34144389629364014,3.5550291538238525,1.5606558322906494,0.5410876870155334,18.552698135375977,-13.04041862487793,12.986083030700684,-0.2732977867126465,0.8252823352813721,0.42912259697914124,3.2119364738464355,1.9234592914581299,0.5458489656448364,0.4358426332473755,0.7541404366493225,0.42000001668930054,-0.3830084800720215,1.0080432891845703,-1.0351893901824951,-2.999995470046997,-0.1772499978542328,-0.17663298547267914,-0.1739218682050705,-0.16901588439941406,-0.7358993291854858,-0.4648303985595703,-0.18145626783370972,0.10532965511083603
0.43333333333333335,0.02123708464205265,0.10261044651269913,0.0,0.8154692053794861,0.0,0.0,-0.5788004398345947,-0.2890799641609192,-0.4693599045276642,0.0,0.0,0.0,-11.73214340209961,-0.1919427216053009,0.8562082648277283,0.4352898597717285,0.9148404598236084,0.037424251437187195,-0.07678578794002533,-0.39467743039131165,6.123867511749268,1.7169263362884521,0.6043015122413635,10.63713264465332,-13.169586181640625,15.563668251037598,-0.19424466788768768,0.8595180511474609,0.4376183748245239,6.002764701843262,2.3603968620300293,0.6541196703910828,0.4358426332473755,0.7541404366493225,0.42000001668930054,-0.3666001558303833,0.9702770113945007,-0.9975244998931885,2.998034715652466,-0.19325947761535645,-0.19043265283107758,-0.18212918937206268,-0.1715790033340454,-0.9132620692253113,-0.9037945866584778,-0.6030927896499634,-0.28070926666259766
0.45,0.018856775015592575,0.09594657272100449,0.0,0.7751044034957886,0.0,0.0,-0.6318331956863403,-0.08700107038021088,-0.37118765711784363,0.0,0.0,0.0,-6.823319435119629,-0.09248572587966919,0.8884239792823792,0.44797283411026,0.8581113815307617,0.07372666150331497,-0.09377466142177582,-0.49941524863243103,5.98366117477417,1.0112165212631226,0.7692699432373047,2.0340285301208496,-8.694592475891113,9.785055160522461,-0.09601374715566635,0.8931986093521118,0.4498065114021301,6.062544822692871,1.6542882919311523,0.8218289613723755,0.4358426332473755,0.7541404366493225,0.42000001668930054,-0.3509642481803894,0.904524564743042,-1.022252082824707,-3.0000007152557373,-0.2034168690443039,-0.20152191817760468,-0.19243037700653076,-0.17740583419799805,-0.555273711681366,-0.580938994884491,-0.5425087809562683,-0.3214942514896393
0.4666666666666667,0.01436229981482029,0.08493635058403015,0.0,0.7546087503433228,0.0,0.0,-0.6561750173568726,-0.2149745374917984,-0.589123547077179,0.0,0.0,0.0,-2.534797430038452,0.00756087526679039,0.9052413105964661,0.4621242880821228,0.7929965853691101,0.09294524788856506,-0.042280059307813644,-0.6006079912185669,5.80362606048584,-0.13401079177856445,1.2966982126235962,50.036014556884766,4.704514980316162,25.50908088684082,0.004335939884185791,0.9109746217727661,0.46126988530158997,6.2987518310546875,0.3037990927696228,0.5907210111618042,0.4358426332473755,0.7541404366493225,0.42000001668930054,-0.33415889739990234,0.9656652212142944,-1.0722742080688477,-3.000000238418579,-0.2114855796098709,-0.20867814123630524,-0.19807201623916626,-0.17929603159427643,-0.786002516746521,-0.6075261831283569,-0.42003172636032104,-0.14537549018859863
0.48333333333333334,0.013793986290693283,0.0786723643541336,0.0,0.726641833782196,0.0,0.0,-0.687016487121582,-0.020436342805624008,-0.3816961646080017,0.0,0.0,0.0,-5.69870662689209,0.10821551084518433,0.8976242542266846,0.4667118191719055,0.6800888776779175,0.0175476036965847,-0.13682106137275696,-0.7200354933738708,5.709968090057373,-1.2108203172683716,-0.14160703122615814,-42.016605377197266,0.9109441637992859,-11.961175918579102,0.10209004580974579,0.9072688817977905,0.4710046052932739,5.729209899902344,-0.7113426923751831,0.5603505373001099,0.4358426332473755,0.7541404366493225,0.42000001668930054,-0.3203786313533783,0.7078025341033936,-1.1222963333129883,-3.000000476837158,-0.22535288333892822,-0.21900445222854614,-0.20491257309913635,-0.18172182142734528,-0.6280872225761414,-0.43771177530288696,-0.25677573680877686,-0.04183162376284599
0.5,0.015736503526568413,0.07489649206399918,0.0,0.7133233547210693,0.0,0.0,-0.7008350491523743,0.1581365168094635,-0.1681731939315796,0.0,0.0,0.0,-1.1884887218475342,0.19629839062690735,0.8791925311088562,0.4681148827075958,0.6275154948234558,-0.022958440706133842,-0.10546131432056427,-0.7710869908332825,5.067048072814941,-1.4376583099365234,-0.10103325545787811,0.37368470430374146,0.6708730459213257,-0.7142569422721863,0.19243627786636353,0.8898311853408813,0.47362375259399414,5.054107666015625,-1.4171172380447388,0.020053066313266754,0.4358426332473755,0.7541404366493225,0.42000001668930054,-0.3088175058364868,0.8825383186340332,-1.172318458557129,-3.0000009536743164,-0.2348751574754715,-0.22535131871700287,-0.20853222906589508,-0.18255318701267242,-0.4394908845424652,-0.26726967096328735,-0.13591428101062775,-0.025036117061972618
0.5166666666666666,0.016388624906539917,0.06691427528858185,0.0,0.690701425075531,0.0,0.0,-0.7231400609016418,0.027935776859521866,-0.4908648133277893,0.0,0.0,0.0,-4.600662708282471,0.27383798360824585,0.853765070438385,0.46222013235092163,0.5733872056007385,-0.044349752366542816,-0.09159770607948303,-0.8129391670227051,4.226648330688477,-2.0476877689361572,-0.4247908592224121,-2.8102104663848877,2.5654685497283936,-2.970670700073242,0.271379679441452,0.8649633526802063,0.4687042534351349,4.381529808044434,-1.8227033615112305,-0.503619372844696,0.4358426332473755,0.7541404366493225,0.42000001668930054,-0.296163409948349,0.8399518728256226,-1.2223405838012695,-3.0000014305114746,-0.2367507964372635,-0.2252306193113327,-0.2072490155696869,-0.180730938911438,-0.16311849653720856,-0.02548803761601448,0.048809461295604706,0.06335362046957016
0.5333333333333333,0.018425393849611282,0.0637565404176712,0.0,0.6817699074745178,0.0,0.0,-0.7315666675567627,0.1312660574913025,-0.15871918201446533,0.0,0.0,0.0,-0.3617299795150757,0.33513927459716797,0.8211976289749146,0.451402872800827,0.5237521529197693,-0.07384258508682251,-0.07233478128910065,-0.8455758690834045,3.1585052013397217,-2.0194008350372314,-0.6042916774749756,-0.3086031377315521,10.646443367004395,-6.800952911376953,0.3342669606208801,0.8313551545143127,0.4581506848335266,3.2503180503845215,-2.096672534942627,-0.8272747993469238,0.4358426332473755,0.7541404366493225,0.42000001668930054,-0.2799505889415741,0.876227080821991,-1.2723627090454102,-3.000000476837158,-0.23993456363677979,-0.22767731547355652,-0.20835308730602264,-0.18176838755607605,2.248982127639465e-06,0.004806260112673044,0.020857399329543114,-0.04232458397746086
0.55,0.022532993927598,0.0636616125702858,0.0,0.6654053926467896,0.0,0.0,-0.7464821934700012,0.2976953685283661,0.07284656167030334,0.0,0.0,0.0,-3.5196664333343506,0.3832653760910034,0.7910024523735046,0.4330621659755707,0.48946914076805115,-0.10760115832090378,-0.05918755754828453,-0.8633299469947815,2.4472134113311768,-2.1056594848632812,-1.108160138130188,-3.8948960304260254,7.174210071563721,7.404090881347656,0.3829442262649536,0.8004273176193237,0.440227210521698,2.5654408931732178,-1.766741156578064,-1.2412415742874146,0.4358426332473755,0.7541404366493225,0.42000001668930054,-0.2672281861305237,0.6293220520019531,-1.3223819732666016,-2.9999616146087646,-0.23759609460830688,-0.226289302110672,-0.20789186656475067,-0.18347813189029694,0.237402081489563,0.1472441405057907,0.04529460892081261,-0.13151487708091736
0.5666666666666667,0.02958151511847973,0.05938062444329262,0.0,0.661608099937439,0.0,0.0,-0.749849796295166,0.40384453535079956,-0.24499289691448212,0.0,0.0,0.0,0.32616370916366577,0.4157659709453583,0.7706798911094666,0.4242224395275116,0.4733797311782837,-0.08413177728652954,-0.004535592161118984,-0.8768197894096375,1.3507332801818848,-1.0375126600265503,0.180644690990448,-8.301987648010254,5.20620584487915,13.695530891418457,0.4150531589984894,0.7779425978660583,0.4297858476638794,1.1446096897125244,-0.9140623211860657,0.09704932570457458,0.4358426332473755,0.7541404366493225,0.42000001668930054,-0.25540691614151,0.6154689192771912,-1.368872046470642,-2.5950045585632324,-0.22810539603233337,-0.21927930414676666,-0.20367209613323212,-0.1831762045621872,0.554049551486969,0.41193562746047974,0.2415454387664795,0.0041712126694619656
0.5833333333333334,0.03795383870601654,0.05938568711280823,0.0,0.647632896900177,0.0,0.0,-0.7619525194168091,0.5774115920066833,0.004710604436695576,0.0,0.0,0.0,-3.020470142364502,0.43254467844963074,0.7606338262557983,0.42333561182022095,0.4901254177093506,-0.06802985072135925,-0.007570170797407627,-0.8689600825309753,0.6458742618560791,-0.7379200458526611,0.08541519194841385,-7.3355326652526855,2.6230533123016357,15.538545608520508,0.43050602078437805,0.7673956155776978,0.42912057042121887,0.665078341960907,-0.34448033571243286,0.08937044441699982,0.4358426332473755,0.7541404366493225,0.42000001668930054,-0.24758398532867432,0.3894922435283661,-1.3288841247558594,3.000002145767212,-0.2190990000963211,-0.21292172372341156,-0.2004961222410202,-0.18418718874454498,0.6599709987640381,0.47092363238334656,0.2491818070411682,-0.023991549387574196
0.6,0.044238269329071045,0.05595841631293297,0.0,0.6468613147735596,0.0,0.0,-0.7626076340675354,0.2893019914627075,-0.24695226550102234,0.0,0.0,0.0,0.7786357402801514,0.4403105080127716,0.7512094378471375,0.4234265387058258,0.514267086982727,-0.07294949144124985,-0.024128664284944534,-0.854181170463562,0.25036078691482544,-0.5190510749816895,-0.008462389931082726,-0.5010700821876526,-0.4197772145271301,2.683856725692749,0.43731963634490967,0.759304404258728,0.43003755807876587,0.1574845165014267,-0.4993975758552551,0.14527249336242676,0.4358426332473755,0.7541404366493225,0.42000001668930054,-0.27948927879333496,-2.9999983310699463,-1.3481462001800537,-2.999440908432007,-0.2086363285779953,-0.2049170285463333,-0.1956496685743332,-0.18338991701602936,0.5030738711357117,0.3994828164577484,0.24670428037643433,0.03931856527924538
0.6166666666666667,0.051304806023836136,0.056507010012865067,0.0,0.6353163123130798,0.0,0.0,-0.7722520232200623,0.4521709978580475,0.041539523750543594,0.0,0.0,0.0,-2.621845006942749,0.4418703317642212,0.7456130981445312,0.4224962592124939,0.5430638790130615,-0.056014906615018845,-0.03664088994264603,-0.8370192646980286,0.03776321932673454,-0.22434067726135254,-0.055890314280986786,3.005575656890869,-1.462233543395996,3.360551118850708,0.43961578607559204,0.7560137510299683,0.4321548342704773,0.19464540481567383,0.008643914014101028,0.13133765757083893,0.4358426332473755,0.7541404366493225,0.42000001668930054,-0.31042909622192383,-0.8797595500946045,-1.3981022834777832,-2.998718738555908,-0.20119599997997284,-0.1994124948978424,-0.19284462928771973,-0.18403053283691406,0.6243487000465393,0.46193820238113403,0.25910794734954834,0.02365286648273468
0.6333333333333333,0.060259558260440826,0.05317222326993942,0.0,0.6369068622589111,0.0,0.0,-0.7709407806396484,0.5436864495277405,-0.24024119973182678,0.0,0.0,0.0,1.1687365770339966,0.4425343871116638,0.7425451278686523,0.42065247893333435,0.5567580461502075,-0.012619098648428917,-0.0087961470708251,-0.8305322527885437,0.018573027104139328,-0.19000042974948883,-0.14769618213176727,7.5507917404174805,-3.243828535079956,1.858916997909546,0.43898847699165344,0.7555041909217834,0.4315982162952423,-0.20065367221832275,-0.03803626447916031,-0.0486905500292778,0.4358426332473755,0.7541404366493225,0.42000001668930054,-0.35411107540130615,-2.999974012374878,-1.3613817691802979,2.9999473094940186,-0.18977345526218414,-0.19049072265625,-0.18715639412403107,-0.18210135400295258,0.5966397523880005,0.48114290833473206,0.31772223114967346,0.12193873524665833
0.65,0.07178870588541031,0.052568159997463226,0.0,0.6599617004394531,0.0,0.0,-0.7512992024421692,0.7277255654335022,-0.0008548413752578199,0.0,0.0,0.0,4.431968688964844,0.44180259108543396,0.7416766881942749,0.4200514256954193,0.5558602213859558,0.0007207905873656273,-0.0010720697464421391,-0.8312747478485107,-0.06132585182785988,0.0074933371506631374,0.009427560493350029,-0.17071981728076935,-0.42239490151405334,-1.004775881767273,0.4366720914840698,0.7559705972671509,0.43299993872642517,-0.10255834460258484,0.10509629547595978,0.15954509377479553,0.4358426332473755,0.7541404366493225,0.42000001668930054,-0.40411141514778137,-2.9997589588165283,-1.379791259765625,-2.999613046646118,-0.1820416897535324,-0.1844479739665985,-0.18354059755802155,-0.18135453760623932,0.5337146520614624,0.41195428371429443,0.2500438392162323,0.06867166608572006
0.6666666666666666,0.0804445743560791,0.04900701344013214,0.0,0.6685624718666077,0.0,0.0,-0.7436559796333313,0.4358171820640564,-0.26226192712783813,0.0,0.0,0.0,0.3238010108470917,0.4409404695034027,0.7419999241828918,0.4201236069202423,0.5519607067108154,0.001717066508717835,-0.002574202371761203,-0.8338643908500671,-0.08569247275590897,0.04586794227361679,0.04810280725359917,-0.9268763065338135,-2.217664957046509,0.09522835165262222,0.4353065490722656,0.7581654787063599,0.43631711602211,-0.13305853307247162,0.11470307409763336,0.22388024628162384,0.4358426332473755,0.7541404366493225,0.42000001668930054,-0.4541188180446625,-2.9995412826538086,-1.429755687713623,-2.9998228549957275,-0.17415013909339905,-0.17781415581703186,-0.17872071266174316,-0.17855983972549438,0.3666749894618988,0.34266966581344604,0.2889740765094757,0.22596949338912964
0.6833333333333333,0.08908683061599731,0.0424344427883625,0.0,0.6550318002700806,0.0,0.0,-0.7556012868881226,0.5573800802230835,-0.46969205141067505,0.0,0.0,0.0,-3.028855800628662,0.4400290250778198,0.7424867749214172,0.42005524039268494,0.5523135662078857,0.0007538378704339266,-0.0011363178491592407,-0.8336352705955505,-0.04411203786730766,0.023868588730692863,-0.02128981612622738,0.42031237483024597,0.991771936416626,0.03555392101407051,0.4354451298713684,0.76099693775177,0.4431779384613037,0.1455162614583969,0.17234528064727783,0.7184058427810669,0.4358426332473755,0.7541404366493225,0.42000001668930054,-0.5041321516036987,-2.999983549118042,-1.4797738790512085,-3.0,-0.17038854956626892,-0.1739053726196289,-0.17505858838558197,-0.17520588636398315,0.14745229482650757,0.18244951963424683,0.19834087789058685,0.21465319395065308
0.7,0.1014370396733284,0.04066524654626846,0.0,0.6191763877868652,0.0,0.0,-0.7852519154548645,0.7070527076721191,-0.09068422019481659,0.0,0.0,0.0,-6.391048431396484,0.4400170147418976,0.7424993515014648,0.4200000464916229,0.5523269772529602,1.6323224372172263e-07,-1.4131317129795207e-06,-0.8336275815963745,9.603491344023496e-05,-0.00018516238196752965,-4.724436439573765e-05,0.004376682452857494,-0.0003102509945165366,-0.0006476494600065053,0.44511592388153076,0.759294867515564,0.4621261954307556,1.1097853183746338,-0.19557878375053406,1.6084246635437012,0.4358426332473755,0.7541404366493225,0.42000001668930054,-0.5541447401046753,-2.9999680519104004,-1.5297921895980835,-2.9999985694885254,-0.1755896955728531,-0.1770838350057602,-0.17654326558113098,-0.1750442534685135,-0.2657085359096527,-0.15928415954113007,-0.0655980184674263,0.03186813369393349
0.7166666666666667,0.11506480723619461,0.041678402572870255,0.0,0.5984169840812683,0.0,0.0,-0.8011848330497742,0.8678699135780334,0.07598871737718582,0.0,0.0,0.0,-2.035309076309204,0.4400169253349304,0.7424993515014648,0.4200000464916229,0.5523269772529602,1.427891476168952e-07,-2.54179940384347e-06,-0.8336275815963745,5.394942490966059e-05,-0.0002507277822587639,-7.949024438858032e-05,0.00643413420766592,-0.0019521919311955571,-0.0007106919656507671,0.4641127288341522,0.760116696357727,0.4908551573753357,1.1497300863265991,0.2647739350795746,1.8020315170288086,0.4358426332473755,0.7541404366493225,0.42000001668930054,-0.5748730897903442,0.24739210307598114,-1.5798105001449585,-2.999999761581421,-0.17960673570632935,-0.18009285628795624,-0.17874078452587128,-0.17635245621204376,-0.1233781948685646,-0.119415782392025,-0.12608547508716583,-0.12639522552490234
0.7333333333333333,0.12577304244041443,0.044365156441926956,0.0,0.6038203835487366,0.0,0.0,-0.7971203923225403,0.5573919415473938,0.19911286234855652,0.0,0.0,0.0,1.712551474571228,0.4400169253349304,0.7424993515014648,0.4200000464916229,0.5523272752761841,2.2814606381871272e-07,-2.7896981009689625e-06,-0.8336272835731506,5.58938154426869e-05,-0.0002513937361072749,-7.974915206432343e-05,0.006442796904593706,-0.0019280355190858245,-0.0007158255320973694,0.48261791467666626,0.7648289203643799,0.5140429735183716,0.9679782390594482,0.30294692516326904,1.0478135347366333,0.4358426332473755,0.7541404366493225,0.42000001668930054,-0.5495898127555847,2.562181234359741,-1.540852665901184,2.999999523162842,-0.17988844215869904,-0.18046075105667114,-0.1793418973684311,-0.17707714438438416,0.058401014655828476,0.05094213783740997,0.03400709852576256,0.02214610017836094
0.75,0.13103258609771729,0.041526682674884796,0.0,0.5970326066017151,0.0,0.0,-0.8022169470787048,0.33808115124702454,-0.17561215162277222,0.0,0.0,0.0,-1.7714563608169556,0.4400169253349304,0.7424994111061096,0.4200000464916229,0.5523272156715393,3.0196184752639965e-07,-2.7321302695781924e-06,-0.8336273431777954,4.847972741117701e-05,-0.00025446899235248566,-7.827114313840866e-05,0.006562455091625452,-0.002030275296419859,-0.0007060338393785059,0.49243950843811035,0.7713921070098877,0.5258126258850098,0.15571746230125427,0.20120660960674286,0.47858095169067383,0.4358426332473755,0.7541404366493225,0.42000001668930054,-0.5324692130088806,-0.2719985842704773,-1.4907962083816528,2.999999761581421,-0.17346934974193573,-0.1748950481414795,-0.17477287352085114,-0.17340457439422607,0.10696297883987427,0.12866175174713135,0.13505913317203522,0.13735999166965485
0.7666666666666666,0.1339186578989029,0.043769024312496185,0.0,0.6036001443862915,0.0,0.0,-0.7972871661186218,0.1097332313656807,0.16009557247161865,0.0,0.0,0.0,1.7704572677612305,0.4400169551372528,0.7424993515014648,0.4200000464916229,0.5523272156715393,3.2078892786557844e-07,-2.862979044948588e-06,-0.8336273431777954,4.85431264678482e-05,-0.0002544716699048877,-7.82522838562727e-05,0.0065630716271698475,-0.002028135349974036,-0.0007060067728161812,0.49531078338623047,0.7738688588142395,0.5305745601654053,0.23911304771900177,0.2540864944458008,0.11449351161718369,0.4358426332473755,0.7541404366493225,0.42000001668930054,-0.5193479061126709,1.6673880815505981,-1.507128119468689,-3.000000238418579,-0.17553558945655823,-0.17585980892181396,-0.17497052252292633,-0.17299963533878326,-0.013233095407485962,0.020273851230740547,0.03572461009025574,0.044013991951942444
0.7833333333333333,0.13344764709472656,0.0422859787940979,0.0,0.5982367992401123,0.0,0.0,-0.8013193607330322,-0.06456972658634186,-0.1748790442943573,0.0,0.0,0.0,-1.7004314661026,0.4400169551372528,0.7424993515014648,0.4200000464916229,0.5523272156715393,4.386838838854601e-07,-2.599619620013982e-06,-0.8336273431777954,5.4041702242102474e-05,-0.00025437003932893276,-7.949606515467167e-05,0.006528877653181553,-0.001967311603948474,-0.0007182713015936315,0.49376529455184937,0.7768927812576294,0.5265088081359863,-0.4023168385028839,0.12080737948417664,-0.4197457432746887,0.4358426332473755,0.7541404366493225,0.42000001668930054,-0.5222952961921692,-1.7246220111846924,-1.4683798551559448,2.9999988079071045,-0.17477929592132568,-0.17460699379444122,-0.17350156605243683,-0.17144349217414856,0.06631544977426529,0.09919549524784088,0.11512132734060287,0.12154883146286011
0.8,0.13598959147930145,0.04578312858939171,0.0,0.6056192517280579,0.0,0.0,-0.7957545518875122,0.049805447459220886,0.1818970888853073,0.0,0.0,0.0,1.7884808778762817,0.4400169253349304,0.7424993515014648,0.4200000464916229,0.5523271560668945,1.7717087530400022e-07,-2.785368224067497e-06,-0.8336273431777954,5.1585670007625595e-05,-0.0002512865758035332,-7.886230014264584e-05,0.006463464815169573,-0.0019777207635343075,-0.0007060049683786929,0.48839449882507324,0.7767715454101562,0.5200189352035522,-0.1645275056362152,0.19545665383338928,-0.34419170022010803,0.4358426332473755,0.7541404366493225,0.42000001668930054,-0.5411731600761414,-0.6224595308303833,-1.485196828842163,-2.9999990463256836,-0.17957250773906708,-0.1777775138616562,-0.1753186285495758,-0.17210905253887177,0.008238044567406178,0.027476871386170387,0.044010523706674576,0.062014345079660416
0.8166666666666667,0.1380234658718109,0.045836783945560455,0.0,0.6004098057746887,0.0,0.0,-0.7996924519538879,0.2032436579465866,-0.019545426592230797,0.0,0.0,0.0,-1.566123604774475,0.4400169551372528,0.7424994111061096,0.4200000464916229,0.5523271560668945,4.2213522988276964e-07,-2.7215899081056705e-06,-0.833627462387085,5.2632887673098594e-05,-0.000254706887062639,-7.914239540696144e-05,0.006545644253492355,-0.001983648631721735,-0.0007157368236221373,0.4862435758113861,0.7783350944519043,0.5131068825721741,-0.07555459439754486,-0.05824775621294975,-0.35095539689064026,0.4358426332473755,0.7541404366493225,0.42000001668930054,-0.5815831422805786,-2.999995708465576,-1.535215139389038,-3.000000238418579,-0.17978014051914215,-0.17746210098266602,-0.1744118332862854,-0.17050553858280182,-0.14254367351531982,-0.07496953010559082,-2.843444235622883e-08,0.08143816143274307
0.8333333333333334,0.14317594468593597,0.04293196275830269,0.0,0.5745913982391357,0.0,0.0,-0.8184404373168945,0.35652658343315125,-0.23540152609348297,0.0,0.0,0.0,-4.752133846282959,0.4400169551372528,0.7424994111061096,0.4200000464916229,0.5523270964622498,4.156744921601785e-07,-2.7875080377270933e-06,-0.833627462387085,5.273753049550578e-05,-0.00025474850554019213,-7.918174378573895e-05,0.0065464843064546585,-0.00198283395729959,-0.0007160305976867676,0.488150417804718,0.7761902213096619,0.5111058950424194,0.3453264832496643,-0.1952817291021347,0.23620463907718658,0.4358426332473755,0.7541404366493225,0.42000001668930054,-0.6315919160842896,-2.999959707260132,-1.585233449935913,-2.9999985694885254,-0.18348191678524017,-0.17993982136249542,-0.1754903644323349,-0.17004549503326416,-0.2406039535999298,-0.16843347251415253,-0.08374319970607758,0.010647774673998356
0.85,0.15106697380542755,0.042427100241184235,0.0,0.5641922354698181,0.0,0.0,-0.8256434202194214,0.49948492646217346,0.026139143854379654,0.0,0.0,0.0,-0.46817952394485474,0.4400169253349304,0.7424993515014648,0.4200000464916229,0.5523272156715393,3.043308822725521e-07,-2.591494876469369e-06,-0.8336273431777954,5.1581453590188175e-05,-0.00025453927810303867,-7.89416953921318e-05,0.006547580007463694,-0.0019950775895267725,-0.0007131195161491632,0.4922266900539398,0.7770861983299255,0.5174612998962402,0.1380968540906906,0.27639371156692505,0.5111071467399597,0.4358426332473755,0.7541404366493225,0.42000001668930054,-0.6494304537773132,0.5643232464790344,-1.6352497339248657,-2.999999523162842,-0.18752092123031616,-0.1834324598312378,-0.17826150357723236,-0.17196479439735413,-0.15078698098659515,-0.16577179729938507,-0.17229914665222168,-0.17219838500022888
0.8666666666666667,0.15563614666461945,0.043161265552043915,0.0,0.5792406797409058,0.0,0.0,-0.8151565790176392,0.21971017122268677,0.15200002491474152,0.0,0.0,0.0,2.979914903640747,0.4400169253349304,0.7424993515014648,0.4200000464916229,0.5523271560668945,2.807429382301052e-07,-2.653559931786731e-06,-0.8336273431777954,5.1963164878543466e-05,-0.000251384248258546,-7.891352288424969e-05,0.00646431976929307,-0.0019728299230337143,-0.0007069646962918341,0.4955107271671295,0.7830303907394409,0.5217266082763672,0.16326919198036194,0.3668815791606903,0.05571148544549942,0.4358426332473755,0.7541404366493225,0.42000001668930054,-0.6359632015228271,1.001042366027832,-1.5961354970932007,2.999999523162842,-0.18711012601852417,-0.18372021615505219,-0.17907482385635376,-0.1731594353914261,0.030180444940924644,-0.0069640506990253925,-0.03518836945295334,-0.05662450194358826
0.8833333333333333,0.15665188431739807,0.040874361991882324,0.0,0.5798925161361694,0.0,0.0,-0.8146929740905762,-0.003298112191259861,-0.14472521841526031,0.0,0.0,0.0,-0.6711964011192322,0.4400169253349304,0.7424993515014648,0.4200000464916229,0.5523271560668945,2.745935034909053e-07,-2.7192588731850265e-06,-0.833627462387085,5.217803845880553e-05,-0.00025136928888969123,-7.896055467426777e-05,0.006462739780545235,-0.0019704215228557587,-0.0007074169698171318,0.49383825063705444,0.7878265976905823,0.5192955732345581,-0.408240407705307,0.15372711420059204,-0.18765485286712646,0.4358426332473755,0.7541404366493225,0.42000001668930054,-0.6536650061607361,-2.783259630203247,-1.5460790395736694,3.0000007152557373,-0.18494954705238342,-0.18228735029697418,-0.17825037240982056,-0.17285968363285065,-0.01814192347228527,-0.022053012624382973,-0.024194788187742233,-0.02759033441543579
