vladlanda/robotic-transformer/data/env_000_episode_0033.csv
sim_time_s,robot_box_x,robot_box_y,robot_box_z,robot_box_quat_w,robot_box_quat_x,robot_box_quat_y,robot_box_quat_z,robot_box_linvel_x,robot_box_linvel_y,robot_box_linvel_z,robot_box_angvel_x,robot_box_angvel_y,robot_box_angvel_z,cube_world_x,cube_world_y,cube_world_z,cube_quat_w,cube_quat_x,cube_quat_y,cube_quat_z,cube_linvel_x,cube_linvel_y,cube_linvel_z,cube_angvel_x,cube_angvel_y,cube_angvel_z,endpoint_world_x,endpoint_world_y,endpoint_world_z,endpoint_linvel_x,endpoint_linvel_y,endpoint_linvel_z,target_cube_world_x,target_cube_world_y,target_cube_world_z,gripper_actual_pos_rad_gp_leftgearjoint,gripper_actual_vel_rad_s_gp_leftgearjoint,gripper_actual_pos_rad_gp_rotatingjoint,gripper_actual_vel_rad_s_gp_rotatingjoint,motor_angle_rad_joint1,motor_angle_rad_joint2,motor_angle_rad_joint3,motor_angle_rad_joint4,motor_speed_rad_s_joint1,motor_speed_rad_s_joint2,motor_speed_rad_s_joint3,motor_speed_rad_s_joint4
0.0,0.0,0.0,0.0,1.0,0.0,0.0,0.0,0.0,0.0,0.0,0.0,0.0,0.0,-0.3735591769218445,0.7672601938247681,0.41999998688697815,1.0,0.0,0.0,0.0,0.0,0.0,0.0,0.0,0.0,0.0,3.42540442943573e-06,-0.005000244826078415,1.313499927520752,0.0,0.0,0.0,0.4128683805465698,0.7441585063934326,0.42000001668930054,-1.5707999467849731,0.0,0.0,0.0,0.0,0.0,0.0,0.0,0.0,0.0,0.0,0.0
0.016666666666666666,0.0028836640994995832,0.0021736682392656803,0.0,0.999821662902832,0.0,0.0,0.01888561062514782,0.24103470146656036,0.18216338753700256,0.0,0.0,0.0,3.14176607131958,-0.37355929613113403,0.7672598958015442,0.41999998688697815,1.0,3.279964630564791e-06,-8.339746386809566e-07,8.465587342243452e-08,-1.9833529222523794e-05,0.00017983045836444944,-6.132945418357849e-05,0.0009432713268324733,-0.004689474124461412,-0.00031981561915017664,-0.007108135148882866,0.003397454274818301,1.3159387111663818,-0.8137696981430054,0.9875026345252991,0.18096767365932465,0.4128683805465698,0.7441585063934326,0.42000001668930054,-1.5301094055175781,3.000001907348633,-0.0458495169878006,-3.000000476837158,0.0008703323546797037,0.0007970330771058798,0.0007116883643902838,0.000612136151175946,0.11097048223018646,0.09760618954896927,0.08338011801242828,0.0682588443160057
0.03333333333333333,0.008968455716967583,0.006791491061449051,0.0,0.9998099207878113,0.0,0.0,0.019496401771903038,0.40715545415878296,0.31510838866233826,0.0,0.0,0.0,-0.8689238429069519,-0.3735594153404236,0.7672598361968994,0.4200000464916229,1.0,3.390805204617209e-06,-2.132404688381939e-06,-3.708747797759315e-08,0.0002635775599628687,0.0002693787682801485,-0.0001050964929163456,-0.0017706695944070816,0.004130705259740353,-0.00013547964044846594,-0.025916777551174164,0.026408784091472626,1.3168063163757324,-1.4082777500152588,1.628103494644165,-0.05927599221467972,0.4128683805465698,0.7441585063934326,0.42000001668930054,-1.4800900220870972,3.0000014305114746,-0.09588934481143951,-3.000000238418579,0.002816968597471714,0.002417499665170908,0.0019803184550255537,0.001502456609159708,0.1432459056377411,0.11238990724086761,0.0800367072224617,0.0461028628051281
0.05,0.01848292537033558,0.013900315389037132,0.0,0.9999704360961914,0.0,0.0,-0.007691335864365101,0.6363354921340942,0.4724310636520386,0.0,0.0,0.0,-4.072118282318115,-0.37355944514274597,0.7672598958015442,0.4200000464916229,1.0,3.7651225284207612e-06,-2.211832452303497e-06,5.631207500300661e-09,0.0002653110132087022,0.000266915129031986,-0.00010440382175147533,-0.0017243130132555962,0.00417749211192131,-0.00012949398660566658,-0.05159442126750946,0.05842871218919754,1.3131961822509766,-1.6896501779556274,2.1382243633270264,-0.3690794110298157,0.4128683805465698,0.7441585063934326,0.42000001668930054,-1.4300717115402222,2.9999992847442627,-0.1459280401468277,-2.999999523162842,0.005299894604831934,0.004277809988707304,0.003183432389050722,0.002012747572734952,0.1648564338684082,0.1177060678601265,0.06863293796777725,0.01757492683827877
0.06666666666666667,0.030843812972307205,0.02339690923690796,0.0,0.9998602867126465,0.0,0.0,-0.016715163365006447,0.7735547423362732,0.6165340542793274,0.0,0.0,0.0,-0.02848288044333458,-0.37355944514274597,0.7672598361968994,0.4200000464916229,0.9999999403953552,3.4066986245306907e-06,-2.2855422230350086e-06,4.301130900330463e-07,0.0002670245012268424,0.00026791836717166007,-0.0001043803058564663,-0.0017406563274562359,0.004211660008877516,-0.00012850432540290058,-0.08323511481285095,0.09338587522506714,1.3048362731933594,-1.978985071182251,2.207655906677246,-0.6274731755256653,0.4128683805465698,0.7441585063934326,0.42000001668930054,-1.3800463676452637,2.999999523162842,-0.14925190806388855,2.1533892154693604,0.007133764680474997,0.005268101580440998,0.0032910716254264116,0.0011963556753471494,0.08460192382335663,0.026442989706993103,-0.03387080878019333,-0.09637276083230972
0.08333333333333333,0.03689100965857506,0.036787547171115875,0.0,0.999178946018219,0.0,0.0,-0.04051502048969269,0.22774742543697357,0.8770244121551514,0.0,0.0,0.0,-3.8007211685180664,-0.37355944514274597,0.7672598361968994,0.4200000464916229,1.0,3.697237389133079e-06,-2.188894086430082e-06,-2.632152131809562e-07,0.000263897207332775,0.0002658645680639893,-0.00010433699935674667,-0.0017081270925700665,0.00415023323148489,-0.0001299154246225953,-0.11096400022506714,0.1340741068124771,1.2921702861785889,-1.3812525272369385,2.6827785968780518,-0.81719970703125,0.4128683805465698,0.7441585063934326,0.42000001668930054,-1.3300461769104004,2.999999761581421,-0.18583086133003235,-3.0000007152557373,0.0022469775285571814,-0.00041533049079589546,-0.003243286395445466,-0.006246617995202541,-0.4218810498714447,-0.48172107338905334,-0.544314980506897,-0.6098840832710266
0.1,0.04675908014178276,0.051752228289842606,0.0,0.9957696795463562,0.0,0.0,-0.09188435971736908,0.7377976179122925,0.904436469078064,0.0,0.0,0.0,-6.957740783691406,-0.37355944514274597,0.7672598361968994,0.4200000464916229,0.9999999403953552,3.6202645787852816e-06,-2.2652204734185943e-06,1.7464172685777157e-07,0.00026676952256821096,0.00026740870089270175,-0.0001040799543261528,-0.0017386189429089427,0.004209231119602919,-0.0001277522387681529,-0.13470721244812012,0.18042156100273132,1.279146671295166,-1.4745334386825562,2.9192962646484375,-0.8061167001724243,0.4128683805465698,0.7441585063934326,0.42000001668930054,-1.2800393104553223,2.999999761581421,-0.22549563646316528,-1.8246917724609375,-0.00037423669709824026,-0.004590985830873251,-0.00897626020014286,-0.013539537787437439,-0.06969749927520752,-0.1715245246887207,-0.27227848768234253,-0.3718646168708801
0.11666666666666667,0.05478081852197647,0.06640021502971649,0.0,0.9923297762870789,0.0,0.0,-0.12361881881952286,0.5105680823326111,0.8795281648635864,0.0,0.0,0.0,-2.556675672531128,-0.37355944514274597,0.7672598361968994,0.4200000464916229,1.0,3.798244051722577e-06,-2.2627962152910186e-06,-1.50183694813677e-07,0.000263741152593866,0.00026566089945845306,-0.00010428996756672859,-0.0017054296331480145,0.004147564060986042,-0.00012979822349734604,-0.1644028276205063,0.22670038044452667,1.264142394065857,-1.7835127115249634,2.980262279510498,-0.891016960144043,0.4128683805465698,0.7441585063934326,0.42000001668930054,-1.2300328016281128,2.9955410957336426,-0.1857955902814865,3.000000476837158,-0.004282788373529911,-0.010004626587033272,-0.015870487317442894,-0.021889448165893555,-0.13148392736911774,-0.24172431230545044,-0.34844455122947693,-0.45144572854042053
0.13333333333333333,0.06110311672091484,0.07870451360940933,0.0,0.9862927794456482,0.0,0.0,-0.16500481963157654,0.3297736644744873,0.660348117351532,0.0,0.0,0.0,-5.86317253112793,-0.37355944514274597,0.7672598958015442,0.4200000464916229,0.9999999403953552,3.55031761500868e-06,-2.2298022486211266e-06,2.929353684066882e-07,0.0002670320973265916,0.0002677934244275093,-0.00010417005978524685,-0.0017440698575228453,0.004213511943817139,-0.00012799800606444478,-0.19066715240478516,0.27976560592651367,1.2481988668441772,-1.3366196155548096,3.4923362731933594,-1.058635950088501,0.4128683805465698,0.7441585063934326,0.42000001668930054,-1.1844282150268555,2.4822897911071777,-0.21735653281211853,-3.0000009536743164,-0.007233522832393646,-0.014884906820952892,-0.022606629878282547,-0.030404401943087578,-0.2435237169265747,-0.35403531789779663,-0.4600626230239868,-0.5614327192306519
0.15,0.06361289322376251,0.09131381660699844,0.0,0.9817817211151123,0.0,0.0,-0.19001218676567078,0.0707862377166748,0.7904853820800781,0.0,0.0,0.0,-1.4488059282302856,-0.3735594153404236,0.7672598361968994,0.4200000464916229,1.0,3.332025926283677e-06,-2.1019659470766783e-06,1.313283775061791e-07,0.00026730605168268085,0.00026859392528422177,-0.00010459637269377708,-0.0017496388172730803,0.004215574357658625,-0.00012928410433232784,-0.22101815044879913,0.33807194232940674,1.2238311767578125,-1.9829155206680298,3.700514793395996,-1.8380186557769775,0.4128683805465698,0.7441585063934326,0.42000001668930054,-1.1578787565231323,0.8266464471817017,-0.18344716727733612,3.0000007152557373,-0.012531789019703865,-0.021596314385533333,-0.030646080151200294,-0.039685193449258804,-0.3744889199733734,-0.4324238896369934,-0.48553356528282166,-0.5338323712348938
0.16666666666666666,0.06946410983800888,0.10558715462684631,0.0,0.9745622277259827,0.0,0.0,-0.2241169661283493,0.34903693199157715,0.8808210492134094,0.0,0.0,0.0,-5.0350823402404785,-0.37355944514274597,0.7672598361968994,0.4200000464916229,1.0,3.7371282815001905e-06,-2.233031636933447e-06,-1.8763215337003203e-07,0.000264328729826957,0.0002662690822035074,-0.00010445667430758476,-0.0017118192045018077,0.004157449118793011,-0.00013001686602365226,-0.25330325961112976,0.4034261703491211,1.1904914379119873,-1.8286523818969727,4.1517333984375,-2.2415499687194824,0.4128683805465698,0.7441585063934326,0.42000001668930054,-1.1152702569961548,3.000002145767212,-0.21503090858459473,-3.0000009536743164,-0.017487099394202232,-0.027532262727618217,-0.03748166188597679,-0.04733990132808685,-0.46852555871009827,-0.49620792269706726,-0.5208877325057983,-0.5427057147026062
0.18333333333333332,0.07196003943681717,0.11752406507730484,0.0,0.9630780220031738,0.0,0.0,-0.2692224383354187,0.12494505941867828,0.6576749086380005,0.0,0.0,0.0,-5.731914520263672,-0.37355944514274597,0.7672598958015442,0.4200000464916229,0.9999999403953552,3.6600679322873475e-06,-2.302136635989882e-06,2.528700520088023e-07,0.00026690925005823374,0.0002676027943380177,-0.0001041253563016653,-0.0017412796150892973,0.0042115445248782635,-0.00012787021114490926,-0.2858990430831909,0.4729803204536438,1.144517421722412,-1.7840523719787598,4.430077075958252,-3.212146759033203,0.4128683805465698,0.7441585063934326,0.42000001668930054,-1.0774619579315186,1.624071478843689,-0.265060156583786,-2.999999523162842,-0.02833458222448826,-0.03819292038679123,-0.047931890934705734,-0.05756444111466408,-0.6825166940689087,-0.6563392281532288,-0.6290640830993652,-0.6012216210365295
0.2,0.07633671164512634,0.13046450912952423,0.0,0.9566639065742493,0.0,0.0,-0.29119446873664856,0.30121365189552307,0.7882025837898254,0.0,0.0,0.0,-1.6374586820602417,-0.37355944514274597,0.7672598361968994,0.4200000464916229,1.0,3.5906386983697303e-06,-2.3002876332611777e-06,1.387365955451969e-07,0.0002665475767571479,0.0002673207491170615,-0.00010424014180898666,-0.0017325275111943483,0.004203495569527149,-0.00012820970732718706,-0.31904172897338867,0.5428726673126221,1.081624984741211,-1.7940876483917236,4.273220539093018,-4.2468976974487305,0.4128683805465698,0.7441585063934326,0.42000001668930054,-1.0304958820343018,3.0000033378601074,-0.31508752703666687,-2.9999985694885254,-0.04229319095611572,-0.05094955861568451,-0.059514254331588745,-0.0680164098739624,-0.8853869438171387,-0.797004222869873,-0.7110109329223633,-0.6284021735191345
0.21666666666666667,0.07857189327478409,0.1437450349330902,0.0,0.9458647966384888,0.0,0.0,-0.32456088066101074,0.060896169394254684,0.8338735103607178,0.0,0.0,0.0,-5.077177047729492,-0.37355944514274597,0.7672598958015442,0.4200000464916229,1.0,3.6067460769118043e-06,-2.260896735606366e-06,1.9630940428783106e-08,0.0002644705818966031,0.0002655840362422168,-0.00010396447032690048,-0.0017087544547393918,0.004164231941103935,-0.00012832245556637645,-0.3466309905052185,0.6131619215011597,1.005645751953125,-1.3696248531341553,4.154177665710449,-4.821272850036621,0.4128683805465698,0.7441585063934326,0.42000001668930054,-0.9804859757423401,3.0,-0.36511334776878357,-2.999999761581421,-0.058315787464380264,-0.0657331645488739,-0.07289700955152512,-0.08004870265722275,-0.9859883189201355,-0.9316354393959045,-0.8520374298095703,-0.7751023173332214
0.23333333333333334,0.08362714946269989,0.1527637243270874,0.0,0.9404913783073425,0.0,0.0,-0.33981752395629883,0.35392799973487854,0.4404411315917969,0.0,0.0,0.0,-0.8754847645759583,-0.3735594153404236,0.7672598361968994,0.4200000464916229,0.9999999403953552,3.742040007637115e-06,-2.2273377453529974e-06,4.589223294715339e-07,0.00026475079357624054,0.00026671396335586905,-0.0001045342069119215,-0.001718980842269957,0.004165731370449066,-0.00013019278412684798,-0.3705047369003296,0.675197958946228,0.917539119720459,-1.1784791946411133,3.4478759765625,-5.708995819091797,0.4128683805465698,0.7441585063934326,0.42000001668930054,-0.9304772019386292,3.0000009536743164,-0.41514116525650024,-3.0000011920928955,-0.07390228658914566,-0.08079326152801514,-0.08646007627248764,-0.09185952693223953,-0.9559090733528137,-0.9432495832443237,-0.8518749475479126,-0.7291167974472046
0.25,0.08329110592603683,0.16547858715057373,0.0,0.929511308670044,0.0,0.0,-0.36879366636276245,-0.12898950278759003,0.7424593567848206,0.0,0.0,0.0,-4.594798564910889,-0.37355944514274597,0.7672598361968994,0.4200000464916229,1.0,3.3941641959245317e-06,-2.2818860543338815e-06,1.336301380661098e-07,0.0002667922817636281,0.0002679384488146752,-0.00010439474135637283,-0.0017417253693565726,0.004206556361168623,-0.00012884114403277636,-0.38570886850357056,0.7221121788024902,0.8140792846679688,-0.6506460905075073,2.340317726135254,-6.420307159423828,0.4128683805465698,0.7441585063934326,0.42000001668930054,-0.8804673552513123,2.9999940395355225,-0.4651713967323303,-2.9999988079071045,-0.09081116318702698,-0.09754496067762375,-0.10311582684516907,-0.10842224210500717,-0.7942424416542053,-0.8333711624145508,-0.8694477081298828,-0.9013070464134216
0.26666666666666666,0.08773106336593628,0.17231658101081848,0.0,0.9247292876243591,0.0,0.0,-0.3806254267692566,0.2676328718662262,0.3277968168258667,0.0,0.0,0.0,-0.47556355595588684,-0.37355944514274597,0.7672598958015442,0.4200000464916229,1.0,3.683193199321977e-06,-2.309913497811067e-06,2.101072880122956e-07,0.0002647913643158972,0.0002662580809555948,-0.00010421057231724262,-0.0017168582417070866,0.0041689565405249596,-0.00012909348879475147,-0.3963509798049927,0.7533196210861206,0.7053875923156738,-0.35661476850509644,1.3241462707519531,-6.677774429321289,0.4128683805465698,0.7441585063934326,0.42000001668930054,-0.8304575681686401,2.99999737739563,-0.5152024030685425,-2.9999985694885254,-0.10186135023832321,-0.10883309692144394,-0.11466839909553528,-0.12021978944540024,-0.9184495210647583,-0.8700817227363586,-0.829204797744751,-0.7922632694244385
0.2833333333333333,0.08795598894357681,0.17587792873382568,0.0,0.9153159856796265,0.0,0.0,-0.4027363955974579,-0.07444155961275101,0.1767263412475586,0.0,0.0,0.0,-3.9383633136749268,-0.37355944514274597,0.7672598361968994,0.4200000464916229,1.0,3.3066860396502307e-06,-2.2123508642835077e-06,2.6256594765072805e-07,0.00026660787989385426,0.00026745101786218584,-0.00010424572974443436,-0.0017352577997371554,0.004204442724585533,-0.00012828593025915325,-0.3974760174751282,0.7687838077545166,0.5941604375839233,0.31579849123954773,0.45026895403862,-6.454261779785156,0.4128683805465698,0.7441585063934326,0.42000001668930054,-0.7804487347602844,3.000000238418579,-0.5652328729629517,-3.0000033378601074,-0.11915481090545654,-0.12596528232097626,-0.13168048858642578,-0.13709774613380432,-1.0148694515228271,-1.011204481124878,-1.0084147453308105,-1.00619375705719
0.3,0.08428257703781128,0.17713552713394165,0.0,0.9127914309501648,0.0,0.0,-0.4084259867668152,-0.18104152381420135,-6.894860416650772e-05,0.0,0.0,0.0,0.20532020926475525,-0.37355944514274597,0.7672598361968994,0.4200000464916229,1.0,3.641024932221626e-06,-2.377741111558862e-06,-4.1939159700632445e-07,0.0002661148027982563,0.00026725901989266276,-0.00010423362255096436,-0.0017336049349978566,0.004194726701825857,-0.0001285561011172831,-0.3906837999820709,0.7687707543373108,0.4940890669822693,0.5722512602806091,-0.34671393036842346,-5.731939792633057,0.4128683805465698,0.7441585063934326,0.42000001668930054,-0.7304399609565735,2.9999725818634033,-0.6152614951133728,-2.999999523162842,-0.13600477576255798,-0.14274467527866364,-0.14843672513961792,-0.15385210514068604,-0.855184018611908,-0.8865039348602295,-0.9166485071182251,-0.943609893321991
0.31666666666666665,0.07937891036272049,0.17521679401397705,0.0,0.9211937189102173,0.0,0.0,-0.3891042172908783,-0.34129220247268677,-0.16337747871875763,0.0,0.0,0.0,3.457267999649048,-0.37355944514274597,0.7672598958015442,0.4200000464916229,1.0,3.621596988523379e-06,-2.2888571038492955e-06,1.9691172781222122e-07,0.0002673400449566543,0.0002680283214431256,-0.00010420801118016243,-0.0017466888530179858,0.00421897554770112,-0.00012793613132089376,-0.38213223218917847,0.7651941180229187,0.4025273323059082,0.5739986896514893,-0.30792081356048584,-5.1282172203063965,0.4128683805465698,0.7441585063934326,0.42000001668930054,-0.6804329752922058,3.0000035762786865,-0.6652882695198059,-3.000002384185791,-0.15314872562885284,-0.15981991589069366,-0.1654624342918396,-0.1708364337682724,-1.019178867340088,-1.0145889520645142,-1.0110738277435303,-1.008238673210144
0.3333333333333333,0.07213467359542847,0.17085540294647217,0.0,0.9224085211753845,0.0,0.0,-0.3862156271934509,-0.4742601811885834,-0.3007253110408783,0.0,0.0,0.0,-0.5868987441062927,-0.37367403507232666,0.7667408585548401,0.42000216245651245,0.9999942183494568,-2.291380269525689e-06,1.553565925860312e-05,-0.003397733671590686,0.021892422810196877,0.04037164896726608,-0.004039352759718895,-0.020478133112192154,-0.08526922017335892,0.6678787469863892,-0.38412463665008545,0.7683722972869873,0.4278310537338257,0.22798562049865723,0.34607645869255066,-0.14078526198863983,0.4128683805465698,0.7441585063934326,0.42000001668930054,-0.6305329203605652,3.0000011920928955,-0.7158675193786621,-2.9799039363861084,-0.15141640603542328,-0.15971313416957855,-0.16649030148983002,-0.1723717749118805,-0.17006254196166992,-0.1945561170578003,-0.19897615909576416,-0.17598475515842438
0.35,0.06264206767082214,0.16421069204807281,0.0,0.9290321469306946,0.0,0.0,-0.36999908089637756,-0.6156444549560547,-0.4391489028930664,0.0,0.0,0.0,2.9716248512268066,-0.3702043294906616,0.771630585193634,0.42000025510787964,0.9991939663887024,-1.1525974059622968e-06,-8.648276889289264e-06,-0.040142789483070374,0.3101242184638977,0.4110223948955536,-0.00016530504217371345,0.006028164178133011,-0.0021049021743237972,-5.310206413269043,-0.3785194754600525,0.7742136716842651,0.4250304102897644,0.4536660611629486,0.37458640336990356,-0.16047431528568268,0.4128683805465698,0.7441585063934326,0.42000001668930054,-0.5805275440216064,2.9999873638153076,-0.7658944129943848,-2.9999992847442627,-0.15627002716064453,-0.16407255828380585,-0.17007504403591156,-0.17479188740253448,-0.3450170159339905,-0.27966222167015076,-0.2005857676267624,-0.10158076882362366
0.36666666666666664,0.050818949937820435,0.15531477332115173,0.0,0.9292514324188232,0.0,0.0,-0.3694479465484619,-0.749352753162384,-0.5737555623054504,0.0,0.0,0.0,-0.8972911834716797,-0.3647071123123169,0.778501033782959,0.4200000464916229,0.9947131276130676,6.671903975075111e-06,1.6247358871623874e-05,-0.10269177705049515,0.38753610849380493,0.4937247633934021,-0.00029683986213058233,0.016565527766942978,-0.004219256807118654,-7.4038496017456055,-0.3686419129371643,0.7807748317718506,0.42300212383270264,0.7503132224082947,0.46707141399383545,-0.11359188705682755,0.4128683805465698,0.7441585063934326,0.42000001668930054,-0.5305226445198059,3.000000476837158,-0.8159353137016296,-3.0000007152557373,-0.16283418238162994,-0.16917209327220917,-0.1734924614429474,-0.17621417343616486,-0.3970225751399994,-0.29499661922454834,-0.18219353258609772,-0.05309827998280525
0.3833333333333333,0.03802419826388359,0.1441057026386261,0.0,0.9183724522590637,0.0,0.0,-0.39571714401245117,-0.801555871963501,-0.7170599102973938,0.0,0.0,0.0,-4.208401679992676,-0.35459622740745544,0.7895791530609131,0.42004072666168213,0.9792408347129822,0.00094984081806615,-0.00011887696018675342,-0.20269756019115448,0.7167018055915833,0.7525795698165894,0.022775407880544662,1.1816326379776,-0.44459107518196106,-14.094610214233398,-0.3543657660484314,0.7900580763816833,0.42186444997787476,1.0417020320892334,0.7143378853797913,-0.030979152768850327,0.4128683805465698,0.7441585063934326,0.42000001668930054,-0.48051825165748596,2.999990463256836,-0.8659814596176147,-2.9999959468841553,-0.17005154490470886,-0.17432647943496704,-0.17635591328144073,-0.17648416757583618,-0.40966111421585083,-0.2763808071613312,-0.1281958669424057,0.0388069786131382
0.4,0.02779500000178814,0.12993089854717255,0.0,0.895571768283844,0.0,0.0,-0.44491705298423767,-0.5419235825538635,-0.9062850475311279,0.0,0.0,0.0,-7.330057144165039,-0.33508220314979553,0.8088673949241638,0.4206272065639496,0.9603279829025269,-0.00884976889938116,-0.007073218002915382,-0.2786428928375244,1.779056429862976,1.4966163635253906,0.10792287439107895,-3.111405372619629,-3.5457801818847656,-6.4540510177612305,-0.33270102739334106,0.8075360059738159,0.42299386858940125,1.6650390625,1.3931856155395508,0.14443650841712952,0.4128683805465698,0.7441585063934326,0.42000001668930054,-0.4305146336555481,3.000002384185791,-0.9160226583480835,-2.9994590282440186,-0.1765267550945282,-0.1785203069448471,-0.17797619104385376,-0.17518669366836548,-0.3530239462852478,-0.21418608725070953,-0.05839933454990387,0.11697638779878616
0.4166666666666667,0.021635178476572037,0.11259568482637405,0.0,0.8577494025230408,0.0,0.0,-0.5140680074691772,-0.299327552318573,-1.090986728668213,0.0,0.0,0.0,-10.194416046142578,-0.2843826115131378,0.8397277593612671,0.4238194525241852,0.9405066967010498,-0.003174314508214593,-0.03338901698589325,-0.3381156623363495,4.385633945465088,2.2903199195861816,0.15698018670082092,12.414552688598633,-11.637090682983398,2.428013563156128,-0.2823394536972046,0.8386991024017334,0.4262334704399109,4.069780349731445,2.2766101360321045,0.405490517616272,0.4128683805465698,0.7441585063934326,0.42000001668930054,-0.393981397151947,1.2980084419250488,-0.966025173664093,-2.999499559402466,-0.18621088564395905,-0.18452239036560059,-0.18020111322402954,-0.17354804277420044,-0.6412433981895447,-0.3938386142253876,-0.148796945810318,0.09212237596511841
0.43333333333333335,0.017753351479768753,0.10083024203777313,0.0,0.8016971349716187,0.0,0.0,-0.5977304577827454,-0.18295444548130035,-0.5681683421134949,0.0,0.0,0.0,-12.879834175109863,-0.19121810793876648,0.877754271030426,0.4304315447807312,0.9152277112007141,0.05825851112604141,-0.07153557986021042,-0.39223289489746094,7.0197906494140625,1.9599367380142212,0.5366008281707764,12.547504425048828,-14.646509170532227,17.535415649414062,-0.18984714150428772,0.8768561482429504,0.4330940842628479,6.789516925811768,2.4463770389556885,0.5687999129295349,0.4128683805465698,0.7441585063934326,0.42000001668930054,-0.37568625807762146,1.096828818321228,-0.9285569190979004,2.9976682662963867,-0.2022823840379715,-0.19816900789737701,-0.18849389255046844,-0.17667677998542786,-0.9255814552307129,-0.9187917113304138,-0.6204822659492493,-0.32153868675231934
0.45,0.010454473085701466,0.09637576341629028,0.0,0.7523319721221924,0.0,0.0,-0.6587842106819153,-0.5569319725036621,-0.24741755425930023,0.0,0.0,0.0,-8.213027000427246,-0.08251316845417023,0.9025158286094666,0.44189485907554626,0.8738265037536621,0.09368262439966202,-0.08425872772932053,-0.4696289300918579,6.389470100402832,0.4586459696292877,0.7420263886451721,1.0899555683135986,-4.879858016967773,10.297401428222656,-0.08131441473960876,0.90313321352005,0.44452184438705444,6.3910980224609375,0.981874942779541,0.7840445041656494,0.4128683805465698,0.7441585063934326,0.42000001668930054,-0.355022668838501,1.3274823427200317,-0.9542717337608337,-3.0000014305114746,-0.2170439213514328,-0.2130744904279709,-0.2033696472644806,-0.18631799519062042,-0.7265849709510803,-0.7577551007270813,-0.7972723841667175,-0.5752531290054321
0.4666666666666667,0.007588496431708336,0.08449651300907135,0.0,0.7239018082618713,0.0,0.0,-0.6899030208587646,-0.06680672615766525,-0.8644081354141235,0.0,0.0,0.0,-4.069206237792969,0.026565618813037872,0.9119869470596313,0.4528811275959015,0.7984633445739746,0.09565410763025284,-0.07763468474149704,-0.5893040299415588,6.347951889038086,-0.3464988172054291,0.7862708568572998,-13.463561058044434,-2.6178207397460938,-10.871261596679688,0.024828819558024406,0.9123265147209167,0.4546552896499634,6.400409698486328,-0.11364245414733887,0.5469560623168945,0.4128683805465698,0.7441585063934326,0.42000001668930054,-0.330313116312027,1.5054383277893066,-1.0042955875396729,-2.9995381832122803,-0.22378356754779816,-0.21966895461082458,-0.20999747514724731,-0.189532071352005,-0.3277886211872101,-0.2583811283111572,-0.20455993711948395,0.004764252342283726
0.48333333333333334,0.0034986590035259724,0.07539881765842438,0.0,0.7181436419487,0.0,0.0,-0.6958948969841003,-0.2611791491508484,-0.4218814969062805,0.0,0.0,0.0,0.01997695490717888,0.12466365844011307,0.9027511477470398,0.46079370379447937,0.722669243812561,0.07602182775735855,-0.08713749051094055,-0.6814519762992859,5.459433555603027,-1.1081372499465942,0.35818609595298767,-5.357817649841309,1.3105807304382324,10.688014030456543,0.12221172451972961,0.9052603840827942,0.4640628695487976,5.2918381690979,-0.7987121939659119,0.5348479151725769,0.4128683805465698,0.7441585063934326,0.42000001668930054,-0.31261101365089417,0.5912954211235046,-1.054317831993103,-3.0000009536743164,-0.23185008764266968,-0.22593554854393005,-0.21490666270256042,-0.1914042830467224,-0.3921720087528229,-0.30874601006507874,-0.2560420036315918,-0.14289747178554535
0.5,0.001792370923794806,0.06645622849464417,0.0,0.7039426565170288,0.0,0.0,-0.710256814956665,-0.03850557282567024,-0.5736591219902039,0.0,0.0,0.0,-3.20611572265625,0.20673194527626038,0.8812021613121033,0.46497446298599243,0.6550024151802063,0.06449291110038757,-0.07410292327404022,-0.749213695526123,4.501506328582764,-1.8092973232269287,0.0861964076757431,-1.2187268733978271,-6.174169540405273,-5.316854000091553,0.2031066119670868,0.8859786987304688,0.4682539105415344,4.479584693908691,-1.6492780447006226,0.11173418164253235,0.4128683805465698,0.7441585063934326,0.42000001668930054,-0.3052471876144409,0.5709639191627502,-1.1043399572372437,-3.0000011920928955,-0.23899304866790771,-0.2307569533586502,-0.21795882284641266,-0.19232989847660065,-0.4375014305114746,-0.25811317563056946,-0.11350983381271362,0.019873300567269325
0.5166666666666666,0.003311223816126585,0.06113369017839432,0.0,0.7028956413269043,0.0,0.0,-0.7112929821014404,0.12170436978340149,-0.2545050084590912,0.0,0.0,0.0,0.7261519432067871,0.2733498215675354,0.8489230275154114,0.4624288082122803,0.5909962058067322,0.04020749405026436,-0.05880926549434662,-0.8035224080085754,3.532958745956421,-2.388596296310425,-0.22724269330501556,2.2581350803375244,9.422422409057617,-5.525941848754883,0.27034080028533936,0.8541637659072876,0.4661092162132263,3.598233461380005,-2.101998805999756,-0.33555471897125244,0.4128683805465698,0.7441585063934326,0.42000001668930054,-0.29526257514953613,0.7058779001235962,-1.1543620824813843,-2.999509572982788,-0.2398894727230072,-0.23635457456111908,-0.2211116999387741,-0.19373899698257446,0.0331118181347847,-0.19109146296977997,-0.0848633199930191,-0.04249517619609833
0.5333333333333333,0.007063374854624271,0.05781617760658264,0.0,0.69207763671875,0.0,0.0,-0.7218230366706848,0.2699020504951477,-0.10881590843200684,0.0,0.0,0.0,-2.65409779548645,0.3267838954925537,0.8158549666404724,0.4517908990383148,0.541836142539978,0.0015957438154146075,-0.017360884696245193,-0.8403032422065735,2.8361480236053467,-2.5206713676452637,-0.848857581615448,-11.518441200256348,-4.575344085693359,11.16567611694336,0.32514965534210205,0.8220025300979614,0.45530250668525696,2.8789772987365723,-1.8957226276397705,-0.8102654218673706,0.4128683805465698,0.7441585063934326,0.42000001668930054,-0.2798594534397125,0.6195508241653442,-1.204384207725525,-3.0000016689300537,-0.23606163263320923,-0.2363286167383194,-0.22061343491077423,-0.1939866691827774,0.299588680267334,0.09964025765657425,0.0863003134727478,-0.01222292147576809
0.55,0.013387237675487995,0.05483308061957359,0.0,0.6935609579086304,0.0,0.0,-0.72039794921875,0.423880398273468,-0.19689910113811493,0.0,0.0,0.0,1.1391724348068237,0.36888405680656433,0.7842715978622437,0.4351876974105835,0.5006558895111084,-0.03414536640048027,-0.002461247378960252,-0.8649691343307495,2.043541669845581,-1.9185733795166016,-1.027326226234436,5.210522651672363,8.498196601867676,-5.043674945831299,0.366945743560791,0.7896519899368286,0.4391471743583679,2.109123945236206,-1.9130560159683228,-1.0606372356414795,0.4128683805465698,0.7441585063934326,0.42000001668930054,-0.2708578109741211,0.6198438405990601,-1.2544063329696655,-2.999246835708618,-0.22855184972286224,-0.231858029961586,-0.21716460585594177,-0.19312383234500885,0.5364095568656921,0.37479281425476074,0.2764560580253601,0.07718049734830856
0.5666666666666667,0.021702464669942856,0.05441105365753174,0.0,0.6848499178886414,0.0,0.0,-0.72868412733078,0.5396178960800171,0.03586834296584129,0.0,0.0,0.0,-2.329540967941284,0.39710789918899536,0.7619221806526184,0.4207131564617157,0.5083763003349304,-0.01528136432170868,-0.00795938540250063,-0.8609625697135925,0.934800386428833,-0.7729724645614624,-0.07201668620109558,-1.2245042324066162,-2.908524513244629,10.215431213378906,0.39554065465927124,0.7667849063873291,0.4235558807849884,1.0937669277191162,-0.7621054649353027,-0.06804240494966507,0.4128683805465698,0.7441585063934326,0.42000001668930054,-0.2549508512020111,1.2669605016708374,-1.2163602113723755,2.9977407455444336,-0.21813863515853882,-0.22458654642105103,-0.21263885498046875,-0.19288748502731323,0.724355936050415,0.5249038338661194,0.3150782287120819,0.020299343392252922
0.5833333333333334,0.0273585207760334,0.049758948385715485,0.0,0.6875448822975159,0.0,0.0,-0.7261418700218201,0.30458909273147583,-0.2754353880882263,0.0,0.0,0.0,1.2158464193344116,0.4105074107646942,0.7501986622810364,0.4215012788772583,0.5079638361930847,-0.024261288344860077,0.012327713891863823,-0.8609483242034912,0.4787551760673523,-0.9515957832336426,-0.09718116372823715,0.42557233572006226,-3.4305570125579834,3.4284451007843018,0.40724116563796997,0.7549210786819458,0.4248666763305664,0.39805182814598083,-0.7979658842086792,0.12772633135318756,0.4128683805465698,0.7441585063934326,0.42000001668930054,-0.2662123143672943,-1.8744715452194214,-1.2373918294906616,-2.9997267723083496,-0.20529663562774658,-0.2132207602262497,-0.20474576950073242,-0.1899074912071228,0.46719884872436523,0.5405566096305847,0.38334646821022034,0.13287687301635742
0.6,0.034371547400951385,0.050342608243227005,0.0,0.6789318323135376,0.0,0.0,-0.7342013120651245,0.39972683787345886,0.08394889533519745,0.0,0.0,0.0,-2.239051103591919,0.41511255502700806,0.7424083948135376,0.42128604650497437,0.5346257090568542,-0.021718008443713188,0.007058425806462765,-0.8447803854942322,0.32075604796409607,-0.1433682143688202,0.09807869791984558,6.618117332458496,5.684113025665283,5.565559387207031,0.412118136882782,0.7484157085418701,0.42695507407188416,0.29907625913619995,-0.10963846743106842,0.13919803500175476,0.4128683805465698,0.7441585063934326,0.42000001668930054,-0.28169897198677063,-0.17205479741096497,-1.2873469591140747,-3.0001745223999023,-0.1989583820104599,-0.20583683252334595,-0.20002397894859314,-0.18926861882209778,0.5340933203697205,0.5506583452224731,0.35643473267555237,0.08804561197757721
0.6166666666666667,0.04308415949344635,0.04725346714258194,0.0,0.6822983622550964,0.0,0.0,-0.731073796749115,0.5474575161933899,-0.1944667398929596,0.0,0.0,0.0,1.4010059833526611,0.41915762424468994,0.7402560114860535,0.4217050075531006,0.5312896966934204,-0.02372000180184841,0.03779086470603943,-0.8460143804550171,0.19709810614585876,-0.12623631954193115,-0.005623877514153719,-0.0665123239159584,-0.31004875898361206,-5.157285213470459,0.4135899543762207,0.7452787160873413,0.4288058578968048,-0.13185033202171326,-0.21893265843391418,0.10656066238880157,0.4128683805465698,0.7441585063934326,0.42000001668930054,-0.32129454612731934,-3.000000476837158,-1.3197184801101685,-1.030307650566101,-0.1893581748008728,-0.19575706124305725,-0.19284747540950775,-0.18618984520435333,0.42827877402305603,0.49491462111473083,0.36553955078125,0.1644294559955597
0.6333333333333333,0.05338745564222336,0.047255996614694595,0.0,0.6745367050170898,0.0,0.0,-0.7382413148880005,0.6502077579498291,0.0547608844935894,0.0,0.0,0.0,-2.1876630783081055,0.41928836703300476,0.7393376231193542,0.4214155077934265,0.5597029328346252,-0.02005574107170105,0.030155064538121223,-0.8279016017913818,0.03481217101216316,-0.014775913208723068,-0.05611826479434967,-1.3493449687957764,-2.435861587524414,2.59431791305542,0.41393229365348816,0.7461684346199036,0.4319302439689636,0.049557752907276154,0.1608252376317978,0.22506773471832275,0.4128683805465698,0.7441585063934326,0.42000001668930054,-0.3712805509567261,-2.9994418621063232,-1.3662325143814087,-2.999065399169922,-0.18121573328971863,-0.1872839331626892,-0.18693692982196808,-0.18378712236881256,0.5885363817214966,0.5752284526824951,0.40499675273895264,0.18735778331756592
0.65,0.06595925241708755,0.04583035036921501,0.0,0.678733766078949,0.0,0.0,-0.7343844175338745,0.7721062898635864,-0.09338536858558655,0.0,0.0,0.0,1.6020866632461548,0.41892239451408386,0.739666223526001,0.42001327872276306,0.578752875328064,-0.00013449956895783544,-0.00014056824147701263,-0.8155030012130737,-0.10748761892318726,0.05521932616829872,0.0009286814602091908,0.0017499095993116498,-0.08057046681642532,1.195228099822998,0.41320332884788513,0.7485970854759216,0.43526649475097656,-0.14826728403568268,0.12871858477592468,0.19759632647037506,0.4128683805465698,0.7441585063934326,0.42000001668930054,-0.4212932586669922,-3.0,-1.4162421226501465,-2.9999406337738037,-0.17083518207073212,-0.17720544338226318,-0.1795722246170044,-0.1798805296421051,0.49057021737098694,0.49950799345970154,0.3727372884750366,0.20029783248901367
0.6666666666666666,0.07606454938650131,0.04638301953673363,0.0,0.6980704069137573,0.0,0.0,-0.7160291075706482,0.5477322936058044,0.09075988084077835,0.0,0.0,0.0,4.097724437713623,0.4180002212524414,0.7401236891746521,0.4200000464916229,0.5819427371025085,3.562526273981348e-07,2.6492810434319836e-07,-0.8132297992706299,-0.05498013645410538,0.01832651160657406,2.3995511583052576e-05,-0.0014027549186721444,-0.0030957015696913004,-1.2709169387817383,0.4118502140045166,0.7489048838615417,0.4388589859008789,-0.10462487488985062,-0.014943242073059082,0.23631557822227478,0.4128683805465698,0.7441585063934326,0.42000001668930054,-0.4712952971458435,-2.99996018409729,-1.4662178754806519,-2.999437093734741,-0.16459563374519348,-0.17037785053253174,-0.17406755685806274,-0.17630156874656677,0.3459414541721344,0.3942298889160156,0.3451731204986572,0.2671689987182617
0.6833333333333333,0.08626529574394226,0.044672660529613495,0.0,0.7045084834098816,0.0,0.0,-0.7096955180168152,0.6404563784599304,-0.15968556702136993,0.0,0.0,0.0,0.06281004846096039,0.41735780239105225,0.7402067184448242,0.41999953985214233,0.5747016072273254,-1.2986182809981983e-05,4.993367838324048e-06,-0.8183630108833313,-0.03374623879790306,0.0020710965618491173,-0.00017784950614441186,-0.001900722156278789,-0.00501475902274251,-0.8509443402290344,0.4113062620162964,0.7509829998016357,0.4430696368217468,-0.02613917551934719,0.12708914279937744,0.2575140595436096,0.4128683805465698,0.7441585063934326,0.42000001668930054,-0.5212940573692322,-2.9997708797454834,-1.5161985158920288,-2.9999659061431885,-0.1598351001739502,-0.16455166041851044,-0.16853046417236328,-0.1714428961277008,0.23536863923072815,0.3143061101436615,0.3246575593948364,0.31492435932159424
0.7,0.09811241924762726,0.039256501942873,0.0,0.689906120300293,0.0,0.0,-0.7238988280296326,0.7482932806015015,-0.3985295593738556,0.0,0.0,0.0,-3.309074878692627,0.41735315322875977,0.740205705165863,0.42000001668930054,0.5746455192565918,-2.7072399007010972e-06,-3.278388703620294e-06,-0.8184024691581726,-5.4961274145171046e-05,-0.0001422440109308809,-0.00010007736273109913,0.000531911791767925,-0.0026027020066976547,-0.00034880152088589966,0.4157189130783081,0.7543437480926514,0.4513639509677887,0.5160850882530212,0.21784374117851257,0.8591221570968628,0.4128683805465698,0.7441585063934326,0.42000001668930054,-0.571306049823761,-2.9999797344207764,-1.5662156343460083,-2.9999990463256836,-0.1581277698278427,-0.1612631380558014,-0.16452644765377045,-0.16693781316280365,0.02795426733791828,0.1352161020040512,0.20417213439941406,0.26564958691596985
0.7166666666666667,0.11329377442598343,0.03858918324112892,0.0,0.6536979675292969,0.0,0.0,-0.7567555904388428,0.8860979080200195,-0.04173900932073593,0.0,0.0,0.0,-6.6821393966674805,0.4173530340194702,0.7402058243751526,0.41999998688697815,0.5746456384658813,-2.8320382625679485e-06,-4.23663686888176e-06,-0.8184022903442383,1.0029887562268414e-05,-0.00034791656071320176,-9.659957140684128e-05,0.00868394784629345,-0.0032464563846588135,-0.0006747875013388693,0.4337282180786133,0.7536576986312866,0.4722192883491516,1.6873170137405396,-0.12226053327322006,1.7149834632873535,0.4128683805465698,0.7441585063934326,0.42000001668930054,-0.6213167309761047,-2.999985694885254,-1.6162301301956177,-2.999999761581421,-0.16542717814445496,-0.16541647911071777,-0.16604351997375488,-0.16597691178321838,-0.3780178725719452,-0.2102864384651184,-0.05930164083838463,0.08953012526035309
0.7333333333333333,0.12517620623111725,0.0400933213531971,0.0,0.6312361359596252,0.0,0.0,-0.775590717792511,0.6626229882240295,0.08284901827573776,0.0,0.0,0.0,-2.3886263370513916,0.4173530340194702,0.7402057647705078,0.41999998688697815,0.574645459651947,-2.9277944122441113e-06,-4.154695034230826e-06,-0.8184023499488831,1.1767577234422788e-05,-0.0003481082967482507,-9.644660167396069e-05,0.008681312203407288,-0.003220851067453623,-0.0006783610442653298,0.46208566427230835,0.7555981874465942,0.5043506622314453,1.7078354358673096,0.34092938899993896,2.0498390197753906,0.4128683805465698,0.7441585063934326,0.42000001668930054,-0.6395276784896851,0.5237638354301453,-1.666244626045227,-2.9999988079071045,-0.17076988518238068,-0.168938547372818,-0.16794316470623016,-0.16629427671432495,-0.16598598659038544,-0.13160111010074615,-0.10320286452770233,-0.07495682686567307
0.75,0.13278016448020935,0.04315360635519028,0.0,0.6342736482620239,0.0,0.0,-0.7731086015701294,0.37985944747924805,0.2277614176273346,0.0,0.0,0.0,1.3598865270614624,0.4173530340194702,0.7402057647705078,0.41999998688697815,0.5746452808380127,-3.1630831927031977e-06,-4.0389509194938e-06,-0.8184025287628174,7.588066637254087e-06,-0.0003479267470538616,-9.765615686774254e-05,0.00866936519742012,-0.0032536413054913282,-0.0006695114425383508,0.48402097821235657,0.761107861995697,0.5333052277565002,0.8917913436889648,0.35901984572410583,1.4672555923461914,0.4128683805465698,0.7441585063934326,0.42000001668930054,-0.6080761551856995,2.999976873397827,-1.62704336643219,2.9999990463256836,-0.17234671115875244,-0.1701359897851944,-0.16876748204231262,-0.16673658788204193,-0.02353067882359028,-0.012611176818609238,1.4319084584712982e-08,0.015166986733675003
0.7666666666666666,0.13614389300346375,0.04164890572428703,0.0,0.6264328360557556,0.0,0.0,-0.7794753909111023,0.19715318083763123,-0.12799441814422607,0.0,0.0,0.0,-2.0024096965789795,0.4173530340194702,0.7402057647705078,0.41999998688697815,0.5746454000473022,-3.1530425985693e-06,-4.2477422539377585e-06,-0.8184024691581726,9.293713446822949e-06,-0.00034804418100975454,-9.714718908071518e-05,0.008676066063344479,-0.0032404616940766573,-0.0006732048350386322,0.4915260076522827,0.768759548664093,0.5508613586425781,-0.04577167332172394,0.38071209192276,0.7933887243270874,0.4128683805465698,0.7441585063934326,0.42000001668930054,-0.5695684552192688,1.7028943300247192,-1.5769869089126587,2.999999523162842,-0.16928833723068237,-0.16742177307605743,-0.16630633175373077,-0.16447556018829346,0.06864645332098007,0.07714995741844177,0.08987423032522202,0.10054279863834381
0.7833333333333333,0.13667231798171997,0.04554226994514465,0.0,0.6317450404167175,0.0,0.0,-0.7751762270927429,-0.010386127047240734,0.2158960998058319,0.0,0.0,0.0,1.5544883012771606,0.4173530340194702,0.7402057647705078,0.41999998688697815,0.5746454000473022,-3.1535316793451784e-06,-4.136913503316464e-06,-0.8184024095535278,7.959894901432563e-06,-0.00034787511685863137,-9.782891720533371e-05,0.00865971203893423,-0.0032498734071850777,-0.0006708097062073648,0.4840702414512634,0.7736077904701233,0.5609035491943359,-0.6612011790275574,0.3957197666168213,0.4219668507575989,0.4128683805465698,0.7441585063934326,0.42000001668930054,-0.5271838903427124,3.0,-1.5269734859466553,3.000000476837158,-0.17320001125335693,-0.17018646001815796,-0.1679282933473587,-0.16513167321681976,-0.037496790289878845,-0.023383142426609993,-0.0035416819155216217,0.010723219253122807
0.8,0.13488294184207916,0.04547606408596039,0.0,0.6258199214935303,0.0,0.0,-0.7799675464630127,-0.17734308540821075,-0.01746128313243389,0.0,0.0,0.0,-1.6441541910171509,0.4173530340194702,0.7402057647705078,0.41999998688697815,0.5746453404426575,-2.8347258194116876e-06,-4.212051408103434e-06,-0.8184024691581726,1.2205586244817823e-05,-0.00034835137194022536,-9.63420607149601e-05,0.008689462207257748,-0.003220758866518736,-0.0006796745583415031,0.4665948152542114,0.7794666290283203,0.5614659190177917,-1.459154486656189,0.2823024392127991,-0.18273140490055084,0.4128683805465698,0.7441585063934326,0.42000001668930054,-0.5087471008300781,-0.5007345080375671,-1.476917028427124,2.999999761581421,-0.1733095347881317,-0.17011074721813202,-0.16753509640693665,-0.16450358927249908,-0.07271648198366165,-0.04481860250234604,-0.009210798889398575,0.019669758155941963
0.8166666666666667,0.13478326797485352,0.04903138428926468,0.0,0.6327440142631531,0.0,0.0,-0.7743610143661499,0.026559647172689438,0.24543730914592743,0.0,0.0,0.0,1.586242437362671,0.4173530340194702,0.7402057647705078,0.41999998688697815,0.5746453404426575,-3.1566794405080145e-06,-4.075584456586512e-06,-0.8184025883674622,8.807062840787694e-06,-0.00034795718966051936,-9.730947203934193e-05,0.00867187138646841,-0.0032432624138891697,-0.0006721263634972274,0.44598567485809326,0.783702552318573,0.5581791400909424,-0.9405534267425537,0.40097954869270325,-0.20999453961849213,0.4128683805465698,0.7441585063934326,0.42000001668930054,-0.4988134503364563,1.512001395225525,-1.4935564994812012,-3.000000476837158,-0.17701876163482666,-0.17304739356040955,-0.1695241630077362,-0.1656307727098465,-0.039701271802186966,-0.05398036167025566,-0.04740665853023529,-0.034988682717084885
0.8333333333333334,0.13674335181713104,0.04894885793328285,0.0,0.6260733604431152,0.0,0.0,-0.7797641754150391,0.14958925545215607,-0.03711934760212898,0.0,0.0,0.0,-1.9067860841751099,0.4173530340194702,0.7402057647705078,0.41999998688697815,0.5746452212333679,-2.8318868317001034e-06,-4.161671313340776e-06,-0.8184025883674622,1.1950922271353193e-05,-0.00034832165692932904,-9.64237842708826e-05,0.008687857538461685,-0.0032221591100096703,-0.00067911297082901,0.43172943592071533,0.7893630862236023,0.5509611964225769,-0.7909508943557739,0.20185767114162445,-0.48444798588752747,0.4128683805465698,0.7441585063934326,0.42000001668930054,-0.5179480910301208,-3.0,-1.4548463821411133,3.000000476837158,-0.17565153539180756,-0.17222099006175995,-0.16883297264575958,-0.16491013765335083,0.0197090245783329,0.010442693717777729,0.024388713762164116,0.04690556600689888
0.85,0.14066965878009796,0.04610765352845192,0.0,0.6212317943572998,0.0,0.0,-0.7836268544197083,0.2755378186702728,-0.20654021203517914,0.0,0.0,0.0,-0.28650903701782227,0.4173530340194702,0.7402057647705078,0.41999998688697815,0.5746451616287231,-3.1620272693544393e-06,-4.206651283311658e-06,-0.8184026479721069,9.313434929936193e-06,-0.00034809595672413707,-9.716046042740345e-05,0.008677342906594276,-0.003241374157369137,-0.0006733841728419065,0.42498305439949036,0.7918349504470825,0.5455348491668701,-0.05232446640729904,0.12146524339914322,-0.0930812656879425,0.4128683805465698,0.7441585063934326,0.42000001668930054,-0.5679576396942139,-2.9999983310699463,-1.4719531536102295,-3.0000009536743164,-0.17729395627975464,-0.17351359128952026,-0.16936054825782776,-0.16450698673725128,-0.13559088110923767,-0.10325396806001663,-0.04459904506802559,0.025865944102406502
0.8666666666666667,0.14686083793640137,0.040240343660116196,0.0,0.6041426062583923,0.0,0.0,-0.7968762516975403,0.4171554744243622,-0.41175875067710876,0.0,0.0,0.0,-3.479808807373047,0.4173530340194702,0.7402057647705078,0.41999998688697815,0.5746453404426575,-3.1310644317272818e-06,-4.08387359129847e-06,-0.8184025883674622,7.685590389883146e-06,-0.00034774746745824814,-9.78971365839243e-05,0.008655308745801449,-0.00324938609264791,-0.0006699853111058474,0.43024465441703796,0.7910029888153076,0.5415180921554565,0.6919621229171753,-0.21352529525756836,-0.21010705828666687,0.4128683805465698,0.7441585063934326,0.42000001668930054,-0.6179625988006592,-2.9999537467956543,-1.5219714641571045,-2.9999992847442627,-0.1807335466146469,-0.17595310509204865,-0.17034035921096802,-0.16380901634693146,-0.21654905378818512,-0.13792181015014648,-0.03185165300965309,0.08760440349578857
0.8833333333333333,0.15676109492778778,0.03904546797275543,0.0,0.5640740394592285,0.0,0.0,-0.825724184513092,0.5794663429260254,-0.03615724295377731,0.0,0.0,0.0,-6.764042377471924,0.4173530340194702,0.7402057647705078,0.41999998688697815,0.5746452212333679,-3.13335135615489e-06,-4.131919013161678e-06,-0.8184025287628174,8.890051503840368e-06,-0.0003480202576611191,-9.728269651532173e-05,0.008674140088260174,-0.0032437057234346867,-0.0006724027334712446,0.44683837890625,0.7810819149017334,0.5389110445976257,1.3947560787200928,-0.7313202619552612,-0.0027593718841671944,0.4128683805465698,0.7441585063934326,0.42000001668930054,-0.6359831094741821,0.5445134043693542,-1.5719897747039795,-3.0,-0.18886438012123108,-0.18229670822620392,-0.1746358722448349,-0.1660187840461731,-0.35922980308532715,-0.3025709390640259,-0.2332862913608551,-0.16245517134666443
0.9,0.16354136168956757,0.03833013400435448,0.0,0.5405534505844116,0.0,0.0,-0.841309666633606,0.32862672209739685,-0.0028584960382431746,0.0,0.0,0.0,-2.3122398853302,0.4173530340194702,0.7402057647705078,0.41999998688697815,0.5746453404426575,-3.16192245009006e-06,-4.1534171941748355e-06,-0.8184025287628174,9.042228157341015e-06,-0.0003479568113107234,-9.721959941089153e-05,0.008672746829688549,-0.0032412009313702583,-0.0006725622806698084,0.4682310223579407,0.7731271982192993,0.5369940996170044,1.0368552207946777,-0.3670252561569214,-0.2553887367248535,0.4128683805465698,0.7441585063934326,0.42000001668930054,-0.6043497920036316,2.9999845027923584,-1.5330536365509033,3.0000011920928955,-0.19076183438301086,-0.1841857135295868,-0.17629797756671906,-0.16738472878932953,-0.016606975346803665,-0.03851789981126785,-0.05149972438812256,-0.06262348592281342
