vladlanda/robotic-transformer/data/env_000_episode_0052.csv
sim_time_s,robot_box_x,robot_box_y,robot_box_z,robot_box_quat_w,robot_box_quat_x,robot_box_quat_y,robot_box_quat_z,robot_box_linvel_x,robot_box_linvel_y,robot_box_linvel_z,robot_box_angvel_x,robot_box_angvel_y,robot_box_angvel_z,cube_world_x,cube_world_y,cube_world_z,cube_quat_w,cube_quat_x,cube_quat_y,cube_quat_z,cube_linvel_x,cube_linvel_y,cube_linvel_z,cube_angvel_x,cube_angvel_y,cube_angvel_z,endpoint_world_x,endpoint_world_y,endpoint_world_z,endpoint_linvel_x,endpoint_linvel_y,endpoint_linvel_z,target_cube_world_x,target_cube_world_y,target_cube_world_z,gripper_actual_pos_rad_gp_leftgearjoint,gripper_actual_vel_rad_s_gp_leftgearjoint,gripper_actual_pos_rad_gp_rotatingjoint,gripper_actual_vel_rad_s_gp_rotatingjoint,motor_angle_rad_joint1,motor_angle_rad_joint2,motor_angle_rad_joint3,motor_angle_rad_joint4,motor_speed_rad_s_joint1,motor_speed_rad_s_joint2,motor_speed_rad_s_joint3,motor_speed_rad_s_joint4
0.0,0.0,0.0,0.0,1.0,0.0,0.0,0.0,0.0,0.0,0.0,0.0,0.0,0.0,-0.4046200215816498,0.7549466490745544,0.41999998688697815,1.0,0.0,0.0,0.0,0.0,0.0,0.0,0.0,0.0,0.0,3.42540442943573e-06,-0.005000244826078415,1.313499927520752,0.0,0.0,0.0,0.4798010587692261,0.7717067003250122,0.42000001668930054,-1.5707999467849731,0.0,0.0,0.0,0.0,0.0,0.0,0.0,0.0,0.0,0.0,0.0
0.016666666666666666,0.0028778850100934505,0.0021806680597364902,0.0,0.9998081922531128,0.0,0.0,0.019586581736803055,0.24087215960025787,0.18240931630134583,0.0,0.0,0.0,3.1418697834014893,-0.40462014079093933,0.7549463510513306,0.41999998688697815,1.0,3.279964630564791e-06,-8.339746386809566e-07,8.465587342243452e-08,-1.9833529222523794e-05,0.00017983045836444944,-6.132945418357849e-05,0.0009432713268324733,-0.004689474124461412,-0.00031981561915017664,-0.007110234349966049,0.003379564033821225,1.3159373998641968,-0.8143353462219238,0.9868683815002441,0.18095196783542633,0.4798010587692261,0.7717067003250122,0.42000001668930054,-1.5301095247268677,3.0000011920928955,-0.04584788903594017,-2.9999992847442627,0.0008691533003002405,0.0007963840034790337,0.0007110277656465769,0.0006108740926720202,0.11094217747449875,0.09756709635257721,0.08334315568208694,0.06823883205652237
0.03333333333333333,0.00896099116653204,0.006802027579396963,0.0,0.9997960329055786,0.0,0.0,0.020196840167045593,0.4070222079753876,0.3153079152107239,0.0,0.0,0.0,-0.8691337704658508,-0.4046202600002289,0.7549462914466858,0.4200000464916229,1.0,3.3908731893461663e-06,-2.1324503904907033e-06,-3.710378493337885e-08,0.0002635771525092423,0.00026937818620353937,-0.00010509602725505829,-0.0017707280348986387,0.0041307248175144196,-0.00013547952403314412,-0.027556639164686203,0.02629934810101986,1.3165804147720337,-1.5912965536117554,1.6163429021835327,-0.08707208186388016,0.4798010587692261,0.7717067003250122,0.42000001668930054,-1.4800903797149658,3.0000007152557373,-0.09588771313428879,-3.000000238418579,0.002990090986713767,0.0026526888832449913,0.0022772483061999083,0.0018606933299452066,0.1642124056816101,0.13975512981414795,0.11381323635578156,0.08629471808671951
0.05,0.01846904307603836,0.013899045065045357,0.0,0.99997878074646,0.0,0.0,-0.006517091300338507,0.6362811923027039,0.47224900126457214,0.0,0.0,0.0,-4.074742317199707,-0.40462028980255127,0.7549463510513306,0.4200000464916229,1.0,3.7651379898306914e-06,-2.2118813376437174e-06,5.628827626225075e-09,0.00026530851027928293,0.000266915129031986,-0.00010440615005791187,-0.0017243935726583004,0.004177427850663662,-0.00012949513620696962,-0.05657338351011276,0.05842346325516701,1.3117783069610596,-1.8915071487426758,2.158872604370117,-0.4734494686126709,0.4798010587692261,0.7717067003250122,0.42000001668930054,-1.4300720691680908,3.000000476837158,-0.14592638611793518,-2.999999761581421,0.005936516914516687,0.005072699394077063,0.004136412870138884,0.003123505739495158,0.19886521995067596,0.15637686848640442,0.11197362095117569,0.06557722389698029
0.06666666666666667,0.030790410935878754,0.02338714525103569,0.0,0.9998859167098999,0.0,0.0,-0.015104715712368488,0.7727644443511963,0.616092324256897,0.0,0.0,0.0,-0.0382978580892086,-0.40462028980255127,0.7549462914466858,0.4200000464916229,0.9999999403953552,3.4067431897710776e-06,-2.285570644744439e-06,4.301082014990243e-07,0.00026702473405748606,0.00026791851269081235,-0.00010438147000968456,-0.001740640145726502,0.00421174056828022,-0.00012851026258431375,-0.09101858735084534,0.09359349310398102,1.3012127876281738,-2.109682083129883,2.227621078491211,-0.7821152210235596,0.4798010587692261,0.7717067003250122,0.42000001668930054,-1.3800537586212158,2.999999761581421,-0.1959453672170639,-2.9999990463256836,0.008341798558831215,0.00667306175455451,0.004891463555395603,0.0029921280220150948,0.12056878209114075,0.06249410659074783,0.0022632484324276447,-0.06017662212252617
0.08333333333333333,0.03718889132142067,0.036675676703453064,0.0,0.9992421269416809,0.0,0.0,-0.038924459367990494,0.22292450070381165,0.8769882321357727,0.0,0.0,0.0,-3.810880661010742,-0.40462028980255127,0.7549462914466858,0.4200000464916229,0.9999999403953552,3.6260742035665317e-06,-2.3352745301963296e-06,3.0323374744511966e-07,0.0002661384060047567,0.00026685066404752433,-0.00010405178181827068,-0.0017283891793340445,0.004196368157863617,-0.0001279052667086944,-0.12202847748994827,0.1355263888835907,1.2852725982666016,-1.612210988998413,2.78872013092041,-1.0599186420440674,0.4798010587692261,0.7717067003250122,0.42000001668930054,-1.3300265073776245,3.0000007152557373,-0.17206822335720062,2.9999985694885254,0.0043286909349262714,0.0018637923058122396,-0.0007674944354221225,-0.0035736567806452513,-0.38234052062034607,-0.439657986164093,-0.49978017807006836,-0.5629588961601257
0.1,0.046852052211761475,0.051709048449993134,0.0,0.9959004521369934,0.0,0.0,-0.09045623242855072,0.7374753355979919,0.9035922884941101,0.0,0.0,0.0,-6.967369556427002,-0.40462028980255127,0.7549462914466858,0.4200000464916229,1.0,3.4221004625578644e-06,-2.3085444809112232e-06,1.7964666199077328e-07,0.0002668151864781976,0.00026800541672855616,-0.00010440708138048649,-0.0017431002343073487,0.004207086283713579,-0.0001289146748604253,-0.14744068682193756,0.18354228138923645,1.2692227363586426,-1.4715626239776611,3.003934383392334,-0.9280080795288086,0.4798010587692261,0.7717067003250122,0.42000001668930054,-1.2800346612930298,3.0,-0.20373965799808502,-3.0000011920928955,0.0020586042664945126,-0.002003634348511696,-0.006237575318664312,-0.010652532801032066,-0.03703446313738823,-0.14899258315563202,-0.25992417335510254,-0.3697165250778198
0.11666666666666667,0.05448943004012108,0.06852014362812042,0.0,0.9925623536109924,0.0,0.0,-0.12173742800951004,0.4825384020805359,1.0604063272476196,0.0,0.0,0.0,-2.539003849029541,-0.40462028980255127,0.7549463510513306,0.4200000464916229,1.0,3.7114655242476147e-06,-2.332692929485347e-06,2.5745484322214907e-07,0.00026485862326808274,0.00026635374524630606,-0.00010423408821225166,-0.001718259765766561,0.004170184955000877,-0.000129159219795838,-0.17833971977233887,0.23048248887062073,1.2522389888763428,-1.9000563621520996,3.016402244567871,-1.0256160497665405,0.4798010587692261,0.7717067003250122,0.42000001668930054,-1.2300164699554443,2.9999897480010986,-0.16989478468894958,3.0000011920928955,-0.0016209911555051804,-0.0072938865050673485,-0.013115803711116314,-0.01909543387591839,-0.1145530417561531,-0.22993406653404236,-0.3418830633163452,-0.450187087059021
0.13333333333333333,0.06046682223677635,0.0835273414850235,0.0,0.9865691065788269,0.0,0.0,-0.1633443385362625,0.3100629448890686,0.83346027135849,0.0,0.0,0.0,-5.8951215744018555,-0.40462028980255127,0.7549462914466858,0.4200000464916229,1.0,3.3357227948727086e-06,-2.23190977521881e-06,3.1133200195654354e-07,0.00026669615181162953,0.00026759476168081164,-0.00010428461246192455,-0.0017371491994708776,0.004205758683383465,-0.00012840083218179643,-0.20680668950080872,0.2836516499519348,1.2350499629974365,-1.495497465133667,3.4597067832946777,-1.0761113166809082,0.4798010587692261,0.7717067003250122,0.42000001668930054,-1.182538390159607,2.6838467121124268,-0.20156586170196533,-3.000000238418579,-0.0041124047711491585,-0.01183566078543663,-0.01963450200855732,-0.027513640001416206,-0.2147463709115982,-0.3337290287017822,-0.4481687843799591,-0.5578396320343018
0.15,0.06259419023990631,0.09879548847675323,0.0,0.9826740622520447,0.0,0.0,-0.1853421926498413,0.049628838896751404,0.9501343369483948,0.0,0.0,0.0,-1.619655966758728,-0.40462028980255127,0.7549462914466858,0.4200000464916229,1.0,3.5189125355827855e-06,-2.2830947727925377e-06,-3.6252558288651926e-07,0.00026618505944497883,0.0002673575945664197,-0.00010425434447824955,-0.0017348934197798371,0.0041957637295126915,-0.00012860892456956208,-0.2397180199623108,0.34017887711524963,1.2101738452911377,-2.0970778465270996,3.5767674446105957,-1.8621106147766113,0.4798010587692261,0.7717067003250122,0.42000001668930054,-1.1525897979736328,1.0309340953826904,-0.17009764909744263,3.0000011920928955,-0.009012813679873943,-0.018287060782313347,-0.027550797909498215,-0.036806363612413406,-0.3571201264858246,-0.423927903175354,-0.4858167767524719,-0.5427659749984741
0.16666666666666666,0.06915740668773651,0.11555895954370499,0.0,0.9751671552658081,0.0,0.0,-0.22147025167942047,0.5089238286018372,1.074194073677063,0.0,0.0,0.0,-5.361640930175781,-0.40462028980255127,0.7549462914466858,0.4200000464916229,1.0,3.666534439616953e-06,-2.339156480957172e-06,-3.1496148267251556e-07,0.0002659572346601635,0.00026667219935916364,-0.0001040350180119276,-0.0017253076657652855,0.004192833323031664,-0.0001277863048017025,-0.2731696367263794,0.4036792814731598,1.1767723560333252,-1.854490041732788,4.055485248565674,-2.196624994277954,0.4798010587692261,0.7717067003250122,0.42000001668930054,-1.1092143058776855,2.9999990463256836,-0.20177313685417175,-3.000000238418579,-0.012400161474943161,-0.022959118708968163,-0.033414456993341446,-0.04376834258437157,-0.2114393711090088,-0.2792496681213379,-0.3418727219104767,-0.39931467175483704
0.18333333333333332,0.07171636074781418,0.12972085177898407,0.0,0.970607340335846,0.0,0.0,-0.24066868424415588,0.10818368196487427,0.7948309183120728,0.0,0.0,0.0,-1.2862945795059204,-0.40462028980255127,0.7549462914466858,0.4200000464916229,1.0,3.8143180063343607e-06,-2.3995407900656573e-06,-2.7023713755625067e-07,0.0002654917479958385,0.0002661104081198573,-0.00010391091927886009,-0.001717757317237556,0.0041848039254546165,-0.00012753487681038678,-0.30850034952163696,0.46800732612609863,1.1303486824035645,-1.9911315441131592,4.071247100830078,-3.248478412628174,0.4798010587692261,0.7717067003250122,0.42000001668930054,-1.0713409185409546,1.63279390335083,-0.25180160999298096,-3.000000238418579,-0.022036703303456306,-0.0325201191008091,-0.042870283126831055,-0.05309915915131569,-0.6433232426643372,-0.6178367137908936,-0.5910053253173828,-0.5634202361106873
0.2,0.0756465271115303,0.1445508897304535,0.0,0.9621288180351257,0.0,0.0,-0.27259525656700134,0.2847134470939636,0.9148855805397034,0.0,0.0,0.0,-4.848306179046631,-0.40462028980255127,0.7549462914466858,0.4200000464916229,1.0,3.60003400601272e-06,-2.2912588519830024e-06,-2.2015373701833596e-07,0.0002657305740285665,0.0002664485655259341,-0.00010398100130259991,-0.0017226962372660637,0.00418891804292798,-0.00012773215712513775,-0.34061717987060547,0.536952018737793,1.068901777267456,-1.7521485090255737,4.190165996551514,-4.062056064605713,0.4798010587692261,0.7717067003250122,0.42000001668930054,-1.0243505239486694,2.9999985694885254,-0.3018277585506439,-3.0,-0.035649560391902924,-0.04515707865357399,-0.05454396456480026,-0.0638359934091568,-0.8830748796463013,-0.8102033138275146,-0.7388671040534973,-0.6698969602584839
0.21666666666666667,0.07784043252468109,0.15660403668880463,0.0,0.9579949378967285,0.0,0.0,-0.28678515553474426,0.07004615664482117,0.6273577809333801,0.0,0.0,0.0,-0.7662887573242188,-0.40462028980255127,0.7549462914466858,0.4200000464916229,0.9999999403953552,3.639622036644141e-06,-2.2619103674514918e-06,2.225234965180789e-07,0.0002668733650352806,0.0002675465075299144,-0.00010411837138235569,-0.0017404062673449516,0.004210991319268942,-0.00012784077262040228,-0.37038135528564453,0.6012413501739502,0.9927089214324951,-1.5508813858032227,3.7072794437408447,-4.983199119567871,0.4798010587692261,0.7717067003250122,0.42000001668930054,-0.9743436574935913,2.999999761581421,-0.35185369849205017,-2.9999988079071045,-0.05148433893918991,-0.0600210539996624,-0.06771905720233917,-0.07539191097021103,-0.9534615874290466,-0.921130895614624,-0.8079938292503357,-0.699817419052124
0.23333333333333334,0.07581748068332672,0.16932471096515656,0.0,0.9496102333068848,0.0,0.0,-0.3134332299232483,-0.19525492191314697,0.798083484172821,0.0,0.0,0.0,-4.191492557525635,-0.4046202600002289,0.7549462914466858,0.4200000464916229,1.0,3.4206846066808794e-06,-2.316740847163601e-06,2.9563960879386286e-07,0.00026680101291276515,0.0002680402831174433,-0.00010442431084811687,-0.0017436628695577383,0.004206812009215355,-0.000128999468870461,-0.3937743306159973,0.660200834274292,0.9034662246704102,-1.178812026977539,3.319282054901123,-5.597465991973877,0.4798010587692261,0.7717067003250122,0.42000001668930054,-0.9243346452713013,3.0000011920928955,-0.4018826186656952,-3.0,-0.06704789400100708,-0.07568461447954178,-0.08346240967512131,-0.0907093808054924,-0.9742943048477173,-0.9697785377502441,-0.9675139784812927,-0.9450741410255432
0.25,0.07810479402542114,0.17736470699310303,0.0,0.9462911486625671,0.0,0.0,-0.32331582903862,0.15293407440185547,0.384806364774704,0.0,0.0,0.0,-0.22970715165138245,-0.40462028980255127,0.7549462914466858,0.4200000464916229,0.9999999403953552,3.3475180316600017e-06,-2.2591673314309446e-06,1.8088597641963133e-07,0.0002668787492439151,0.00026791193522512913,-0.00010439381003379822,-0.0017404435202479362,0.004208254162222147,-0.00012869967031292617,-0.41465580463409424,0.7067383527755737,0.8066937327384949,-1.037616491317749,2.3255419731140137,-6.057521820068359,0.4798010587692261,0.7717067003250122,0.42000001668930054,-0.8743241429328918,2.99999737739563,-0.4519132971763611,-2.9999992847442627,-0.08116252720355988,-0.08951816707849503,-0.09692205488681793,-0.10349857807159424,-0.9819230437278748,-0.9747384786605835,-0.9256471991539001,-0.8449930548667908
0.26666666666666666,0.07559384405612946,0.18333758413791656,0.0,0.938085675239563,0.0,0.0,-0.3464032709598541,-0.24366973340511322,0.2907412648200989,0.0,0.0,0.0,-3.80598783493042,-0.40462028980255127,0.7549462914466858,0.4200000464916229,0.9999999403953552,3.5355749332666164e-06,-2.3002692159934668e-06,-1.2681358896315942e-07,0.0002660168393049389,0.0002671206893865019,-0.00010419473983347416,-0.0017316052690148354,0.004192827735096216,-0.00012849454651586711,-0.42673951387405396,0.7371259927749634,0.7002644538879395,-0.36576521396636963,1.3283289670944214,-6.485288619995117,0.4798010587692261,0.7717067003250122,0.42000001668930054,-0.8243142366409302,2.9999992847442627,-0.5019444227218628,-2.999997615814209,-0.09829128533601761,-0.10646530985832214,-0.1137329712510109,-0.12021197378635406,-0.9917508363723755,-0.9920001029968262,-0.9922428727149963,-0.9924952387809753
0.2833333333333333,0.07684870064258575,0.18495959043502808,0.0,0.936052680015564,0.0,0.0,-0.3518599271774292,0.04696952924132347,0.027043312788009644,0.0,0.0,0.0,0.1914435774087906,-0.40462028980255127,0.7549463510513306,0.4200000464916229,1.0,3.5933380786445923e-06,-2.262635916849831e-06,-5.6502596379459646e-08,0.00026704766787588596,0.0002677501179277897,-0.00010416796430945396,-0.0017432488966733217,0.004214221611618996,-0.00012789192260242999,-0.43194854259490967,0.7517706155776978,0.5926375389099121,-0.07163381576538086,0.33024802803993225,-6.433773994445801,0.4798010587692261,0.7717067003250122,0.42000001668930054,-0.7743054032325745,3.0,-0.5519749522209167,-3.0000014305114746,-0.11429878324270248,-0.12227091193199158,-0.12947261333465576,-0.13595852255821228,-1.0027464628219604,-1.001806378364563,-1.0011459589004517,-1.0006624460220337
0.3,0.07346576452255249,0.1840890347957611,0.0,0.9289659261703491,0.0,0.0,-0.37016525864601135,-0.289207398891449,-0.0864570364356041,0.0,0.0,0.0,-3.2291147708892822,-0.4046202600002289,0.7549462914466858,0.4200000464916229,0.9999999403953552,3.724891257661511e-06,-2.236039790659561e-06,3.829071033578657e-07,0.0002647985238581896,0.0002667299995664507,-0.00010453932918608189,-0.0017188549973070621,0.004166636150330305,-0.00013016315642744303,-0.4255618453025818,0.7533635497093201,0.48989081382751465,0.8164036273956299,-0.101373091340065,-5.76994514465332,0.4798010587692261,0.7717067003250122,0.42000001668930054,-0.7242966294288635,3.0000007152557373,-0.6020036339759827,-3.000002384185791,-0.13252024352550507,-0.14013421535491943,-0.14706380665302277,-0.15333358943462372,-1.0168635845184326,-1.012743353843689,-1.0095940828323364,-1.0070751905441284
0.31666666666666665,0.06619638949632645,0.1816452592611313,0.0,0.9284100532531738,0.0,0.0,-0.37155717611312866,-0.32620829343795776,-0.2671091556549072,0.0,0.0,0.0,0.7389308214187622,-0.40462028980255127,0.7549462914466858,0.4200000464916229,0.9999999403953552,3.557648597052321e-06,-2.2788490241509862e-06,2.283726416862919e-07,0.0002659866295289248,0.00026658561546355486,-0.00010399171151220798,-0.0017241038149222732,0.004193546250462532,-0.00012769454042427242,-0.4099552631378174,0.7493585348129272,0.40113937854766846,1.089072346687317,-0.29099008440971375,-5.062655925750732,0.4798010587692261,0.7717067003250122,0.42000001668930054,-0.6742897033691406,2.999979257583618,-0.652030348777771,-2.9999992847442627,-0.14976461231708527,-0.1572374403476715,-0.16407527029514313,-0.17028085887432098,-0.6997323632240295,-0.766709566116333,-0.8288068175315857,-0.8842071294784546
0.3333333333333333,0.05908127874135971,0.17600007355213165,0.0,0.9231811165809631,0.0,0.0,-0.3843652307987213,-0.4786982536315918,-0.37777388095855713,0.0,0.0,0.0,-2.8043746948242188,-0.40537676215171814,0.7529927492141724,0.42015644907951355,0.9994020462036133,0.003912461455911398,-0.0001298591960221529,-0.03435434401035309,0.002578398212790489,0.013375313952565193,-0.015013275668025017,-0.758984386920929,0.05284275487065315,0.07749360799789429,-0.4114716947078705,0.754158616065979,0.4278091490268707,0.241377055644989,0.7045837044715881,-0.07521365582942963,0.4798010587692261,0.7717067003250122,0.42000001668930054,-0.6244639754295349,3.000000476837158,-0.7024852633476257,-2.972144603729248,-0.14611509442329407,-0.15607744455337524,-0.1647319346666336,-0.17200805246829987,0.012668255716562271,-0.10343950241804123,-0.19012419879436493,-0.24363622069358826
0.35,0.049667153507471085,0.16812275350093842,0.0,0.9235488772392273,0.0,0.0,-0.38348066806793213,-0.6034982800483704,-0.5113717913627625,0.0,0.0,0.0,1.0558247566223145,-0.4005431532859802,0.7600678205490112,0.420844703912735,0.9929861426353455,0.021377265453338623,-0.002016172045841813,-0.11626431345939636,0.37837859988212585,0.5173972845077515,0.045021265745162964,2.2889232635498047,-0.3122284412384033,-11.594995498657227,-0.4064041078090668,0.7646995782852173,0.42609328031539917,0.41751885414123535,0.6397848129272461,-0.1093931645154953,0.4798010587692261,0.7717067003250122,0.42000001668930054,-0.5744587182998657,2.9999852180480957,-0.75251704454422,-2.9999992847442627,-0.1486135870218277,-0.1592666059732437,-0.16820113360881805,-0.17531315982341766,-0.24110569059848785,-0.22945842146873474,-0.1975724697113037,-0.14452020823955536
0.36666666666666664,0.037995345890522,0.15794584155082703,0.0,0.918119490146637,0.0,0.0,-0.3963036835193634,-0.7466056942939758,-0.6518383622169495,0.0,0.0,0.0,-2.5819268226623535,-0.39369770884513855,0.7692113518714905,0.420255571603775,0.9831655621528625,0.005724113434553146,-0.0014164095045998693,-0.18262167274951935,0.5896647572517395,0.728079617023468,-0.06363828480243683,-2.7098541259765625,1.379012942314148,-4.043151378631592,-0.3976576030254364,0.7747704982757568,0.42469343543052673,0.6338776350021362,0.6284536719322205,-0.07329797744750977,0.4798010587692261,0.7717067003250122,0.42000001668930054,-0.52445387840271,2.9993417263031006,-0.8025676012039185,-2.999727249145508,-0.1538669764995575,-0.16379153728485107,-0.1716585010290146,-0.17736230790615082,-0.3458606004714966,-0.27509766817092896,-0.18646925687789917,-0.0804508849978447
0.3833333333333333,0.02882358245551586,0.14495277404785156,0.0,0.9010137319564819,0.0,0.0,-0.43379053473472595,-0.47739771008491516,-0.8324795365333557,0.0,0.0,0.0,-5.777187347412109,-0.380848228931427,0.7845796942710876,0.42001333832740784,0.9781865477561951,0.00031503019272349775,-3.638837006292306e-05,-0.20772817730903625,0.9565686583518982,1.0739319324493408,0.011820876970887184,0.5660162568092346,-0.2729223072528839,-3.9651265144348145,-0.38471657037734985,0.7871215343475342,0.4244958758354187,1.0109237432479858,0.9590294361114502,0.0423102006316185,0.4798010587692261,0.7717067003250122,0.42000001668930054,-0.47444960474967957,2.9999842643737793,-0.8526207208633423,-2.9999961853027344,-0.16018842160701752,-0.16833148896694183,-0.17408797144889832,-0.1773742437362671,-0.375539094209671,-0.242670476436615,-0.09058484435081482,0.07883976399898529
0.4,0.02134949527680874,0.12930315732955933,0.0,0.8694260120391846,0.0,0.0,-0.49406319856643677,-0.4156076908111572,-0.9859281778335571,0.0,0.0,0.0,-8.983487129211426,-0.3540239632129669,0.8120754957199097,0.4227583110332489,0.9696993231773376,0.059917788952589035,-0.021439388394355774,-0.2358671873807907,2.925480365753174,1.8494688272476196,0.281436949968338,-10.748544692993164,-3.4324965476989746,-13.212676048278809,-0.3545401692390442,0.8116658926010132,0.4267929494380951,2.6963744163513184,2.0905585289001465,0.35082316398620605,0.4798010587692261,0.7717067003250122,0.42000001668930054,-0.42444589734077454,2.9521255493164062,-0.9026535749435425,-2.9944276809692383,-0.1689009964466095,-0.17397432029247284,-0.17640215158462524,-0.1761578917503357,-0.6145936846733093,-0.38989782333374023,-0.15407489240169525,0.08830105513334274
0.4166666666666667,0.015992261469364166,0.11915800720453262,0.0,0.8209889531135559,0.0,0.0,-0.57094407081604,-0.273129403591156,-0.4824569523334503,0.0,0.0,0.0,-11.699210166931152,-0.2844119966030121,0.8506349921226501,0.4301714599132538,0.9481368064880371,0.11494467407464981,-0.057122547179460526,-0.2907940745353699,5.622628688812256,2.759671926498413,0.6091572642326355,18.36626625061035,-16.84274673461914,3.1575546264648438,-0.2853711247444153,0.8510070443153381,0.43422549962997437,5.264176368713379,2.7067909240722656,0.6718189716339111,0.4798010587692261,0.7717067003250122,0.42000001668930054,-0.3921966850757599,1.136154055595398,-0.865294873714447,2.9982879161834717,-0.18485061824321747,-0.18664796650409698,-0.18369723856449127,-0.17827384173870087,-0.9253886938095093,-0.8484770059585571,-0.5222541093826294,-0.21574242413043976
0.43333333333333335,0.013788944110274315,0.11252637207508087,0.0,0.781274676322937,0.0,0.0,-0.6241873502731323,-0.06523243337869644,-0.37597522139549255,0.0,0.0,0.0,-6.704265117645264,-0.19417303800582886,0.8942727446556091,0.4433394968509674,0.9145566821098328,0.15415632724761963,-0.08247097581624985,-0.36471953988075256,5.937204837799072,2.23486590385437,0.8653160333633423,6.987999439239502,-10.657501220703125,0.29897400736808777,-0.19507302343845367,0.8957538604736328,0.44719138741493225,5.624588966369629,2.4413905143737793,0.8555140495300293,0.4798010587692261,0.7717067003250122,0.42000001668930054,-0.3731471300125122,1.207348346710205,-0.8917567729949951,-3.000000238418579,-0.1952599138021469,-0.19798706471920013,-0.1931832879781723,-0.18346437811851501,-0.5515055656433105,-0.5846383571624756,-0.5003804564476013,-0.2915346622467041
0.45,0.010314431972801685,0.10096527636051178,0.0,0.7607858180999756,0.0,0.0,-0.6490030288696289,-0.22196154296398163,-0.6079232096672058,0.0,0.0,0.0,-2.493865489959717,-0.09433706104755402,0.9276721477508545,0.45742636919021606,0.8590839505195618,0.1602245420217514,-0.09013199806213379,-0.47768086194992065,6.549283504486084,0.5431792736053467,0.9120962023735046,15.80536937713623,-11.94431209564209,22.509000778198242,-0.0959082841873169,0.9296927452087402,0.4606698453426361,6.386061668395996,1.4126091003417969,0.9033596515655518,0.4798010587692261,0.7717067003250122,0.42000001668930054,-0.35258084535598755,1.1370207071304321,-0.9417808055877686,-3.0000038146972656,-0.20287419855594635,-0.20491091907024384,-0.19802777469158173,-0.18468230962753296,-0.818596363067627,-0.6338025331497192,-0.399923175573349,-0.10870533436536789
0.4666666666666667,0.009366465732455254,0.09474640339612961,0.0,0.7329503297805786,0.0,0.0,-0.6802821755409241,-0.01738392375409603,-0.40173831582069397,0.0,0.0,0.0,-5.659641742706299,0.012412909418344498,0.9353909492492676,0.46857210993766785,0.8025703430175781,0.1502772718667984,-0.1100742369890213,-0.5667284727096558,6.47365140914917,-0.29013752937316895,0.8563452363014221,22.082914352416992,-12.401304244995117,13.477703094482422,0.010288466699421406,0.940761923789978,0.47269779443740845,6.42315673828125,0.04903651773929596,0.5759122371673584,0.4798010587692261,0.7717067003250122,0.42000001668930054,-0.33651986718177795,0.8354668617248535,-0.991804838180542,-3.000002384185791,-0.21730820834636688,-0.21660089492797852,-0.20511159300804138,-0.18660522997379303,-0.609333336353302,-0.5140098929405212,-0.26939669251441956,-0.0029244814068078995
0.48333333333333334,0.011356653645634651,0.09066204726696014,0.0,0.7200297713279724,0.0,0.0,-0.693943202495575,0.16047628223896027,-0.18553712964057922,0.0,0.0,0.0,-1.1327778100967407,0.116533562541008,0.9300233125686646,0.4768219590187073,0.7213901281356812,0.16329209506511688,-0.09508924931287766,-0.6662505865097046,5.478116035461426,-1.2872642278671265,0.4284452795982361,-7.441056251525879,11.093323707580566,33.62372589111328,0.1146838515996933,0.9355636835098267,0.47986888885498047,6.364717483520508,-0.7800774574279785,0.3673420250415802,0.4798010587692261,0.7717067003250122,0.42000001668930054,-0.3238709568977356,0.5918113589286804,-1.041828989982605,-2.9990901947021484,-0.2271636575460434,-0.22440999746322632,-0.2092205137014389,-0.1870313286781311,-0.5281854867935181,-0.3881395161151886,-0.19413258135318756,-0.021559230983257294
0.5,0.016057763248682022,0.08558502048254013,0.0,0.6983742713928223,0.0,0.0,-0.715732753276825,0.3313755989074707,-0.2956765294075012,0.0,0.0,0.0,-4.5255045890808105,0.2098667323589325,0.9110833406448364,0.4773617684841156,0.6544763445854187,0.1373991221189499,-0.10342113673686981,-0.7362650632858276,4.8954901695251465,-1.7003668546676636,-0.5119871497154236,-34.54244613647461,-2.7950005531311035,21.758176803588867,0.20798359811306,0.9182912111282349,0.481292724609375,5.206361770629883,-1.4791395664215088,0.025769028812646866,0.4798010587692261,0.7717067003250122,0.42000001668930054,-0.31591758131980896,0.2866770625114441,-1.0918511152267456,-2.9995505809783936,-0.23292917013168335,-0.22789110243320465,-0.2101188451051712,-0.18591724336147308,-0.3643816411495209,-0.19246463477611542,-0.03737698122859001,0.06779245287179947
0.5166666666666666,0.019015178084373474,0.0836365818977356,0.0,0.691022515296936,0.0,0.0,-0.7228332161903381,0.10542210936546326,-0.049898918718099594,0.0,0.0,0.0,-0.17617516219615936,0.28910496830940247,0.8801715970039368,0.4692513346672058,0.5702235698699951,0.049817703664302826,-0.1309347003698349,-0.8094561696052551,4.134521484375,-1.9775726795196533,-0.7736803293228149,-22.69466781616211,11.550954818725586,-0.7532765865325928,0.2863314151763916,0.8892451524734497,0.4761073589324951,4.335298538208008,-2.0024328231811523,-0.45671311020851135,0.4798010587692261,0.7717067003250122,0.42000001668930054,-0.30666911602020264,0.833861231803894,-1.1418732404708862,-2.999509334564209,-0.23883454501628876,-0.23077009618282318,-0.21070951223373413,-0.1852262318134308,-0.22497831284999847,-0.06576944887638092,0.02808479405939579,0.05653496831655502
0.5333333333333333,0.022810714319348335,0.07909683138132095,0.0,0.6752264499664307,0.0,0.0,-0.7376105189323425,0.2778962254524231,-0.3151959478855133,0.0,0.0,0.0,-3.4243297576904297,0.353852778673172,0.8453386425971985,0.4538477957248688,0.4965674877166748,-0.02026665396988392,-0.1450335830450058,-0.8555554151535034,3.4678049087524414,-2.3864331245422363,-1.1847894191741943,-18.064315795898438,15.612324714660645,-15.536893844604492,0.3522060513496399,0.8570939302444458,0.4631892442703247,3.603281021118164,-2.026693820953369,-0.9146245121955872,0.4798010587692261,0.7717067003250122,0.42000001668930054,-0.2902038097381592,1.0047365427017212,-1.1918953657150269,-2.9994451999664307,-0.23975440859794617,-0.22959567606449127,-0.20880666375160217,-0.18372571468353271,0.007285531144589186,0.11643757671117783,0.12912072241306305,0.0708666443824768
0.55,0.029252957552671432,0.07802476733922958,0.0,0.6722516417503357,0.0,0.0,-0.7403227090835571,0.4083503782749176,-0.02649008296430111,0.0,0.0,0.0,0.42622247338294983,0.40524423122406006,0.8095346689224243,0.4350072145462036,0.44416889548301697,-0.05981234833598137,-0.12782999873161316,-0.8847575187683105,2.460371732711792,-2.711230516433716,-0.9127189517021179,-0.7631405591964722,9.152749061584473,6.226164817810059,0.4052157402038574,0.8211513757705688,0.44471073150634766,2.7793126106262207,-2.1243789196014404,-1.2511823177337646,0.4798010587692261,0.7717067003250122,0.42000001668930054,-0.274026483297348,0.7244845032691956,-1.2419174909591675,-2.999819040298462,-0.23968146741390228,-0.228853240609169,-0.20818562805652618,-0.18442608416080475,0.07498237490653992,0.14458158612251282,0.08132516592741013,-0.048472173511981964
0.5666666666666667,0.03743990138173103,0.07982251048088074,0.0,0.6592855453491211,0.0,0.0,-0.7518926858901978,0.5316227674484253,0.1746770292520523,0.0,0.0,0.0,-3.002086877822876,0.44351670145988464,0.7871799468994141,0.4216449558734894,0.42951735854148865,-0.02058485709130764,-0.0009429090423509479,-0.9028233885765076,1.6831846237182617,-0.9146653413772583,0.11639323830604553,-17.592323303222656,2.5794835090637207,3.5678186416625977,0.4436858594417572,0.7949638366699219,0.429398775100708,1.511269450187683,-0.8962558507919312,-0.1226380467414856,0.4798010587692261,0.7717067003250122,0.42000001668930054,-0.2665165066719055,0.3260461688041687,-1.2919398546218872,-2.9916255474090576,-0.23436088860034943,-0.22415997087955475,-0.2061033844947815,-0.18575029075145721,0.4808211624622345,0.3800402581691742,0.1700931191444397,-0.07480870932340622
0.5833333333333334,0.047284528613090515,0.076803058385849,0.0,0.658542275428772,0.0,0.0,-0.7525437474250793,0.5534422397613525,-0.18300257623195648,0.0,0.0,0.0,0.8022646307945251,0.4668896794319153,0.7753728032112122,0.4211706221103668,0.4152209162712097,-0.011083508841693401,0.02645276114344597,-0.9092683792114258,0.717756450176239,-0.5257632732391357,0.12708398699760437,4.385903835296631,4.60874605178833,1.0154945850372314,0.4645789563655853,0.7820851802825928,0.426939457654953,0.8473658561706543,-0.5230687260627747,0.16830284893512726,0.4798010587692261,0.7717067003250122,0.42000001668930054,-0.25343456864356995,1.232347011566162,-1.3419153690338135,-2.9997365474700928,-0.22179509699344635,-0.21384939551353455,-0.1998085230588913,-0.1839764565229416,0.7071306705474854,0.5862013101577759,0.36274799704551697,0.11024598032236099
0.6,0.058595865964889526,0.07788153737783432,0.0,0.6468127369880676,0.0,0.0,-0.76264888048172,0.7213119864463806,0.08050573617219925,0.0,0.0,0.0,-2.76476788520813,0.47808775305747986,0.769793689250946,0.42109405994415283,0.44713589549064636,-0.01131455134600401,0.02478158101439476,-0.8940510749816895,0.5067048668861389,-0.449992299079895,0.028190726414322853,1.0130939483642578,3.249208927154541,3.4229114055633545,0.476107656955719,0.7768425941467285,0.4262743294239044,0.6323758363723755,-0.16959241032600403,-0.06497105956077576,0.4798010587692261,0.7717067003250122,0.42000001668930054,-0.27056312561035156,-2.4825220108032227,-1.303623914718628,2.9995040893554688,-0.210776686668396,-0.20527707040309906,-0.19524724781513214,-0.183803990483284,0.7519955635070801,0.5681224465370178,0.29978516697883606,0.015991436317563057
0.6166666666666667,0.06763163208961487,0.08115392178297043,0.0,0.6476409435272217,0.0,0.0,-0.7619456648826599,0.44855996966362,0.23868867754936218,0.0,0.0,0.0,1.039018154144287,0.48388269543647766,0.764004647731781,0.4202682673931122,0.479829877614975,-0.004901158157736063,-0.0035009279381483793,-0.8773407936096191,0.1110655814409256,-0.12312937527894974,-0.003478613682091236,0.09416914731264114,-0.7836925983428955,2.9423165321350098,0.48043981194496155,0.7742394804954529,0.4280722141265869,-0.0020650476217269897,-0.0691773071885109,0.1916363388299942,0.4798010587692261,0.7717067003250122,0.42000001668930054,-0.3197093605995178,-2.995779514312744,-1.3230973482131958,-2.996819496154785,-0.19875772297382355,-0.19617913663387299,-0.1903189867734909,-0.18322785198688507,0.7241983413696289,0.5535765886306763,0.31495240330696106,0.06798197329044342
0.6333333333333333,0.07638223469257355,0.08164052665233612,0.0,0.6374245882034302,0.0,0.0,-0.7705127596855164,0.5507828593254089,-0.017652804031968117,0.0,0.0,0.0,-2.5439400672912598,0.4842282831668854,0.7642214298248291,0.4200109839439392,0.5083879232406616,0.00010200402903137729,-0.000267085328232497,-0.8611280918121338,-0.06288617849349976,0.13130459189414978,0.009794458746910095,-0.24335825443267822,-0.45860955119132996,4.410432815551758,0.48078370094299316,0.777082085609436,0.43116921186447144,-0.035747211426496506,0.2783917486667633,0.19478030502796173,0.4798010587692261,0.7717067003250122,0.42000001668930054,-0.36333006620407104,-2.2585692405700684,-1.3730604648590088,-2.9990296363830566,-0.18541309237480164,-0.18596071004867554,-0.18419259786605835,-0.18124079704284668,0.7755664587020874,0.5977290272712708,0.36803072690963745,0.13663436472415924
0.65,0.08759253472089767,0.0853741392493248,0.0,0.6394801735877991,0.0,0.0,-0.768807590007782,0.6852227449417114,0.2480964958667755,0.0,0.0,0.0,1.228650450706482,0.4833860695362091,0.7657962441444397,0.42000001668930054,0.5244587063789368,5.818739737151191e-06,1.8378250388195738e-05,-0.8514357805252075,-0.05254477262496948,0.08796727657318115,-0.00037756614619866014,-0.017236558720469475,-0.019460462033748627,1.0744696855545044,0.4787188768386841,0.7798267602920532,0.4342629313468933,-0.09884510934352875,0.20037025213241577,0.19568097591400146,0.4798010587692261,0.7717067003250122,0.42000001668930054,-0.4125257730484009,-2.9999608993530273,-1.423058032989502,-2.9999794960021973,-0.17625075578689575,-0.17906668782234192,-0.1803635209798813,-0.1805454045534134,0.5773028135299683,0.4305928647518158,0.24373431503772736,0.05578615888953209
0.6666666666666666,0.10035977512598038,0.085262231528759,0.0,0.6633720993995667,0.0,0.0,-0.7482896447181702,0.8024097084999084,-0.034921348094940186,0.0,0.0,0.0,4.726806640625,0.48274287581443787,0.7666414380073547,0.42001742124557495,0.5246266722679138,0.00023265084018930793,-0.0003847736516036093,-0.8513322472572327,-0.0705312043428421,0.04928102344274521,0.018565211445093155,-0.41519877314567566,-0.8323919773101807,-0.5494461059570312,0.47780054807662964,0.7824596166610718,0.4376501142978668,-0.09996166080236435,0.10062867403030396,0.20898360013961792,0.4798010587692261,0.7717067003250122,0.42000001668930054,-0.4625653624534607,-2.9980905055999756,-1.473029613494873,-2.999434232711792,-0.16597136855125427,-0.17087219655513763,-0.174814835190773,-0.17764483392238617,0.4477646052837372,0.3780137598514557,0.2776082754135132,0.17401400208473206
0.6833333333333333,0.11025317013263702,0.08157667517662048,0.0,0.6734470725059509,0.0,0.0,-0.7392354607582092,0.5089381337165833,-0.27803483605384827,0.0,0.0,0.0,0.5784028768539429,0.4820460081100464,0.7670670747756958,0.420004665851593,0.5203909873962402,-1.640663299440348e-06,0.00010981650848407298,-0.8539280891418457,-0.03815550357103348,0.0193215049803257,-0.008197574876248837,-0.21629230678081512,-0.25571852922439575,-0.7172586917877197,0.47710227966308594,0.7840511798858643,0.44176483154296875,-0.06537500023841858,0.0371972993016243,0.2703581750392914,0.4798010587692261,0.7717067003250122,0.42000001668930054,-0.5125543475151062,-2.998746871948242,-1.5230000019073486,-2.9999806880950928,-0.16089104115962982,-0.16591960191726685,-0.17033082246780396,-0.17361772060394287,0.23854441940784454,0.27327263355255127,0.29517510533332825,0.3203471601009369
0.7,0.119998499751091,0.07472547143697739,0.0,0.6611131429672241,0.0,0.0,-0.7502862215042114,0.6217682957649231,-0.473292738199234,0.0,0.0,0.0,-2.8716039657592773,0.4820241928100586,0.7670792937278748,0.4200000464916229,0.520286500453949,-2.065220314761973e-06,-3.2697071219445206e-06,-0.8539918065071106,7.37821392249316e-06,-0.00016963720554485917,-7.702293805778027e-05,0.002524755196645856,-0.0023629909846931696,-0.0007571598398499191,0.48091936111450195,0.7867792844772339,0.4517782926559448,0.48546165227890015,0.2220565378665924,1.0288724899291992,0.4798010587692261,0.7717067003250122,0.42000001668930054,-0.5625666379928589,-2.9999802112579346,-1.5730175971984863,-2.999999523162842,-0.15918391942977905,-0.16332967579364777,-0.16695408523082733,-0.16935263574123383,0.025843650102615356,0.09308996051549911,0.1598045527935028,0.2342749983072281
0.7166666666666667,0.1338634490966797,0.07358606159687042,0.0,0.6260070204734802,0.0,0.0,-0.7798174023628235,0.9151843190193176,0.06887421011924744,0.0,0.0,0.0,-6.548007488250732,0.482024222612381,0.7670792937278748,0.41999998688697815,0.5202866792678833,-3.2574564556853147e-06,-3.5105101687804563e-06,-0.853991687297821,-7.043222285574302e-05,-0.00030399742536246777,-8.600461296737194e-05,0.008287080563604832,-0.0036036577075719833,-0.0007648951141163707,0.4964286983013153,0.7863566875457764,0.47522786259651184,1.4655213356018066,-0.2600969970226288,1.8883693218231201,0.4798010587692261,0.7717067003250122,0.42000001668930054,-0.6125773787498474,-2.999873161315918,-1.6230320930480957,-2.999985933303833,-0.16734248399734497,-0.16879510879516602,-0.16975411772727966,-0.16946789622306824,-0.6781212091445923,-0.4788024425506592,-0.2793771028518677,-0.08057306706905365
0.7333333333333333,0.14381353557109833,0.07570140808820724,0.0,0.6044695377349854,0.0,0.0,-0.7966282367706299,0.5024866461753845,-0.0005842723185196519,0.0,0.0,0.0,-2.0177342891693115,0.482024222612381,0.7670792937278748,0.41999998688697815,0.5202865600585938,-3.1375491289509227e-06,-3.3585006349312607e-06,-0.8539917469024658,-7.068151899147779e-05,-0.0003049698716495186,-8.651847019791603e-05,0.00830776710063219,-0.0036105006001889706,-0.0007679497357457876,0.519045352935791,0.7859948873519897,0.5077555775642395,1.3248686790466309,0.15842364728450775,1.981452226638794,0.4798010587692261,0.7717067003250122,0.42000001668930054,-0.6310971975326538,0.4891582727432251,-1.673046588897705,-3.000000238418579,-0.17451871931552887,-0.1739157736301422,-0.17277149856090546,-0.17036382853984833,-0.10736413300037384,-0.08015739917755127,-0.04526415094733238,-0.004398295655846596
0.75,0.14869868755340576,0.07739415764808655,0.0,0.6096394062042236,0.0,0.0,-0.7926788330078125,0.22335383296012878,0.15436583757400513,0.0,0.0,0.0,1.6250836849212646,0.482024222612381,0.7670792937278748,0.41999998688697815,0.5202866196632385,-3.211604962416459e-06,-3.572286914277356e-06,-0.8539916276931763,-6.871135701658204e-05,-0.00030397786758840084,-8.535687811672688e-05,0.008291861042380333,-0.003595935180783272,-0.0007674755179323256,0.5386797189712524,0.7887921333312988,0.5337377786636353,0.9440402388572693,0.1763947606086731,1.2342262268066406,0.4798010587692261,0.7717067003250122,0.42000001668930054,-0.6003352999687195,2.9594695568084717,-1.6338269710540771,2.9999988079071045,-0.17483244836330414,-0.17393459379673004,-0.17235755920410156,-0.1694382131099701,0.04385070130228996,0.057213764637708664,0.077357217669487,0.09936340898275375
0.7666666666666666,0.1498008817434311,0.07551498711109161,0.0,0.6034456491470337,0.0,0.0,-0.7974041700363159,0.04728032276034355,-0.1703963577747345,0.0,0.0,0.0,-1.80320143699646,0.482024222612381,0.7670792937278748,0.41999998688697815,0.520286500453949,-3.1387987746711588e-06,-3.412666274016374e-06,-0.853991687297821,-7.061753422021866e-05,-0.00030495403916575015,-8.648866787552834e-05,0.00830758921802044,-0.0036099364515393972,-0.000767986464779824,0.547524631023407,0.7929781079292297,0.5492751598358154,0.09789729863405228,0.22972159087657928,0.772532045841217,0.4798010587692261,0.7717067003250122,0.42000001668930054,-0.5728962421417236,0.522290825843811,-1.583770513534546,2.9999992847442627,-0.17243966460227966,-0.17153558135032654,-0.16987678408622742,-0.16689340770244598,0.08055750280618668,0.0977572575211525,0.11506249010562897,0.12572745978832245
0.7833333333333333,0.1486539989709854,0.0786372721195221,0.0,0.6100975871086121,0.0,0.0,-0.7923262715339661,-0.1152757927775383,0.3214878439903259,0.0,0.0,0.0,1.9008400440216064,0.48202425241470337,0.7670792937278748,0.41999998688697815,0.520286500453949,-3.1151234907156322e-06,-3.5580289932113374e-06,-0.8539917469024658,-6.814712833147496e-05,-0.00030395484645850956,-8.512544445693493e-05,0.008293474093079567,-0.003594915382564068,-0.0007682573050260544,0.5471067428588867,0.794577956199646,0.5597952008247375,-0.10152647644281387,0.0975801944732666,0.5282406806945801,0.4798010587692261,0.7717067003250122,0.42000001668930054,-0.5438891649246216,2.7413594722747803,-1.5980892181396484,-2.999999761581421,-0.17622722685337067,-0.17398467659950256,-0.17110109329223633,-0.1671527475118637,-0.2762851119041443,-0.1920345425605774,-0.11638414859771729,-0.0584535114467144
0.8,0.14997965097427368,0.07889986038208008,0.0,0.6045747995376587,0.0,0.0,-0.7965483665466309,0.062009166926145554,0.06745292991399765,0.0,0.0,0.0,-1.496665120124817,0.482024222612381,0.7670792937278748,0.41999998688697815,0.5202863812446594,-3.0900148431101115e-06,-3.5820617085846607e-06,-0.8539918065071106,-6.890159420436248e-05,-0.00030405205325223505,-8.540763519704342e-05,0.008294349536299706,-0.003599409945309162,-0.0007673588115721941,0.5390006303787231,0.797199010848999,0.5618250370025635,-0.963901162147522,0.12386826425790787,-0.10245059430599213,0.4798010587692261,0.7717067003250122,0.42000001668930054,-0.5356682538986206,-1.4045854806900024,-1.559085726737976,3.000000238418579,-0.17726640403270721,-0.17433257400989532,-0.17084737122058868,-0.1665228009223938,-0.19722719490528107,-0.1264827698469162,-0.06287377327680588,-0.015485811978578568
0.8166666666666667,0.15222425758838654,0.07872069627046585,0.0,0.6113488674163818,0.0,0.0,-0.7913612127304077,0.16320177912712097,-0.06527373194694519,0.0,0.0,0.0,1.7894184589385986,0.48202425241470337,0.7670792937278748,0.41999998688697815,0.520286500453949,-3.1827019029151415e-06,-3.609592113207327e-06,-0.8539918065071106,-6.92570029059425e-05,-0.00030503683956339955,-8.608936332166195e-05,0.008311554789543152,-0.0036045771557837725,-0.0007707036565989256,0.5288152694702148,0.7991073131561279,0.5595308542251587,-0.3198370337486267,0.14568299055099487,-0.09802714735269547,0.4798010587692261,0.7717067003250122,0.42000001668930054,-0.5392736196517944,0.783845841884613,-1.5739705562591553,-2.9999988079071045,-0.17926782369613647,-0.17550669610500336,-0.17116042971611023,-0.16609051823616028,-0.03293070197105408,-0.002955374540761113,0.03534308820962906,0.07344745099544525
0.8333333333333334,0.15632188320159912,0.07558821141719818,0.0,0.605665922164917,0.0,0.0,-0.7957190275192261,0.2903303802013397,-0.24606724083423615,0.0,0.0,0.0,-1.73251211643219,0.48202425241470337,0.7670792937278748,0.41999998688697815,0.5202866792678833,-3.251461293984903e-06,-3.6432593333302066e-06,-0.8539916276931763,-6.801111885579303e-05,-0.00030423718271777034,-8.525466546416283e-05,0.0082986019551754,-0.003596073016524315,-0.000769660749938339,0.5252852439880371,0.8000768423080444,0.5563166737556458,-0.0723491907119751,-0.043203745037317276,-0.11702192574739456,0.4798010587692261,0.7717067003250122,0.42000001668930054,-0.5660410523414612,-3.0000007152557373,-1.5350350141525269,3.000000238418579,-0.1806330531835556,-0.17625921964645386,-0.17109471559524536,-0.1651427000761032,-0.08397271484136581,-0.041635431349277496,0.015100523829460144,0.07795476913452148
0.85,0.16320988535881042,0.07459057867527008,0.0,0.5817861557006836,0.0,0.0,-0.8133417963981628,0.46443411707878113,0.005348776467144489,0.0,0.0,0.0,-4.811672687530518,0.482024222612381,0.7670792937278748,0.41999998688697815,0.5202865600585938,-3.1628799206373515e-06,-3.656923581729643e-06,-0.8539917469024658,-6.95666967658326e-05,-0.0003042288590222597,-8.574198000133038e-05,0.0082957549020648,-0.0036036730743944645,-0.0007669376791454852,0.5279418230056763,0.7988393306732178,0.5560922622680664,0.4007546007633209,-0.16732536256313324,0.20207282900810242,0.4798010587692261,0.7717067003250122,0.42000001668930054,-0.6113678812980652,-2.447421073913574,-1.5504837036132812,-2.9999935626983643,-0.18244825303554535,-0.177718847990036,-0.1718408316373825,-0.1649516075849533,-0.10890227556228638,-0.0920514166355133,-0.05169178918004036,0.004907091148197651
0.8666666666666667,0.17241784930229187,0.07722476869821548,0.0,0.5705627799034119,0.0,0.0,-0.8212539553642273,0.5886933207511902,0.22166676819324493,0.0,0.0,0.0,-0.655947744846344,0.482024222612381,0.7670792937278748,0.41999998688697815,0.5202868580818176,-3.199253342245356e-06,-3.56861073669279e-06,-0.8539914488792419,-6.887817289680243e-05,-0.0003039703005924821,-8.541462011635303e-05,0.008291306905448437,-0.0035962744150310755,-0.0007671679486520588,0.5330221056938171,0.7985963821411133,0.5599800944328308,0.17869971692562103,0.09993143379688263,0.26177117228507996,0.4798010587692261,0.7717067003250122,0.42000001668930054,-0.6222344636917114,0.8628062605857849,-1.6005020141601562,-2.999999523162842,-0.1836041957139969,-0.17907847464084625,-0.1730775386095047,-0.1658400297164917,-0.01401692908257246,-0.050459202378988266,-0.07283525168895721,-0.08565237373113632
0.8833333333333333,0.17764714360237122,0.07456881552934647,0.0,0.58527672290802,0.0,0.0,-0.8108335733413696,0.32398858666419983,-0.21168489754199982,0.0,0.0,0.0,2.814049005508423,0.48202425241470337,0.7670792937278748,0.41999998688697815,0.520286500453949,-3.1215386115945876e-06,-3.6750138860952575e-06,-0.8539917469024658,-6.770368781872094e-05,-0.00030395432258956134,-8.495268411934376e-05,0.008295050822198391,-0.003594463225454092,-0.0007689573685638607,0.5349797010421753,0.8034873008728027,0.5625602006912231,-0.002899596467614174,0.25675642490386963,0.02317826822400093,0.4798010587692261,0.7717067003250122,0.42000001668930054,-0.6079935431480408,0.8385441303253174,-1.5614869594573975,3.0000009536743164,-0.17734214663505554,-0.17434516549110413,-0.16969287395477295,-0.1636558324098587,0.23222392797470093,0.1775926947593689,0.1250104457139969,0.07250764220952988
0.9,0.18045704066753387,0.07566970586776733,0.0,0.5851786732673645,0.0,0.0,-0.8109043836593628,0.09401319921016693,0.11099734157323837,0.0,0.0,0.0,-0.9197733402252197,0.48202425241470337,0.7670792937278748,0.41999998688697815,0.5202866792678833,-3.2551254207646707e-06,-3.688974629767472e-06,-0.8539915680885315,-6.778378156013787e-05,-0.0003042250173166394,-8.51654913276434e-05,0.008298956789076328,-0.003595231333747506,-0.0007699765847064555,0.5326137542724609,0.8054057359695435,0.5592883229255676,-0.15114888548851013,0.1038803979754448,-0.27567142248153687,0.4798010587692261,0.7717067003250122,0.42000001668930054,-0.6176425814628601,-1.7619730234146118,-1.5114305019378662,2.9999983310699463,-0.17778408527374268,-0.1749393194913864,-0.17049577832221985,-0.16476428508758545,0.05521177873015404,0.022227073088288307,-0.013033391907811165,-0.051823653280735016
