vladlanda/robotic-transformer/data/env_000_episode_0080.csv
sim_time_s,robot_box_x,robot_box_y,robot_box_z,robot_box_quat_w,robot_box_quat_x,robot_box_quat_y,robot_box_quat_z,robot_box_linvel_x,robot_box_linvel_y,robot_box_linvel_z,robot_box_angvel_x,robot_box_angvel_y,robot_box_angvel_z,cube_world_x,cube_world_y,cube_world_z,cube_quat_w,cube_quat_x,cube_quat_y,cube_quat_z,cube_linvel_x,cube_linvel_y,cube_linvel_z,cube_angvel_x,cube_angvel_y,cube_angvel_z,endpoint_world_x,endpoint_world_y,endpoint_world_z,endpoint_linvel_x,endpoint_linvel_y,endpoint_linvel_z,target_cube_world_x,target_cube_world_y,target_cube_world_z,gripper_actual_pos_rad_gp_leftgearjoint,gripper_actual_vel_rad_s_gp_leftgearjoint,gripper_actual_pos_rad_gp_rotatingjoint,gripper_actual_vel_rad_s_gp_rotatingjoint,motor_angle_rad_joint1,motor_angle_rad_joint2,motor_angle_rad_joint3,motor_angle_rad_joint4,motor_speed_rad_s_joint1,motor_speed_rad_s_joint2,motor_speed_rad_s_joint3,motor_speed_rad_s_joint4
0.0,0.0,0.0,0.0,1.0,0.0,0.0,0.0,0.0,0.0,0.0,0.0,0.0,0.0,-0.36530205607414246,0.6594980359077454,0.41999998688697815,1.0,0.0,0.0,0.0,0.0,0.0,0.0,0.0,0.0,0.0,3.42540442943573e-06,-0.005000244826078415,1.313499927520752,0.0,0.0,0.0,0.3816932141780853,0.6607868075370789,0.42000001668930054,-1.5707999467849731,0.0,0.0,0.0,0.0,0.0,0.0,0.0,0.0,0.0,0.0,0.0
0.016666666666666666,0.0028810540679842234,0.002176986774429679,0.0,0.9998154640197754,0.0,0.0,0.019211778417229652,0.24096320569515228,0.18227729201316833,0.0,0.0,0.0,3.141801118850708,-0.365302175283432,0.6594977378845215,0.41999998688697815,1.0,3.279964630564791e-06,-8.339746386809566e-07,8.465587342243452e-08,-1.9833529222523794e-05,0.00017983045836444944,-6.132945418357849e-05,0.0009432713268324733,-0.004689474124461412,-0.00031981561915017664,-0.00710899755358696,0.0033890758641064167,1.315938115119934,-0.8140122890472412,0.9872292280197144,0.1809602528810501,0.3816932141780853,0.6607868075370789,0.42000001668930054,-1.5301094055175781,2.9999983310699463,-0.045848820358514786,-3.0000016689300537,0.0008701291517354548,0.0007967835408635437,0.0007113568717613816,0.0006112123955972493,0.1109505146741867,0.09758849442005157,0.0833650603890419,0.06825954467058182
0.03333333333333333,0.00896476674824953,0.006796184927225113,0.0,0.9998035430908203,0.0,0.0,0.019821682944893837,0.4070589244365692,0.3151872456073761,0.0,0.0,0.0,-0.8690786361694336,-0.36530229449272156,0.6594976782798767,0.4200000464916229,1.0,3.3908179375430336e-06,-2.132458348569344e-06,-3.7097745320124886e-08,0.00026357852038927376,0.00026937833172269166,-0.00010509369894862175,-0.0017707126680761576,0.004130884539335966,-0.0001354814594378695,-0.027533557265996933,0.026108145713806152,1.3166141510009766,-1.5904085636138916,1.6168863773345947,-0.0829191505908966,0.3816932141780853,0.6607868075370789,0.42000001668930054,-1.4800900220870972,2.999999761581421,-0.0958886593580246,-3.000000238418579,0.002990448847413063,0.002652751747518778,0.002277323277667165,0.001860830932855606,0.16417285799980164,0.13973213732242584,0.1137956827878952,0.08628074079751968
0.05,0.018474377691745758,0.01389596238732338,0.0,0.9999749660491943,0.0,0.0,-0.007074511609971523,0.636208176612854,0.4722095727920532,0.0,0.0,0.0,-4.074029445648193,-0.36530232429504395,0.6594977378845215,0.4200000464916229,1.0,3.7651902857760433e-06,-2.2119197637948673e-06,5.609367637049445e-09,0.00026530938339419663,0.00026691678795032203,-0.00010440615005791187,-0.0017243892652913928,0.004177466034889221,-0.00012949809024576098,-0.05719966068863869,0.05686657875776291,1.3120744228363037,-1.9550732374191284,2.0057482719421387,-0.4420226812362671,0.3816932141780853,0.6607868075370789,0.42000001668930054,-1.4300717115402222,2.999999523162842,-0.14590628445148468,-3.0000016689300537,0.006012030877172947,0.005173156503587961,0.004261943977326155,0.0032740794122219086,0.20706520974636078,0.16676072776317596,0.12453044950962067,0.0802992731332779
0.06666666666666667,0.030783647671341896,0.023382116109132767,0.0,0.9998789429664612,0.0,0.0,-0.015561006031930447,0.7724395394325256,0.616032063961029,0.0,0.0,0.0,-0.03887929394841194,-0.36530232429504395,0.6594976782798767,0.4200000464916229,0.9999999403953552,3.406832092878176e-06,-2.28558906201215e-06,4.300801492718165e-07,0.0002670248504728079,0.0002679176686797291,-0.0001043803058564663,-0.00174071139190346,0.00421183044090867,-0.00012850876373704523,-0.09458696842193604,0.08926089107990265,1.3015092611312866,-2.3767213821411133,2.0481526851654053,-0.8155763745307922,0.3816932141780853,0.6607868075370789,0.42000001668930054,-1.3800441026687622,2.9999988079071045,-0.11556582152843475,3.000000238418579,0.008712315000593662,0.007158295717090368,0.005491204559803009,0.003707220545038581,0.14901995658874512,0.09847710281610489,0.04580165445804596,-0.00910154264420271
0.08333333333333333,0.03781013563275337,0.030377905815839767,0.0,0.9992268085479736,0.0,0.0,-0.039315804839134216,0.22169865667819977,0.33179667592048645,0.0,0.0,0.0,-3.8126471042633057,-0.36530232429504395,0.6594976782798767,0.4200000464916229,0.9999999403953552,3.626166289905086e-06,-2.3353043161478126e-06,3.032100153177453e-07,0.00026614085072651505,0.0002668516826815903,-0.00010405341163277626,-0.001728349830955267,0.004196455702185631,-0.0001279077841900289,-0.12901568412780762,0.12756691873073578,1.2860006093978882,-1.7999095916748047,2.546656608581543,-0.9876940846443176,0.3816932141780853,0.6607868075370789,0.42000001668930054,-1.3300364017486572,3.0000011920928955,-0.1475769728422165,-3.0000011920928955,0.005619525443762541,0.003290923312306404,0.0007970115402713418,-0.0018698234343901277,-0.35428959131240845,-0.41045260429382324,-0.46953263878822327,-0.5318030714988708
0.1,0.047118645161390305,0.040352433919906616,0.0,0.9957015514373779,0.0,0.0,-0.09261966496706009,0.5656403303146362,0.5998486280441284,0.0,0.0,0.0,-7.213216304779053,-0.36530232429504395,0.6594976782798767,0.4200000464916229,1.0,3.4222334761579987e-06,-2.3086047349352157e-06,1.796183539681806e-07,0.0002668157103471458,0.00026800340856425464,-0.00010440708138048649,-0.0017429988365620375,0.004207124002277851,-0.00012891183723695576,-0.15976351499557495,0.1761254072189331,1.2638523578643799,-1.9471495151519775,3.1618590354919434,-1.5540900230407715,0.3816932141780853,0.6607868075370789,0.42000001668930054,-1.2800171375274658,2.9999895095825195,-0.11405417323112488,3.0000016689300537,0.0030298091005533934,-0.0005812178133055568,-0.004370121285319328,-0.008347602561116219,-0.2634144425392151,-0.32339420914649963,-0.38457542657852173,-0.4470978379249573
0.11666666666666667,0.05495624244213104,0.052060067653656006,0.0,0.9925079941749573,0.0,0.0,-0.12217991054058075,0.4321143329143524,0.7277350425720215,0.0,0.0,0.0,-2.337015151977539,-0.36530232429504395,0.6594977378845215,0.4200000464916229,1.0,3.7116215025889687e-06,-2.3326904283749172e-06,2.5741752551766695e-07,0.00026485833222977817,0.0002663549967110157,-0.00010423408821225166,-0.0017181988805532455,0.004170059692114592,-0.00012915713887196034,-0.19857338070869446,0.22312557697296143,1.2377004623413086,-2.374739170074463,2.8566081523895264,-1.634798288345337,0.3816932141780853,0.6607868075370789,0.42000001668930054,-1.2300233840942383,2.999999523162842,-0.14603058993816376,-2.9999992847442627,0.0005260861944407225,-0.004558471031486988,-0.00979442149400711,-0.015191974118351936,-0.12322679907083511,-0.2208520770072937,-0.3157067894935608,-0.40770116448402405
0.13333333333333333,0.06023724749684334,0.061635956168174744,0.0,0.9868330359458923,0.0,0.0,-0.16174212098121643,0.25806596875190735,0.5179585814476013,0.0,0.0,0.0,-5.6272873878479,-0.36530232429504395,0.6594976782798767,0.4200000464916229,1.0,3.3357862321281573e-06,-2.231929329354898e-06,3.1130659294831275e-07,0.00026669795624911785,0.00026759557658806443,-0.00010428577661514282,-0.0017371183494105935,0.004205892328172922,-0.00012840361159760505,-0.23467479646205902,0.2758029103279114,1.2079122066497803,-1.8966978788375854,3.5050697326660156,-1.9274022579193115,0.3816932141780853,0.6607868075370789,0.42000001668930054,-1.180004596710205,2.999997615814209,-0.11250581592321396,2.9999990463256836,-0.002123798243701458,-0.009013954550027847,-0.015991682186722755,-0.023065535351634026,-0.2210407704114914,-0.3290545344352722,-0.4329957365989685,-0.532767653465271
0.15,0.06988289952278137,0.06707079708576202,0.0,0.9781935214996338,0.0,0.0,-0.2076956033706665,0.5743682384490967,0.27311569452285767,0.0,0.0,0.0,-5.24798583984375,-0.36530232429504395,0.6594976782798767,0.4200000464916229,1.0,3.5189802929380676e-06,-2.2830829493614146e-06,-3.625531803663762e-07,0.00026618537958711386,0.0002673575363587588,-0.00010425481013953686,-0.0017349323024973273,0.004195748828351498,-0.0001286051847273484,-0.26802384853363037,0.3344910740852356,1.1699942350387573,-1.9247732162475586,3.767125129699707,-2.662109375,0.3816932141780853,0.6607868075370789,0.42000001668930054,-1.1362171173095703,2.2783329486846924,-0.14452026784420013,-3.0000007152557373,-0.004523137118667364,-0.013058507815003395,-0.0216111708432436,-0.030188925564289093,-0.3708653748035431,-0.4267149567604065,-0.4803425669670105,-0.531741201877594
0.16666666666666666,0.07383213192224503,0.07480387389659882,0.0,0.9735034704208374,0.0,0.0,-0.22867219150066376,0.22299598157405853,0.4685625433921814,0.0,0.0,0.0,-0.88981693983078,-0.36530232429504395,0.6594976782798767,0.4200000464916229,1.0,3.666678594527184e-06,-2.3391096419800306e-06,-3.150171608012897e-07,0.00026595700182951987,0.0002666723739821464,-0.00010403268970549107,-0.0017252295510843396,0.0041927071288228035,-0.00012778618838638067,-0.3036084771156311,0.3921756148338318,1.1169235706329346,-2.014899969100952,3.537374496459961,-3.5269556045532227,0.3816932141780853,0.6607868075370789,0.42000001668930054,-1.0873466730117798,2.999999761581421,-0.19454804062843323,-2.999998092651367,-0.016544930636882782,-0.025117162615060806,-0.033695038408041,-0.04229540005326271,-0.6497660279273987,-0.6566122770309448,-0.6613343358039856,-0.6643714308738708
0.18333333333333332,0.07536544650793076,0.08224255591630936,0.0,0.9667412638664246,0.0,0.0,-0.2557564079761505,0.04005885869264603,0.43808919191360474,0.0,0.0,0.0,-4.2029290199279785,-0.36530232429504395,0.6594976782798767,0.4200000464916229,1.0,3.814429419435328e-06,-2.399473942205077e-06,-2.702885524286103e-07,0.0002654908748809248,0.00026611171779222786,-0.00010391091927886009,-0.0017177866538986564,0.00418477039784193,-0.00012754213821608573,-0.3337777256965637,0.45337074995040894,1.0527331829071045,-1.5328178405761719,3.726968765258789,-4.137233734130859,0.3816932141780853,0.6607868075370789,0.42000001668930054,-1.0373398065567017,3.000001907348633,-0.2445751428604126,-2.9999990463256836,-0.028828846290707588,-0.037407036870718,-0.045950569212436676,-0.05448548123240471,-0.7909646034240723,-0.7839593291282654,-0.7747693657875061,-0.7639464735984802
0.2,0.08137769252061844,0.09067391604185104,0.0,0.9505311250686646,0.0,0.0,-0.310629278421402,0.46970972418785095,0.5477588772773743,0.0,0.0,0.0,-7.779374122619629,-0.36530232429504395,0.6594976782798767,0.4200000464916229,1.0,3.600096079026116e-06,-2.2911845007911325e-06,-2.2019764855940593e-07,0.00026572897331789136,0.0002664489147718996,-0.00010398100130259991,-0.0017226696945726871,0.004188799764961004,-0.00012773496564477682,-0.35528621077537537,0.5197951793670654,0.9757225513458252,-0.9334503412246704,4.036299228668213,-4.986460208892822,0.3816932141780853,0.6607868075370789,0.42000001668930054,-0.9873329401016235,2.9999983310699463,-0.29460346698760986,-2.9999992847442627,-0.04079383611679077,-0.04929078370332718,-0.05771296098828316,-0.06609512120485306,-0.7315179705619812,-0.7167456746101379,-0.7001037001609802,-0.6820816397666931
0.21666666666666667,0.08446095883846283,0.09652532637119293,0.0,0.9374459385871887,0.0,0.0,-0.3481309711933136,0.062497880309820175,0.3897073268890381,0.0,0.0,0.0,-3.5078890323638916,-0.36530232429504395,0.6594976782798767,0.4200000464916229,0.9999999403953552,3.6396977520780638e-06,-2.2619728952122387e-06,2.224548865115139e-07,0.000266873772488907,0.0002675457508303225,-0.00010411953553557396,-0.0017404764657840133,0.004211100284010172,-0.00012783778947778046,-0.3729523718357086,0.5760962963104248,0.8867549896240234,-0.6400197744369507,3.116091251373291,-5.714102745056152,0.3816932141780853,0.6607868075370789,0.42000001668930054,-0.9373222589492798,3.000000238418579,-0.3446337580680847,-3.000000476837158,-0.056568071246147156,-0.0645526647567749,-0.0720759928226471,-0.07960865646600723,-0.9876230359077454,-0.9898812174797058,-0.9902070164680481,-0.9887863397598267
0.23333333333333334,0.08348588645458221,0.10297461599111557,0.0,0.9362205266952515,0.0,0.0,-0.3514130413532257,-0.12563228607177734,0.4548206329345703,0.0,0.0,0.0,0.5492280125617981,-0.36530229449272156,0.6594976782798767,0.4200000464916229,1.0,3.42080284099211e-06,-2.3168156531028217e-06,2.9557230618593167e-07,0.0002668006927706301,0.0002680390316527337,-0.00010442431084811687,-0.0017437431961297989,0.004206867888569832,-0.0001289910142077133,-0.38934770226478577,0.6157349348068237,0.7911500930786133,-0.8788443803787231,1.9012651443481445,-5.843136787414551,0.3816932141780853,0.6607868075370789,0.42000001668930054,-0.887311577796936,2.9999988079071045,-0.3946654200553894,-3.000001907348633,-0.07179208844900131,-0.07980620861053467,-0.08741828054189682,-0.09504777193069458,-0.9884944558143616,-0.9758414030075073,-0.963829517364502,-0.952349841594696
0.25,0.08537685871124268,0.10610352456569672,0.0,0.9306692481040955,0.0,0.0,-0.36586159467697144,0.1706097424030304,0.11528640985488892,0.0,0.0,0.0,-2.5794355869293213,-0.36530232429504395,0.6594976782798767,0.4200000464916229,0.9999999403953552,3.3476630960649345e-06,-2.259201437482261e-06,1.8082572239563888e-07,0.00026687735226005316,0.00026791065465658903,-0.00010439311154186726,-0.0017403911333531141,0.004208162892609835,-0.00012870095088146627,-0.40009361505508423,0.6449590921401978,0.6879238486289978,-0.35186412930488586,1.3701828718185425,-6.3561110496521,0.3816932141780853,0.6607868075370789,0.42000001668930054,-0.8373011946678162,2.999997138977051,-0.4446970820426941,-2.999998092651367,-0.08800286054611206,-0.09598352015018463,-0.10354583710432053,-0.1110435351729393,-0.9940917491912842,-0.9947443604469299,-0.9952709078788757,-0.9957179427146912
0.26666666666666666,0.08402906358242035,0.10640274733304977,0.0,0.9319105744361877,0.0,0.0,-0.3626881241798401,-0.1676294356584549,-0.010352793149650097,0.0,0.0,0.0,1.2599139213562012,-0.36530232429504395,0.6594976782798767,0.4200000464916229,0.9999999403953552,3.535753194228164e-06,-2.3002676243777387e-06,-1.2687392825228017e-07,0.00026601721765473485,0.0002671221154741943,-0.00010419590398669243,-0.0017316217999905348,0.00419279420748353,-0.0001284939207835123,-0.40374046564102173,0.6560479998588562,0.5870329141616821,0.03188428282737732,0.06719627976417542,-5.754651069641113,0.3816932141780853,0.6607868075370789,0.42000001668930054,-0.7872923612594604,2.9999992847442627,-0.49472761154174805,-3.0000007152557373,-0.10583699494600296,-0.1135198175907135,-0.12085865437984467,-0.1281823366880417,-1.0078115463256836,-1.005879521369934,-1.0044071674346924,-1.0032352209091187
0.2833333333333333,0.07854589819908142,0.10479241609573364,0.0,0.9276519417762756,0.0,0.0,-0.3734460175037384,-0.291631281375885,-0.17901377379894257,0.0,0.0,0.0,-2.1688058376312256,-0.36530232429504395,0.6594977378845215,0.4200000464916229,1.0,3.593504743548692e-06,-2.2625924884778215e-06,-5.655554602412849e-08,0.00026704728952609,0.0002677498559933156,-0.00010416866280138493,-0.0017431487794965506,0.0042141578160226345,-0.00012789281026925892,-0.39572471380233765,0.6573020219802856,0.49553918838500977,0.8266961574554443,0.12631866335868835,-5.153196811676025,0.3816932141780853,0.6607868075370789,0.42000001668930054,-0.7372835874557495,2.9999935626983643,-0.5447562336921692,-2.9999992847442627,-0.12321983277797699,-0.13073335587978363,-0.13796678185462952,-0.14521990716457367,-0.8164272308349609,-0.8594915866851807,-0.8997630476951599,-0.9358642101287842
0.3,0.07221793383359909,0.10021752119064331,0.0,0.9297210574150085,0.0,0.0,-0.3682645857334137,-0.4200389087200165,-0.31295815110206604,0.0,0.0,0.0,1.5550132989883423,-0.36530229449272156,0.6594976782798767,0.4200000464916229,0.9999999403953552,3.7250931654853048e-06,-2.235988176835235e-06,3.8285057257780863e-07,0.0002647978253662586,0.0002667302906047553,-0.00010453863069415092,-0.0017188735073432326,0.00416669063270092,-0.00013016900629736483,-0.3812118470668793,0.6630180478096008,0.41239577531814575,1.0541439056396484,0.3674035370349884,-4.724792957305908,0.3816932141780853,0.6607868075370789,0.42000001668930054,-0.6872767210006714,3.0000011920928955,-0.5947830677032471,-3.00000262260437,-0.1400868147611618,-0.14756537973880768,-0.15477792918682098,-0.16201280057430267,-1.015385389328003,-1.0116770267486572,-1.008831262588501,-1.006543517112732
0.31666666666666665,0.06373290717601776,0.0935342013835907,0.0,0.925919771194458,0.0,0.0,-0.3777201771736145,-0.5549854636192322,-0.43955400586128235,0.0,0.0,0.0,-2.1394712924957275,-0.36530232429504395,0.6594976782798767,0.4200000464916229,0.9999999403953552,3.557828677003272e-06,-2.2787926354794763e-06,2.2831554247204622e-07,0.0002659866586327553,0.0002665854699444026,-0.00010399054735898972,-0.0017240922898054123,0.004193658474832773,-0.00012769893510267138,-0.3810045123100281,0.6639525890350342,0.4249260425567627,0.11056248843669891,-0.060332730412483215,-0.19248966872692108,0.3816932141780853,0.6607868075370789,0.42000001668930054,-0.6374162435531616,2.9999377727508545,-0.6453233957290649,-2.99999737739563,-0.14518369734287262,-0.15227094292640686,-0.15867675840854645,-0.1646251380443573,-0.4285513460636139,-0.365686297416687,-0.28507503867149353,-0.18366368114948273
0.3333333333333333,0.05305864289402962,0.08462876826524734,0.0,0.9281939268112183,0.0,0.0,-0.37209680676460266,-0.6797851324081421,-0.5737174153327942,0.0,0.0,0.0,1.6539415121078491,-0.3646843135356903,0.6604518294334412,0.4200027287006378,0.9999706745147705,-9.759371096151881e-06,8.598051499575377e-05,-0.007644990924745798,0.15472495555877686,0.22959785163402557,-0.001370590995065868,0.09101617336273193,-0.1590084284543991,-3.4388015270233154,-0.37775343656539917,0.6658127307891846,0.42171117663383484,0.25239309668540955,0.19262374937534332,-0.1712213009595871,0.3816932141780853,0.6607868075370789,0.42000001668930054,-0.5874108076095581,3.000000476837158,-0.6953589916229248,-3.000004291534424,-0.1533190757036209,-0.1588631570339203,-0.1634623259305954,-0.16730260848999023,-0.48345962166786194,-0.3784516751766205,-0.2594554126262665,-0.12444134801626205
0.35,0.0403696671128273,0.07350965589284897,0.0,0.9246135950088501,0.0,0.0,-0.3809063732624054,-0.8233018517494202,-0.7116336822509766,0.0,0.0,0.0,-2.004871368408203,-0.3619343638420105,0.6642706394195557,0.4200000464916229,0.9994813799858093,4.035170604765881e-06,-1.8824421204044484e-06,-0.03220066800713539,0.19347602128982544,0.26887670159339905,-6.975910218898207e-05,-0.0034512898419052362,0.004569966811686754,-4.078556060791016,-0.3709544539451599,0.6684068441390991,0.4200618267059326,0.48872917890548706,0.1965244859457016,0.06158965080976486,0.3816932141780853,0.6607868075370789,0.42000001668930054,-0.5373935103416443,2.9999990463256836,-0.7453818321228027,-2.999884843826294,-0.16211511194705963,-0.16551737487316132,-0.16771180927753448,-0.16886524856090546,-0.5146335959434509,-0.379207044839859,-0.2260054349899292,-0.05446653440594673
0.36666666666666664,0.030179152265191078,0.05964377522468567,0.0,0.9118276238441467,0.0,0.0,-0.4105733036994934,-0.5386858582496643,-0.8836020827293396,0.0,0.0,0.0,-5.102714538574219,-0.3552802801132202,0.6713899970054626,0.42103660106658936,0.9869559407234192,-0.026301493868231773,0.004337291698902845,-0.1587679386138916,0.5297204852104187,0.5487064719200134,0.004610778298228979,-0.24536564946174622,0.047808729112148285,-19.206443786621094,-0.3604757785797119,0.674767017364502,0.42143309116363525,0.8387613296508789,0.6050352454185486,0.10318093001842499,0.3816932141780853,0.6607868075370789,0.42000001668930054,-0.4873642027378082,2.999783515930176,-0.7953957319259644,-2.999950408935547,-0.1703827679157257,-0.17135657370090485,-0.1707693189382553,-0.16879156231880188,-0.43750375509262085,-0.29059988260269165,-0.12136479467153549,0.06964756548404694
0.3833333333333333,0.01776842214167118,0.04396786168217659,0.0,0.8836110830307007,0.0,0.0,-0.46822160482406616,-0.825692355632782,-0.9672847390174866,0.0,0.0,0.0,-8.620984077453613,-0.33608052134513855,0.6914703845977783,0.4214215576648712,0.9709199070930481,-0.03518698737025261,0.009163552895188332,-0.23662716150283813,2.0388123989105225,1.8002734184265137,0.039866626262664795,-0.8727028369903564,-2.988464832305908,-6.868071556091309,-0.3361849784851074,0.6921443343162537,0.42333322763442993,2.242774248123169,1.5848479270935059,0.17185404896736145,0.3816932141780853,0.6607868075370789,0.42000001668930054,-0.43732979893684387,3.0000014305114746,-0.8454115390777588,-3.000002145767212,-0.18005040287971497,-0.17795635759830475,-0.17394690215587616,-0.16822677850723267,-0.6218095421791077,-0.4130876660346985,-0.18567469716072083,0.05735762417316437
0.4,0.007203031796962023,0.02840760350227356,0.0,0.8372182846069336,0.0,0.0,-0.5468688011169434,-0.5998046398162842,-0.9171491265296936,0.0,0.0,0.0,-11.828242301940918,-0.2709367275238037,0.7250767946243286,0.4238464832305908,0.9558636546134949,0.006917962338775396,-0.033033836632966995,-0.29186534881591797,5.369592666625977,2.5575754642486572,0.05228150635957718,33.00904846191406,-18.580934524536133,6.902068138122559,-0.271514892578125,0.7269048690795898,0.42559170722961426,5.125658988952637,2.459077835083008,0.31143614649772644,0.3816932141780853,0.6607868075370789,0.42000001668930054,-0.39311474561691284,1.8449214696884155,-0.8085867166519165,2.9944779872894287,-0.19417127966880798,-0.18724000453948975,-0.17829863727092743,-0.16765770316123962,-0.9012582898139954,-0.5948105454444885,-0.28978559374809265,0.005353646352887154
0.4166666666666667,0.0002493880456313491,0.01607644557952881,0.0,0.7950294613838196,0.0,0.0,-0.606570839881897,-0.33811643719673157,-0.7085561752319336,0.0,0.0,0.0,-7.032026767730713,-0.18468189239501953,0.7667017579078674,0.4305788576602936,0.9238206148147583,0.07679161429405212,-0.08030461519956589,-0.36634618043899536,5.6503143310546875,1.7096238136291504,0.5280433893203735,11.195655822753906,-10.89076042175293,12.060249328613281,-0.1851329803466797,0.768632709980011,0.4321660101413727,5.288470268249512,2.2668380737304688,0.5175720453262329,0.3816932141780853,0.6607868075370789,0.42000001668930054,-0.3732697367668152,0.8797683715820312,-0.7848824262619019,0.13093668222427368,-0.20462261140346527,-0.19783155620098114,-0.18473787605762482,-0.1702158898115158,-0.5219351649284363,-0.5364466905593872,-0.3387046456336975,-0.15998516976833344
0.43333333333333335,-0.002754968823865056,0.007028700318187475,0.0,0.7761711478233337,0.0,0.0,-0.6305222511291504,-0.11942728608846664,-0.47647273540496826,0.0,0.0,0.0,-2.5302674770355225,-0.09575401246547699,0.7969836592674255,0.44048622250556946,0.8745249509811401,0.097599558532238,-0.10008572787046432,-0.46439552307128906,5.488729953765869,0.9325911402702332,0.7283296585083008,14.40267276763916,-6.448760986328125,9.16025447845459,-0.09693993628025055,0.7989089488983154,0.44124212861061096,5.405586242675781,1.331967830657959,0.6867362856864929,0.3816932141780853,0.6607868075370789,0.42000001668930054,-0.36100661754608154,0.7933365106582642,-0.8285127282142639,-3.0000009536743164,-0.21400755643844604,-0.20668230950832367,-0.190334752202034,-0.17290575802326202,-0.5467356443405151,-0.48424583673477173,-0.301640123128891,-0.1407131403684616
0.45,-0.006908522453159094,0.0023353910073637962,0.0,0.750764787197113,0.0,0.0,-0.6605696082115173,-0.30167925357818604,-0.20350579917430878,0.0,0.0,0.0,-5.565752983093262,-0.006858173757791519,0.8075977563858032,0.4489590525627136,0.8344881534576416,0.0977824255824089,-0.11052756756544113,-0.5308971405029297,5.279497146606445,-0.19993120431900024,0.4410138726234436,-2.346111297607422,-4.208442687988281,1.082524299621582,-0.008123083040118217,0.8114215731620789,0.4498124122619629,5.329799652099609,0.16397720575332642,0.5511986017227173,0.3816932141780853,0.6607868075370789,0.42000001668930054,-0.34394174814224243,1.2246439456939697,-0.8785374164581299,-3.0000007152557373,-0.22411136329174042,-0.2151198834180832,-0.19561652839183807,-0.1752806007862091,-0.5893005728721619,-0.45731499791145325,-0.26605117321014404,-0.08633392304182053
0.4666666666666667,-0.008694051764905453,-0.0060356976464390755,0.0,0.7366612553596497,0.0,0.0,-0.6762619018554688,-0.0810752809047699,-0.5137282013893127,0.0,0.0,0.0,-1.4177840948104858,0.07743653655052185,0.8043521046638489,0.45512571930885315,0.7884467840194702,0.07854238897562027,-0.10164149105548859,-0.6015410423278809,4.808979034423828,-1.364388346672058,0.4374179542064667,10.749934196472168,-7.021185874938965,25.802051544189453,0.07717110216617584,0.8089275360107422,0.45610153675079346,4.972241401672363,-0.5883126854896545,0.32905834913253784,0.3816932141780853,0.6607868075370789,0.42000001668930054,-0.3242899775505066,0.9772442579269409,-0.9285619258880615,-3.0000035762786865,-0.22995509207248688,-0.21884702146053314,-0.19684679806232452,-0.17427198588848114,-0.3762131631374359,-0.2206033319234848,-0.07539188116788864,0.047819774597883224
0.48333333333333334,-0.008080611936748028,-0.010081040672957897,0.0,0.7140439748764038,0.0,0.0,-0.700100839138031,0.08896787464618683,-0.2031140923500061,0.0,0.0,0.0,-4.81605339050293,0.15327966213226318,0.7902246713638306,0.4559791088104248,0.7489345669746399,0.06242367997765541,-0.09088726341724396,-0.6534062027931213,4.1380615234375,-1.760427713394165,0.0507749542593956,8.672163009643555,-8.746316909790039,24.238527297973633,0.15351440012454987,0.7940506935119629,0.4573189616203308,4.36492919921875,-1.1363601684570312,-0.07621628046035767,0.3816932141780853,0.6607868075370789,0.42000001668930054,-0.31116047501564026,0.620712399482727,-0.978585958480835,-3.0000016689300537,-0.23637250065803528,-0.22281630337238312,-0.1988895684480667,-0.17471909523010254,-0.22959718108177185,-0.11551911383867264,-0.04845752567052841,0.003103816881775856
0.5,-0.00795525498688221,-0.01143202930688858,0.0,0.7061110138893127,0.0,0.0,-0.7081011533737183,-0.029372688382864,0.04247375577688217,0.0,0.0,0.0,-0.1568959504365921,0.22026121616363525,0.7680279612541199,0.45172223448753357,0.7021954655647278,0.026676667854189873,-0.08329333364963531,-0.7065919041633606,3.570420503616333,-1.912585735321045,-0.323276549577713,-4.900207996368408,3.0840113162994385,3.8074166774749756,0.22032159566879272,0.7712925672531128,0.4536243677139282,3.701756477355957,-1.5799070596694946,-0.3134750723838806,0.3816932141780853,0.6607868075370789,0.42000001668930054,-0.2994585633277893,0.7636098265647888,-1.0286089181900024,-2.9982571601867676,-0.2384110987186432,-0.2234397679567337,-0.1991187483072281,-0.1747715175151825,-0.06247245892882347,6.681773811578751e-06,-0.009492157027125359,-0.03280012682080269
0.5166666666666666,-0.006041139829903841,-0.01598232612013817,0.0,0.6900115013122559,0.0,0.0,-0.723798394203186,0.13095426559448242,-0.3173154294490814,0.0,0.0,0.0,-3.527358055114746,0.2773355543613434,0.7430890798568726,0.44051626324653625,0.6680145263671875,-0.013656456023454666,-0.07227284461259842,-0.7405043244361877,2.8258562088012695,-2.0011348724365234,-0.6518970131874084,0.07242907583713531,6.7522053718566895,17.05331039428711,0.2778395414352417,0.7461096048355103,0.4432520270347595,3.223027229309082,-1.6039724349975586,-0.8000839948654175,0.3816932141780853,0.6607868075370789,0.42000001668930054,-0.28479617834091187,0.8932278156280518,-1.078631043434143,-2.998429298400879,-0.23381119966506958,-0.2190655916929245,-0.19624924659729004,-0.17351649701595306,0.30543336272239685,0.28126800060272217,0.17116494476795197,0.05321433022618294
0.5333333333333333,-0.001662869588471949,-0.01617981307208538,0.0,0.6859568357467651,0.0,0.0,-0.7276422381401062,0.28101667761802673,-0.005123465787619352,0.0,0.0,0.0,0.20031900703907013,0.3243754804134369,0.7145764231681824,0.42491957545280457,0.6228720545768738,-0.061700478196144104,-0.06635348498821259,-0.777059018611908,2.244631767272949,-2.0514168739318848,-0.90199875831604,-0.01643088087439537,2.2537429332733154,24.42685317993164,0.32477760314941406,0.7173501253128052,0.4286414384841919,2.6556568145751953,-1.7472457885742188,-0.9916165471076965,0.3816932141780853,0.6607868075370789,0.42000001668930054,-0.26986828446388245,0.810990571975708,-1.1286531686782837,-3.0000007152557373,-0.2313237488269806,-0.21674993634223938,-0.1956673413515091,-0.17486105859279633,0.2979089617729187,0.23494523763656616,0.08055207878351212,-0.07937725633382797
0.55,0.004763355944305658,-0.020142115652561188,0.0,0.6719090938568115,0.0,0.0,-0.7406336069107056,0.42891591787338257,-0.27889925241470337,0.0,0.0,0.0,-3.1043620109558105,0.3527970314025879,0.6993697881698608,0.4232707619667053,0.6090850234031677,-0.06703934818506241,-0.03386782109737396,-0.7895404100418091,0.7685856223106384,-1.2034912109375,0.30004817247390747,2.5494236946105957,14.185487747192383,20.204254150390625,0.3526366353034973,0.7017356157302856,0.42700815200805664,1.3559268712997437,-0.7244996428489685,0.07918526232242584,0.3816932141780853,0.6607868075370789,0.42000001668930054,-0.25622180104255676,0.5511167049407959,-1.178605318069458,-2.9985833168029785,-0.2223767340183258,-0.21005100011825562,-0.19254495203495026,-0.17519083619117737,0.50779789686203,0.36769506335258484,0.14831368625164032,-0.06380239874124527
0.5666666666666667,0.009119880385696888,-0.021153191104531288,0.0,0.6708464622497559,0.0,0.0,-0.7415962815284729,0.2016720175743103,-0.033519089221954346,0.0,0.0,0.0,0.6807218194007874,0.3702741861343384,0.685883104801178,0.4223233461380005,0.6048063039779663,-0.047032132744789124,-0.026043543592095375,-0.7945558428764343,0.5546014904975891,-1.1299611330032349,-0.048888832330703735,-0.20921580493450165,-2.0473382472991943,17.10255241394043,0.3691648244857788,0.6874008178710938,0.4262080192565918,0.885930061340332,-0.8509166240692139,-0.11804744601249695,0.3816932141780853,0.6607868075370789,0.42000001668930054,-0.24648141860961914,0.6078320145606995,-1.1602758169174194,2.99606990814209,-0.21538780629634857,-0.2051118016242981,-0.1909363716840744,-0.17681196331977844,0.4706847071647644,0.33572033047676086,0.1290500909090042,-0.06947030127048492
0.5833333333333334,0.014345630072057247,-0.024870311841368675,0.0,0.6593723297119141,0.0,0.0,-0.7518165707588196,0.3412506580352783,-0.28309375047683716,0.0,0.0,0.0,-2.6543540954589844,0.37806689739227295,0.6791800856590271,0.4226267635822296,0.6082562804222107,-0.05015464872121811,-0.011840810999274254,-0.7920660376548767,-0.022422537207603455,-0.5561321973800659,0.0707145482301712,-1.9539681673049927,2.1270573139190674,16.023855209350586,0.3764193058013916,0.6797958612442017,0.42678511142730713,0.23145908117294312,-0.2838834226131439,0.09821631014347076,0.3816932141780853,0.6607868075370789,0.42000001668930054,-0.23381374776363373,0.712643563747406,-1.181929349899292,-3.0007565021514893,-0.20582358539104462,-0.1982811838388443,-0.1878814697265625,-0.17731286585330963,0.5268086194992065,0.3741312026977539,0.16300949454307556,-0.035980865359306335
0.6,0.01903434470295906,-0.0259105172008276,0.0,0.6604169011116028,0.0,0.0,-0.7508991360664368,0.22068201005458832,-0.035899851471185684,0.0,0.0,0.0,0.980884850025177,0.3796248435974121,0.6719367504119873,0.42133721709251404,0.6290519833564758,-0.025414487347006798,-0.01301080547273159,-0.7768386602401733,-0.014391359873116016,-0.4868814945220947,-0.10455977916717529,2.0939552783966064,-3.344846487045288,5.782071113586426,0.3775433897972107,0.6730542182922363,0.4254825711250305,0.02151533216238022,-0.34544071555137634,-0.10426121950149536,0.3816932141780853,0.6607868075370789,0.42000001668930054,-0.24855609238147736,-2.074509620666504,-1.1449590921401978,2.9997355937957764,-0.198965921998024,-0.19358791410923004,-0.18623626232147217,-0.17853519320487976,0.46047383546829224,0.32107484340667725,0.1364816278219223,-0.03493437543511391
0.6166666666666667,0.024070624262094498,-0.02402959018945694,0.0,0.6509467959403992,0.0,0.0,-0.7591233849525452,0.34314119815826416,0.1690135896205902,0.0,0.0,0.0,-2.4140655994415283,0.379181832075119,0.6660040020942688,0.42000073194503784,0.6484911441802979,5.358039743441623e-06,-3.551958570824354e-06,-0.7612221240997314,-0.03719796985387802,-0.29955828189849854,-4.3883061152882874e-05,0.0016297688707709312,0.0026554071810096502,2.1967053413391113,0.37717217206954956,0.6721192002296448,0.42676109075546265,-0.024856887757778168,0.03565823659300804,0.16508419811725616,0.3816932141780853,0.6607868075370789,0.42000001668930054,-0.2948218584060669,-2.999988317489624,-1.1666736602783203,-2.999319314956665,-0.1901998668909073,-0.1877465695142746,-0.18383295834064484,-0.179206982254982,0.5827654004096985,0.39561954140663147,0.18458466231822968,-0.0030876235105097294
0.6333333333333333,0.03131882846355438,-0.02649357169866562,0.0,0.6537363529205322,0.0,0.0,-0.7567223906517029,0.417279988527298,-0.173559308052063,0.0,0.0,0.0,1.3254783153533936,0.3787654638290405,0.6621083617210388,0.4200000464916229,0.6580118536949158,1.2869534202764044e-06,-1.8409357949167315e-07,-0.7530074715614319,-0.029627090319991112,-0.2188546359539032,-5.349656566977501e-05,0.00020892740576528013,0.002602833556011319,1.3577295541763306,0.37675026059150696,0.6730995178222656,0.4297187328338623,-0.05917558819055557,0.04217413812875748,0.19607269763946533,0.3816932141780853,0.6607868075370789,0.42000001668930054,-0.3448426425457001,-2.9999992847442627,-1.2166719436645508,-2.9999518394470215,-0.17783838510513306,-0.17853422462940216,-0.17808079719543457,-0.17653243243694305,0.6362886428833008,0.49031776189804077,0.32681193947792053,0.18097522854804993
0.65,0.04108160361647606,-0.025092720985412598,0.0,0.6772628426551819,0.0,0.0,-0.735741138458252,0.6242353916168213,0.08079590648412704,0.0,0.0,0.0,4.686160564422607,0.37782183289527893,0.6596899032592773,0.4200001358985901,0.655491828918457,-5.7384654610359576e-06,-4.072924639331177e-06,-0.7552021741867065,-0.06591855734586716,-0.12498949468135834,-0.00019241614791098982,0.008363183587789536,-0.0015195241430774331,-1.1896569728851318,0.3757011890411377,0.6724051833152771,0.43339356780052185,-0.020831380039453506,-0.006570808589458466,0.25918710231781006,0.3816932141780853,0.6607868075370789,0.42000001668930054,-0.3948386013507843,-2.9999871253967285,-1.2666583061218262,-2.999978542327881,-0.17106062173843384,-0.17313751578330994,-0.1742309331893921,-0.17393122613430023,0.4667336046695709,0.38901999592781067,0.3110685646533966,0.2555589973926544
0.6666666666666666,0.052512917667627335,-0.02681860327720642,0.0,0.687226414680481,0.0,0.0,-0.7264432907104492,0.7129303216934204,-0.1590261161327362,0.0,0.0,0.0,0.5932326316833496,0.3769797384738922,0.658505916595459,0.4200000464916229,0.6475858688354492,-5.253263680060627e-06,-1.6616089624221786e-06,-0.7619924545288086,-0.041082292795181274,-0.05436275526881218,-0.00021613796707242727,0.004910664167255163,-0.005636180751025677,-1.1422874927520752,0.3756347894668579,0.6730796098709106,0.4383944571018219,-0.013539895415306091,-0.019554369151592255,0.3103536367416382,0.3816932141780853,0.6607868075370789,0.42000001668930054,-0.4448398947715759,-2.9999642372131348,-1.316651701927185,-2.9999334812164307,-0.16480013728141785,-0.1674337387084961,-0.16900677978992462,-0.16882933676242828,0.3111642301082611,0.31483644247055054,0.32532477378845215,0.3545653820037842
0.6833333333333333,0.06549306213855743,-0.03196612745523453,0.0,0.6749124526977539,0.0,0.0,-0.7378978133201599,0.8103781938552856,-0.3791236877441406,0.0,0.0,0.0,-2.9218599796295166,0.3768104016780853,0.6583076119422913,0.41999998688697815,0.6456180810928345,-7.64594369684346e-06,2.750380645011319e-06,-0.7636603116989136,-0.0012037144042551517,-0.000980236567556858,-0.0002533022779971361,0.008742696605622768,-0.011837922036647797,0.021553924307227135,0.380815327167511,0.6740487813949585,0.4493666887283325,0.5916610956192017,0.09476394206285477,1.10092294216156,0.3816932141780853,0.6607868075370789,0.42000001668930054,-0.494852751493454,-2.9999847412109375,-1.36667001247406,-2.999999523162842,-0.16191069781780243,-0.1640915721654892,-0.16505303978919983,-0.1639777421951294,0.10521390289068222,0.14952553808689117,0.20473375916481018,0.2750247120857239
0.7,0.08160975575447083,-0.03255454823374748,0.0,0.6405408382415771,0.0,0.0,-0.7679241299629211,0.9435123801231384,-0.021331168711185455,0.0,0.0,0.0,-6.319732666015625,0.376809298992157,0.6583074927330017,0.4200000464916229,0.6456223726272583,5.737234687330783e-07,-4.252493909007171e-06,-0.7636567950248718,0.00021024281159043312,-0.00029894051840528846,-0.00010693282820284367,0.0058074533008039,-9.614253940526396e-05,-0.0004766505444422364,0.3998757302761078,0.6723847389221191,0.4737083315849304,1.7136900424957275,-0.13167287409305573,1.9134747982025146,0.3816932141780853,0.6607868075370789,0.42000001668930054,-0.5448653101921082,-2.999936580657959,-1.416688323020935,-2.9999935626983643,-0.1666903793811798,-0.1669975072145462,-0.16594024002552032,-0.16270673274993896,-0.22473923861980438,-0.12860751152038574,-0.02000165916979313,0.09856901317834854
0.7166666666666667,0.09442439675331116,-0.03139558434486389,0.0,0.6202574372291565,0.0,0.0,-0.7843983173370361,0.7018421292304993,0.07920846343040466,0.0,0.0,0.0,-2.058464527130127,0.376809298992157,0.6583074927330017,0.4200000464916229,0.645622193813324,4.990605475541088e-07,-3.8117684653116157e-06,-0.7636569142341614,0.00020785866945516318,-0.0002841878740582615,-0.0001044983509927988,0.00547211617231369,-1.3565120752900839e-05,-0.00047153563355095685,0.42826077342033386,0.6745368242263794,0.50821453332901,1.6462771892547607,0.3547050654888153,2.1674532890319824,0.3816932141780853,0.6607868075370789,0.42000001668930054,-0.5659595727920532,0.20568035542964935,-1.46670663356781,-3.000000238418579,-0.16855554282665253,-0.16814781725406647,-0.16622291505336761,-0.16202989220619202,0.025227157399058342,0.012276483699679375,0.005553646013140678,-1.280568540096283e-09
0.7333333333333333,0.10264287889003754,-0.028402265161275864,0.0,0.6252715587615967,0.0,0.0,-0.7804072499275208,0.41704708337783813,0.22362780570983887,0.0,0.0,0.0,1.649069905281067,0.376809298992157,0.6583074927330017,0.4200000464916229,0.6456222534179688,5.091505954624154e-07,-3.7281038203218486e-06,-0.7636568546295166,0.0002019620151259005,-0.00028441412723623216,-0.00010277354158461094,0.005505813285708427,-8.745673403609544e-05,-0.0004586568975355476,0.4501734972000122,0.6811479926109314,0.539506196975708,0.9361642003059387,0.4433177709579468,1.6281962394714355,0.3816932141780853,0.6607868075370789,0.42000001668930054,-0.5417554378509521,2.4803125858306885,-1.4280723333358765,2.999999761581421,-0.16681496798992157,-0.16674871742725372,-0.1650921255350113,-0.16119880974292755,0.1655840426683426,0.14054763317108154,0.1167525053024292,0.08724696189165115
0.75,0.10655718296766281,-0.02965659648180008,0.0,0.6186924576759338,0.0,0.0,-0.7856332659721375,0.20530067384243011,-0.13316255807876587,0.0,0.0,0.0,-1.9167228937149048,0.37680932879447937,0.6583074927330017,0.4200000464916229,0.6456222534179688,5.211513780523092e-07,-3.6473738873610273e-06,-0.7636568546295166,0.00020147080067545176,-0.00028399552684277296,-0.00010271440260112286,0.005498562939465046,-9.333110938314348e-05,-0.0004578620719257742,0.45822739601135254,0.6892625689506531,0.5600782036781311,-0.00851086899638176,0.43462616205215454,1.0114524364471436,0.3816932141780853,0.6607868075370789,0.42000001668930054,-0.5081478953361511,1.601034164428711,-1.3780196905136108,2.999999761581421,-0.1621832251548767,-0.16268765926361084,-0.16162768006324768,-0.15847639739513397,0.18552981317043304,0.17888092994689941,0.16529326140880585,0.13673382997512817
0.7666666666666666,0.10727544873952866,-0.025693416595458984,0.0,0.6245962977409363,0.0,0.0,-0.7809478044509888,-0.011127710342407227,0.3730407953262329,0.0,0.0,0.0,1.7856323719024658,0.37680932879447937,0.6583074927330017,0.4200000464916229,0.6456222534179688,5.445982083074341e-07,-3.7662000522686867e-06,-0.7636568546295166,0.00020216172561049461,-0.000284185545751825,-0.00010292511433362961,0.005499284714460373,-8.626113412901759e-05,-0.0004593336780089885,0.45121538639068604,0.6944539546966553,0.5726708769798279,-0.7594507932662964,0.2935044765472412,0.5344480276107788,0.3816932141780853,0.6607868075370789,0.42000001668930054,-0.46779292821884155,3.0000014305114746,-1.3280128240585327,2.999999761581421,-0.16459141671657562,-0.16391468048095703,-0.16193221509456635,-0.15828174352645874,-0.2013317346572876,-0.11626626551151276,-0.049787282943725586,-0.011802793480455875
0.7833333333333333,0.1059652790427208,-0.02535404823720455,0.0,0.6187200546264648,0.0,0.0,-0.7856115102767944,-0.11345593631267548,-0.08518661558628082,0.0,0.0,0.0,-1.8132342100143433,0.376809298992157,0.6583074927330017,0.4200000464916229,0.6456223130226135,5.225767267802439e-07,-3.6996295875724172e-06,-0.7636568546295166,0.0002026012953137979,-0.00028459870372898877,-0.00010295910760760307,0.0055066924542188644,-8.087034802883863e-05,-0.0004600091197062284,0.4334144592285156,0.6978780031204224,0.5754337310791016,-1.4040031433105469,0.1031554639339447,-0.007636521011590958,0.3816932141780853,0.6607868075370789,0.42000001668930054,-0.4544332027435303,-1.0570586919784546,-1.277960181236267,3.0,-0.16531811654567719,-0.16364812850952148,-0.16092421114444733,-0.15693581104278564,0.008309664204716682,0.06476184725761414,0.10685539990663528,0.1258809119462967
0.8,0.10609836876392365,-0.02285589836537838,0.0,0.62441486120224,0.0,0.0,-0.7810928821563721,0.04599471390247345,0.15359988808631897,0.0,0.0,0.0,1.575729489326477,0.37680932879447937,0.6583074927330017,0.4200000464916229,0.6456223130226135,5.251893639979244e-07,-3.614265779106063e-06,-0.7636568546295166,0.00020135333761572838,-0.000283984059933573,-0.0001026839017868042,0.005498792976140976,-9.489832882536575e-05,-0.0004576148057822138,0.41408997774124146,0.7008287906646729,0.5732206106185913,-0.8776987195014954,0.32044488191604614,-0.2235826551914215,0.3816932141780853,0.6607868075370789,0.42000001668930054,-0.4517643451690674,1.1825618743896484,-1.2981986999511719,-2.9999992847442627,-0.16657531261444092,-0.1640208214521408,-0.16057971119880676,-0.15618202090263367,0.0732860267162323,0.07998059689998627,0.08369278907775879,0.07689911127090454
0.8166666666666667,0.10821744054555893,-0.02339954301714897,0.0,0.6181589365005493,0.0,0.0,-0.7860531210899353,0.17006614804267883,-0.0741833820939064,0.0,0.0,0.0,-1.8507273197174072,0.376809298992157,0.6583074927330017,0.4200000464916229,0.645622193813324,5.647848979606351e-07,-3.7328700273064896e-06,-0.7636569738388062,0.0002010245225392282,-0.0002837216597981751,-0.00010271137580275536,0.005493880715221167,-0.00010080965148517862,-0.00045714504085481167,0.4003599286079407,0.7039942741394043,0.5657038688659668,-0.7545969486236572,0.04274289309978485,-0.4823646545410156,0.3816932141780853,0.6607868075370789,0.42000001668930054,-0.4761311411857605,-2.999999761581421,-1.2600406408309937,2.999999523162842,-0.1653861552476883,-0.16267701983451843,-0.1590743511915207,-0.1546257883310318,0.00457291305065155,0.03365364298224449,0.06373073905706406,0.08798408508300781
0.8333333333333334,0.11255247890949249,-0.026418928056955338,0.0,0.6232350468635559,0.0,0.0,-0.7820345759391785,0.29856693744659424,-0.2618502080440521,0.0,0.0,0.0,1.722490668296814,0.376809298992157,0.6583074927330017,0.4200000464916229,0.645622193813324,5.277792070046416e-07,-3.837291842501145e-06,-0.7636568546295166,0.00020233189570717514,-0.000284453242784366,-0.00010286923497915268,0.005504895001649857,-8.287724631372839e-05,-0.00045943105942569673,0.39245250821113586,0.7040843367576599,0.5609738826751709,-0.21736867725849152,-0.013459142297506332,-0.06570039689540863,0.3816932141780853,0.6607868075370789,0.42000001668930054,-0.5228585600852966,-2.603010892868042,-1.280577540397644,-3.000000476837158,-0.1668369323015213,-0.16314749419689178,-0.15851035714149475,-0.1530890166759491,-0.08360455930233002,-0.019049054011702538,0.05163849890232086,0.12203872203826904
0.85,0.11904443055391312,-0.032419394701719284,0.0,0.6170037388801575,0.0,0.0,-0.786960244178772,0.4276173710823059,-0.41868746280670166,0.0,0.0,0.0,-1.852985143661499,0.376809298992157,0.6583074927330017,0.4200000464916229,0.6456222534179688,5.163608989278146e-07,-3.757625563594047e-06,-0.7636567950248718,0.00020204941392876208,-0.0002844252740032971,-0.00010279077105224133,0.005505656357854605,-8.624319889349863e-05,-0.00045882660197094083,0.39430832862854004,0.7001826167106628,0.5545786619186401,0.42396843433380127,-0.4182974696159363,-0.48300403356552124,0.3816932141780853,0.6607868075370789,0.42000001668930054,-0.5720339417457581,-2.999992609024048,-1.330595850944519,-2.999999523162842,-0.1695556342601776,-0.1643296480178833,-0.15800520777702332,-0.1508561670780182,-0.15935514867305756,-0.050853267312049866,0.06829241663217545,0.19168537855148315
0.8666666666666667,0.1286005675792694,-0.03496859222650528,0.0,0.5888597369194031,0.0,0.0,-0.8082352876663208,0.6029675602912903,-0.14517976343631744,0.0,0.0,0.0,-4.991324424743652,0.376809298992157,0.6583074331283569,0.4200000464916229,0.6456223726272583,5.266882112664462e-07,-3.9173678487713914e-06,-0.7636566758155823,0.00020662491442635655,-0.0002826210402417928,-0.0001043984666466713,0.005441902205348015,-2.649348789418582e-05,-0.00046969405957497656,0.40571314096450806,0.6899499893188477,0.5486775636672974,0.9674160480499268,-0.6328346133232117,-0.07992793619632721,0.3816932141780853,0.6607868075370789,0.42000001668930054,-0.6078864336013794,-1.4116332530975342,-1.380614161491394,-3.0,-0.17421181499958038,-0.167413130402565,-0.15936703979969025,-0.15044137835502625,-0.128444641828537,-0.09139172732830048,-0.04341859370470047,0.01149910781532526
0.8833333333333333,0.13540959358215332,-0.03576292842626572,0.0,0.5766035914421082,0.0,0.0,-0.8170240521430969,0.32489168643951416,-0.003052049782127142,0.0,0.0,0.0,-0.7834017872810364,0.376809298992157,0.6583074331283569,0.4200000464916229,0.6456224918365479,5.816748398501659e-07,-3.6787916997127468e-06,-0.763656735420227,0.0002081832499243319,-0.0002826189447659999,-0.00010488741099834442,0.005433190613985062,-9.041290468303487e-06,-0.00047315226402133703,0.4214158058166504,0.6850290298461914,0.54994797706604,0.8816547393798828,-0.08815973997116089,0.167158305644989,0.3816932141780853,0.6607868075370789,0.42000001668930054,-0.6044996976852417,1.557423710823059,-1.430632472038269,-3.000000238418579,-0.1735730767250061,-0.16709357500076294,-0.15922169387340546,-0.1503617763519287,0.14642266929149628,0.08617201447486877,0.030932188034057617,-0.019804347306489944
