vladlanda/robotic-transformer/data/env_000_episode_0214.csv
sim_time_s,robot_box_x,robot_box_y,robot_box_z,robot_box_quat_w,robot_box_quat_x,robot_box_quat_y,robot_box_quat_z,robot_box_linvel_x,robot_box_linvel_y,robot_box_linvel_z,robot_box_angvel_x,robot_box_angvel_y,robot_box_angvel_z,cube_world_x,cube_world_y,cube_world_z,cube_quat_w,cube_quat_x,cube_quat_y,cube_quat_z,cube_linvel_x,cube_linvel_y,cube_linvel_z,cube_angvel_x,cube_angvel_y,cube_angvel_z,endpoint_world_x,endpoint_world_y,endpoint_world_z,endpoint_linvel_x,endpoint_linvel_y,endpoint_linvel_z,target_cube_world_x,target_cube_world_y,target_cube_world_z,gripper_actual_pos_rad_gp_leftgearjoint,gripper_actual_vel_rad_s_gp_leftgearjoint,gripper_actual_pos_rad_gp_rotatingjoint,gripper_actual_vel_rad_s_gp_rotatingjoint,motor_angle_rad_joint1,motor_angle_rad_joint2,motor_angle_rad_joint3,motor_angle_rad_joint4,motor_speed_rad_s_joint1,motor_speed_rad_s_joint2,motor_speed_rad_s_joint3,motor_speed_rad_s_joint4
0.0,0.0,0.0,0.0,1.0,0.0,0.0,0.0,0.0,0.0,0.0,0.0,0.0,0.0,-0.38079962134361267,0.6623346209526062,0.41999998688697815,1.0,0.0,0.0,0.0,0.0,0.0,0.0,0.0,0.0,0.0,3.42540442943573e-06,-0.005000244826078415,1.313499927520752,0.0,0.0,0.0,0.35837289690971375,0.7360731959342957,0.42000001668930054,-1.5707999467849731,0.0,0.0,0.0,0.0,0.0,0.0,0.0,0.0,0.0,0.0,0.0
0.016666666666666666,0.0028780424036085606,0.002180501352995634,0.0,0.9998085498809814,0.0,0.0,0.019567910581827164,0.2408769428730011,0.1824028491973877,0.0,0.0,0.0,3.1418633460998535,-0.3807997405529022,0.6623343229293823,0.41999998688697815,1.0,3.279964630564791e-06,-8.339746386809566e-07,8.465587342243452e-08,-1.9833529222523794e-05,0.00017983045836444944,-6.132945418357849e-05,0.0009432713268324733,-0.004689474124461412,-0.00031981561915017664,-0.007110798731446266,0.003379930043593049,1.3159375190734863,-0.8143192529678345,0.9868870973587036,0.1809525042772293,0.35837289690971375,0.7360731959342957,0.42000001668930054,-1.5301095247268677,3.000002145767212,-0.04584794119000435,-3.000000238418579,0.0008697478915564716,0.0007963103125803173,0.0007109600701369345,0.0006108122179284692,0.11093062162399292,0.0975714847445488,0.0833471342921257,0.06824225187301636
0.03333333333333333,0.008961139246821404,0.006801646668463945,0.0,0.9997963905334473,0.0,0.0,0.020178062841296196,0.40702322125434875,0.31530219316482544,0.0,0.0,0.0,-0.869131863117218,-0.3807998597621918,0.6623342633247375,0.4200000464916229,1.0,3.3908179375430336e-06,-2.132458348569344e-06,-3.7097745320124886e-08,0.00026357852038927376,0.00026937833172269166,-0.00010509369894862175,-0.0017707126680761576,0.004130884539335966,-0.0001354814594378695,-0.027548931539058685,0.02608630433678627,1.3166136741638184,-1.5914486646652222,1.6156582832336426,-0.08292025327682495,0.35837289690971375,0.7360731959342957,0.42000001668930054,-1.4800902605056763,3.0000014305114746,-0.09588779509067535,-3.0000016689300537,0.0029904895927757025,0.002652695868164301,0.0022772834636271,0.0018607503734529018,0.1642080545425415,0.13976629078388214,0.11382623761892319,0.08630844205617905
0.05,0.018434390425682068,0.013851233758032322,0.0,0.9999862909317017,0.0,0.0,-0.005232503172010183,0.6358832716941833,0.47071778774261475,0.0,0.0,0.0,-4.082149505615234,-0.38079988956451416,0.6623343229293823,0.4200000464916229,1.0,3.7651902857760433e-06,-2.2119197637948673e-06,5.609367637049445e-09,0.00026530938339419663,0.00026691678795032203,-0.00010440615005791187,-0.0017243892652913928,0.004177466034889221,-0.00012949809024576098,-0.057321660220623016,0.05680153891444206,1.3120276927947998,-1.9569997787475586,2.0123047828674316,-0.4455139935016632,0.35837289690971375,0.7360731959342957,0.42000001668930054,-1.4300719499588013,2.999997615814209,-0.14592649042606354,-3.0000016689300537,0.005999003071337938,0.005161478649824858,0.004251714330166578,0.0032652674708515406,0.20735099911689758,0.16698701679706573,0.12469717115163803,0.08040980249643326
0.06666666666666667,0.030739430338144302,0.023310795426368713,0.0,0.999906063079834,0.0,0.0,-0.013708161190152168,0.7724236845970154,0.6144111752510071,0.0,0.0,0.0,-0.04690958932042122,-0.38079988956451416,0.6623342633247375,0.4200000464916229,0.9999999403953552,3.406832092878176e-06,-2.28558906201215e-06,4.300801492718165e-07,0.0002670248504728079,0.0002679176686797291,-0.0001043803058564663,-0.00174071139190346,0.00421183044090867,-0.00012850876373704523,-0.09499681740999222,0.0891069769859314,1.3012628555297852,-2.4118499755859375,2.0459187030792236,-0.8358345031738281,0.35837289690971375,0.7360731959342957,0.42000001668930054,-1.380046010017395,3.000001907348633,-0.14995373785495758,2.0757598876953125,0.008764313533902168,0.0072255865670740604,0.005574405193328857,0.0038059833459556103,0.15571142733097076,0.10651327669620514,0.05517895519733429,0.0016318712150678039
0.08333333333333333,0.04549390822649002,0.03410618379712105,0.0,0.9993361830711365,0.0,0.0,-0.03643038868904114,0.9423044919967651,0.7095412611961365,0.0,0.0,0.0,-3.5776748657226562,-0.38079988956451416,0.6623342633247375,0.4200000464916229,0.9999999403953552,3.626166289905086e-06,-2.3353043161478126e-06,3.032100153177453e-07,0.00026614085072651505,0.0002668516826815903,-0.00010405341163277626,-0.001728349830955267,0.004196455702185631,-0.0001279077841900289,-0.12999227643013,0.12747830152511597,1.2872231006622314,-1.8280225992202759,2.5443992614746094,-0.8416948318481445,0.35837289690971375,0.7360731959342957,0.42000001668930054,-1.330036997795105,3.000002145767212,-0.18694372475147247,-3.0000011920928955,0.009832422249019146,0.007163550704717636,0.004338299389928579,0.0013528295094147325,0.0059419311583042145,-0.0805114135146141,-0.1692570149898529,-0.26024818420410156
0.1,0.05489606782793999,0.045614469796419144,0.0,0.997534453868866,0.0,0.0,-0.0701783150434494,0.4391261041164398,0.6708361506462097,0.0,0.0,0.0,-4.1498637199401855,-0.38079988956451416,0.6623342633247375,0.4200000464916229,1.0,3.4222334761579987e-06,-2.3086047349352157e-06,1.796183539681806e-07,0.0002668157103471458,0.00026800340856425464,-0.00010440708138048649,-0.0017429988365620375,0.004207124002277851,-0.00012891183723695576,-0.16334187984466553,0.1701480597257614,1.2689926624298096,-2.082592010498047,2.668835163116455,-1.2733173370361328,0.35837289690971375,0.7360731959342957,0.42000001668930054,-1.2800182104110718,2.9999942779541016,-0.15320982038974762,2.999999761581421,0.004538060165941715,0.0009347813902422786,-0.00287109543569386,-0.006886714603751898,-0.41372135281562805,-0.4633447229862213,-0.5150247812271118,-0.5690366625785828
0.11666666666666667,0.058768127113580704,0.0597396083176136,0.0,0.9954110383987427,0.0,0.0,-0.09569135308265686,0.42407283186912537,0.7787068486213684,0.0,0.0,0.0,-2.2270824909210205,-0.38079988956451416,0.6623343229293823,0.4200000464916229,1.0,3.7116215025889687e-06,-2.3326904283749172e-06,2.5741752551766695e-07,0.00026485833222977817,0.0002663549967110157,-0.00010423408821225166,-0.0017181988805532455,0.004170059692114592,-0.00012915713887196034,-0.19979695975780487,0.2129485309123993,1.2451386451721191,-2.1878647804260254,2.726016044616699,-1.3464126586914062,0.35837289690971375,0.7360731959342957,0.42000001668930054,-1.2300231456756592,2.999999761581421,-0.1849687546491623,-3.0000009536743164,-0.003745057387277484,-0.008303972892463207,-0.01307173166424036,-0.018060345202684402,-0.09018820524215698,-0.2132624089717865,-0.33187296986579895,-0.4458763599395752
0.13333333333333333,0.06397267431020737,0.07042279839515686,0.0,0.9909016489982605,0.0,0.0,-0.13458774983882904,0.23446232080459595,0.5901195406913757,0.0,0.0,0.0,-5.526209354400635,-0.38079988956451416,0.6623342633247375,0.4200000464916229,1.0,3.3357862321281573e-06,-2.231929329354898e-06,3.1130659294831275e-07,0.00026669795624911785,0.00026759557658806443,-0.00010428577661514282,-0.0017371183494105935,0.004205892328172922,-0.00012840361159760505,-0.2350229173898697,0.2648157477378845,1.2184929847717285,-2.0037083625793457,3.451181411743164,-1.8566997051239014,0.35837289690971375,0.7360731959342957,0.42000001668930054,-1.1800085306167603,2.99999737739563,-0.1512482911348343,2.9999990463256836,-0.005895411595702171,-0.012463873252272606,-0.019153283908963203,-0.025974052026867867,-0.2017718106508255,-0.31040436029434204,-0.41377925872802734,-0.5118575692176819
0.15,0.07385765016078949,0.07685049623250961,0.0,0.9860427379608154,0.0,0.0,-0.1664925068616867,0.63417649269104,0.37549200654029846,0.0,0.0,0.0,-2.663801670074463,-0.38079988956451416,0.6623342633247375,0.4200000464916229,1.0,3.5189802929380676e-06,-2.2830829493614146e-06,-3.625531803663762e-07,0.00026618537958711386,0.0002673575363587588,-0.00010425481013953686,-0.0017349323024973273,0.004195748828351498,-0.0001286051847273484,-0.2714083194732666,0.3198266625404358,1.181795358657837,-2.1459217071533203,3.466881275177002,-2.6095824241638184,0.35837289690971375,0.7360731959342957,0.42000001668930054,-1.136465072631836,2.2530171871185303,-0.1830177903175354,-2.999999523162842,-0.006545025389641523,-0.014894839376211166,-0.0232694074511528,-0.031679898500442505,-0.22889815270900726,-0.2941295802593231,-0.3556556701660156,-0.4135654866695404
0.16666666666666666,0.07875356078147888,0.08535505831241608,0.0,0.977958619594574,0.0,0.0,-0.20879881083965302,0.25657883286476135,0.5298308730125427,0.0,0.0,0.0,-5.806227684020996,-0.38079988956451416,0.6623342633247375,0.4200000464916229,1.0,3.666678594527184e-06,-2.3391096419800306e-06,-3.150171608012897e-07,0.00026595700182951987,0.0002666723739821464,-0.00010403268970549107,-0.0017252295510843396,0.0041927071288228035,-0.00012778618838638067,-0.3059287965297699,0.3810575008392334,1.1308848857879639,-1.8983638286590576,3.902334213256836,-3.344191074371338,0.35837289690971375,0.7360731959342957,0.42000001668930054,-1.0876421928405762,3.000002384185791,-0.1875065565109253,2.0325396060943604,-0.016141721978783607,-0.024903016164898872,-0.03365056961774826,-0.0424024797976017,-0.565956175327301,-0.5929933786392212,-0.6168064475059509,-0.637678861618042
0.18333333333333332,0.08254166692495346,0.09416112303733826,0.0,0.9729706645011902,0.0,0.0,-0.23092883825302124,0.1478082537651062,0.5467690825462341,0.0,0.0,0.0,-1.5206021070480347,-0.38079988956451416,0.6623342633247375,0.4200000464916229,1.0,3.814429419435328e-06,-2.399473942205077e-06,-2.702885524286103e-07,0.0002654908748809248,0.00026611171779222786,-0.00010391091927886009,-0.0017177866538986564,0.00418477039784193,-0.00012754213821608573,-0.3389950692653656,0.4417843818664551,1.0688021183013916,-1.7377365827560425,3.67433500289917,-4.065789699554443,0.35837289690971375,0.7360731959342957,0.42000001668930054,-1.0376404523849487,3.0000007152557373,-0.2244948148727417,-3.0000014305114746,-0.0262866523116827,-0.035188984125852585,-0.044028978794813156,-0.05283338576555252,-0.6744149327278137,-0.6667529344558716,-0.6567027568817139,-0.6448500752449036
0.2,0.08900827914476395,0.10001508891582489,0.0,0.9646986722946167,0.0,0.0,-0.2633562982082367,0.468666136264801,0.24929319322109222,0.0,0.0,0.0,-4.609521865844727,-0.38079988956451416,0.6623342633247375,0.4200000464916229,1.0,3.600096079026116e-06,-2.2911845007911325e-06,-2.2019764855940593e-07,0.00026572897331789136,0.0002664489147718996,-0.00010398100130259991,-0.0017226696945726871,0.004188799764961004,-0.00012773496564477682,-0.3654288649559021,0.5041091442108154,0.99335777759552,-1.318988561630249,3.720201015472412,-4.908766269683838,0.35837289690971375,0.7360731959342957,0.42000001668930054,-0.9876335859298706,2.9999988079071045,-0.274522066116333,-3.0000007152557373,-0.0385073758661747,-0.0469360426068306,-0.05528917536139488,-0.0636046826839447,-0.8616888523101807,-0.8081511855125427,-0.755352795124054,-0.7039492726325989
0.21666666666666667,0.09091123938560486,0.10808351635932922,0.0,0.9601598978042603,0.0,0.0,-0.2794512212276459,0.09426242113113403,0.4738885462284088,0.0,0.0,0.0,-0.5049306154251099,-0.38079988956451416,0.6623342633247375,0.4200000464916229,0.9999999403953552,3.6396977520780638e-06,-2.2619728952122387e-06,2.224548865115139e-07,0.000266873772488907,0.0002675457508303225,-0.00010411953553557396,-0.0017404764657840133,0.004211100284010172,-0.00012783778947778046,-0.3861545920372009,0.5551255941390991,0.9060249328613281,-1.0036286115646362,2.7393951416015625,-5.367550849914551,0.35837289690971375,0.7360731959342957,0.42000001668930054,-0.9376236200332642,3.0000014305114746,-0.3245522975921631,-3.0000011920928955,-0.05437067896127701,-0.06281377375125885,-0.07118651270866394,-0.07948563992977142,-0.7699671983718872,-0.7990066409111023,-0.8277482986450195,-0.8544161915779114
0.23333333333333334,0.09129703789949417,0.1120821163058281,0.0,0.952701985836029,0.0,0.0,-0.3039062023162842,-0.014084613882005215,0.1604316085577011,0.0,0.0,0.0,-3.9340012073516846,-0.3807998597621918,0.6623342633247375,0.4200000464916229,1.0,3.42080284099211e-06,-2.3168156531028217e-06,2.9557230618593167e-07,0.0002668006927706301,0.0002680390316527337,-0.00010442431084811687,-0.0017437431961297989,0.004206867888569832,-0.0001289910142077133,-0.4005376100540161,0.5992871522903442,0.8107849359512329,-0.591846227645874,2.3967394828796387,-5.9336652755737305,0.35837289690971375,0.7360731959342957,0.42000001668930054,-0.8876129388809204,3.000000476837158,-0.37458372116088867,-3.0,-0.0684082955121994,-0.07699379324913025,-0.08550851792097092,-0.09392862766981125,-0.9078364372253418,-0.8973204493522644,-0.8872953057289124,-0.8768929243087769
0.25,0.08786708861589432,0.11846540868282318,0.0,0.9503416419029236,0.0,0.0,-0.31120866537094116,-0.24024643003940582,0.3745212256908417,0.0,0.0,0.0,0.07972294837236404,-0.38079988956451416,0.6623342633247375,0.4200000464916229,0.9999999403953552,3.3476630960649345e-06,-2.259201437482261e-06,1.8082572239563888e-07,0.00026687735226005316,0.00026791065465658903,-0.00010439311154186726,-0.0017403911333531141,0.004208162892609835,-0.00012870095088146627,-0.40968552231788635,0.6287872195243835,0.7122802734375,-0.3776729106903076,1.2821283340454102,-5.829292297363281,0.35837289690971375,0.7360731959342957,0.42000001668930054,-0.8376028537750244,2.9999489784240723,-0.42461538314819336,-2.999960422515869,-0.08483565598726273,-0.0933900773525238,-0.10191772133111954,-0.11034857481718063,-0.9147523045539856,-0.9230900406837463,-0.9340412616729736,-0.9452892541885376
0.26666666666666666,0.08971454203128815,0.11979763209819794,0.0,0.9432608485221863,0.0,0.0,-0.33205273747444153,0.06495829671621323,0.09696795046329498,0.0,0.0,0.0,-3.021242618560791,-0.38079988956451416,0.6623342633247375,0.4200000464916229,0.9999999403953552,3.535753194228164e-06,-2.3002676243777387e-06,-1.2687392825228017e-07,0.00026601721765473485,0.0002671221154741943,-0.00010419590398669243,-0.0017316217999905348,0.00419279420748353,-0.0001284939207835123,-0.4134933352470398,0.6498652696609497,0.6106337308883667,0.17099201679229736,0.8648744821548462,-6.152781963348389,0.35837289690971375,0.7360731959342957,0.42000001668930054,-0.7875940203666687,2.999999523162842,-0.47464656829833984,-2.9999988079071045,-0.09867788106203079,-0.10735394060611725,-0.11603786796331406,-0.12458523362874985,-1.0240086317062378,-1.0180131196975708,-1.0134515762329102,-1.0098350048065186
0.2833333333333333,0.08643392473459244,0.12013017386198044,0.0,0.9435144066810608,0.0,0.0,-0.3313315212726593,-0.2772798538208008,-0.0034317118115723133,0.0,0.0,0.0,0.9999462962150574,-0.38079988956451416,0.6623343229293823,0.4200000464916229,1.0,3.593504743548692e-06,-2.2625924884778215e-06,-5.655554602412849e-08,0.00026704728952609,0.0002677498559933156,-0.00010416866280138493,-0.0017431487794965506,0.0042141578160226345,-0.00012789281026925892,-0.40757113695144653,0.6591342687606812,0.5178505182266235,0.632377564907074,0.34696197509765625,-5.13896369934082,0.35837289690971375,0.7360731959342957,0.42000001668930054,-0.7375852465629578,3.0000014305114746,-0.5246760249137878,-2.9999990463256836,-0.11660858988761902,-0.12499069422483444,-0.13345474004745483,-0.1418306827545166,-1.0145379304885864,-1.0109564065933228,-1.008224368095398,-1.006048560142517
0.3,0.08103100955486298,0.11793746799230576,0.0,0.9390799403190613,0.0,0.0,-0.3436988890171051,-0.3528112769126892,-0.18488751351833344,0.0,0.0,0.0,-2.4067461490631104,-0.3807998597621918,0.6623342633247375,0.4200000464916229,0.9999999403953552,3.7250931654853048e-06,-2.235988176835235e-06,3.8285057257780863e-07,0.0002647978253662586,0.0002667302906047553,-0.00010453863069415092,-0.0017188735073432326,0.00416669063270092,-0.00013016900629736483,-0.3920907974243164,0.6640828847885132,0.43176406621932983,1.232877254486084,0.20881329476833344,-5.113033294677734,0.35837289690971375,0.7360731959342957,0.42000001668930054,-0.6875782012939453,2.9999992847442627,-0.5747038125991821,-3.0000011920928955,-0.13301268219947815,-0.1414087414741516,-0.14990662038326263,-0.15832176804542542,-1.0014631748199463,-1.001107096672058,-1.0008355379104614,-1.000616431236267
0.31666666666666665,0.0736820325255394,0.113279327750206,0.0,0.9404469132423401,0.0,0.0,-0.3399406373500824,-0.48177415132522583,-0.31898313760757446,0.0,0.0,0.0,1.3744149208068848,-0.3808159828186035,0.6624067425727844,0.42000630497932434,0.9999980926513672,-0.0003139498585369438,0.00029143100255168974,-0.0018706975970417261,-0.027206821367144585,0.12558239698410034,-0.010878397151827812,0.31701579689979553,-0.29511862993240356,-7.732823371887207,-0.39299577474594116,0.6678970456123352,0.4246303141117096,0.0013960720971226692,0.20393897593021393,-0.23856495320796967,0.35837289690971375,0.7360731959342957,0.42000001668930054,-0.6375741362571716,3.0000016689300537,-0.6251380443572998,-2.999600887298584,-0.14390259981155396,-0.15215574204921722,-0.16040748357772827,-0.16685107350349426,-0.582511842250824,-0.5629203915596008,-0.5360081791877747,-0.4159378409385681
0.3333333333333333,0.06403698772192001,0.1063576191663742,0.0,0.9364774823188782,0.0,0.0,-0.35072776675224304,-0.6246612071990967,-0.45542845129966736,0.0,0.0,0.0,-2.2814056873321533,-0.3809055984020233,0.6646153330802917,0.41999998688697815,0.999332845211029,2.5285984520451166e-05,-1.32885988932685e-05,-0.036520928144454956,-0.01574336737394333,0.10615333914756775,-0.0004947184352204204,-0.02474723756313324,0.01748037338256836,-2.822544574737549,-0.3920069932937622,0.6694633364677429,0.42265456914901733,0.009711652994155884,0.03075151890516281,0.2848586440086365,0.35837289690971375,0.7360731959342957,0.42000001668930054,-0.587568998336792,2.9999709129333496,-0.6751906871795654,-2.9999940395355225,-0.15408127009868622,-0.16140754520893097,-0.16852788627147675,-0.17252124845981598,-0.5279702544212341,-0.45056140422821045,-0.3576679229736328,-0.19898059964179993
0.35,0.05219707265496254,0.0970415398478508,0.0,0.9382302165031433,0.0,0.0,-0.3460116982460022,-0.7501654624938965,-0.5981857776641846,0.0,0.0,0.0,1.5284091234207153,-0.3795057535171509,0.6692173480987549,0.4204494059085846,0.9931154847145081,0.0012102988548576832,0.010776075534522533,-0.1166362538933754,0.2008543312549591,0.4672834575176239,0.04118097573518753,1.103053092956543,0.9730313420295715,-15.940099716186523,-0.39026057720184326,0.6752964854240417,0.4251050353050232,0.24363702535629272,0.6248511075973511,-0.011098694056272507,0.35837289690971375,0.7360731959342957,0.42000001668930054,-0.5375640392303467,2.999995708465576,-0.725215494632721,-3.000000238418579,-0.16347236931324005,-0.1690652221441269,-0.17413513362407684,-0.17518919706344604,-0.5371947884559631,-0.41991451382637024,-0.28257250785827637,-0.10420681536197662
0.36666666666666664,0.04388730600476265,0.08502945303916931,0.0,0.9347074031829834,0.0,0.0,-0.3554181158542633,-0.4148605465888977,-0.7669815421104431,0.0,0.0,0.0,-2.091616630554199,-0.37409213185310364,0.6793148517608643,0.4200034439563751,0.9851385951042175,4.4991735194344074e-05,-3.730274556801305e-06,-0.17176112532615662,0.44525837898254395,0.7309991121292114,-0.0014592369552701712,0.07507005333900452,-0.03366541862487793,-4.4912519454956055,-0.38332247734069824,0.6853774189949036,0.4224691689014435,0.6150459051132202,0.6371328234672546,-0.2831764817237854,0.35837289690971375,0.7360731959342957,0.42000001668930054,-0.48755931854248047,2.999997138977051,-0.7752395272254944,-2.9999985694885254,-0.17214082181453705,-0.175245001912117,-0.1774459183216095,-0.17511552572250366,-0.4840858280658722,-0.31187570095062256,-0.1169101670384407,0.09817466884851456
0.3833333333333333,0.03286467492580414,0.07142665982246399,0.0,0.919812798500061,0.0,0.0,-0.3923574686050415,-0.7508856058120728,-0.8412166833877563,0.0,0.0,0.0,-5.711902141571045,-0.36291977763175964,0.6954616904258728,0.4203675091266632,0.9774219989776611,-0.00897934753447771,0.0017072720220312476,-0.2110985517501831,0.9028964638710022,1.1739068031311035,0.07458221167325974,-3.492464542388916,1.5172080993652344,-6.101924896240234,-0.36980193853378296,0.6990541219711304,0.42077043652534485,0.9964561462402344,1.0502012968063354,0.1498657464981079,0.35837289690971375,0.7360731959342957,0.42000001668930054,-0.43748098611831665,2.9991016387939453,-0.8252396583557129,-2.9999959468841553,-0.18179412186145782,-0.18168173730373383,-0.18027052283287048,-0.1741325408220291,-0.5254985690116882,-0.33817246556282043,-0.12637224793434143,0.09083328396081924
0.4,0.02505519986152649,0.05488445982336998,0.0,0.891132652759552,0.0,0.0,-0.4537428617477417,-0.4348958134651184,-1.0357446670532227,0.0,0.0,0.0,-8.878083229064941,-0.33207637071609497,0.7198639512062073,0.4246778190135956,0.9645566344261169,-0.010539913550019264,-0.03003842383623123,-0.26194870471954346,2.8961615562438965,1.9133392572402954,0.4145475924015045,12.572721481323242,-9.252569198608398,-1.4083808660507202,-0.3386270999908447,0.7244305610656738,0.4244069755077362,2.768202066421509,1.9631609916687012,0.4410271644592285,0.35837289690971375,0.7360731959342957,0.42000001668930054,-0.3960975110530853,1.6474127769470215,-0.8752632737159729,-2.999927043914795,-0.19065703451633453,-0.18697205185890198,-0.18161660432815552,-0.17159514129161835,-0.6319646835327148,-0.3757854402065277,-0.10160220414400101,0.1586703658103943
0.4166666666666667,0.01923639141023159,0.043430086225271225,0.0,0.8460824489593506,0.0,0.0,-0.5330520272254944,-0.3010602593421936,-0.5672646760940552,0.0,0.0,0.0,-11.709341049194336,-0.25989365577697754,0.757098913192749,0.4309554696083069,0.9435867071151733,0.04573782533407211,-0.07351401448249817,-0.31960582733154297,5.937375545501709,2.1137046813964844,0.45926782488822937,12.244573593139648,-13.128318786621094,19.348073959350586,-0.26583045721054077,0.7625908851623535,0.43055814504623413,5.580404281616211,2.7259345054626465,0.4600319564342499,0.35837289690971375,0.7360731959342957,0.42000001668930054,-0.37771493196487427,0.8800631761550903,-0.8382087349891663,2.9983158111572266,-0.20643121004104614,-0.19914788007736206,-0.18789906799793243,-0.1726430058479309,-0.8896656036376953,-0.8095294237136841,-0.4638800323009491,-0.17089158296585083
0.43333333333333335,0.017183437943458557,0.03485099971294403,0.0,0.8093523979187012,0.0,0.0,-0.5873233675956726,-0.05923563614487648,-0.4718160033226013,0.0,0.0,0.0,-6.735218048095703,-0.16821305453777313,0.7985965013504028,0.440777987241745,0.9002209305763245,0.07698773592710495,-0.10219649225473404,-0.41621026396751404,5.856496810913086,1.6290096044540405,0.7512614130973816,19.82724380493164,-6.607356548309326,20.94649314880371,-0.17368315160274506,0.8059577941894531,0.44004976749420166,5.70125675201416,2.305835723876953,0.6308661699295044,0.35837289690971375,0.7360731959342957,0.42000001668930054,-0.3634745180606842,0.8783050179481506,-0.864956259727478,-3.0000030994415283,-0.21690192818641663,-0.20974363386631012,-0.19429582357406616,-0.17571301758289337,-0.5515835881233215,-0.546539306640625,-0.3401126563549042,-0.18910644948482513
0.45,0.016776926815509796,0.03007953055202961,0.0,0.7920648455619812,0.0,0.0,-0.6104369759559631,0.055177778005599976,-0.24414381384849548,0.0,0.0,0.0,-2.3416643142700195,-0.07288739830255508,0.826518177986145,0.4521567225456238,0.8289351463317871,0.1071465015411377,-0.11159975826740265,-0.5375234484672546,5.675078868865967,0.3759748935699463,0.7886189222335815,-8.284329414367676,6.930845260620117,9.494241714477539,-0.07899066805839539,0.83509361743927,0.45022207498550415,5.874639511108398,1.2990554571151733,0.730487048625946,0.35837289690971375,0.7360731959342957,0.42000001668930054,-0.34841448068618774,0.8294622302055359,-0.9149802327156067,-2.999549150466919,-0.2274370938539505,-0.2191672921180725,-0.2001596838235855,-0.17898133397102356,-0.5759165287017822,-0.488395631313324,-0.298557311296463,-0.1646997481584549
0.4666666666666667,0.01590607315301895,0.020864441990852356,0.0,0.7662873268127441,0.0,0.0,-0.6424980163574219,-0.08555407077074051,-0.7574898600578308,0.0,0.0,0.0,-5.8904900550842285,0.020055577158927917,0.8375606536865234,0.46063610911369324,0.7679181694984436,0.09540199488401413,-0.10281072556972504,-0.6250039339065552,5.727862358093262,-0.37468039989471436,0.48689234256744385,-0.21404296159744263,-10.099079132080078,5.0813751220703125,0.014473367482423782,0.8483432531356812,0.45883291959762573,5.436687469482422,0.27147918939590454,0.5184375643730164,0.35837289690971375,0.7360731959342957,0.42000001668930054,-0.3361695408821106,0.5575811266899109,-0.9650042653083801,-3.0000007152557373,-0.23185929656028748,-0.2224339097738266,-0.20109784603118896,-0.17832660675048828,-0.07510771602392197,2.353917807340622e-07,0.11449692398309708,0.19175685942173004
0.48333333333333334,0.01754600554704666,0.015062735415995121,0.0,0.7521188259124756,0.0,0.0,-0.6590275168418884,0.09228818118572235,-0.28339385986328125,0.0,0.0,0.0,-1.3218395709991455,0.10583861172199249,0.8338412642478943,0.4672672748565674,0.7219669222831726,0.0897391214966774,-0.09646741300821304,-0.6792677044868469,4.605362892150879,-1.21943998336792,0.27496591210365295,-9.292440414428711,-6.089295387268066,21.495376586914062,0.10223321616649628,0.844825267791748,0.4661022424697876,5.129302024841309,-0.4944392442703247,0.46528613567352295,0.35837289690971375,0.7360731959342957,0.42000001668930054,-0.3272216320037842,0.45266324281692505,-1.0150277614593506,-3.000002145767212,-0.23933778703212738,-0.2272718846797943,-0.2034006416797638,-0.1789286732673645,-0.3533670902252197,-0.222695454955101,-0.12475532293319702,-0.07273367047309875
0.5,0.017228808254003525,0.013263977132737637,0.0,0.7326541543006897,0.0,0.0,-0.6806011199951172,-0.075154609978199,-0.03233268857002258,0.0,0.0,0.0,-4.344354629516602,0.18108007311820984,0.8209860324859619,0.4682502746582031,0.6755391955375671,0.08002891391515732,-0.0844157263636589,-0.7280906438827515,3.790428400039673,-1.5752757787704468,-0.17312470078468323,-11.88684368133545,-6.323247909545898,18.281476974487305,0.17824380099773407,0.8324066400527954,0.46759897470474243,4.266870498657227,-1.0384923219680786,-0.01791245862841606,0.35837289690971375,0.7360731959342957,0.42000001668930054,-0.3188983201980591,0.46314355731010437,-1.0650498867034912,-3.000001907348633,-0.23994769155979156,-0.2306307703256607,-0.2059432715177536,-0.18122033774852753,0.007302224636077881,-0.13294732570648193,-0.1130933091044426,-0.12194675952196121
0.5166666666666666,0.0182172954082489,0.012883312068879604,0.0,0.7258738279342651,0.0,0.0,-0.6878278851509094,0.09785489737987518,0.029459454119205475,0.0,0.0,0.0,-0.1539660096168518,0.2422284632921219,0.802012026309967,0.4628606140613556,0.6415154337882996,0.05565972626209259,-0.06830696761608124,-0.7620328068733215,2.927299976348877,-1.7273486852645874,-0.5152648687362671,-7.707374095916748,-0.974277138710022,13.892077445983887,0.24024173617362976,0.8124047517776489,0.46273332834243774,3.373028516769409,-1.3740267753601074,-0.41322100162506104,0.35837289690971375,0.7360731959342957,0.42000001668930054,-0.3085356056690216,0.6984634399414062,-1.1150720119476318,-3.0000016689300537,-0.23765556514263153,-0.23045814037322998,-0.2062338888645172,-0.18237611651420593,0.19681602716445923,0.08803866058588028,0.02558852545917034,-0.05767003819346428
0.5333333333333333,0.021999644115567207,0.009481138549745083,0.0,0.7112162113189697,0.0,0.0,-0.7029733061790466,0.2743457853794098,-0.24031315743923187,0.0,0.0,0.0,-3.2938168048858643,0.29146167635917664,0.7816265821456909,0.44830355048179626,0.6025377511978149,-0.00296643259935081,-0.07836471498012543,-0.794228196144104,2.567274808883667,-1.1067609786987305,-0.992283046245575,-5.006230354309082,-3.7282862663269043,8.53073501586914,0.28927597403526306,0.7918261289596558,0.4500780701637268,2.623009443283081,-1.3060013055801392,-0.9737351536750793,0.35837289690971375,0.7360731959342957,0.42000001668930054,-0.29412344098091125,0.9778426289558411,-1.1650941371917725,-3.0000014305114746,-0.2319006621837616,-0.22667065262794495,-0.20437362790107727,-0.18267953395843506,0.3426094353199005,0.24424345791339874,0.10792481899261475,-0.040804240852594376
0.55,0.02838205173611641,0.009930617175996304,0.0,0.7090840339660645,0.0,0.0,-0.7051239609718323,0.4076726734638214,0.03391437977552414,0.0,0.0,0.0,0.5426275134086609,0.329834908246994,0.7612307071685791,0.428935170173645,0.5524005889892578,-0.026044493541121483,-0.06975933909416199,-0.8302462100982666,1.8649944067001343,-1.5365046262741089,-1.226478934288025,-3.8809738159179688,8.906551361083984,-2.2682108879089355,0.3264610767364502,0.768774688243866,0.43177330493927,1.9784977436065674,-1.3238754272460938,-1.2021474838256836,0.35837289690971375,0.7360731959342957,0.42000001668930054,-0.27031010389328003,1.7627065181732178,-1.215116262435913,-3.0000011920928955,-0.22857148945331573,-0.2243853062391281,-0.20433518290519714,-0.18508848547935486,0.33025771379470825,0.24021847546100616,0.05648418515920639,-0.13096006214618683
0.5666666666666667,0.036865439265966415,0.006310215685516596,0.0,0.697007417678833,0.0,0.0,-0.7170639038085938,0.5441186428070068,-0.2548620402812958,0.0,0.0,0.0,-2.852865695953369,0.3502262234687805,0.7516669034957886,0.4219137728214264,0.5586641430854797,0.00719597190618515,-0.008602210320532322,-0.829318106174469,0.5448389649391174,-1.0341711044311523,0.2575056552886963,28.34323501586914,14.683518409729004,6.678957462310791,0.3470999002456665,0.7572690844535828,0.4237915575504303,0.6772897243499756,-0.31462520360946655,0.04697467386722565,0.35837289690971375,0.7360731959342957,0.42000001668930054,-0.24929320812225342,0.5105918645858765,-1.177272915840149,2.998854398727417,-0.21931640803813934,-0.21737757325172424,-0.2012796700000763,-0.18580041825771332,0.5089054703712463,0.39180803298950195,0.1589030921459198,-0.059480566531419754
0.5833333333333334,0.04290986433625221,0.0060561406426131725,0.0,0.6971995234489441,0.0,0.0,-0.7168771028518677,0.3042478561401367,0.010769958607852459,0.0,0.0,0.0,0.8961700797080994,0.36020106077194214,0.7420710921287537,0.4201691150665283,0.5763585567474365,-0.0010274648666381836,0.003270299406722188,-0.8171897530555725,0.5216123461723328,-0.5873463749885559,-0.10772868990898132,-3.82202410697937,-0.6294331550598145,1.708390474319458,0.3556428551673889,0.7478460073471069,0.42255789041519165,0.3601071536540985,-0.4695786237716675,0.07103708386421204,0.35837289690971375,0.7360731959342957,0.42000001668930054,-0.2819073498249054,-2.9939990043640137,-1.1991369724273682,-2.9657037258148193,-0.21327145397663116,-0.2126186639070511,-0.19992810487747192,-0.18762972950935364,0.4171368479728699,0.33351436257362366,0.1188349798321724,-0.07782881706953049
0.6,0.049555689096450806,0.00873437151312828,0.0,0.6870180368423462,0.0,0.0,-0.7266403436660767,0.41987302899360657,0.19715681672096252,0.0,0.0,0.0,-2.6019937992095947,0.36401891708374023,0.737696647644043,0.4200006127357483,0.5896506309509277,2.881413365685148e-07,1.3760266483586747e-05,-0.807658314704895,0.0865384191274643,-0.10806423425674438,-0.0007744531030766666,-0.018161797896027565,-0.02083682455122471,3.498199462890625,0.3588021993637085,0.7468826770782471,0.4245758056640625,0.16377028822898865,0.15092146396636963,0.15210358798503876,0.35837289690971375,0.7360731959342957,0.42000001668930054,-0.3122731149196625,-0.8576239347457886,-1.2490886449813843,-2.9986989498138428,-0.20424096286296844,-0.20577213168144226,-0.1973249912261963,-0.18877586722373962,0.6701450943946838,0.513023316860199,0.23565390706062317,-0.006973337847739458
0.6166666666666667,0.05828769877552986,0.0065853227861225605,0.0,0.6885941028594971,0.0,0.0,-0.725147008895874,0.4951658844947815,-0.16256587207317352,0.0,0.0,0.0,1.160935401916504,0.36486199498176575,0.736676037311554,0.4200000464916229,0.6009418368339539,-4.2835617364289647e-07,1.135708913579947e-07,-0.7992927432060242,0.0383639894425869,-0.045456673949956894,-1.8933787941932678e-06,6.311582546913996e-05,-4.201598130748607e-05,1.1533927917480469,0.3588998019695282,0.7481093406677246,0.42741867899894714,-0.11705298721790314,0.017590157687664032,0.2002834528684616,0.35837289690971375,0.7360731959342957,0.42000001668930054,-0.356140673160553,-2.999720573425293,-1.2990741729736328,-2.999559164047241,-0.19051074981689453,-0.19451017677783966,-0.19058482348918915,-0.18601328134536743,0.71379154920578,0.6189939975738525,0.3955150842666626,0.19770196080207825
0.6333333333333333,0.06939738243818283,0.008562103845179081,0.0,0.7105655074119568,0.0,0.0,-0.7036310434341431,0.7032402753829956,0.11320681869983673,0.0,0.0,0.0,4.510560989379883,0.3648824989795685,0.7365275025367737,0.41999995708465576,0.602689802646637,5.435329512692988e-06,8.621925189800095e-06,-0.797975480556488,-6.765868602087721e-05,0.0004808446392416954,-0.0002675089053809643,-0.00582567322999239,-2.5436849682591856e-05,0.000830979784950614,0.3569362461566925,0.7466003894805908,0.43095535039901733,-0.08730287104845047,-0.011620983481407166,0.24690136313438416,0.35837289690971375,0.7360731959342957,0.42000001668930054,-0.40615391731262207,-2.9999911785125732,-1.3490475416183472,-2.999498128890991,-0.1831476390361786,-0.18760503828525543,-0.1861337274312973,-0.18362508714199066,0.5132339000701904,0.4814821779727936,0.3434792757034302,0.23317259550094604
0.65,0.07771439105272293,0.007248103618621826,0.0,0.7187976837158203,0.0,0.0,-0.6952193379402161,0.41891396045684814,-0.1382552534341812,0.0,0.0,0.0,0.373245507478714,0.3641103208065033,0.7364457845687866,0.42000052332878113,0.5914064645767212,5.5743716984579805e-06,1.3656061128131114e-05,-0.8063734769821167,-0.060871921479701996,-0.009262011386454105,-0.0006180441123433411,-0.019684845581650734,-0.008114667609333992,-0.978736937046051,0.35540732741355896,0.7463432550430298,0.4357527196407318,-0.1266707181930542,-0.08497593551874161,0.3043535053730011,0.35837289690971375,0.7360731959342957,0.42000001668930054,-0.4561651945114136,-2.9999911785125732,-1.3990309238433838,-2.9999654293060303,-0.1766301542520523,-0.18071036040782928,-0.18046702444553375,-0.1787741333246231,0.33390524983406067,0.39122509956359863,0.3607037663459778,0.3516637086868286
0.6666666666666666,0.08601774275302887,0.00213753548450768,0.0,0.7066163420677185,0.0,0.0,-0.7075968980789185,0.5408953428268433,-0.3812519907951355,0.0,0.0,0.0,-2.9174818992614746,0.36390694975852966,0.7364033460617065,0.41999995708465576,0.5898737907409668,2.948411747638602e-06,-1.3180432688386645e-05,-0.8074953556060791,0.0004458717303350568,-0.0007643085555173457,-6.13995362073183e-05,0.02896716445684433,-0.027775783091783524,-0.004118336830288172,0.35646986961364746,0.7471383213996887,0.44658589363098145,0.2306375652551651,0.11616745591163635,1.0843276977539062,0.35837289690971375,0.7360731959342957,0.42000001668930054,-0.506178081035614,-2.9999921321868896,-1.4490492343902588,-3.000000476837158,-0.17306947708129883,-0.17591318488121033,-0.17570212483406067,-0.1736966073513031,0.1490979939699173,0.23490403592586517,0.25450775027275085,0.2932553291320801
0.6833333333333333,0.09775842726230621,0.001948234741576016,0.0,0.6734389066696167,0.0,0.0,-0.7392429113388062,0.6824178099632263,-0.02756965160369873,0.0,0.0,0.0,-6.2888898849487305,0.36390841007232666,0.736403226852417,0.4200000464916229,0.5898722410202026,1.4285171801020624e-07,-3.5008235954592237e-06,-0.8074964880943298,0.00011244459892623127,-0.00027529196813702583,-8.909101597964764e-05,0.0064253611490130424,-0.001364623662084341,-0.00065188470762223,0.36749696731567383,0.7466588020324707,0.47082433104515076,1.1924968957901,-0.01027948409318924,1.9080400466918945,0.35837289690971375,0.7360731959342957,0.42000001668930054,-0.5561906695365906,-2.999995231628418,-1.4990675449371338,-2.999999761581421,-0.1777411699295044,-0.1779969483613968,-0.1762029528617859,-0.17242485284805298,-0.17543914914131165,-0.052768539637327194,0.023252572864294052,0.1140698790550232
0.7,0.11008210480213165,0.004504783544689417,0.0,0.6539639234542847,0.0,0.0,-0.7565256953239441,0.8280754685401917,0.149617537856102,0.0,0.0,0.0,-2.0343329906463623,0.36390841007232666,0.736403226852417,0.4200000464916229,0.5898722410202026,5.982480502098042e-07,-3.3456158234912436e-06,-0.8074964880943298,0.00012104558845749125,-0.00026954273926094174,-9.248079732060432e-05,0.006217403337359428,-0.001280259108170867,-0.000668059685267508,0.38611096143722534,0.7498573064804077,0.5045537948608398,1.0901951789855957,0.37630829215049744,2.1040797233581543,0.35837289690971375,0.7360731959342957,0.42000001668930054,-0.5768763422966003,0.25399249792099,-1.5490858554840088,-2.999999523162842,-0.1806408166885376,-0.17953050136566162,-0.177084818482399,-0.1725110113620758,-0.022503502666950226,-0.010144961066544056,-0.03418390452861786,-0.051105618476867676
0.7166666666666667,0.12052562087774277,0.008667307905852795,0.0,0.6590714454650879,0.0,0.0,-0.7520803213119507,0.5507270693778992,0.3018704652786255,0.0,0.0,0.0,1.7142666578292847,0.36390841007232666,0.736403226852417,0.4200000464916229,0.589872419834137,2.5221265786967706e-07,-3.1136175948631717e-06,-0.8074963688850403,0.00011930451728403568,-0.0002711326815187931,-9.198975749313831e-05,0.00626668194308877,-0.0013066703686490655,-0.000666138541419059,0.4032320976257324,0.7556209564208984,0.5327998399734497,0.874152421951294,0.3257010579109192,1.3575623035430908,0.35837289690971375,0.7360731959342957,0.42000001668930054,-0.5514215230941772,2.5755772590637207,-1.510215401649475,3.000000476837158,-0.17996825277805328,-0.17873167991638184,-0.17666281759738922,-0.17240560054779053,0.10097526013851166,0.10392547398805618,0.08063077181577682,0.05671125650405884
0.7333333333333333,0.12594766914844513,0.007245595101267099,0.0,0.6525270938873291,0.0,0.0,-0.7577653527259827,0.3380734324455261,-0.0697150006890297,0.0,0.0,0.0,-1.7656934261322021,0.36390841007232666,0.736403226852417,0.4200000464916229,0.5898722410202026,3.9211138869177375e-07,-2.8445977022784064e-06,-0.8074964880943298,0.0001181253683171235,-0.0002720182528719306,-9.170523844659328e-05,0.006294945254921913,-0.0013249479234218597,-0.0006643475499004126,0.411943256855011,0.7621597051620483,0.5492819547653198,0.11079645901918411,0.146418035030365,0.7312654256820679,0.35837289690971375,0.7360731959342957,0.42000001668930054,-0.5323963165283203,-0.07502627372741699,-1.4601589441299438,2.9999992847442627,-0.1723872572183609,-0.17198438942432404,-0.17108280956745148,-0.16800141334533691,0.1710006296634674,0.19195550680160522,0.18965353071689606,0.17497216165065765
0.75,0.1286531537771225,0.010568762198090553,0.0,0.6586524248123169,0.0,0.0,-0.7524473667144775,0.10626164823770523,0.24614432454109192,0.0,0.0,0.0,1.7798857688903809,0.36390841007232666,0.736403226852417,0.4200000464916229,0.5898723006248474,3.245547475216881e-07,-3.2692473723727744e-06,-0.8074965476989746,0.00011610292858676985,-0.0002723131619859487,-9.12337563931942e-05,0.006313681602478027,-0.0013499606866389513,-0.0006600210326723754,0.4135405421257019,0.7634411454200745,0.5569519996643066,0.10051097720861435,0.135444775223732,0.23067623376846313,0.35837289690971375,0.7360731959342957,0.42000001668930054,-0.5146716833114624,2.006490707397461,-1.477110743522644,-3.0000007152557373,-0.1722731739282608,-0.1709955632686615,-0.16959331929683685,-0.16631938517093658,0.0785207748413086,0.1106024831533432,0.12459395080804825,0.11985540390014648
0.7666666666666666,0.12827368080615997,0.009514064528048038,0.0,0.6534937620162964,0.0,0.0,-0.7569319009780884,-0.05710733309388161,-0.13715918362140656,0.0,0.0,0.0,-1.7139430046081543,0.36390841007232666,0.736403226852417,0.4200000464916229,0.5898723006248474,4.204384254080651e-07,-3.1476893127546646e-06,-0.8074964284896851,0.00011758533219108358,-0.000271652388619259,-9.15497075766325e-05,0.006289100274443626,-0.0013285171007737517,-0.000662829028442502,0.4101753234863281,0.764946460723877,0.5552653074264526,-0.5021654963493347,0.017805863171815872,-0.2542387545108795,0.35837289690971375,0.7360731959342957,0.42000001668930054,-0.5108660459518433,-1.2693432569503784,-1.4384490251541138,3.0000014305114746,-0.16918699443340302,-0.16772979497909546,-0.16639024019241333,-0.16349461674690247,0.17967112362384796,0.19119705259799957,0.18913564085960388,0.1656455099582672
0.7833333333333333,0.12959487736225128,0.013773658312857151,0.0,0.6602221727371216,0.0,0.0,-0.7510703802108765,0.012865611352026463,0.26401031017303467,0.0,0.0,0.0,1.8219696283340454,0.36390841007232666,0.736403226852417,0.4200000464916229,0.5898723006248474,3.974364233272354e-07,-2.9567070214397972e-06,-0.8074965476989746,0.00011754292791010812,-0.0002719369949772954,-9.159976616501808e-05,0.006296008359640837,-0.0013320978032425046,-0.0006630915449932218,0.4038604199886322,0.7636970281600952,0.5489628911018372,-0.20060989260673523,0.0932801365852356,-0.45386582612991333,0.35837289690971375,0.7360731959342957,0.42000001668930054,-0.5102773308753967,1.1314939260482788,-1.4558429718017578,-2.999999523162842,-0.1723802238702774,-0.16964714229106903,-0.16725528240203857,-0.1637372374534607,-0.01416207104921341,0.011093071661889553,0.03300594165921211,0.037905145436525345
0.8,0.13158832490444183,0.013908675871789455,0.0,0.6551647186279297,0.0,0.0,-0.755486011505127,0.1888236105442047,-0.015450932085514069,0.0,0.0,0.0,-1.5679984092712402,0.36390841007232666,0.736403226852417,0.4200000464916229,0.5898721814155579,3.41375823609269e-07,-2.943337449323735e-06,-0.8074966073036194,0.00011622384045040235,-0.00027208219398744404,-9.128311648964882e-05,0.006307284347712994,-0.0013478364562615752,-0.0006600597407668829,0.40140384435653687,0.7638866901397705,0.5386980772018433,-0.11202377825975418,-0.15905630588531494,-0.6191664338111877,0.35837289690971375,0.7360731959342957,0.42000001668930054,-0.5337616801261902,-3.0,-1.4172412157058716,3.000000238418579,-0.1710733026266098,-0.16819214820861816,-0.16558191180229187,-0.16202504932880402,-0.05793658271431923,-0.01725338026881218,0.02998226508498192,0.06687039881944656
0.8166666666666667,0.13656337559223175,0.011738372035324574,0.0,0.6394397020339966,0.0,0.0,-0.7688412666320801,0.339277446269989,-0.2556628882884979,0.0,0.0,0.0,-2.959379196166992,0.36390841007232666,0.736403226852417,0.4200000464916229,0.5898722410202026,2.4647997065585514e-07,-3.0509347652696306e-06,-0.8074965476989746,0.00011683518096106127,-0.00027198196039535105,-9.14169941097498e-05,0.006301599554717541,-0.001339778653346002,-0.0006612811703234911,0.40331077575683594,0.7608158588409424,0.5302807092666626,0.33486104011535645,-0.21117132902145386,-0.2934136688709259,0.35837289690971375,0.7360731959342957,0.42000001668930054,-0.5837748646736145,-2.999988317489624,-1.4350597858428955,-2.999999761581421,-0.1732213795185089,-0.1695227324962616,-0.1658792942762375,-0.16137133538722992,-0.12864616513252258,-0.07856342941522598,-0.010814681649208069,0.05636311322450638
0.8333333333333334,0.14386843144893646,0.011047672480344772,0.0,0.6349503993988037,0.0,0.0,-0.7725529074668884,0.4667898416519165,0.031426116824150085,0.0,0.0,0.0,0.365342378616333,0.36390841007232666,0.736403226852417,0.4200000464916229,0.5898720622062683,3.407479027828231e-07,-3.029258550668601e-06,-0.8074966669082642,0.00011658934090519324,-0.0002720397023949772,-9.136018343269825e-05,0.006304008886218071,-0.0013432777486741543,-0.0006608336116187274,0.40921255946159363,0.7595129609107971,0.5283200740814209,0.37899982929229736,0.030153391882777214,0.08596553653478622,0.35837289690971375,0.7360731959342957,0.42000001668930054,-0.6097964644432068,-0.3324548900127411,-1.4850780963897705,-3.000000476837158,-0.17584969103336334,-0.1716688573360443,-0.1672004759311676,-0.16182363033294678,-0.11762654781341553,-0.11178920418024063,-0.08439971506595612,-0.05244523659348488
0.85,0.148587167263031,0.006448670756071806,0.0,0.6536505818367004,0.0,0.0,-0.7567964792251587,0.22754476964473724,-0.30859023332595825,0.0,0.0,0.0,3.598839282989502,0.36390841007232666,0.736403226852417,0.4200000464916229,0.5898723006248474,3.373927484062733e-07,-3.0225587579479907e-06,-0.8074964880943298,0.00011650539090624079,-0.00027209051768295467,-9.134714491665363e-05,0.006305997725576162,-0.0013444009236991405,-0.0006606848910450935,0.41661256551742554,0.7595781087875366,0.5280377268791199,0.4211224913597107,-0.09857632219791412,-0.08495043218135834,0.35837289690971375,0.7360731959342957,0.42000001668930054,-0.6290220618247986,-1.830450177192688,-1.5264586210250854,-2.017491102218628,-0.17496630549430847,-0.17080603539943695,-0.16601797938346863,-0.16024085879325867,-0.04103988781571388,-0.011627470143139362,0.03445478156208992,0.08201033622026443
0.8666666666666667,0.14978139102458954,0.005987829528748989,0.0,0.6584470868110657,0.0,0.0,-0.7526270151138306,0.018282907083630562,-0.009493118152022362,0.0,0.0,0.0,-0.04193155840039253,0.36390841007232666,0.7364032864570618,0.4200000464916229,0.589872419834137,3.1782599307916826e-07,-3.100052254012553e-06,-0.8074963688850403,0.00011521320266183466,-0.0002732099674176425,-9.105191566050053e-05,0.006340136285871267,-0.0013660048134624958,-0.0006595337763428688,0.42260944843292236,0.7552562952041626,0.5221001505851746,0.376218318939209,-0.30448102951049805,-0.4951753616333008,0.35837289690971375,0.7360731959342957,0.42000001668930054,-0.6632308959960938,-2.2126102447509766,-1.5756031274795532,-3.000000238418579,-0.17863577604293823,-0.17353470623493195,-0.16756440699100494,-0.1606128215789795,-0.0925103947520256,-0.06585284322500229,-0.022444531321525574,0.024252209812402725
