vladlanda/robotic-transformer/data/env_000_episode_0282.csv
sim_time_s,robot_box_x,robot_box_y,robot_box_z,robot_box_quat_w,robot_box_quat_x,robot_box_quat_y,robot_box_quat_z,robot_box_linvel_x,robot_box_linvel_y,robot_box_linvel_z,robot_box_angvel_x,robot_box_angvel_y,robot_box_angvel_z,cube_world_x,cube_world_y,cube_world_z,cube_quat_w,cube_quat_x,cube_quat_y,cube_quat_z,cube_linvel_x,cube_linvel_y,cube_linvel_z,cube_angvel_x,cube_angvel_y,cube_angvel_z,endpoint_world_x,endpoint_world_y,endpoint_world_z,endpoint_linvel_x,endpoint_linvel_y,endpoint_linvel_z,target_cube_world_x,target_cube_world_y,target_cube_world_z,gripper_actual_pos_rad_gp_leftgearjoint,gripper_actual_vel_rad_s_gp_leftgearjoint,gripper_actual_pos_rad_gp_rotatingjoint,gripper_actual_vel_rad_s_gp_rotatingjoint,motor_angle_rad_joint1,motor_angle_rad_joint2,motor_angle_rad_joint3,motor_angle_rad_joint4,motor_speed_rad_s_joint1,motor_speed_rad_s_joint2,motor_speed_rad_s_joint3,motor_speed_rad_s_joint4
0.0,0.0,0.0,0.0,1.0,0.0,0.0,0.0,0.0,0.0,0.0,0.0,0.0,0.0,-0.4647969901561737,0.6720066666603088,0.41999998688697815,1.0,0.0,0.0,0.0,0.0,0.0,0.0,0.0,0.0,0.0,3.42540442943573e-06,-0.005000244826078415,1.313499927520752,0.0,0.0,0.0,0.427693247795105,0.7762770652770996,0.42000001668930054,-1.5707999467849731,0.0,0.0,0.0,0.0,0.0,0.0,0.0,0.0,0.0,0.0,0.0
0.016666666666666666,0.0028778850100934505,0.0021806680597364902,0.0,0.9998081922531128,0.0,0.0,0.019586581736803055,0.24087215960025787,0.18240931630134583,0.0,0.0,0.0,3.1418697834014893,-0.46479710936546326,0.672006368637085,0.41999998688697815,1.0,3.2799914606584935e-06,-8.339814598912199e-07,8.465387679734704e-08,-1.9833554688375443e-05,0.00017983050202019513,-6.133061833679676e-05,0.0009432226070202887,-0.004689437802881002,-0.0003198152990080416,-0.007110234349966049,0.003379564033821225,1.3159373998641968,-0.8143353462219238,0.9868683815002441,0.18095196783542633,0.427693247795105,0.7762770652770996,0.42000001668930054,-1.5301095247268677,3.0000011920928955,-0.04584788903594017,-2.9999992847442627,0.0008691533003002405,0.0007963840034790337,0.0007110277656465769,0.0006108740926720202,0.11094217747449875,0.09756709635257721,0.08334315568208694,0.06823883205652237
0.03333333333333333,0.008958404883742332,0.006802089512348175,0.0,0.9997958540916443,0.0,0.0,0.02020583115518093,0.4070039689540863,0.31530481576919556,0.0,0.0,0.0,-0.8692648410797119,-0.4647972285747528,0.6720063090324402,0.4200000464916229,1.0,3.390885240150965e-06,-2.1324319732229924e-06,-3.711133800265998e-08,0.00026357753085903823,0.00026937859365716577,-0.00010509602725505829,-0.0017706351354718208,0.004130707122385502,-0.00013548039714805782,-0.02754964306950569,0.026031598448753357,1.3166210651397705,-1.5915217399597168,1.6150486469268799,-0.08207964152097702,0.427693247795105,0.7762770652770996,0.42000001668930054,-1.4800903797149658,3.000002861022949,-0.09588772803544998,-3.0000011920928955,0.0029891941230744123,0.0026518895756453276,0.0022765418980270624,0.0018600794719532132,0.16423054039478302,0.1397736817598343,0.11383181810379028,0.0863134115934372
0.05,0.01775691844522953,0.013773283921182156,0.0,0.9993743896484375,0.0,0.0,0.03536658361554146,0.593970537185669,0.46516910195350647,0.0,0.0,0.0,2.647338390350342,-0.4647972583770752,0.672006368637085,0.4200000464916229,1.0,3.7652134778909385e-06,-2.2118977085483493e-06,5.605784725304375e-09,0.0002653079864103347,0.00026691483799368143,-0.00010440615005791187,-0.0017242918256670237,0.0041773696430027485,-0.00012949654774274677,-0.05968966335058212,0.05402347818017006,1.3116170167922974,-2.187795639038086,1.77625572681427,-0.48052337765693665,0.427693247795105,0.7762770652770996,0.42000001668930054,-1.4300720691680908,3.000000476837158,-0.14592638611793518,-3.0,0.0057107326574623585,0.004918538965284824,0.004054216668009758,0.003113327780738473,0.19270101189613342,0.15579941868782043,0.11702348291873932,0.07627956569194794
0.06666666666666667,0.029074817895889282,0.02306809462606907,0.0,0.9994469881057739,0.0,0.0,0.03325296565890312,0.7205168008804321,0.5952750444412231,0.0,0.0,0.0,-1.2119709253311157,-0.4647972583770752,0.6720063090324402,0.4200000464916229,0.9999999403953552,3.4068298191414215e-06,-2.28560702453251e-06,4.300801776935259e-07,0.00026702682953327894,0.0002679186000023037,-0.00010437914170324802,-0.0017406968399882317,0.004211870953440666,-0.00012850748316850513,-0.09849567711353302,0.08812513947486877,1.298839807510376,-2.469928741455078,2.205320358276367,-1.0226142406463623,0.427693247795105,0.7762770652770996,0.42000001668930054,-1.3800537586212158,2.9999988079071045,-0.19596371054649353,-2.9999988079071045,0.008360091596841812,0.00689728045836091,0.005323597230017185,0.003632392268627882,0.15797309577465057,0.10840370506048203,0.056805919855833054,0.0031111142598092556
0.08333333333333333,0.04256673902273178,0.03472467511892319,0.0,0.9990015029907227,0.0,0.0,0.044676586985588074,0.8651289939880371,0.7429234981536865,0.0,0.0,0.0,2.566436767578125,-0.4647972583770752,0.6720063090324402,0.4200000464916229,0.9999999403953552,3.6261494642531034e-06,-2.3353520646196557e-06,3.03220957675876e-07,0.00026613869704306126,0.00026685185730457306,-0.00010405178181827068,-0.001728373346850276,0.0041963220573961735,-0.0001279099815292284,-0.14296695590019226,0.12331715226173401,1.2779513597488403,-2.7915890216827393,2.0697970390319824,-1.453301191329956,0.427693247795105,0.7762770652770996,0.42000001668930054,-1.3300354480743408,3.0000011920928955,-0.24598190188407898,-2.999999523162842,0.009986837394535542,0.007687915116548538,0.005238674581050873,0.0026318305172026157,0.08449708670377731,0.027409309521317482,-0.03167687729001045,-0.09277179837226868
0.1,0.05025331303477287,0.04954476282000542,0.0,0.9991191625595093,0.0,0.0,0.04196256399154663,0.3301665186882019,0.9445162415504456,0.0,0.0,0.0,-1.2739681005477905,-0.4647972583770752,0.6720063090324402,0.4200000464916229,1.0,3.422180270717945e-06,-2.3086204237188213e-06,1.7963316167879384e-07,0.0002668162633199245,0.00026800515479408205,-0.00010440475307404995,-0.001743071130476892,0.0042070611380040646,-0.00012891352525912225,-0.1857437640428543,0.16356535255908966,1.2496634721755981,-2.4115543365478516,2.5782265663146973,-1.8470944166183472,0.427693247795105,0.7762770652770996,0.42000001668930054,-1.2800049781799316,2.999995708465576,-0.21195317804813385,3.000001907348633,0.005314527545124292,0.0023109917528927326,-0.0008913506753742695,-0.004303040448576212,-0.39748063683509827,-0.44849449396133423,-0.5018705725669861,-0.5578252673149109
0.11666666666666667,0.06054769083857536,0.06592308729887009,0.0,0.9999499320983887,0.0,0.0,0.010004634968936443,0.8739981055259705,0.976473867893219,0.0,0.0,0.0,-4.614067077636719,-0.4647972583770752,0.672006368637085,0.4200000464916229,1.0,3.7115075883775717e-06,-2.3327127109951107e-06,2.5744481035872013e-07,0.00026485862326808274,0.0002663535997271538,-0.00010423525236546993,-0.0017182156443595886,0.004170025233179331,-0.00012915159459225833,-0.2245391309261322,0.2081514596939087,1.2213413715362549,-2.3375091552734375,2.6390223503112793,-1.5926504135131836,0.427693247795105,0.7762770652770996,0.42000001668930054,-1.2300138473510742,3.000000476837158,-0.24334333837032318,-3.000000238418579,0.0015020797727629542,-0.002894839271903038,-0.0074953800067305565,-0.012310224585235119,-0.05755966156721115,-0.1677834391593933,-0.27643918991088867,-0.3833578824996948
0.13333333333333333,0.07003002613782883,0.07909449934959412,0.0,0.9999924302101135,0.0,0.0,-0.0038922089152038097,0.5182330012321472,0.7364715933799744,0.0,0.0,0.0,-0.6115508079528809,-0.4647972583770752,0.6720063090324402,0.4200000464916229,1.0,3.335707560836454e-06,-2.231929784102249e-06,3.113250670594425e-07,0.00026669655926525593,0.00026759272441267967,-0.00010428344830870628,-0.0017370833083987236,0.004205867648124695,-0.00012840259296353906,-0.26500266790390015,0.2503252923488617,1.1937425136566162,-2.3282084465026855,2.737767219543457,-1.6244362592697144,0.427693247795105,0.7762770652770996,0.42000001668930054,-1.1799904108047485,2.999993085861206,-0.2165239304304123,3.000000476837158,-0.003016153583303094,-0.00910256803035736,-0.01536002941429615,-0.021797960624098778,-0.22277726233005524,-0.3457634150981903,-0.4649025797843933,-0.5799523591995239
0.15,0.07582712173461914,0.09297497570514679,0.0,0.9995602965354919,0.0,0.0,-0.029650921002030373,0.28669676184654236,0.8769030570983887,0.0,0.0,0.0,-3.9047279357910156,-0.4647972583770752,0.6720063090324402,0.4200000464916229,1.0,3.518910716593382e-06,-2.283128196722828e-06,-3.6253297253097116e-07,0.00026618537958711386,0.0002673573326319456,-0.00010425900109112263,-0.001734911696985364,0.004195764660835266,-0.0001286038022954017,-0.30259859561920166,0.2995924949645996,1.1650445461273193,-2.1650848388671875,3.177493095397949,-1.8919224739074707,0.427693247795105,0.7762770652770996,0.42000001668930054,-1.130002737045288,3.0000007152557373,-0.24787537753582,-3.0,-0.008515411987900734,-0.016550663858652115,-0.024678098037838936,-0.03290412947535515,-0.41212198138237,-0.5162662863731384,-0.6155688166618347,-0.7099089622497559
0.16666666666666666,0.07815767079591751,0.10872910171747208,0.0,0.9966409206390381,0.0,0.0,-0.08189541846513748,0.08105553686618805,1.009406566619873,0.0,0.0,0.0,-7.102975845336914,-0.4647972583770752,0.6720063090324402,0.4200000464916229,1.0,3.6666367577709025e-06,-2.339185357413953e-06,-3.1499951091973344e-07,0.00026595836970955133,0.00026667435304261744,-0.0001040350180119276,-0.001725263660773635,0.004192706663161516,-0.0001277874398510903,-0.3395082652568817,0.3571823239326477,1.1267575025558472,-2.134554147720337,3.705084800720215,-2.673947334289551,0.427693247795105,0.7762770652770996,0.42000001668930054,-1.0912340879440308,1.728047490119934,-0.2979027330875397,-3.000000238418579,-0.017392165958881378,-0.026832254603505135,-0.03627621755003929,-0.045730721205472946,-0.6151077747344971,-0.6757738590240479,-0.7314698696136475,-0.7823261618614197
0.18333333333333332,0.08636397868394852,0.12133334577083588,0.0,0.9932308793067932,0.0,0.0,-0.11615673452615738,0.6270442605018616,0.6589019298553467,0.0,0.0,0.0,-3.14509654045105,-0.4647972583770752,0.6720063090324402,0.4200000464916229,1.0,3.81432801077608e-06,-2.3995953597477637e-06,-2.702601591408893e-07,0.00026549241738393903,0.00026611125213094056,-0.0001039144117385149,-0.001717846025712788,0.004184907767921686,-0.0001275365357287228,-0.3793928027153015,0.41497474908828735,1.0754175186157227,-2.2760233879089355,3.634472370147705,-3.5147788524627686,0.427693247795105,0.7762770652770996,0.42000001668930054,-1.0466433763504028,3.0000014305114746,-0.34793180227279663,-3.0000016689300537,-0.023681683465838432,-0.034016337245702744,-0.04426836967468262,-0.05444924905896187,-0.36484429240226746,-0.3938932716846466,-0.4188973903656006,-0.44030511379241943
0.2,0.09076938033103943,0.13167023658752441,0.0,0.9869557619094849,0.0,0.0,-0.1609915792942047,0.18607595562934875,0.5725839138031006,0.0,0.0,0.0,-6.2515668869018555,-0.4647972583770752,0.6720063090324402,0.4200000464916229,1.0,3.600060153985396e-06,-2.291302735102363e-06,-2.201773270371632e-07,0.0002657297591213137,0.00026644914760254323,-0.00010398100130259991,-0.001722595770843327,0.004188771825283766,-0.00012773473281413317,-0.4133816957473755,0.47684985399246216,1.0103187561035156,-1.7111189365386963,3.8804073333740234,-4.1272783279418945,0.427693247795105,0.7762770652770996,0.42000001668930054,-0.9966400265693665,3.0000009536743164,-0.3979591727256775,-2.999999761581421,-0.038146473467350006,-0.048302680253982544,-0.05837029218673706,-0.06821286678314209,-0.9334281086921692,-0.9374976754188538,-0.9410057067871094,-0.9301087856292725
0.21666666666666667,0.09024375677108765,0.1443626433610916,0.0,0.9823538064956665,0.0,0.0,-0.18703219294548035,-0.03806537389755249,0.6799516677856445,0.0,0.0,0.0,-2.0127694606781006,-0.4647972583770752,0.6720063090324402,0.4200000464916229,0.9999999403953552,3.639672286226414e-06,-2.2620502022618894e-06,2.2248650566325523e-07,0.000266873772488907,0.00026754458667710423,-0.00010411953553557396,-0.0017403344390913844,0.004211024381220341,-0.00012783858983311802,-0.4418625831604004,0.5321123600006104,0.9331391453742981,-1.5354135036468506,3.2019245624542236,-4.979315757751465,0.427693247795105,0.7762770652770996,0.42000001668930054,-0.9466351270675659,2.999999523162842,-0.44798699021339417,-2.9999983310699463,-0.05337659642100334,-0.06366565823554993,-0.0738639310002327,-0.08383259177207947,-0.7173769474029541,-0.7498194575309753,-0.7816399931907654,-0.8108370900154114
0.23333333333333334,0.09519195556640625,0.1518760770559311,0.0,0.9742554426193237,0.0,0.0,-0.22544699907302856,0.4000808894634247,0.44835391640663147,0.0,0.0,0.0,-5.409366607666016,-0.4647972285747528,0.6720063090324402,0.4200000464916229,1.0,3.4207396311103366e-06,-2.316890231668367e-06,2.956003868348489e-07,0.0002668009256012738,0.0002680391480680555,-0.00010442500934004784,-0.001743813743814826,0.004206887446343899,-0.00012899574358016253,-0.466086745262146,0.5837897062301636,0.843986451625824,-1.0899845361709595,2.981146812438965,-5.707657814025879,0.427693247795105,0.7762770652770996,0.42000001668930054,-0.8966244459152222,3.0000007152557373,-0.4980162978172302,-2.9999983310699463,-0.06479554623365402,-0.07526583969593048,-0.08565260469913483,-0.09579725563526154,-0.8988646268844604,-0.8575122356414795,-0.8191064596176147,-0.7834287881851196
0.25,0.0948057696223259,0.16161063313484192,0.0,0.9697281718254089,0.0,0.0,-0.2441869080066681,-0.032524462789297104,0.5739768147468567,0.0,0.0,0.0,-1.2226197719573975,-0.4647972583770752,0.6720063090324402,0.4200000464916229,0.9999999403953552,3.3476337648608023e-06,-2.259205075461068e-06,1.8083990482864465e-07,0.00026687842910178006,0.00026791240088641644,-0.00010439497418701649,-0.0017405577236786485,0.004208357073366642,-0.00012870198406744748,-0.4816466271877289,0.6193214654922485,0.7477793097496033,-0.6533473134040833,1.8269281387329102,-5.768654823303223,0.427693247795105,0.7762770652770996,0.42000001668930054,-0.8466137647628784,3.000002145767212,-0.5480460524559021,-3.0000009536743164,-0.08154716342687607,-0.09195384383201599,-0.10230078548192978,-0.11238794773817062,-0.8410708904266357,-0.8742579221725464,-0.9034706354141235,-0.9285004734992981
0.26666666666666666,0.0928615927696228,0.16755278408527374,0.0,0.9615679979324341,0.0,0.0,-0.2745668292045593,-0.1626860648393631,0.2884826362133026,0.0,0.0,0.0,-4.6376214027404785,-0.4647972583770752,0.6720063090324402,0.4200000464916229,0.9999999403953552,3.5357140859559877e-06,-2.3003274236543803e-06,-1.2686156480867794e-07,0.00026601788704283535,0.00026712179533205926,-0.00010419590398669243,-0.0017317213350906968,0.0041928826831281185,-0.0001284949539694935,-0.49068886041641235,0.6465612649917603,0.6469393372535706,-0.22495894134044647,1.3754327297210693,-6.205430030822754,0.427693247795105,0.7762770652770996,0.42000001668930054,-0.7966046929359436,2.999997138977051,-0.598075807094574,-2.9999985694885254,-0.09732449799776077,-0.1078757792711258,-0.11828622221946716,-0.12826736271381378,-0.9956412315368652,-0.9960771203041077,-0.9964096546173096,-0.9804268479347229
0.2833333333333333,0.08784171938896179,0.17028051614761353,0.0,0.9582680463790894,0.0,0.0,-0.2858712673187256,-0.34608471393585205,0.12299524247646332,0.0,0.0,0.0,-0.4304296672344208,-0.4647972583770752,0.672006368637085,0.4200000464916229,1.0,3.5934606330556562e-06,-2.2626402369496645e-06,-5.653511081504803e-08,0.0002670461544767022,0.0002677498559933156,-0.00010416866280138493,-0.001743200235068798,0.004214190412312746,-0.00012789414904545993,-0.491718590259552,0.6614990234375,0.5461668372154236,0.26699644327163696,0.48796385526657104,-5.903487682342529,0.427693247795105,0.7762770652770996,0.42000001668930054,-0.7465959191322327,3.00000262260437,-0.6481046080589294,-2.99999737739563,-0.11437687277793884,-0.12480510771274567,-0.13512642681598663,-0.1450512707233429,-1.002515435218811,-1.001897931098938,-1.001428484916687,-1.0010544061660767
0.3,0.07993859797716141,0.1702987253665924,0.0,0.9511269927024841,0.0,0.0,-0.30880007147789,-0.5309781432151794,-0.0446568988263607,0.0,0.0,0.0,-3.7388131618499756,-0.4647972285747528,0.6720063090324402,0.4200000464916229,0.9999999403953552,3.725018814293435e-06,-2.2360595721693244e-06,3.828810974937369e-07,0.0002647961082402617,0.0002667308726813644,-0.00010453863069415092,-0.0017189140198752284,0.004166588187217712,-0.00013016707089263946,-0.4817821979522705,0.6674810647964478,0.4475453495979309,0.9868960380554199,0.195118248462677,-5.79296875,0.427693247795105,0.7762770652770996,0.42000001668930054,-0.6965880990028381,3.0000014305114746,-0.6981315016746521,-3.0000016689300537,-0.13172097504138947,-0.14198073744773865,-0.15217448770999908,-0.1619981974363327,-1.0036413669586182,-1.0027620792388916,-1.002090334892273,-1.001551628112793
0.31666666666666665,0.06975636631250381,0.167807474732399,0.0,0.9494215846061707,0.0,0.0,-0.3140043020248413,-0.6543880105018616,-0.1950981616973877,0.0,0.0,0.0,0.3087475001811981,-0.4647972583770752,0.6720063090324402,0.4200000464916229,0.9999999403953552,3.55773545379634e-06,-2.278906777064549e-06,2.2836061930320284e-07,0.00026598561089485884,0.00026658637216314673,-0.00010399054735898972,-0.001724138157442212,0.004193493630737066,-0.0001276934490306303,-0.475067675113678,0.6712742447853088,0.4155924320220947,0.4031483829021454,0.6981077790260315,-0.0017863847315311432,0.427693247795105,0.7762770652770996,0.42000001668930054,-0.6468607187271118,2.942655324935913,-0.7485449910163879,-2.732299566268921,-0.1381876915693283,-0.14941830933094025,-0.1603786200284958,-0.17069388926029205,0.02295503579080105,-0.09439478814601898,-0.1824631690979004,-0.23384374380111694
0.3333333333333333,0.0626419261097908,0.16228114068508148,0.0,0.9438848495483398,0.0,0.0,-0.3302747905254364,-0.3729453980922699,-0.38805413246154785,0.0,0.0,0.0,-2.7794933319091797,-0.46298831701278687,0.6757321357727051,0.42065873742103577,0.9983404874801636,0.016462106257677078,4.326663474785164e-05,-0.05518335476517677,0.23658853769302368,0.4843175709247589,0.08968480676412582,4.511627197265625,-0.019024614244699478,-14.493034362792969,-0.47219157218933105,0.6825428009033203,0.42426979541778564,0.3560774624347687,0.741016685962677,-0.12728261947631836,0.427693247795105,0.7762770652770996,0.42000001668930054,-0.5968490242958069,2.9999914169311523,-0.7986074686050415,-2.9999985694885254,-0.13768796622753143,-0.15016193687915802,-0.16187343001365662,-0.17235791683197021,-0.20202091336250305,-0.20531947910785675,-0.18684238195419312,-0.14396020770072937
0.35,0.05274917557835579,0.15491585433483124,0.0,0.9442571997642517,0.0,0.0,-0.3292086720466614,-0.671698272228241,-0.46741291880607605,0.0,0.0,0.0,1.0806095600128174,-0.45674076676368713,0.6900873184204102,0.42152926325798035,0.9959865808486938,0.03970477357506752,-0.00310969864949584,-0.08015234023332596,0.4579552412033081,1.0505818128585815,0.011146084405481815,0.5913488864898682,-0.07946451753377914,-4.438366413116455,-0.4650610685348511,0.696359395980835,0.42235448956489563,0.5147593021392822,0.9738746881484985,-0.09039293974637985,0.427693247795105,0.7762770652770996,0.42000001668930054,-0.5468440651893616,2.9999990463256836,-0.8486330509185791,-3.00000262260437,-0.14613395929336548,-0.15720953047275543,-0.1672404408454895,-0.1757667362689972,-0.6000834703445435,-0.4795288145542145,-0.34438982605934143,-0.19638878107070923
0.36666666666666664,0.04649610072374344,0.1449132263660431,0.0,0.9398484826087952,0.0,0.0,-0.34159165620803833,-0.3198654353618622,-0.6407955288887024,0.0,0.0,0.0,-2.3773226737976074,-0.44912123680114746,0.7074436545372009,0.42037680745124817,0.9928973317146301,0.008930639363825321,-0.0015156816225498915,-0.1186288520693779,0.45916977524757385,1.0408306121826172,-0.09578746557235718,-5.007288455963135,0.9990235567092896,-4.759856224060059,-0.4534706473350525,0.7113624811172485,0.42118269205093384,0.9017695188522339,0.8876373767852783,-0.06775510311126709,0.427693247795105,0.7762770652770996,0.42000001668930054,-0.496839314699173,2.9999849796295166,-0.8986800909042358,-2.9999947547912598,-0.15512023866176605,-0.16373038291931152,-0.1709979921579361,-0.17651166021823883,-0.6026350259780884,-0.4105265736579895,-0.20070019364356995,0.02228386700153351
0.3833333333333333,0.036940399557352066,0.13335153460502625,0.0,0.9246534705162048,0.0,0.0,-0.38080960512161255,-0.6611483097076416,-0.7196748852729797,0.0,0.0,0.0,-5.97399377822876,-0.4369320869445801,0.7297355532646179,0.42005449533462524,0.9879544973373413,-0.00015942899335641414,-0.0013468513498082757,-0.15473854541778564,1.0242760181427002,1.6771743297576904,0.029999056831002235,-0.3998144268989563,-1.4509944915771484,-5.675142765045166,-0.43659162521362305,0.7305266857147217,0.42167359590530396,1.1694145202636719,1.5084831714630127,0.1008652076125145,0.427693247795105,0.7762770652770996,0.42000001668930054,-0.4468321204185486,2.9999687671661377,-0.9487267136573792,-3.0000007152557373,-0.16726812720298767,-0.17240718007087708,-0.17593929171562195,-0.17754529416561127,-0.6927865743637085,-0.49832966923713684,-0.28925880789756775,-0.07113872468471527
0.4,0.03086874820291996,0.11887970566749573,0.0,0.8958725929260254,0.0,0.0,-0.4443110525608063,-0.3298146426677704,-0.9138398766517639,0.0,0.0,0.0,-9.08614730834961,-0.4055105447769165,0.7630417346954346,0.42434677481651306,0.9792023301124573,0.038233619183301926,-0.03182489052414894,-0.19669263064861298,2.7842965126037598,2.491992235183716,0.3177102506160736,10.94256591796875,-7.319436073303223,-1.5571495294570923,-0.40547704696655273,0.7638329267501831,0.4257761240005493,2.696941375732422,2.479240894317627,0.47802820801734924,0.427693247795105,0.7762770652770996,0.42000001668930054,-0.4001832604408264,2.074106216430664,-0.9269025921821594,2.999728202819824,-0.17836050689220428,-0.17986531555652618,-0.17950448393821716,-0.1770741194486618,-0.7702523469924927,-0.5079506039619446,-0.23252421617507935,0.047314297407865524
0.4166666666666667,0.027348097413778305,0.1077546700835228,0.0,0.8512469530105591,0.0,0.0,-0.5247652530670166,-0.13129791617393494,-0.6472465991973877,0.0,0.0,0.0,-11.68235969543457,-0.3372064232826233,0.8132300972938538,0.43212467432022095,0.9584831595420837,0.1084309071302414,-0.06628694385290146,-0.25526198744773865,5.492245197296143,3.1351091861724854,0.5833960771560669,12.974600791931152,-11.05489730834961,15.737135887145996,-0.3369399607181549,0.8139504194259644,0.43393009901046753,5.074036598205566,3.568460702896118,0.6290487051010132,0.427693247795105,0.7762770652770996,0.42000001668930054,-0.3802857995033264,0.8761983513832092,-0.8768656253814697,2.9984323978424072,-0.19257952272891998,-0.1920243352651596,-0.1865178793668747,-0.179137721657753,-0.6893466711044312,-0.6615438461303711,-0.40278568863868713,-0.16082894802093506
0.43333333333333335,0.021972812712192535,0.10119365900754929,0.0,0.8146240711212158,0.0,0.0,-0.5799893140792847,-0.3413020670413971,-0.3242016136646271,0.0,0.0,0.0,-6.5693678855896,-0.24812814593315125,0.8676550388336182,0.44411131739616394,0.9186255931854248,0.1408853977918625,-0.0845026820898056,-0.3593572676181793,5.723700046539307,2.7413086891174316,0.7762963175773621,8.569214820861816,-6.196365833282471,-7.19875431060791,-0.24915090203285217,0.8685046434402466,0.4451606869697571,5.600872039794922,3.0084340572357178,0.6897769570350647,0.427693247795105,0.7762770652770996,0.42000001668930054,-0.36239248514175415,1.307267189025879,-0.9032529592514038,-2.9995880126953125,-0.20725886523723602,-0.20542901754379272,-0.19545018672943115,-0.18402551114559174,-0.8314753174781799,-0.7429903149604797,-0.5070710182189941,-0.29810136556625366
0.45,0.020580589771270752,0.08972671627998352,0.0,0.7959014177322388,0.0,0.0,-0.6054261922836304,-0.08995158225297928,-0.7004693746566772,0.0,0.0,0.0,-2.3925528526306152,-0.1479163020849228,0.907704770565033,0.4565032422542572,0.8645859956741333,0.15733963251113892,-0.06928963214159012,-0.47215908765792847,6.4507622718811035,1.0124073028564453,0.5657984614372253,5.29538106918335,-17.06169319152832,20.46952247619629,-0.149883434176445,0.9110379219055176,0.45544588565826416,6.36184024810791,1.8944711685180664,0.792445719242096,0.427693247795105,0.7762770652770996,0.42000001668930054,-0.3408206105232239,1.0887908935546875,-0.9532769918441772,-3.000004529953003,-0.217924565076828,-0.21382340788841248,-0.19974307715892792,-0.18460457026958466,-0.8124121427536011,-0.5798655152320862,-0.27351585030555725,0.007656217087060213
0.4666666666666667,0.016141781583428383,0.08357662707567215,0.0,0.7702507972717285,0.0,0.0,-0.6377410888671875,-0.2775953710079193,-0.3475405275821686,0.0,0.0,0.0,-5.597571849822998,-0.040978796780109406,0.9263699054718018,0.4674730598926544,0.7986719608306885,0.1674884706735611,-0.08328526467084885,-0.5719563961029053,6.452215194702148,0.3266180753707886,0.5285283327102661,-3.7303383350372314,-3.6224098205566406,3.4316489696502686,-0.04296412691473961,0.9313508868217468,0.4668564796447754,6.656618118286133,0.7911248207092285,0.7387418150901794,0.427693247795105,0.7762770652770996,0.42000001668930054,-0.3247263431549072,0.9249611496925354,-1.0033011436462402,-3.0000007152557373,-0.23325669765472412,-0.22638855874538422,-0.20693044364452362,-0.18690112233161926,-0.7075365781784058,-0.6006214022636414,-0.3437558114528656,-0.10693821310997009
0.48333333333333334,0.01453632116317749,0.074466273188591,0.0,0.7571728825569153,0.0,0.0,-0.6532145142555237,-0.034250613301992416,-0.5578805208206177,0.0,0.0,0.0,-1.285778284072876,0.06577058136463165,0.925361692905426,0.47626301646232605,0.7260944843292236,0.14890506863594055,-0.08969409018754959,-0.6652585864067078,6.107219219207764,-1.4769898653030396,0.4673207402229309,17.604286193847656,-20.582311630249023,26.62441062927246,0.06437186151742935,0.9321374893188477,0.4758507013320923,6.394670009613037,-0.7267047166824341,0.4602435231208801,0.427693247795105,0.7762770652770996,0.42000001668930054,-0.3137581944465637,0.3578614890575409,-1.05332612991333,-3.000004768371582,-0.24001207947731018,-0.23582260310649872,-0.21188262104988098,-0.18783676624298096,-0.04318055510520935,-0.6495939493179321,-0.36576011776924133,-0.11594146490097046
0.5,0.01602921262383461,0.06915461272001266,0.0,0.736220121383667,0.0,0.0,-0.6767421960830688,0.12915398180484772,-0.2824399471282959,0.0,0.0,0.0,-4.656087398529053,0.1619945913553238,0.9079355001449585,0.4784635603427887,0.678277850151062,0.12318025529384613,-0.09713821113109589,-0.7178647518157959,5.191424369812012,-1.69780695438385,-0.02609514631330967,-4.917083263397217,6.761162757873535,3.618032455444336,0.16178154945373535,0.9145647287368774,0.479025661945343,5.54913330078125,-1.4041714668273926,0.019625674933195114,0.427693247795105,0.7762770652770996,0.42000001668930054,-0.3086448311805725,0.36617353558540344,-1.1033482551574707,-3.0000007152557373,-0.23972418904304504,-0.23980902135372162,-0.21930614113807678,-0.191849946975708,0.05324758589267731,0.059323497116565704,-0.31795111298561096,-0.18636444211006165
0.5166666666666666,0.020091062411665916,0.06678374111652374,0.0,0.7284581661224365,0.0,0.0,-0.6850902438163757,0.2814464271068573,-0.08667319267988205,0.0,0.0,0.0,-0.33598726987838745,0.24608637392520905,0.8790337443351746,0.4724282920360565,0.6008073687553406,0.06813753396272659,-0.11777770519256592,-0.7877283692359924,4.386071681976318,-2.342819929122925,-0.6757550239562988,-16.817829132080078,10.151870727539062,-4.6528801918029785,0.2454146444797516,0.8869543671607971,0.4747251570224762,4.641427993774414,-1.9536049365997314,-0.405325323343277,0.427693247795105,0.7762770652770996,0.42000001668930054,-0.2990478277206421,0.6774855852127075,-1.1533703804016113,-2.9999916553497314,-0.2388744205236435,-0.23825615644454956,-0.22314150631427765,-0.19429191946983337,0.10050556063652039,0.16220155358314514,-0.12293783575296402,-0.09198298305273056
0.5333333333333333,0.025987625122070312,0.06631758064031601,0.0,0.7124601006507874,0.0,0.0,-0.7017126083374023,0.4213557243347168,0.07439782470464706,0.0,0.0,0.0,-3.596010208129883,0.3174152672290802,0.8471612334251404,0.4561633765697479,0.5150030851364136,-0.06194034218788147,-0.17138981819152832,-0.8375922441482544,3.7000720500946045,-1.623023271560669,-0.7753763794898987,3.950073003768921,4.393731117248535,18.087356567382812,0.3162609338760376,0.8575243949890137,0.4634215235710144,4.004227161407471,-1.8444828987121582,-0.9689699411392212,0.427693247795105,0.7762770652770996,0.42000001668930054,-0.2842397093772888,0.9532101154327393,-1.203392505645752,-2.9996984004974365,-0.23458874225616455,-0.23360539972782135,-0.22338801622390747,-0.19546212255954742,0.32998329401016235,0.33326345682144165,0.047136321663856506,-0.07216943800449371
0.55,0.0351249985396862,0.062188878655433655,0.0,0.708338737487793,0.0,0.0,-0.705872654914856,0.5162826180458069,-0.2607409656047821,0.0,0.0,0.0,0.23869851231575012,0.3763567805290222,0.8187136650085449,0.4380793869495392,0.4515966475009918,-0.07815580815076828,-0.14962580800056458,-0.8761074542999268,2.990926504135132,-1.6423671245574951,-1.2697622776031494,0.2497100681066513,4.336151599884033,-3.74436616897583,0.37376871705055237,0.8268887996673584,0.4457019567489624,2.966557502746582,-1.883316993713379,-1.1291792392730713,0.427693247795105,0.7762770652770996,0.42000001668930054,-0.26543113589286804,1.4489673376083374,-1.2534146308898926,-3.000000476837158,-0.22595378756523132,-0.2250596582889557,-0.21930716931819916,-0.19420243799686432,0.4710759222507477,0.4859599173069,0.2621176540851593,0.07513175904750824
0.5666666666666667,0.046048857271671295,0.06228460371494293,0.0,0.6944535374641418,0.0,0.0,-0.7195375561714172,0.6992942690849304,0.00691546406596899,0.0,0.0,0.0,-3.147979259490967,0.4198745787143707,0.7977851033210754,0.4211970865726471,0.4650886356830597,0.0021599982865154743,0.007519471924751997,-0.8852295279502869,2.1055357456207275,-0.7855570912361145,-0.07071946561336517,3.8526759147644043,-1.3720166683197021,6.795048236846924,0.4169815480709076,0.8017154335975647,0.4262951612472534,2.0704658031463623,-1.0427287817001343,-0.73618084192276,0.427693247795105,0.7762770652770996,0.42000001668930054,-0.23796877264976501,1.615020513534546,-1.242040991783142,2.9965837001800537,-0.2195024937391281,-0.218723326921463,-0.21652346849441528,-0.1951279193162918,0.5727130770683289,0.49742361903190613,0.25247010588645935,-0.03208638355135918
0.5833333333333334,0.05455207824707031,0.061972297728061676,0.0,0.6931217312812805,0.0,0.0,-0.7208205461502075,0.4398588538169861,-0.038618963211774826,0.0,0.0,0.0,0.6927229166030884,0.4474412798881531,0.7899191379547119,0.4201774001121521,0.4416561424732208,-0.0013577563222497702,0.004029136151075363,-0.8971742391586304,1.2869563102722168,-0.5451797246932983,0.054632533341646194,1.9627941846847534,2.0110628604888916,5.433448314666748,0.44014543294906616,0.7863396406173706,0.42495274543762207,0.9454623460769653,-0.9420906901359558,-0.21576154232025146,0.427693247795105,0.7762770652770996,0.42000001668930054,-0.2217974215745926,0.5736854672431946,-1.26401948928833,-2.9999921321868896,-0.21193794906139374,-0.21170315146446228,-0.21238964796066284,-0.19512692093849182,0.40678226947784424,0.39365386962890625,0.26127859950065613,0.021909158676862717
0.6,0.06291386485099792,0.06339893490076065,0.0,0.6816467642784119,0.0,0.0,-0.7316814064979553,0.5485680103302002,0.16893544793128967,0.0,0.0,0.0,-2.8076207637786865,0.45667555928230286,0.7849503755569458,0.42157086730003357,0.5029828548431396,-0.013713018968701363,0.027665648609399796,-0.8637446165084839,0.35033413767814636,-0.23765672743320465,-0.024254322052001953,-0.5130723714828491,0.2888779044151306,6.667305946350098,0.4513605535030365,0.7786170840263367,0.42416220903396606,0.3855377435684204,-0.22849781811237335,-0.011328302323818207,0.427693247795105,0.7762770652770996,0.42000001668930054,-0.23370474576950073,-1.8094924688339233,-1.2285001277923584,3.000290632247925,-0.2035735845565796,-0.20432928204536438,-0.20742273330688477,-0.1945158988237381,0.5472190380096436,0.4696476459503174,0.33123788237571716,0.06302869319915771
0.6166666666666667,0.06917309761047363,0.06790950149297714,0.0,0.6822001338005066,0.0,0.0,-0.7311654686927795,0.2951876223087311,0.32680293917655945,0.0,0.0,0.0,0.9913135170936584,0.4613955020904541,0.7814093232154846,0.42036306858062744,0.5353882908821106,-0.004918149206787348,0.007367703132331371,-0.8445596098899841,0.10203947126865387,-0.18987371027469635,-0.06497780978679657,-1.5179085731506348,-3.03745436668396,3.8317785263061523,0.45271560549736023,0.772473156452179,0.42280811071395874,-0.07632706314325333,-0.2885737419128418,0.1579899936914444,0.427693247795105,0.7762770652770996,0.42000001668930054,-0.2811424434185028,-2.999999523162842,-1.2495895624160767,-2.99959397315979,-0.19535031914710999,-0.19722719490528107,-0.20212648808956146,-0.19337481260299683,0.4738025367259979,0.41003650426864624,0.32224875688552856,0.08643075078725815
0.6333333333333333,0.07564088702201843,0.06869672238826752,0.0,0.6721704602241516,0.0,0.0,-0.7403964400291443,0.41751861572265625,0.0352855920791626,0.0,0.0,0.0,-2.477043867111206,0.4620495140552521,0.7798133492469788,0.42000043392181396,0.5646767616271973,-5.004118065699004e-06,-5.286503437673673e-06,-0.825312077999115,-0.04274800419807434,0.009316990152001381,-0.0007733103702776134,0.029955033212900162,-0.0057310666888952255,3.874105215072632,0.4536077380180359,0.7731783390045166,0.4260173439979553,0.011387404054403305,0.11457481980323792,0.19036710262298584,0.427693247795105,0.7762770652770996,0.42000001668930054,-0.3272224962711334,-2.5246384143829346,-1.2995598316192627,-2.9993464946746826,-0.18346814811229706,-0.1872340589761734,-0.19411545991897583,-0.18976086378097534,0.6190157532691956,0.527523934841156,0.440334290266037,0.2048010379076004
0.65,0.08446121960878372,0.07275579124689102,0.0,0.6745320558547974,0.0,0.0,-0.7382455468177795,0.5471208095550537,0.2758590877056122,0.0,0.0,0.0,1.2731943130493164,0.4597291648387909,0.779914140701294,0.42000049352645874,0.5822286009788513,-2.920249789895024e-05,1.9798499124590307e-05,-0.8130250573158264,-0.22497737407684326,0.0330602303147316,-0.0011007359717041254,-0.021818678826093674,-0.05357793718576431,2.3208625316619873,0.450451135635376,0.7734439373016357,0.42896196246147156,-0.25382471084594727,0.058915212750434875,0.19971930980682373,0.427693247795105,0.7762770652770996,0.42000001668930054,-0.3769315779209137,-2.9999310970306396,-1.3495537042617798,-2.9999866485595703,-0.17653971910476685,-0.18117937445640564,-0.1887393593788147,-0.18755078315734863,0.44245341420173645,0.37927037477493286,0.33732175827026367,0.1522161364555359
0.6666666666666666,0.09476529806852341,0.07323654741048813,0.0,0.6661457419395447,0.0,0.0,-0.7458215951919556,0.6437451243400574,-0.02071499638259411,0.0,0.0,0.0,-2.3948750495910645,0.4569712281227112,0.7802910208702087,0.4200000464916229,0.5926152467727661,6.021213607709797e-07,7.664912118343636e-07,-0.8054856657981873,-0.1455109864473343,0.0190249215811491,-3.391643986105919e-06,-0.00015266849368344992,1.3636346011480782e-05,1.2975670099258423,0.4482245445251465,0.7769697904586792,0.4326411485671997,-0.07568927854299545,0.2112291157245636,0.24660709500312805,0.427693247795105,0.7762770652770996,0.42000001668930054,-0.42697301506996155,-2.9997875690460205,-1.3995243310928345,-2.999506950378418,-0.16752806305885315,-0.17337191104888916,-0.18162944912910461,-0.1833467036485672,0.46890103816986084,0.4236568510532379,0.4126306176185608,0.27521300315856934
0.6833333333333333,0.10663926601409912,0.07055404782295227,0.0,0.669172465801239,0.0,0.0,-0.7431071400642395,0.7425947785377502,-0.23612532019615173,0.0,0.0,0.0,1.409104585647583,0.4539579749107361,0.7805278897285461,0.4200158715248108,0.6197504997253418,0.00020257086725905538,-0.0003782143467105925,-0.7847986817359924,-0.2498594969511032,0.0331331267952919,0.016596928238868713,-0.24115727841854095,-0.7936157584190369,2.621060609817505,0.4452013373374939,0.7790839672088623,0.44123023748397827,-0.23109158873558044,0.12588700652122498,0.82707679271698,0.427693247795105,0.7762770652770996,0.42000001668930054,-0.4769872725009918,-3.000000476837158,-1.4495426416397095,-2.999999523162842,-0.16327176988124847,-0.16885432600975037,-0.1761837601661682,-0.17889893054962158,0.17135140299797058,0.21540430188179016,0.3045748174190521,0.29033440351486206
0.7,0.12141604721546173,0.07244345545768738,0.0,0.6607334613800049,0.0,0.0,-0.7506206035614014,0.8505328297615051,0.14109092950820923,0.0,0.0,0.0,-2.29240083694458,0.45061054825782776,0.7809443473815918,0.4200000464916229,0.6322699785232544,1.4424664129819575e-07,1.7451316125516314e-06,-0.7747480273246765,-0.17906716465950012,0.02151438407599926,-2.9073096811771393e-05,-0.0004435376322362572,-0.0014664136106148362,1.6065037250518799,0.44647589325904846,0.7813396453857422,0.453542560338974,0.4275627136230469,0.2484549880027771,0.7796708941459656,0.427693247795105,0.7762770652770996,0.42000001668930054,-0.5269998908042908,-2.9999992847442627,-1.4995609521865845,-3.0,-0.1645471155643463,-0.1688058078289032,-0.17398935556411743,-0.17605580389499664,0.05151594057679176,0.10062594711780548,0.2064618319272995,0.241026371717453
0.7166666666666667,0.13747422397136688,0.069845050573349,0.0,0.6299408078193665,0.0,0.0,-0.7766430974006653,1.0150482654571533,-0.17356377840042114,0.0,0.0,0.0,-5.6769843101501465,0.4486187994480133,0.7811693549156189,0.4199999272823334,0.638157844543457,4.1753378354769666e-06,-5.236560809862567e-06,-0.7699055671691895,-0.09911084175109863,0.01052865106612444,-7.540220394730568e-05,0.0016818537842482328,0.003486139699816704,0.7031006813049316,0.4586930274963379,0.7841490507125854,0.4727739095687866,0.9729757905006409,-0.04691901057958603,1.655434012413025,0.427693247795105,0.7762770652770996,0.42000001668930054,-0.5770123600959778,-2.9999983310699463,-1.5495792627334595,-3.0,-0.16341184079647064,-0.16670800745487213,-0.17000404000282288,-0.17119356989860535,-0.19137443602085114,-0.07192022353410721,0.09755929559469223,0.21081921458244324
0.7333333333333333,0.1512819081544876,0.06939403712749481,0.0,0.6131871938705444,0.0,0.0,-0.7899376153945923,0.7500796914100647,0.009938672184944153,0.0,0.0,0.0,-1.5463241338729858,0.44794711470603943,0.7812363505363464,0.42000001668930054,0.6396117210388184,7.453321586581296e-07,-2.4396067033194413e-07,-0.7686980366706848,-0.01831628382205963,0.0016787606291472912,-1.7907994333654642e-05,-0.0009696756605990231,0.0009120256290771067,0.08438566327095032,0.4766903519630432,0.7876964807510376,0.5030169486999512,1.1398601531982422,0.4565761685371399,1.9511122703552246,0.427693247795105,0.7762770652770996,0.42000001668930054,-0.5968523025512695,0.3440330922603607,-1.5995947122573853,-2.999999761581421,-0.16651326417922974,-0.16849102079868317,-0.1697675883769989,-0.16978804767131805,-0.08649888634681702,-0.062049444764852524,-0.0021416659001260996,0.013104905374348164
0.75,0.16048333048820496,0.07170743495225906,0.0,0.6212835311889648,0.0,0.0,-0.7835858464241028,0.47877612709999084,0.1896146684885025,0.0,0.0,0.0,2.1039764881134033,0.44794684648513794,0.7812366485595703,0.42000001668930054,0.6396118402481079,-7.061365892013782e-08,-4.364235337561695e-06,-0.7686980366706848,0.00016516674077138305,-0.00016771660011727363,-4.7286273911595345e-05,0.00011449096928117797,-0.001505704945884645,-0.0004764534533023834,0.4934065639972687,0.7950536012649536,0.5294004082679749,0.8123481273651123,0.4512087106704712,1.2726384401321411,0.427693247795105,0.7762770652770996,0.42000001668930054,-0.5694109797477722,2.7183916568756104,-1.5607047080993652,3.0000007152557373,-0.1678122729063034,-0.16923020780086517,-0.16944575309753418,-0.16905252635478973,-0.029167357832193375,0.0047117373906075954,0.06270646303892136,0.08677291125059128
0.7666666666666666,0.16505219042301178,0.07066374272108078,0.0,0.6174635887145996,0.0,0.0,-0.7865994572639465,0.18361298739910126,-0.11723406612873077,0.0,0.0,0.0,-1.4255497455596924,0.44794678688049316,0.7812367677688599,0.41999998688697815,0.6396118998527527,-5.092722972221964e-07,-6.013784513925202e-06,-0.7686979174613953,0.0002171954547520727,-0.00041067664278671145,-8.923094719648361e-05,0.009011083282530308,-0.001146626891568303,-0.0005692088161595166,0.49993669986724854,0.8007733821868896,0.5436428785324097,-0.04251157492399216,0.24826110899448395,0.624617874622345,0.427693247795105,0.7762770652770996,0.42000001668930054,-0.5455043315887451,0.335733562707901,-1.510648250579834,3.0,-0.16821976006031036,-0.1688602715730667,-0.1680101901292801,-0.16705898940563202,-0.052900075912475586,0.010829920880496502,0.08452200144529343,0.12956993281841278
0.7833333333333333,0.16561634838581085,0.07454770803451538,0.0,0.6259092688560486,0.0,0.0,-0.7798958420753479,-0.0008702226914465427,0.1942247450351715,0.0,0.0,0.0,1.9929392337799072,0.44794678688049316,0.7812367677688599,0.41999998688697815,0.6396120190620422,-5.262723448140605e-07,-5.876372142665787e-06,-0.7686979174613953,0.00021411983470898122,-0.0004080355283804238,-8.89988150447607e-05,0.008932025171816349,-0.0011459370143711567,-0.000560664338991046,0.4980512261390686,0.8029931783676147,0.5505095720291138,-0.051913924515247345,0.22218364477157593,0.215873122215271,0.427693247795105,0.7762770652770996,0.42000001668930054,-0.5308644771575928,1.3261029720306396,-1.5265710353851318,-3.000000238418579,-0.17381049692630768,-0.1723913699388504,-0.1694716215133667,-0.16695678234100342,-0.10457709431648254,-0.039822619408369064,0.02765996940433979,0.07617978006601334
0.8,0.1656472533941269,0.0731474757194519,0.0,0.6205300688743591,0.0,0.0,-0.7841826677322388,-0.06681621819734573,-0.0570954829454422,0.0,0.0,0.0,-1.5144647359848022,0.44794678688049316,0.7812367081642151,0.41999998688697815,0.639611542224884,-6.407331056834664e-07,-5.757268809247762e-06,-0.7686982750892639,0.00021521872258745134,-0.0004090455186087638,-8.909194730222225e-05,0.008960818871855736,-0.0011443349067121744,-0.0005635014385916293,0.49348175525665283,0.806045651435852,0.5472968816757202,-0.5766253471374512,0.0921136662364006,-0.3993186354637146,0.427693247795105,0.7762770652770996,0.42000001668930054,-0.5331895351409912,-1.3724901676177979,-1.4877662658691406,3.000000476837158,-0.1729641705751419,-0.1709612011909485,-0.16745658218860626,-0.16458076238632202,-0.06692839413881302,-0.0065224613063037395,0.047905370593070984,0.08855902403593063
0.8166666666666667,0.16774971783161163,0.0758332908153534,0.0,0.6287639737129211,0.0,0.0,-0.7775961756706238,0.10211814194917679,0.16832460463047028,0.0,0.0,0.0,1.9972655773162842,0.4479467570781708,0.7812367081642151,0.41999998688697815,0.6396118998527527,-6.397974061655987e-07,-5.751013759436319e-06,-0.76869797706604,0.00021486912737600505,-0.0004096485790796578,-8.91638919711113e-05,0.008973950520157814,-0.0011501727858558297,-0.0005627155187539756,0.48643967509269714,0.8058110475540161,0.5412988662719727,-0.23021458089351654,0.1023448035120964,-0.28171613812446594,0.427693247795105,0.7762770652770996,0.42000001668930054,-0.5513098835945129,-0.8340089321136475,-1.5041857957839966,-3.000000476837158,-0.17781862616539001,-0.17407000064849854,-0.16893380880355835,-0.16459769010543823,-0.07903274893760681,-0.029646120965480804,0.02133563533425331,0.07614250481128693
0.8333333333333334,0.17087823152542114,0.07499811798334122,0.0,0.6242804527282715,0.0,0.0,-0.7812002897262573,0.23887594044208527,-0.09894154965877533,0.0,0.0,0.0,-1.5333772897720337,0.4479467570781708,0.7812367081642151,0.41999998688697815,0.6396118402481079,-6.539882519973617e-07,-5.743995643570088e-06,-0.7686979174613953,0.0002153488458134234,-0.0004100938094779849,-8.922070264816284e-05,0.00898658949881792,-0.0011505034053698182,-0.000564076064620167,0.48495572805404663,0.8053312301635742,0.5334534049034119,0.027071606367826462,-0.18644869327545166,-0.4932521879673004,0.427693247795105,0.7762770652770996,0.42000001668930054,-0.593197226524353,-2.999999761581421,-1.5542041063308716,-3.0,-0.17845876514911652,-0.1738951951265335,-0.16785095632076263,-0.16241554915905,-0.10395477712154388,-0.031399019062519073,0.0473913736641407,0.14066986739635468
0.85,0.1766969859600067,0.07074914872646332,0.0,0.5994084477424622,0.0,0.0,-0.8004433512687683,0.39693769812583923,-0.31694748997688293,0.0,0.0,0.0,-4.674676418304443,0.44794678688049316,0.7812367081642151,0.41999998688697815,0.6396117210388184,-6.315725045169529e-07,-5.662287094310159e-06,-0.7686980962753296,0.0002147280756616965,-0.00040898454608395696,-8.908682502806187e-05,0.00895777065306902,-0.0011481234105303884,-0.0005623194738291204,0.48992234468460083,0.800618588924408,0.5286179780960083,0.580575704574585,-0.3620211184024811,0.0578639917075634,0.427693247795105,0.7762770652770996,0.42000001668930054,-0.6432040929794312,-2.9999589920043945,-1.604222297668457,-2.9999992847442627,-0.18134449422359467,-0.17556391656398773,-0.16817395389080048,-0.16108962893486023,-0.18080608546733856,-0.11334028840065002,-0.037592560052871704,0.05897500738501549
0.8666666666666667,0.18527951836585999,0.06928586214780807,0.0,0.5894611477851868,0.0,0.0,-0.8077967166900635,0.5416969060897827,-0.028361624106764793,0.0,0.0,0.0,-0.4316425323486328,0.4479467570781708,0.7812367677688599,0.41999998688697815,0.6396117210388184,-6.371117819981009e-07,-5.7181187003152445e-06,-0.7686980962753296,0.0002144070022040978,-0.0004088250861968845,-8.907471783459187e-05,0.008952030912041664,-0.0011478762608021498,-0.0005613503162749112,0.497847318649292,0.7989428639411926,0.5331668853759766,0.3933054506778717,0.13268858194351196,0.4491642117500305,0.427693247795105,0.7762770652770996,0.42000001668930054,-0.6606166362762451,0.6118839383125305,-1.6542367935180664,-3.000000238418579,-0.18447858095169067,-0.17826427519321442,-0.17036670446395874,-0.16245633363723755,-0.08033011108636856,-0.10995560884475708,-0.1376822143793106,-0.14648838341236115
0.8833333333333333,0.1908605545759201,0.0701567754149437,0.0,0.6042060256004333,0.0,0.0,-0.7968281507492065,0.26941922307014465,0.11295563727617264,0.0,0.0,0.0,3.0235140323638916,0.44794678688049316,0.7812367081642151,0.41999998688697815,0.6396116614341736,-4.617793933903158e-07,-5.72292310607736e-06,-0.7686980962753296,0.00021559347806032747,-0.00040895893471315503,-8.905306458473206e-05,0.008961032144725323,-0.0011398078640922904,-0.0005643862532451749,0.5048680305480957,0.8025625348091125,0.5361852645874023,0.37727904319763184,0.25975844264030457,-0.04308626055717468,0.427693247795105,0.7762770652770996,0.42000001668930054,-0.6406794190406799,1.6708054542541504,-1.6150684356689453,3.0000007152557373,-0.18350659310817719,-0.17824187874794006,-0.17127124965190887,-0.16396863758563995,0.11187351495027542,0.046887803822755814,-0.019830089062452316,-0.06999688595533371
0.9,0.19214777648448944,0.06687071919441223,0.0,0.605427622795105,0.0,0.0,-0.7959003448486328,0.059434808790683746,-0.2632105052471161,0.0,0.0,0.0,-0.8204612135887146,0.44794678688049316,0.7812367677688599,0.41999998688697815,0.6396116614341736,-4.7071614517335547e-07,-5.752594915975351e-06,-0.7686980962753296,0.00021571724209934473,-0.0004091800074093044,-8.913991041481495e-05,0.008964299224317074,-0.0011404452379792929,-0.0005646545323543251,0.506213903427124,0.8058652877807617,0.5311969518661499,-0.20785506069660187,0.05778662860393524,-0.408930242061615,0.427693247795105,0.7762770652770996,0.42000001668930054,-0.6451091170310974,-1.8896043300628662,-1.565011978149414,3.0,-0.17895013093948364,-0.17509716749191284,-0.16959650814533234,-0.16351142525672913,0.1793767362833023,0.12187116593122482,0.05574167147278786,4.6333298087120056e-08
